YOYO-Client/Yoyo/Assets.xcassets/Hollywood.dataset/Kodak-5294.cube
TITLE "Generated by Resolve"
LUT_3D_SIZE 5
0.109804 0.0784314 0.0588235
0.232349 0.11667 0.0656901
0.574502 0.247059 0.107836
0.778439 0.313726 0.145098
0.803922 0.333333 0.152941
0.124514 0.174517 0.0892195
0.238727 0.200977 0.0882429
0.5402 0.299992 0.127947
0.771572 0.351965 0.148287
0.803922 0.35491 0.163729
0.170581 0.350973 0.14313
0.167651 0.353918 0.101472
0.670588 0.602945 0.296086
0.789212 0.568627 0.282353
0.796078 0.55491 0.278431
0.227451 0.5196 0.164706
0.225238 0.530388 0.150988
0.578927 0.674022 0.274022
0.848768 0.769604 0.380392
0.8598 0.753918 0.364706
0.243137 0.541176 0.188235
0.247059 0.541176 0.169604
0.466667 0.621576 0.233326
0.852934 0.792157 0.393133
0.878431 0.768627 0.376471
0.13431 0.108827 0.173526
0.266667 0.157107 0.225238
0.6103 0.291173 0.241672
0.794125 0.351232 0.228428
0.834318 0.355886 0.220584
0.200488 0.212009 0.232105
0.205447 0.221561 0.236515
0.561517 0.310048 0.218265
0.780697 0.35845 0.199084
0.835294 0.366659 0.197787
0.251957 0.41471 0.272053
0.222675 0.418021 0.249638
0.64387 0.598535 0.35613
0.778302 0.568017 0.338598
0.809812 0.54461 0.311772
0.253437 0.545098 0.219852
0.248463 0.543633 0.220279
0.565805 0.671443 0.297429
0.850492 0.768627 0.39173
0.866667 0.742885 0.398291
0.270588 0.564706 0.25098
0.269612 0.565438 0.25687
0.458824 0.628916 0.266667
0.84509 0.799268 0.429664
0.878431 0.767651 0.445106
0.133333 0.217639 0.431373
0.131365 0.224994 0.438239
0.646082 0.377447 0.47451
0.830884 0.447059 0.475975
0.85098 0.449012 0.462745
0.133822 0.211765 0.448035
0.100984 0.214832 0.494606
0.609064 0.356619 0.498772
0.837629 0.438849 0.512016
0.860792 0.444602 0.501472
0.40882 0.598032 0.682353
0.389456 0.59559 0.689219
0.631861 0.65687 0.697551
0.819364 0.665446 0.676478
0.85098 0.637247 0.633341
0.430396 0.681865 0.65687
0.42182 0.674998 0.668376
0.634318 0.763485 0.704662
0.839948 0.833585 0.724269
0.849515 0.80882 0.705882
0.417639 0.666667 0.633326
0.411765 0.676966 0.652445
0.590188 0.738231 0.679408
0.827451 0.828428 0.699504
0.864713 0.829419 0.696086
0.13431 0.241169 0.589212
0.107851 0.242405 0.612009
0.561761 0.358328 0.67451
0.832593 0.475486 0.71986
0.854902 0.490196 0.71667
0.129168 0.22916 0.610544
0.111086 0.234745 0.641367
0.533333 0.33872 0.685542
0.838239 0.459617 0.743694
0.866423 0.478431 0.733089
0.380392 0.5897 0.793133
0.375616 0.591913 0.79939
0.602213 0.645594 0.796811
0.829419 0.679408 0.821195
0.847059 0.652445 0.79559
0.476219 0.737499 0.800977
0.475853 0.735042 0.804105
0.665934 0.804898 0.846815
0.844114 0.848035 0.867643
0.862989 0.848035 0.867643
0.494118 0.764706 0.800977
0.486275 0.760784 0.798032
0.589212 0.79118 0.811276
0.832349 0.862989 0.8598
0.847059 0.867643 0.863722
0.172549 0.301961 0.666667
0.186267 0.31667 0.689219
0.556863 0.403922 0.739208
0.810788 0.491173 0.8
0.847059 0.521569 0.784314
0.243137 0.351965 0.689219
0.268132 0.389944 0.731624
0.581369 0.459312 0.762737
0.81471 0.51986 0.807843
0.862745 0.539208 0.802945
0.456855 0.67451 0.825483
0.487739 0.694118 0.85098
0.704906 0.745098 0.838239
0.833341 0.760784 0.86128
0.864713 0.756863 0.864713
0.520592 0.760784 0.823529
0.546075 0.774014 0.849271
0.74461 0.837751 0.872557
0.855146 0.855879 0.886519
0.87451 0.848035 0.882353
0.509804 0.752941 0.815686
0.508827 0.764706 0.827451
0.682353 0.821561 0.85687
0.836271 0.866667 0.890196
0.866667 0.870588 0.890196
