YOYO-Client/Yoyo/Assets.xcassets/Hollywood.dataset/Kodak-5294.cube
TITLE "Generated by Resolve"
LUT_3D_SIZE 33
0.109804 0.0784314 0.0588235
0.105882 0.0707103 0.0511025
0.105882 0.0666667 0.0433814
0.116915 0.070222 0.0431373
0.131868 0.0779431 0.0465705
0.154406 0.0850538 0.05037
0.182101 0.0933852 0.0541695
0.208331 0.104173 0.057969
0.232349 0.11667 0.0656901
0.267887 0.130022 0.0666667
0.304906 0.142641 0.0693675
0.353918 0.160662 0.0770886
0.4 0.179904 0.0872511
0.450004 0.196811 0.0925307
0.497307 0.212253 0.100252
0.534066 0.229786 0.104051
0.574502 0.247059 0.107836
0.614954 0.256733 0.117403
0.650004 0.264454 0.127199
0.678553 0.277699 0.13492
0.707851 0.289219 0.13872
0.729534 0.299382 0.141176
0.747555 0.307103 0.145098
0.764096 0.309804 0.145098
0.778439 0.313726 0.145098
0.789944 0.319356 0.149874
0.800732 0.329412 0.152941
0.808454 0.329412 0.152331
0.812253 0.329412 0.14902
0.819974 0.329778 0.14902
0.823285 0.333333 0.14902
0.815442 0.333333 0.14902
0.803922 0.333333 0.152941
0.105882 0.0822309 0.0511025
0.102083 0.0670329 0.0359045
0.101961 0.0627451 0.0279393
0.109545 0.0663005 0.0311437
0.124041 0.070222 0.0316014
0.143481 0.0811475 0.0387427
0.170459 0.0894636 0.0432593
0.193729 0.0972763 0.0472725
0.219821 0.108919 0.0540475
0.256367 0.1234 0.0578775
0.293385 0.136156 0.0589456
0.335988 0.152941 0.0654459
0.384558 0.172183 0.071809
0.436866 0.191424 0.0832532
0.48571 0.206256 0.0903182
0.53228 0.222065 0.0963302
0.576471 0.241306 0.102083
0.620661 0.258579 0.111757
0.659922 0.268376 0.12163
0.688533 0.277699 0.123278
0.715557 0.287739 0.12958
0.737255 0.296818 0.133455
0.759152 0.305913 0.137377
0.771817 0.309804 0.137377
0.787137 0.31078 0.137377
0.801572 0.319356 0.142153
0.812253 0.329412 0.14522
0.819974 0.329412 0.14461
0.82388 0.329412 0.141299
0.827695 0.329778 0.141299
0.831006 0.333333 0.141299
0.823163 0.329534 0.141299
0.811643 0.329534 0.14522
0.101961 0.0860304 0.0470588
0.0982834 0.0708324 0.031632
0.0980392 0.0590677 0.0166323
0.10573 0.0623789 0.0161593
0.116701 0.0661784 0.0193942
0.135668 0.0740978 0.0265049
0.158816 0.0848554 0.0348058
0.182177 0.0932631 0.0386053
0.205325 0.101167 0.0424048
0.243748 0.115679 0.0462654
0.281865 0.131121 0.0500801
0.324392 0.146563 0.0538033
0.366827 0.164462 0.0577554
0.421439 0.182208 0.0678874
0.476326 0.200732 0.0808881
0.524636 0.216175 0.0849317
0.574639 0.233585 0.0943618
0.622553 0.252811 0.105882
0.669261 0.268376 0.115572
0.69633 0.279881 0.117891
0.723278 0.287739 0.119356
0.746319 0.29546 0.123323
0.766918 0.303349 0.127123
0.782345 0.306981 0.129656
0.793927 0.31078 0.133394
0.809308 0.318502 0.134432
0.823774 0.326421 0.14049
0.831495 0.329412 0.136889
0.835508 0.329412 0.133577
0.838743 0.329778 0.133577
0.838727 0.333333 0.133577
0.831006 0.329412 0.133577
0.823041 0.329412 0.137499
0.101961 0.0937514 0.0470588
0.101961 0.0822309 0.0389868
0.101595 0.0703441 0.0236515
0.109071 0.0701915 0.0231632
0.117159 0.0740978 0.026276
0.135424 0.0813764 0.030396
0.155688 0.0922866 0.038117
0.184512 0.10074 0.0458381
0.204532 0.108461 0.0496376
0.237629 0.122911 0.0506142
0.279042 0.138354 0.0545357
0.31899 0.153796 0.0610361
0.361273 0.169238 0.0648356
0.406561 0.182574 0.0688487
0.461311 0.200488 0.0789197
0.510903 0.219852 0.0902419
0.561334 0.238849 0.0960861
0.611399 0.254459 0.103792
0.657725 0.2701 0.115434
0.689097 0.283574 0.119097
0.718273 0.291661 0.121569
0.740078 0.299016 0.125246
0.760906 0.306737 0.126711
0.780041 0.309804 0.13051
0.794125 0.313359 0.133333
0.805631 0.31458 0.133333
0.817456 0.322667 0.134371
0.828992 0.332967 0.137255
0.835782 0.333013 0.136889
0.846693 0.333669 0.136889
0.846448 0.33666 0.136889
0.83125 0.33286 0.136904
0.823529 0.329412 0.137255
0.101961 0.101472 0.0504921
0.101961 0.0899519 0.0394446
0.10518 0.0853285 0.0311589
0.112871 0.0818189 0.0308843
0.124086 0.0848707 0.0343175
0.138918 0.0919814 0.038117
0.155306 0.100649 0.0419165
0.18088 0.111513 0.0496376
0.208331 0.119982 0.0573587
0.243656 0.134066 0.0583352
0.27837 0.147158 0.0610361
0.319829 0.161517 0.0661784
0.362249 0.176959 0.0725567
0.407065 0.192401 0.0763409
0.452293 0.205692 0.0804303
0.503166 0.22536 0.0904402
0.553674 0.244602 0.101717
0.605524 0.262013 0.111147
0.652354 0.275944 0.115434
0.682765 0.287373 0.119234
0.712077 0.295583 0.12285
0.735119 0.302815 0.12549
0.75555 0.309468 0.129076
0.776211 0.313375 0.132982
0.794125 0.317159 0.133333
0.805524 0.318395 0.133333
0.816419 0.322301 0.133333
0.825238 0.330022 0.137331
0.836271 0.336828 0.140688
0.84387 0.337575 0.141176
0.85417 0.340688 0.14461
0.838483 0.336645 0.141161
0.823529 0.329412 0.140688
0.105272 0.116426 0.0582132
0.105867 0.10811 0.0466926
0.10898 0.10074 0.0386358
0.11722 0.100175 0.0383001
0.127901 0.10074 0.0386053
0.146563 0.108476 0.0458381
0.162615 0.115679 0.0496376
0.188113 0.127321 0.0534371
0.215076 0.135042 0.0616159
0.247669 0.149508 0.0714275
0.282414 0.162249 0.0759747
0.317403 0.170382 0.0750286
0.356268 0.18468 0.0802625
0.403189 0.200122 0.0817426
0.448386 0.215564 0.0842145
0.49366 0.231006 0.0919966
0.54406 0.25037 0.101961
0.595712 0.267979 0.111635
0.643107 0.283452 0.117647
0.675242 0.292775 0.121569
0.70454 0.302815 0.12549
0.727581 0.310536 0.129412
0.751888 0.317037 0.132906
0.768627 0.321889 0.136812
0.787869 0.32488 0.137255
0.802197 0.32488 0.1364
0.813733 0.326116 0.133959
0.82475 0.330022 0.137774
0.835782 0.337743 0.141588
0.840513 0.341482 0.145098
0.851102 0.344488 0.148409
0.838849 0.341039 0.145083
0.820218 0.336645 0.144488
0.109071 0.131868 0.0659342
0.109804 0.127321 0.0543832
0.112993 0.116625 0.0428473
0.121202 0.120027 0.0459602
0.131716 0.120104 0.0463264
0.153796 0.130022 0.0535592
0.177447 0.138231 0.057496
0.197391 0.145953 0.0620127
0.222797 0.154223 0.0664836
0.256489 0.166049 0.0771191
0.288991 0.180392 0.0877241
0.323278 0.189334 0.0887312
0.35462 0.197513 0.089189
0.399023 0.211765 0.0894636
0.44535 0.227207 0.0898756
0.490929 0.242649 0.0962081
0.53959 0.259678 0.105516
0.588235 0.277455 0.114824
0.63537 0.291173 0.121157
0.669856 0.300496 0.125048
0.69926 0.310536 0.128954
0.722423 0.318257 0.132845
0.745357 0.325978 0.136751
0.764828 0.329778 0.140642
0.783093 0.336522 0.144366
0.797955 0.336355 0.141009
0.812497 0.333196 0.13785
0.82414 0.337011 0.14374
0.831861 0.340536 0.14725
0.839292 0.344427 0.148348
0.843381 0.348974 0.152209
0.831144 0.345068 0.14902
0.815686 0.340444 0.148287
0.116793 0.154284 0.0775769
0.113817 0.147402 0.0690013
0.116793 0.142763 0.0573587
0.117647 0.142519 0.0571145
0.128542 0.142519 0.0578622
0.151827 0.150484 0.0612802
0.172473 0.16083 0.0650797
0.210056 0.171511 0.0728008
0.233799 0.176837 0.0773632
0.26508 0.182361 0.0879988
0.299855 0.195834 0.0980697
0.330999 0.208698 0.101106
0.363806 0.218341 0.101106
0.403449 0.233463 0.101106
0.448524 0.24889 0.101106
0.493996 0.264332 0.107103
0.542275 0.279774 0.116365
0.587503 0.293782 0.125612
0.632593 0.305882 0.131991
0.662135 0.313603 0.135882
0.691539 0.322179 0.137545
0.714702 0.329046 0.140322
0.739971 0.335805 0.144244
0.759304 0.339696 0.144244
0.779293 0.344244 0.145098
0.794537 0.347311 0.148165
0.809308 0.345556 0.145708
0.824628 0.359548 0.166659
0.834806 0.361532 0.172061
0.832227 0.351308 0.158785
0.83566 0.355764 0.15993
0.82414 0.351965 0.156008
0.808698 0.348165 0.156008
0.124514 0.174517 0.0892195
0.120714 0.166888 0.0776684
0.120592 0.162997 0.0689403
0.121569 0.162753 0.0686198
0.125002 0.162753 0.0694896
0.147555 0.16997 0.0696117
0.171328 0.177691 0.0728008
0.207813 0.192401 0.0805219
0.238727 0.200977 0.0882429
0.273747 0.206439 0.096788
0.30692 0.212192 0.107591
0.336797 0.22414 0.109834
0.370214 0.239338 0.112749
0.407721 0.251926 0.112749
0.449516 0.267826 0.112749
0.493294 0.282994 0.118746
0.5402 0.299992 0.127947
0.586648 0.313085 0.13576
0.62916 0.323598 0.141909
0.658335 0.331365 0.145861
0.684184 0.335668 0.148043
0.707973 0.343481 0.148043
0.730816 0.348287 0.151965
0.752209 0.350973 0.150851
0.771572 0.351965 0.148287
0.787015 0.355886 0.151324
0.802457 0.359014 0.15288
0.819333 0.372793 0.174853
0.832715 0.385657 0.193866
0.831373 0.375463 0.180636
0.828122 0.359808 0.167651
0.81651 0.358724 0.166567
0.803922 0.35491 0.163729
0.132235 0.187137 0.0969406
0.125582 0.182223 0.08542
0.124392 0.181079 0.0775769
0.124392 0.178454 0.073518
0.12549 0.182101 0.0745098
0.140887 0.182101 0.0745098
0.163607 0.190112 0.0767987
0.2038 0.212482 0.0876173
0.236118 0.223163 0.0959487
0.285115 0.243885 0.113542
0.321965 0.253681 0.124758
0.354162 0.257237 0.127199
0.386923 0.270375 0.131121
0.419532 0.277943 0.13048
0.458564 0.290822 0.130648
0.499504 0.302647 0.134539
0.546502 0.318807 0.141482
0.591424 0.332967 0.152575
0.631632 0.34522 0.15967
0.659022 0.350729 0.160906
0.685664 0.357473 0.162493
0.705043 0.361395 0.161532
0.726345 0.366537 0.162844
0.747616 0.370031 0.165316
0.766674 0.372457 0.162493
0.778424 0.374258 0.166415
0.791699 0.377081 0.170336
0.806424 0.382895 0.179751
0.818875 0.394842 0.196078
0.82855 0.390219 0.190326
0.827207 0.376913 0.175372
0.815564 0.374136 0.175326
0.803922 0.370336 0.174258
0.137255 0.201465 0.104662
0.132235 0.197589 0.0930495
0.128267 0.197543 0.0813764
0.128191 0.197543 0.0811322
0.128191 0.199908 0.0811322
0.140978 0.201282 0.0811322
0.156619 0.202472 0.0811322
0.196674 0.226352 0.0929885
0.235538 0.245899 0.104601
0.288457 0.270344 0.122179
0.338125 0.293309 0.140581
0.376898 0.303258 0.148333
0.409812 0.30959 0.152178
0.443259 0.316167 0.153185
0.475441 0.322255 0.153185
0.513237 0.331167 0.154406
0.555642 0.341421 0.160296
0.599878 0.355428 0.168582
0.643137 0.366659 0.177935
0.666804 0.37438 0.177935
0.689921 0.380636 0.177935
0.707774 0.384558 0.177935
0.727092 0.388479 0.177935
0.744488 0.390463 0.177935
0.762737 0.392401 0.178927
0.773678 0.394217 0.182727
0.786282 0.396551 0.186526
0.794614 0.398169 0.194247
0.806867 0.405051 0.202213
0.814832 0.398657 0.19411
0.823285 0.393545 0.179339
0.812741 0.3897 0.183093
0.801221 0.3897 0.183093
0.134676 0.219486 0.105882
0.133379 0.219486 0.0943618
0.125734 0.219486 0.0825971
0.12549 0.21593 0.0823529
0.12549 0.219165 0.0823529
0.133852 0.216907 0.0790417
0.146319 0.216907 0.0784314
0.182422 0.237873 0.0924086
0.215473 0.257115 0.103914
0.271336 0.283467 0.119356
0.326101 0.310048 0.139651
0.38703 0.340856 0.16585
0.426215 0.353536 0.176349
0.460975 0.358953 0.176349
0.494972 0.364462 0.176349
0.526574 0.363806 0.171054
0.565927 0.371084 0.172488
0.607126 0.380758 0.179538
0.647898 0.391546 0.188602
0.671626 0.399084 0.191852
0.693263 0.404761 0.193378
0.711147 0.408606 0.193378
0.727947 0.412451 0.193378
0.742412 0.415564 0.196338
0.759838 0.416205 0.19794
0.769787 0.42005 0.200168
0.781125 0.421576 0.201221
0.7906 0.415778 0.201434
0.800656 0.416907 0.206668
0.809796 0.416785 0.206363
0.819364 0.411643 0.197299
0.807645 0.411643 0.197391
0.7935 0.409064 0.201221
0.133333 0.242649 0.108339
0.129458 0.242649 0.0943618
0.125582 0.242649 0.0828412
0.12549 0.239094 0.0848096
0.12549 0.238727 0.0848096
0.128801 0.236652 0.0814984
0.141695 0.237995 0.080415
0.172717 0.253849 0.0924086
0.209796 0.272801 0.106371
0.263523 0.300298 0.121126
0.324422 0.330846 0.142855
0.386191 0.363851 0.171221
0.44773 0.395773 0.197726
0.487511 0.405264 0.200504
0.521324 0.410147 0.198138
0.553552 0.408698 0.1935
0.587015 0.407599 0.188479
0.627527 0.414099 0.19498
0.662654 0.420737 0.200153
0.684184 0.427085 0.203449
0.70251 0.430884 0.207294
0.718868 0.435645 0.20882
0.73431 0.438727 0.211276
0.746517 0.441184 0.213428
0.760662 0.443259 0.216663
0.769482 0.447105 0.216663
0.777661 0.44976 0.216663
0.788846 0.442039 0.213993
0.797055 0.434806 0.210788
0.808209 0.434577 0.214221
0.81529 0.432258 0.216571
0.801221 0.430884 0.216663
0.785779 0.430884 0.21912
0.141909 0.265812 0.118379
0.135729 0.265812 0.106859
0.131746 0.265812 0.0953384
0.133852 0.267918 0.0987716
0.134066 0.266102 0.0987716
0.133089 0.258946 0.0895857
0.143633 0.261158 0.088304
0.1673 0.273182 0.0968338
0.203555 0.291905 0.108827
0.250858 0.314412 0.1205
0.312123 0.347555 0.142519
0.380514 0.385351 0.173648
0.446906 0.422293 0.205005
0.508019 0.454063 0.228107
0.54612 0.463355 0.228031
0.578927 0.46128 0.218997
0.61091 0.457481 0.214038
0.642893 0.453941 0.214832
0.676341 0.458 0.21944
0.693385 0.457969 0.221942
0.711147 0.461769 0.225742
0.725063 0.465568 0.228992
0.741314 0.468132 0.230518
0.753552 0.47039 0.232761
0.765682 0.472053 0.236027
0.773404 0.474159 0.233921
0.781567 0.477272 0.232105
0.791424 0.471443 0.228183
0.8 0.46421 0.226795
0.802182 0.460288 0.228183
0.809339 0.460288 0.232105
0.802014 0.460288 0.236027
0.788235 0.460288 0.238361
0.151232 0.288975 0.131624
0.143511 0.288975 0.120043
0.139605 0.288975 0.110643
0.143221 0.292729 0.112016
0.143389 0.295094 0.114214
0.141939 0.287861 0.10367
0.140856 0.281544 0.0967422
0.165194 0.295094 0.103304
0.192096 0.307897 0.112322
0.236774 0.330037 0.123278
0.286229 0.35584 0.134798
0.357137 0.396323 0.167529
0.435691 0.440101 0.20441
0.503548 0.479408 0.235172
0.563561 0.510582 0.25594
0.600183 0.513481 0.249882
0.634928 0.509316 0.242161
0.661036 0.50277 0.239155
0.687984 0.498543 0.237995
0.703426 0.493385 0.241306
0.718868 0.494026 0.245106
0.733181 0.496452 0.24889
0.74583 0.498527 0.250294
0.757351 0.501228 0.251469
0.768322 0.502937 0.251469
0.777813 0.502937 0.251469
0.787259 0.504341 0.249348
0.795239 0.498405 0.245487
0.803922 0.492683 0.240192
0.803922 0.490974 0.243626
0.805386 0.489113 0.245487
0.797665 0.491173 0.25153
0.788235 0.491173 0.25539
0.161028 0.318135 0.137255
0.155154 0.322057 0.127703
0.153185 0.32401 0.119844
0.154849 0.325612 0.119738
0.157107 0.32781 0.119738
0.151431 0.324422 0.112505
0.149615 0.317037 0.101198
0.155413 0.315648 0.0994736
0.183093 0.329778 0.108125
0.228824 0.35137 0.122698
0.27541 0.375128 0.134798
0.349004 0.418265 0.16701
0.421317 0.459388 0.201633
0.495811 0.499504 0.235172
0.562371 0.53547 0.261524
0.6206 0.558587 0.275746
0.655268 0.558633 0.270039
0.682109 0.549996 0.266178
0.705638 0.542718 0.26508
0.718746 0.5364 0.261906
0.734066 0.533288 0.264286
0.748043 0.531991 0.262989
0.761685 0.533822 0.265476
0.767163 0.533822 0.266911
0.779538 0.533822 0.266911
0.785824 0.533822 0.266911
0.794247 0.535515 0.266178
0.79939 0.52929 0.262379
0.807843 0.521798 0.257237
0.807843 0.518135 0.259068
0.807599 0.516182 0.259068
0.799817 0.520043 0.261036
0.792157 0.522057 0.266911
0.170581 0.350973 0.14313
0.168627 0.35491 0.133516
0.164706 0.356741 0.125734
0.166476 0.358816 0.127077
0.168627 0.362737 0.127459
0.165316 0.361089 0.118868
0.160784 0.357229 0.110536
0.158816 0.352941 0.102815
0.167651 0.353918 0.101472
0.209934 0.37261 0.114885
0.262013 0.397665 0.134188
0.328984 0.43505 0.162554
0.402213 0.474266 0.194614
0.476219 0.513603 0.226963
0.550973 0.553918 0.257603
0.61471 0.582849 0.280644
0.670588 0.602945 0.296086
0.701717 0.60209 0.296208
0.72108 0.590448 0.292409
0.736522 0.582727 0.288609
0.751232 0.576959 0.285542
0.763485 0.573159 0.281682
0.777691 0.56997 0.279774
0.78291 0.568627 0.27953
0.789212 0.568627 0.282353
0.79498 0.568627 0.282353
0.802701 0.570214 0.282353
0.808148 0.563485 0.277821
0.813977 0.55465 0.27451
0.815686 0.55079 0.27451
0.81532 0.547066 0.27451
0.805692 0.550973 0.274571
0.796078 0.55491 0.278431
0.178302 0.383825 0.146929
0.178302 0.391546 0.14313
0.174502 0.393393 0.135424
0.177935 0.395392 0.135164
0.181735 0.399252 0.135164
0.178927 0.397757 0.131868
0.174731 0.393896 0.122454
0.170871 0.390448 0.114336
0.170459 0.388205 0.110079
0.202838 0.397299 0.114458
0.248981 0.415686 0.130877
0.311513 0.447181 0.154192
0.384222 0.485985 0.185733
0.451728 0.520104 0.21532
0.524269 0.557961 0.246204
0.595468 0.594491 0.278065
0.664958 0.624323 0.302876
0.715938 0.643641 0.31545
0.741238 0.638849 0.314519
0.755886 0.629038 0.308705
0.768551 0.621317 0.30486
0.780758 0.615686 0.301717
0.793133 0.611887 0.299062
0.799756 0.608087 0.295201
0.804654 0.605264 0.295949
0.808454 0.603433 0.293873
0.815442 0.602701 0.293873
0.819974 0.59498 0.291707
0.825864 0.589349 0.289952
0.831128 0.587549 0.29012
0.830991 0.583825 0.291783
0.824948 0.585733 0.291859
0.815442 0.589578 0.293873
0.186023 0.412985 0.150729
0.186023 0.420645 0.146929
0.183963 0.426368 0.143023
0.187579 0.428672 0.142885
0.189944 0.430396 0.142885
0.189944 0.430396 0.139315
0.186358 0.426886 0.13547
0.184298 0.425132 0.128069
0.183764 0.425299 0.120348
0.211749 0.430396 0.124392
0.246418 0.439216 0.132113
0.310292 0.467277 0.155398
0.376471 0.499413 0.181704
0.444114 0.534035 0.209934
0.513008 0.569116 0.239231
0.586282 0.604288 0.271443
0.658213 0.639826 0.304173
0.713924 0.662013 0.321324
0.757122 0.677729 0.330159
0.77525 0.670054 0.327321
0.78677 0.660288 0.32108
0.799725 0.652567 0.319738
0.810788 0.648768 0.317159
0.815824 0.644968 0.314473
0.820096 0.641611 0.310597
0.823896 0.637751 0.309316
0.828107 0.633997 0.306783
0.833356 0.625864 0.305394
0.837507 0.622065 0.301961
0.843015 0.620188 0.307317
0.84863 0.618738 0.309422
0.842466 0.620417 0.310979
0.833082 0.622553 0.309316
0.197665 0.436149 0.152941
0.195422 0.44387 0.152941
0.193744 0.451591 0.149126
0.197299 0.451835 0.146685
0.201099 0.455756 0.145098
0.197925 0.455756 0.141787
0.194491 0.453864 0.137987
0.193744 0.451835 0.131868
0.192004 0.450095 0.124147
0.20499 0.447913 0.124834
0.234318 0.455634 0.128908
0.295033 0.48014 0.150423
0.358587 0.509438 0.175387
0.426261 0.540322 0.202411
0.495094 0.575128 0.230762
0.564584 0.608087 0.261646
0.637995 0.643931 0.294484
0.702708 0.674525 0.32047
0.749752 0.692897 0.333745
0.779355 0.696361 0.338842
0.795224 0.689586 0.335927
0.806867 0.682414 0.332601
0.817411 0.676463 0.332601
0.82623 0.674708 0.332601
0.83003 0.670863 0.32987
0.837232 0.669123 0.328679
0.842405 0.666484 0.328237
0.846693 0.658701 0.324392
0.850538 0.653437 0.322423
0.854383 0.649516 0.322652
0.860166 0.649516 0.326497
0.852445 0.649577 0.328679
0.844724 0.653437 0.328679
0.205386 0.457847 0.152941
0.205386 0.465568 0.152941
0.201709 0.473289 0.152941
0.205386 0.474861 0.150484
0.209308 0.477455 0.149203
0.206012 0.477455 0.145327
0.203403 0.477455 0.141451
0.202945 0.475532 0.135668
0.202945 0.473899 0.127947
0.212131 0.471763 0.126955
0.22916 0.472297 0.128649
0.285908 0.495583 0.148898
0.34902 0.522545 0.172061
0.417029 0.553429 0.199145
0.486519 0.584314 0.227054
0.553552 0.617273 0.256077
0.625498 0.651957 0.287007
0.689219 0.682963 0.312871
0.745098 0.708339 0.334951
0.776471 0.713344 0.344244
0.801038 0.714214 0.348043
0.814588 0.708949 0.348043
0.822309 0.702449 0.344121
0.830716 0.700298 0.346975
0.839582 0.698528 0.348043
0.845472 0.698528 0.348043
0.854383 0.697795 0.347768
0.860288 0.690074 0.343893
0.86421 0.682841 0.3402
0.868132 0.680247 0.340429
0.871717 0.679011 0.342733
0.862547 0.6804 0.344121
0.852445 0.682841 0.344121
0.213107 0.473289 0.158206
0.213107 0.48101 0.158206
0.20943 0.488731 0.158206
0.211521 0.488975 0.158206
0.215366 0.492729 0.154772
0.216831 0.492897 0.150988
0.213107 0.492897 0.147189
0.213107 0.496818 0.146441
0.213107 0.493233 0.140932
0.217777 0.489357 0.131868
0.231617 0.488167 0.132113
0.275959 0.503655 0.144549
0.341192 0.53138 0.168399
0.408209 0.561212 0.195407
0.472053 0.592004 0.223163
0.54757 0.628107 0.255406
0.619486 0.662745 0.286885
0.683803 0.694972 0.316518
0.741253 0.720546 0.339925
0.781247 0.732906 0.356435
0.808331 0.735058 0.363485
0.821424 0.731228 0.3626
0.83003 0.724392 0.359564
0.837369 0.721309 0.359564
0.844114 0.71841 0.361486
0.851835 0.720638 0.359258
0.859556 0.720958 0.358206
0.8645 0.713237 0.353887
0.86833 0.706004 0.350362
0.872175 0.705638 0.350362
0.875532 0.702327 0.350362
0.866468 0.70605 0.352987
0.856245 0.709926 0.354284
0.220829 0.48603 0.162005
0.220829 0.492531 0.164706
0.217151 0.500252 0.164706
0.216907 0.504295 0.164706
0.219272 0.504417 0.162341
0.220645 0.507103 0.158511
0.220829 0.508339 0.154665
0.220829 0.511025 0.154162
0.220829 0.512261 0.153246
0.223529 0.505516 0.142626
0.230777 0.503563 0.133715
0.273045 0.516182 0.145098
0.322728 0.534066 0.159533
0.387137 0.563485 0.186145
0.452689 0.59588 0.215442
0.526101 0.630594 0.246326
0.603433 0.665934 0.280385
0.668376 0.700038 0.312657
0.726711 0.729458 0.340002
0.769985 0.743267 0.359823
0.810483 0.75462 0.377386
0.825299 0.751354 0.377691
0.836515 0.746319 0.374624
0.841199 0.742519 0.37377
0.848035 0.739406 0.37377
0.855756 0.739712 0.369848
0.863478 0.739712 0.365927
0.868315 0.735164 0.361822
0.872145 0.727947 0.358083
0.87599 0.727687 0.357977
0.879332 0.724269 0.356863
0.870375 0.728069 0.358083
0.858824 0.731868 0.360784
0.223529 0.504173 0.164706
0.228519 0.508003 0.164706
0.224872 0.515679 0.164706
0.224628 0.515938 0.164706
0.224628 0.519722 0.164706
0.227008 0.518746 0.160784
0.22855 0.518746 0.157076
0.223774 0.518746 0.153185
0.223529 0.522667 0.152941
0.219913 0.518746 0.146197
0.225879 0.515175 0.134554
0.261784 0.524269 0.139101
0.310445 0.541787 0.153506
0.373007 0.567941 0.181415
0.437263 0.599741 0.207721
0.512749 0.63447 0.242527
0.589639 0.670283 0.277028
0.661112 0.702571 0.309316
0.71899 0.730632 0.337377
0.761395 0.749386 0.36054
0.801907 0.763363 0.379416
0.829419 0.768765 0.38764
0.841199 0.763745 0.384543
0.843137 0.757961 0.378363
0.848035 0.754162 0.377295
0.856001 0.750988 0.372305
0.864576 0.751019 0.368627
0.872129 0.746685 0.364706
0.875608 0.742275 0.361883
0.878538 0.739361 0.361776
0.881926 0.73843 0.360784
0.870466 0.739544 0.360784
0.858824 0.743389 0.361883
0.227451 0.5196 0.164706
0.231281 0.523507 0.164706
0.232349 0.527382 0.164706
0.232349 0.530388 0.164706
0.232349 0.531243 0.164706
0.232349 0.530388 0.160784
0.232349 0.530388 0.158389
0.229068 0.530388 0.154772
0.225238 0.530388 0.150988
0.221698 0.526467 0.143267
0.222614 0.526467 0.13756
0.256962 0.53489 0.139834
0.299138 0.547921 0.147921
0.359747 0.575769 0.174792
0.424384 0.604349 0.205203
0.500435 0.638911 0.238911
0.578927 0.674022 0.274022
0.651255 0.706767 0.305791
0.714031 0.736217 0.335225
0.754467 0.753399 0.357931
0.794247 0.767651 0.378805
0.823682 0.774884 0.389578
0.846693 0.780453 0.395163
0.848035 0.773678 0.388113
0.848768 0.769604 0.380392
0.857389 0.765042 0.37583
0.867399 0.761212 0.369421
0.87512 0.757382 0.365682
0.879774 0.753552 0.365682
0.882353 0.749996 0.365682
0.883024 0.749996 0.365621
0.871321 0.750118 0.364706
0.8598 0.753918 0.364706
0.232227 0.530266 0.169482
0.235203 0.534096 0.16556
0.239017 0.537865 0.164706
0.239216 0.538109 0.164706
0.239216 0.538109 0.164706
0.235431 0.538109 0.160784
0.235294 0.538109 0.160784
0.232898 0.538109 0.160784
0.231373 0.538109 0.157076
0.228305 0.534432 0.147066
0.227085 0.534188 0.139345
0.245884 0.536202 0.137545
0.283894 0.546075 0.143633
0.338827 0.571694 0.169589
0.402457 0.600977 0.197055
0.477943 0.633951 0.233494
0.559075 0.670161 0.268635
0.63444 0.705394 0.299184
0.699153 0.734554 0.327581
0.743847 0.752209 0.352941
0.782971 0.767651 0.37496
0.818311 0.78204 0.388724
0.845594 0.78909 0.396078
0.855146 0.789334 0.395224
0.855756 0.785046 0.388113
0.860349 0.777325 0.384314
0.868254 0.772839 0.376593
0.87512 0.768872 0.373404
0.882353 0.762387 0.373404
0.883497 0.758495 0.373404
0.885832 0.757717 0.373159
0.874296 0.757839 0.369482
0.862745 0.761639 0.369482
0.239216 0.541909 0.173281
0.239216 0.541909 0.16875
0.242939 0.545632 0.167941
0.243137 0.54583 0.164706
0.243137 0.54583 0.164706
0.239338 0.54583 0.160906
0.235431 0.54583 0.160784
0.235294 0.54583 0.160784
0.235294 0.549752 0.161517
0.232105 0.54583 0.154253
0.231373 0.541909 0.14313
0.247776 0.541665 0.141176
0.273533 0.547555 0.14316
0.324636 0.571389 0.165743
0.384482 0.600244 0.194537
0.458579 0.631525 0.229282
0.541299 0.667887 0.263966
0.618601 0.702968 0.294972
0.686839 0.734142 0.322057
0.73228 0.752209 0.346807
0.774502 0.768383 0.37084
0.809674 0.783566 0.384924
0.841169 0.796307 0.395575
0.855482 0.798444 0.396078
0.862928 0.799756 0.395285
0.866835 0.792615 0.391302
0.871321 0.784314 0.384314
0.878309 0.780514 0.381125
0.882841 0.772793 0.380392
0.886275 0.768994 0.380392
0.88603 0.765438 0.380194
