YOYO-Client/Yoyo/Assets.xcassets/Hollywood.dataset/Kodak-5294.cube
TITLE "Generated by Resolve"
LUT_3D_SIZE 9
0.109804 0.0784314 0.0588235
0.131868 0.0779431 0.0465705
0.232349 0.11667 0.0656901
0.4 0.179904 0.0872511
0.574502 0.247059 0.107836
0.707851 0.289219 0.13872
0.778439 0.313726 0.145098
0.812253 0.329412 0.14902
0.803922 0.333333 0.152941
0.101961 0.101472 0.0504921
0.124086 0.0848707 0.0343175
0.208331 0.119982 0.0573587
0.362249 0.176959 0.0725567
0.553674 0.244602 0.101717
0.712077 0.295583 0.12285
0.794125 0.317159 0.133333
0.836271 0.336828 0.140688
0.823529 0.329412 0.140688
0.124514 0.174517 0.0892195
0.125002 0.162753 0.0694896
0.238727 0.200977 0.0882429
0.370214 0.239338 0.112749
0.5402 0.299992 0.127947
0.684184 0.335668 0.148043
0.771572 0.351965 0.148287
0.832715 0.385657 0.193866
0.803922 0.35491 0.163729
0.133333 0.242649 0.108339
0.12549 0.238727 0.0848096
0.209796 0.272801 0.106371
0.44773 0.395773 0.197726
0.587015 0.407599 0.188479
0.70251 0.430884 0.207294
0.760662 0.443259 0.216663
0.797055 0.434806 0.210788
0.785779 0.430884 0.21912
0.170581 0.350973 0.14313
0.168627 0.362737 0.127459
0.167651 0.353918 0.101472
0.402213 0.474266 0.194614
0.670588 0.602945 0.296086
0.751232 0.576959 0.285542
0.789212 0.568627 0.282353
0.813977 0.55465 0.27451
0.796078 0.55491 0.278431
0.205386 0.457847 0.152941
0.209308 0.477455 0.149203
0.202945 0.473899 0.127947
0.34902 0.522545 0.172061
0.625498 0.651957 0.287007
0.801038 0.714214 0.348043
0.839582 0.698528 0.348043
0.86421 0.682841 0.3402
0.852445 0.682841 0.344121
0.227451 0.5196 0.164706
0.232349 0.531243 0.164706
0.225238 0.530388 0.150988
0.299138 0.547921 0.147921
0.578927 0.674022 0.274022
0.794247 0.767651 0.378805
0.848768 0.769604 0.380392
0.879774 0.753552 0.365682
0.8598 0.753918 0.364706
0.243137 0.556863 0.176471
0.247059 0.561273 0.164706
0.247059 0.564706 0.165194
0.253925 0.552941 0.141176
0.50074 0.656367 0.252201
0.746868 0.773037 0.355581
0.863355 0.822675 0.404044
0.878859 0.788663 0.388235
0.858824 0.78088 0.384314
0.243137 0.541176 0.188235
0.247059 0.552941 0.179904
0.247059 0.541176 0.169604
0.263722 0.552941 0.160784
0.466667 0.621576 0.233326
0.726467 0.745586 0.3402
0.852934 0.792157 0.393133
0.894606 0.776471 0.39118
0.878431 0.768627 0.376471
0.14902 0.0823529 0.0774548
0.143694 0.0862135 0.0926528
0.276097 0.146685 0.0974289
0.442344 0.197055 0.111757
0.612985 0.256855 0.140444
0.723339 0.307042 0.152453
0.786282 0.322545 0.157717
0.816602 0.337255 0.153429
0.815198 0.333333 0.168139
0.152514 0.100557 0.0647135
0.109743 0.0890974 0.0652018
0.243076 0.132601 0.0697185
0.409171 0.192813 0.0780194
0.6 0.252445 0.10956
0.731624 0.29688 0.119585
0.805646 0.320882 0.1364
0.843137 0.333333 0.136446
0.823529 0.329412 0.141176
0.176104 0.181857 0.0970626
0.130541 0.181857 0.0912032
0.24506 0.218875 0.115648
0.403159 0.258106 0.120104
0.580148 0.307836 0.145892
0.702098 0.348028 0.157412
0.775586 0.350332 0.167041
0.827237 0.358816 0.155718
0.805264 0.362753 0.159808
0.190188 0.262074 0.123339
0.139101 0.254185 0.133913
0.195605 0.274739 0.107408
0.462745 0.415488 0.209415
0.608484 0.424445 0.210544
0.71017 0.438834 0.21796
0.765194 0.446647 0.220584
0.815457 0.442908 0.211826
0.793927 0.435111 0.226474
0.211765 0.387991 0.144366
0.176226 0.386053 0.142641
0.184192 0.378302 0.118013
0.422492 0.495888 0.197208
0.684184 0.611399 0.299016
0.768963 0.592645 0.28986
0.800977 0.580392 0.288914
0.817639 0.558572 0.291875
0.813733 0.555154 0.289708
0.248035 0.489219 0.161761
0.21146 0.48661 0.15639
0.211276 0.478431 0.138552
0.366293 0.53431 0.173648
0.654658 0.671717 0.297795
0.813474 0.725795 0.355703
0.851118 0.710246 0.348348
0.871839 0.690684 0.347875
0.852445 0.690684 0.346563
0.259678 0.54081 0.168261
0.231388 0.544411 0.160464
0.231708 0.538201 0.157839
0.31931 0.551614 0.158785
0.601831 0.679896 0.278981
0.808331 0.77438 0.37879
0.856641 0.773495 0.381033
0.886275 0.749996 0.372183
0.866667 0.753918 0.364706
0.25098 0.564706 0.168627
0.250172 0.568627 0.168566
0.2448 0.568627 0.164706
0.263874 0.557458 0.151049
0.517891 0.671595 0.246113
0.761013 0.776959 0.362661
0.869856 0.819074 0.411276
0.886168 0.785183 0.387793
0.863172 0.781308 0.384314
0.25098 0.552941 0.191669
0.254841 0.553368 0.203006
0.243503 0.552941 0.19559
0.279408 0.559319 0.179782
0.489952 0.646815 0.241184
0.740688 0.755581 0.350179
0.853437 0.8 0.403555
0.893629 0.780331 0.402945
0.866667 0.768627 0.388235
0.13431 0.108827 0.173526
0.0946059 0.100496 0.170718
0.266667 0.157107 0.225238
0.434318 0.231006 0.234318
0.6103 0.291173 0.241672
0.7299 0.328801 0.238117
0.794125 0.351232 0.228428
0.83566 0.34902 0.212375
0.834318 0.355886 0.220584
0.134676 0.112261 0.152941
0.0762188 0.108339 0.176959
0.232959 0.147921 0.205509
0.426291 0.219303 0.205127
0.608209 0.280766 0.201648
0.74345 0.32694 0.201419
0.813733 0.3402 0.187228
0.857527 0.347997 0.184375
0.854292 0.348043 0.184802
0.200488 0.212009 0.232105
0.17145 0.221317 0.253986
0.205447 0.221561 0.236515
0.383398 0.262074 0.223651
0.561517 0.310048 0.218265
0.712169 0.35227 0.219059
0.780697 0.35845 0.199084
0.823835 0.359289 0.181247
0.835294 0.366659 0.197787
0.218631 0.306249 0.255268
0.188724 0.303502 0.256306
0.221973 0.309468 0.240497
0.403525 0.394858 0.278004
0.579355 0.437247 0.289342
0.693111 0.451545 0.279606
0.759838 0.448402 0.260975
0.800122 0.447913 0.240558
0.80502 0.448402 0.253925
0.251957 0.41471 0.272053
0.22237 0.41593 0.283513
0.222675 0.418021 0.249638
0.367712 0.473777 0.255818
0.64387 0.598535 0.35613
0.728008 0.586084 0.351049
0.778302 0.568017 0.338598
0.8103 0.555215 0.314763
0.809812 0.54461 0.311772
0.257847 0.499992 0.248646
0.2365 0.502815 0.262867
0.234165 0.505486 0.230457
0.342855 0.529 0.223346
0.604349 0.650065 0.322301
0.786191 0.725612 0.403296
0.831159 0.704662 0.383307
0.856764 0.68159 0.3561
0.852445 0.667155 0.372427
0.253437 0.545098 0.219852
0.246418 0.542153 0.226261
0.248463 0.543633 0.220279
0.315099 0.560143 0.199969
0.565805 0.671443 0.297429
0.778653 0.766827 0.384283
0.850492 0.768627 0.39173
0.875853 0.749996 0.389425
0.866667 0.742885 0.398291
0.261891 0.565072 0.2
0.25098 0.568627 0.185901
0.251255 0.568994 0.181979
0.280217 0.575494 0.16875
0.493385 0.663722 0.235843
0.738781 0.767346 0.360464
0.861433 0.815686 0.414435
0.878813 0.788724 0.399451
0.870588 0.78088 0.406989
0.270588 0.564706 0.25098
0.255268 0.568994 0.260288
0.269612 0.565438 0.25687
0.30135 0.579416 0.242649
0.458824 0.628916 0.266667
0.725002 0.748043 0.382345
0.84509 0.799268 0.429664
0.882353 0.78677 0.417273
0.878431 0.767651 0.445106
0.1196 0.173526 0.264698
0.0700999 0.161761 0.251835
0.156863 0.185412 0.274022
0.422675 0.271077 0.320226
0.648768 0.353918 0.352941
0.751965 0.390692 0.359808
0.821576 0.404898 0.349508
0.862745 0.40116 0.318135
0.845594 0.404898 0.314214
0.115618 0.158633 0.298039
0.054902 0.146624 0.332723
0.141009 0.180911 0.334524
0.43566 0.244617 0.366232
0.672053 0.334951 0.394018
0.778546 0.374929 0.403372
0.837491 0.400931 0.39585
0.878431 0.398352 0.357229
0.86128 0.402274 0.359319
0.163485 0.20589 0.329412
0.117205 0.210773 0.368032
0.140322 0.212284 0.353338
0.368429 0.269841 0.368231
0.624079 0.36318 0.402396
0.750927 0.39469 0.393912
0.822339 0.407904 0.389822
0.870466 0.411597 0.353429
0.852811 0.400977 0.353918
0.292775 0.396262 0.4766
0.273716 0.409995 0.509972
0.28809 0.408164 0.500923
0.406119 0.430335 0.478706
0.609674 0.483238 0.474723
0.730678 0.493477 0.447486
0.806668 0.497246 0.43537
0.843626 0.479347 0.376104
0.822003 0.471992 0.382849
0.34902 0.511772 0.492897
0.325978 0.520745 0.523934
0.330632 0.517464 0.507408
0.439673 0.557809 0.516915
0.623529 0.636393 0.532845
0.744579 0.650187 0.530816
0.795041 0.638972 0.496452
0.826078 0.621973 0.464714
0.814954 0.61471 0.469612
0.360296 0.571084 0.484321
0.340261 0.579095 0.514412
0.345022 0.577676 0.495933
0.431312 0.613657 0.500435
0.5944 0.686091 0.512047
0.778058 0.7626 0.568231
0.829282 0.752743 0.553674
0.852827 0.729473 0.515267
0.843687 0.719676 0.505455
0.363485 0.602823 0.468498
0.342275 0.603555 0.480018
0.340688 0.603525 0.467765
0.418936 0.646021 0.476402
0.572244 0.710964 0.468254
0.76669 0.792157 0.529656
0.853223 0.814832 0.548562
0.875319 0.791623 0.511482
0.866667 0.787747 0.512749
0.332357 0.597055 0.398352
0.320592 0.60882 0.421561
0.313054 0.604974 0.405524
0.360784 0.633219 0.391119
0.516121 0.69485 0.389395
0.730449 0.797238 0.470771
0.842649 0.835904 0.509667
0.868742 0.812436 0.496437
0.852445 0.799023 0.478737
0.336767 0.604898 0.40441
0.317952 0.60882 0.428428
0.319234 0.604898 0.418265
0.366674 0.628428 0.411704
0.512016 0.682597 0.407843
0.733394 0.77702 0.49369
0.851102 0.816297 0.525979
0.886763 0.809812 0.511574
0.862745 0.794614 0.510292
0.133333 0.217639 0.431373
0.0803845 0.215442 0.427451
0.131365 0.224994 0.438239
0.35172 0.274754 0.434562
0.646082 0.377447 0.47451
0.778927 0.429419 0.490684
0.830884 0.447059 0.475975
0.866911 0.441672 0.464454
0.85098 0.449012 0.462745
0.115679 0.190188 0.460288
0.0590677 0.182361 0.473777
0.114397 0.202274 0.481682
0.343664 0.253529 0.4701
0.66508 0.349142 0.50074
0.795743 0.417868 0.531929
0.852445 0.433829 0.508217
0.889982 0.437476 0.503395
0.864454 0.441184 0.501472
0.133822 0.211765 0.448035
0.0958877 0.212192 0.491661
0.100984 0.214832 0.494606
0.286152 0.269123 0.472053
0.609064 0.356619 0.498772
0.76556 0.422919 0.51667
0.837629 0.438849 0.512016
0.881376 0.443931 0.495705
0.860792 0.444602 0.501472
0.249516 0.381125 0.576715
0.224506 0.376471 0.611673
0.229847 0.365988 0.579599
0.33698 0.406836 0.569665
0.579782 0.463111 0.572793
0.75346 0.508888 0.583551
0.822492 0.503609 0.571633
0.863081 0.498192 0.538537
0.842649 0.491661 0.534798
0.40882 0.598032 0.682353
0.377569 0.597299 0.69926
0.389456 0.59559 0.689219
0.458824 0.613855 0.688365
0.631861 0.65687 0.697551
0.759075 0.672175 0.691417
0.819364 0.665446 0.676478
0.859068 0.649638 0.637873
0.85098 0.637247 0.633341
0.434806 0.6598 0.685054
0.423529 0.66804 0.699413
0.428 0.6636 0.693446
0.497704 0.684001 0.694728
0.646326 0.731365 0.711772
0.770596 0.775311 0.738293
0.821317 0.779416 0.733761
0.849912 0.765194 0.697154
0.841184 0.753918 0.697551
0.430396 0.681865 0.65687
0.412802 0.680705 0.672175
0.42182 0.674998 0.668376
0.481254 0.701717 0.67837
0.634318 0.763485 0.704662
0.758083 0.804471 0.720775
0.839948 0.833585 0.724269
0.863722 0.819059 0.6981
0.849515 0.80882 0.705882
0.411521 0.682109 0.617655
0.403647 0.686213 0.633341
0.407599 0.682353 0.623163
0.452445 0.702693 0.637507
0.594614 0.757717 0.662623
0.733486 0.806683 0.678004
0.821576 0.844114 0.693874
0.867369 0.849012 0.68159
0.853193 0.837263 0.680888
0.417639 0.666667 0.633326
0.413733 0.674754 0.663233
0.411765 0.676966 0.652445
0.444114 0.684306 0.656367
0.590188 0.738231 0.679408
0.73138 0.793622 0.680888
0.827451 0.828428 0.699504
0.886275 0.839216 0.695583
0.864713 0.829419 0.696086
0.100984 0.230396 0.518135
0.0957656 0.221073 0.537926
0.111391 0.235782 0.533822
0.278492 0.287251 0.528435
0.571817 0.353674 0.583581
0.759747 0.436393 0.615259
0.821576 0.468498 0.607965
0.863233 0.479896 0.593805
0.858824 0.479896 0.591669
0.0839399 0.209125 0.549142
0.0782483 0.201465 0.560632
0.0957046 0.214405 0.564569
0.270161 0.26833 0.561456
0.585687 0.339117 0.621729
0.78529 0.42237 0.640574
0.850446 0.463111 0.660349
0.891768 0.464179 0.640497
0.87451 0.466361 0.644297
0.102815 0.23003 0.532723
0.0892195 0.21503 0.549981
0.0907759 0.212619 0.564248
0.232914 0.265019 0.561502
0.523598 0.328679 0.592157
0.751797 0.413596 0.628916
0.842283 0.455268 0.640711
0.88014 0.467628 0.641367
0.870588 0.462745 0.631373
0.193561 0.342641 0.613733
0.181003 0.32752 0.615076
0.186419 0.328206 0.61912
0.284886 0.363012 0.621714
0.501076 0.417899 0.63505
0.726558 0.475517 0.672633
0.817639 0.514153 0.668315
0.864454 0.506554 0.6589
0.846082 0.502937 0.654475
0.360784 0.566674 0.749752
0.357992 0.567651 0.748287
0.355703 0.565988 0.746258
0.414221 0.565652 0.728435
0.582345 0.618021 0.743389
0.733028 0.641184 0.744854
0.829099 0.651713 0.751904
0.859953 0.643229 0.729686
0.837263 0.631373 0.722057
0.431006 0.669612 0.758328
0.439399 0.679835 0.769909
0.438926 0.680629 0.757443
0.500496 0.703426 0.779751
0.63563 0.733822 0.794919
0.76701 0.776959 0.810758
0.831342 0.784115 0.800259
0.86685 0.780575 0.792569
0.847059 0.772122 0.797116
0.46421 0.718013 0.774502
0.460975 0.729244 0.775769
0.460288 0.725856 0.766918
0.503899 0.737392 0.773022
0.634195 0.773648 0.777996
0.770642 0.816373 0.811887
0.833616 0.833738 0.81973
0.870634 0.836927 0.804318
0.847059 0.827695 0.812253
0.456367 0.720592 0.748043
0.459754 0.728466 0.755077
0.457801 0.730648 0.751369
0.470466 0.741726 0.738735
0.594583 0.778927 0.760876
0.758892 0.829404 0.804486
0.823209 0.853071 0.812558
0.871061 0.864088 0.800595
0.854902 0.859007 0.812253
0.452445 0.712749 0.749508
0.448524 0.719112 0.753918
0.450614 0.719478 0.757961
0.473045 0.72604 0.740749
0.60589 0.764218 0.765682
0.7579 0.810788 0.808942
0.829908 0.833463 0.811276
0.871077 0.852445 0.820768
0.860288 0.840681 0.818631
0.13431 0.241169 0.589212
0.107469 0.242161 0.604288
0.107851 0.242405 0.612009
0.282719 0.301839 0.626841
0.561761 0.358328 0.67451
0.755398 0.415808 0.706737
0.832593 0.475486 0.71986
0.873655 0.482841 0.711772
0.854902 0.490196 0.71667
0.125002 0.21532 0.621073
0.0870222 0.211765 0.629618
0.107103 0.223407 0.633951
0.288426 0.286458 0.62771
0.582223 0.354467 0.704784
0.773846 0.41355 0.728237
0.850034 0.456641 0.739773
0.889387 0.478431 0.737484
0.87451 0.47451 0.737865
0.129168 0.22916 0.610544
0.0934768 0.226078 0.616693
0.111086 0.234745 0.641367
0.25684 0.285145 0.634165
0.533333 0.33872 0.685542
0.749386 0.411399 0.734768
0.838239 0.459617 0.743694
0.880232 0.479164 0.738445
0.866423 0.478431 0.733089
0.219242 0.361273 0.678798
0.206821 0.367727 0.695232
0.224872 0.372152 0.690837
0.314839 0.402258 0.69749
0.521874 0.451102 0.71783
0.729366 0.484062 0.75584
0.826963 0.527611 0.771298
0.874998 0.530526 0.750668
0.856367 0.520226 0.753429
0.380392 0.5897 0.793133
0.375494 0.594797 0.807416
0.375616 0.591913 0.79939
0.448768 0.605081 0.781857
0.602213 0.645594 0.796811
0.741787 0.667765 0.80116
0.829419 0.679408 0.821195
0.87071 0.66569 0.810605
0.847059 0.652445 0.79559
0.452811 0.701961 0.806989
0.446693 0.701595 0.82005
0.461402 0.709438 0.821942
0.526055 0.732555 0.830518
0.659861 0.763485 0.845411
0.781659 0.793622 0.848356
0.838483 0.79675 0.855543
0.868437 0.788846 0.847807
0.854902 0.781491 0.83946
0.476219 0.737499 0.800977
0.471321 0.731121 0.801801
0.475853 0.735042 0.804105
0.532113 0.766323 0.826352
0.665934 0.804898 0.846815
0.787991 0.838209 0.863722
0.844114 0.848035 0.867643
0.878553 0.851591 0.867552
0.862989 0.848035 0.867643
0.494118 0.764828 0.804044
0.493263 0.768734 0.819837
0.490196 0.764797 0.81973
0.511803 0.774777 0.820584
0.62237 0.816236 0.833707
0.760647 0.837751 0.848341
0.836942 0.864363 0.870924
0.874998 0.871458 0.86717
0.858824 0.864088 0.863844
0.494118 0.764706 0.800977
0.490196 0.76556 0.812741
0.486275 0.760784 0.798032
0.501472 0.765682 0.804898
0.589212 0.79118 0.811276
0.749996 0.840681 0.841306
0.832349 0.862989 0.8598
0.859312 0.871443 0.851957
0.847059 0.867643 0.863722
0.136278 0.25098 0.627939
0.102449 0.243198 0.631861
0.120104 0.258213 0.632837
0.281071 0.301961 0.648524
0.52549 0.367163 0.706127
0.726101 0.41912 0.749508
0.814221 0.461158 0.757473
0.858396 0.494179 0.764767
0.866178 0.501961 0.742153
0.166918 0.265873 0.655024
0.0999924 0.236332 0.656931
0.133684 0.257359 0.674357
0.337331 0.32079 0.68072
0.552697 0.355367 0.723751
0.748302 0.407324 0.762097
0.830488 0.444221 0.769116
0.870649 0.478111 0.769543
0.877516 0.486275 0.757351
0.151476 0.273899 0.66569
0.149218 0.28304 0.67451
0.15613 0.288701 0.679683
0.308034 0.331991 0.687861
0.532235 0.3682 0.732662
0.722744 0.421607 0.766308
0.824048 0.4598 0.78088
0.857282 0.487678 0.777005
0.877455 0.502815 0.772183
0.282536 0.452445 0.747051
0.274998 0.45948 0.752865
0.298589 0.461204 0.756374
0.41912 0.508019 0.756741
0.567559 0.538628 0.779019
0.715511 0.546685 0.805081
0.80882 0.558831 0.809552
0.854261 0.575494 0.806699
0.863539 0.569909 0.784497
0.418631 0.644114 0.831128
0.408301 0.65272 0.835752
0.424323 0.652567 0.831617
0.512901 0.661768 0.827207
0.649516 0.693629 0.832471
0.755795 0.706432 0.846723
0.813733 0.705821 0.852567
0.86128 0.708553 0.845594
0.866667 0.68603 0.826719
0.477638 0.723842 0.831861
0.463905 0.719112 0.835294
0.482017 0.735836 0.843503
0.563836 0.755993 0.855085
0.683818 0.777691 0.867399
0.787915 0.802136 0.868254
0.831891 0.804395 0.872053
0.868437 0.797024 0.872099
0.87187 0.780392 0.853437
0.493629 0.748653 0.831373
0.486275 0.74902 0.830503
0.499474 0.756863 0.839246
0.572305 0.785794 0.849653
0.691905 0.817716 0.868437
0.789029 0.843641 0.879545
0.848035 0.848035 0.890837
0.871077 0.851957 0.879454
0.878309 0.832837 0.872053
0.497551 0.749447 0.820462
0.490196 0.753368 0.816175
0.492927 0.759915 0.822995
0.554635 0.786847 0.838178
0.676036 0.827451 0.860563
0.785077 0.852445 0.882536
0.847608 0.864088 0.88629
0.871885 0.867964 0.887572
0.874022 0.867155 0.88719
0.501472 0.760296 0.812253
0.486275 0.760784 0.816175
0.490562 0.760784 0.817029
0.523033 0.771267 0.825986
0.622309 0.812009 0.84535
0.753735 0.848524 0.868437
0.820584 0.864088 0.877943
0.859739 0.871077 0.885847
0.8701 0.867155 0.886275
0.172549 0.301961 0.666667
0.156374 0.301472 0.674998
0.186267 0.31667 0.689219
0.352941 0.365682 0.68481
0.556863 0.403922 0.739208
0.727459 0.457847 0.781857
0.810788 0.491173 0.8
0.843626 0.52549 0.788724
0.847059 0.521569 0.784314
0.182849 0.277455 0.67451
0.148104 0.285298 0.678431
0.199145 0.300496 0.696696
0.366232 0.353124 0.698405
0.568139 0.380148 0.737255
0.742641 0.438056 0.789517
0.821576 0.471199 0.792157
0.859739 0.502388 0.796078
0.866178 0.509316 0.788235
0.243137 0.351965 0.689219
0.222797 0.359564 0.708827
0.268132 0.389944 0.731624
0.401221 0.434806 0.737377
0.581369 0.459312 0.762737
0.734798 0.491539 0.79939
0.81471 0.51986 0.807843
0.859312 0.546685 0.807843
0.862745 0.539208 0.802945
0.341665 0.517647 0.778439
0.324208 0.519295 0.786465
0.380758 0.542031 0.783459
0.503548 0.578561 0.788296
0.634562 0.61593 0.804898
0.741726 0.616175 0.821134
0.820096 0.633951 0.837385
0.861463 0.643626 0.840192
0.862745 0.641184 0.836271
0.456855 0.67451 0.825483
0.444602 0.682353 0.843137
0.487739 0.694118 0.85098
0.583581 0.70956 0.834073
0.704906 0.745098 0.838239
0.781369 0.763485 0.849012
0.833341 0.760784 0.86128
0.864958 0.764462 0.864713
0.864713 0.756863 0.864713
0.504906 0.744121 0.835294
0.501656 0.745098 0.845594
0.538842 0.756497 0.858824
0.631739 0.783337 0.86421
0.737499 0.802945 0.867399
0.811337 0.823468 0.882902
0.844602 0.828305 0.883452
0.868437 0.828611 0.882353
0.866667 0.817151 0.878431
0.520592 0.760784 0.823529
0.508461 0.753063 0.835294
0.546075 0.774014 0.849271
0.643503 0.8103 0.864576
0.74461 0.837751 0.872557
0.818265 0.845228 0.880522
0.855146 0.855879 0.886519
0.871077 0.855879 0.879774
0.87451 0.848035 0.882353
0.517647 0.764706 0.827451
0.505821 0.761212 0.831373
0.527077 0.775494 0.839216
0.603433 0.80589 0.85687
0.719356 0.840925 0.872557
0.818326 0.860288 0.894118
0.848035 0.864088 0.890196
0.874998 0.871504 0.891112
0.87451 0.863233 0.886763
0.509804 0.752941 0.815686
0.498039 0.752941 0.816175
0.508827 0.764706 0.827451
0.557839 0.78677 0.837751
0.682353 0.821561 0.85687
0.78088 0.848524 0.879896
0.836271 0.866667 0.890196
0.867155 0.87451 0.894118
0.866667 0.870588 0.890196
