YOYO-Client/Yoyo/Assets.xcassets/Iceland.dataset/DJI-Pocket-3.cube
TITLE "Generated by Resolve"
LUT_3D_SIZE 5
0 0 0
0.355886 0 0
0.684306 0 0.0196078
0.941176 0.0490272 0.106859
1 0.160784 0.188235
0 0.363729 0.0392157
0.338476 0.353185 0.051957
0.657847 0.352453 0.110292
0.92549 0.344121 0.159808
1 0.354894 0.224506
0 0.660792 0.145098
0.310292 0.660777 0.156374
0.620584 0.644114 0.174502
0.88333 0.623041 0.234318
1 0.613733 0.307836
0.145098 0.870588 0.28333
0.334798 0.876722 0.300252
0.583337 0.872053 0.312261
0.833082 0.860533 0.317159
1 0.841184 0.374502
0.364706 1 0.423529
0.441169 1 0.434318
0.603922 1 0.45098
0.799023 1 0.475486
0.988235 1 0.505882
0 0 0.367651
0.348531 0 0.375982
0.676966 0 0.380392
0.933577 0.0818647 0.366171
1 0.201968 0.376471
0 0.359319 0.382605
0.331243 0.356619 0.383154
0.666789 0.345342 0.376715
0.917891 0.34725 0.378622
1 0.374517 0.394858
0 0.664698 0.3897
0.31606 0.661158 0.3935
0.621073 0.645106 0.398291
0.874876 0.631495 0.421195
1 0.625986 0.450492
0.241917 0.872297 0.442893
0.383948 0.876219 0.455634
0.600732 0.870222 0.463111
0.833646 0.860914 0.465202
1 0.846082 0.497063
0.410788 1 0.514702
0.479408 1 0.522545
0.624506 1 0.532845
0.809064 1 0.55491
0.988235 1 0.582361
0 0.0529335 0.684306
0.291173 0.057847 0.693629
0.647059 0.109804 0.697063
0.922057 0.12549 0.674022
1 0.294118 0.647059
0 0.335286 0.674022
0.260655 0.334432 0.68162
0.639704 0.362493 0.693385
0.907347 0.367041 0.672419
1 0.430396 0.655879
0 0.637247 0.673533
0.273533 0.638483 0.673777
0.609796 0.640192 0.67451
0.871321 0.646326 0.674754
1 0.648035 0.666667
0.287739 0.875486 0.672541
0.416175 0.87512 0.678676
0.632349 0.867643 0.681132
0.838483 0.861158 0.688975
1 0.855879 0.695094
0.492164 1 0.688243
0.547555 1 0.694118
0.670588 1 0.700984
0.833341 1 0.715694
0.988235 1 0.731365
0 0.142153 0.900984
0.2 0.149752 0.903181
0.571084 0.226474 0.909804
0.85687 0.287495 0.911772
1 0.276478 0.901961
0 0.332357 0.893141
0.207172 0.338415 0.896757
0.572305 0.385779 0.901473
0.850309 0.436759 0.904112
1 0.419608 0.897063
0 0.589212 0.876478
0.214832 0.593622 0.880644
0.562249 0.609552 0.885298
0.84535 0.659434 0.894362
1 0.640192 0.88481
0.165682 0.847059 0.882353
0.33872 0.847791 0.882353
0.586145 0.85098 0.882231
0.831617 0.853437 0.877699
1 0.866178 0.879652
0.476463 1 0.872541
0.549996 1 0.873533
0.711757 1 0.876966
0.87892 1 0.893141
0.993133 1 0.903929
0 0.223529 1
0.154894 0.231373 1
0.505882 0.294118 1
0.784314 0.421576 1
0.996078 0.486275 1
0 0.362737 1
0.213474 0.367651 1
0.518135 0.404898 1
0.788235 0.500252 1
0.996078 0.554894 1
0.201968 0.590204 1
0.3299 0.593133 1
0.54902 0.604898 1
0.798032 0.657847 1
0.992157 0.703914 1
0.252949 0.803922 1
0.360784 0.801709 1
0.576959 0.8103 1
0.818875 0.837003 1
0.996078 0.88333 1
0.521569 1 1
0.578424 1 1
0.7196 1 1
0.912749 1 1
1 1 1
