YOYO-Client/Yoyo/Assets.xcassets/Iceland.dataset/DJI-Pocket-3.cube
TITLE "Generated by Resolve"
LUT_3D_SIZE 33
0 0 0
0.050248 0 0
0.0924086 0 0
0.131121 0 0
0.184314 0 0
0.223774 0 0
0.267643 0 0
0.314214 0 0
0.355886 0 0
0.393378 0 0
0.437003 0 0
0.475608 0 0
0.514214 0 0
0.556741 0 0
0.603677 0 0.00613413
0.641794 0 0.0138552
0.684306 0 0.0196078
0.724758 0 0.0311284
0.759808 0 0.0409247
0.793866 0 0.050248
0.830884 0 0.0656901
0.858946 0.00662242 0.0758526
0.889952 0.0220645 0.0887312
0.917037 0.0375067 0.0991379
0.941176 0.0490272 0.106859
0.971206 0.0644541 0.115434
0.996811 0.0798962 0.126223
1 0.0914168 0.134554
1 0.102937 0.145586
1 0.118379 0.153674
1 0.1299 0.16495
1 0.141543 0.172915
1 0.160784 0.188235
0 0.0463264 0
0.0424048 0.0463264 0.00367742
0.0808881 0.0500038 0.0037995
0.123766 0.0536812 0.00381476
0.174212 0.0545357 0
0.225834 0.0540627 0
0.269337 0.0508583 0
0.309468 0.0507362 0
0.352117 0.0432288 0
0.394614 0.0421607 0
0.433173 0.0382391 0
0.471809 0.0382391 0
0.510445 0.0357366 0
0.555245 0.0381628 0.00233463
0.597528 0.039826 0.0099794
0.642084 0.0400702 0.021561
0.678492 0.0401312 0.0272679
0.721263 0.0440528 0.0370642
0.75819 0.0460822 0.0469825
0.790173 0.0477913 0.0564889
0.826993 0.0631113 0.0694438
0.856458 0.0633555 0.0772412
0.887251 0.0749218 0.0913405
0.913146 0.0827497 0.0991379
0.941176 0.0877394 0.107836
0.968322 0.098497 0.118502
0.99382 0.107057 0.127031
1 0.118502 0.137865
1 0.126207 0.145586
1 0.137728 0.15378
1 0.148898 0.165194
1 0.156985 0.176715
1 0.176226 0.188235
0 0.0924086 0
0.0463264 0.0888533 0.0037995
0.0845808 0.0885023 0.00737011
0.123857 0.0894179 0.00759899
0.172427 0.0926528 0.00392157
0.212543 0.0962387 0
0.261814 0.0966201 0
0.308522 0.0981765 0
0.348226 0.0956436 0
0.389776 0.0952926 0
0.427039 0.0887312 0
0.468009 0.0912184 0
0.510292 0.0887312 0.00367742
0.552819 0.0924086 0.0100252
0.597543 0.0927901 0.0192569
0.638132 0.0926528 0.0254826
0.678553 0.0925307 0.0330816
0.717174 0.0944839 0.042771
0.755566 0.0980697 0.0524453
0.790784 0.0967727 0.0619059
0.825498 0.104173 0.0732891
0.852613 0.102327 0.0812085
0.887007 0.110948 0.0961624
0.912932 0.116487 0.102892
0.941176 0.124147 0.114458
0.968277 0.125566 0.122377
0.996811 0.13637 0.133822
1 0.141054 0.141543
1 0.148775 0.146288
1 0.159854 0.157229
1 0.164691 0.168643
1 0.176211 0.176715
1 0.187991 0.192157
0 0.138231 0
0.042298 0.134585 1.5259e-05
0.0886091 0.134905 0.000350958
0.127245 0.131197 0.00395209
0.163119 0.131991 0.00428778
0.208453 0.134859 0.00392157
0.251896 0.135485 0
0.301106 0.141741 0
0.343511 0.137285 0
0.385534 0.139239 0.00254826
0.421942 0.136416 0.00355535
0.466545 0.139834 0.00981155
0.50927 0.137713 0.0151827
0.551369 0.138964 0.021561
0.592981 0.142077 0.0306401
0.636194 0.139147 0.0370031
0.67274 0.138964 0.0425879
0.713527 0.140978 0.0526284
0.75172 0.139178 0.0600137
0.785534 0.141665 0.0681163
0.822904 0.145388 0.07953
0.852689 0.143267 0.0874952
0.88333 0.14815 0.0990158
0.910292 0.15111 0.106722
0.937346 0.155215 0.114794
0.967285 0.162097 0.126268
0.990738 0.16463 0.134737
1 0.168139 0.141848
1 0.175372 0.152621
1 0.183215 0.16112
1 0.187381 0.1691
1 0.195224 0.18027
1 0.210666 0.192157
0 0.184314 0
0.034226 0.185382 0
0.0848096 0.18201 0
0.134234 0.184436 0
0.176471 0.183886 0.000488289
0.211521 0.177447 0.00730907
0.254505 0.177935 0.00352483
0.300999 0.184695 0.00686656
0.341421 0.186404 0.00981155
0.382452 0.181369 0.0112764
0.424811 0.186252 0.019913
0.471778 0.189212 0.0263066
0.513909 0.190997 0.0345006
0.552331 0.185 0.0380407
0.596292 0.186954 0.0475166
0.639475 0.187366 0.0539254
0.675486 0.184802 0.0558785
0.716197 0.186908 0.0635996
0.752758 0.183368 0.069398
0.788159 0.187625 0.0793317
0.82089 0.186587 0.0867628
0.852277 0.187869 0.0961624
0.882841 0.190936 0.106279
0.909804 0.189349 0.116457
0.936767 0.190204 0.122057
0.964858 0.195132 0.130907
0.993225 0.197543 0.141329
1 0.201968 0.152041
1 0.205875 0.156863
1 0.210452 0.167971
1 0.217868 0.175738
1 0.225101 0.186892
1 0.232837 0.198047
0 0.227695 0
0.0195926 0.227817 0
0.0808423 0.232197 0
0.128069 0.226123 0
0.174487 0.228107 0
0.216022 0.226658 0.00331121
0.25452 0.223651 0.0071107
0.296086 0.221073 0.0137331
0.339376 0.225437 0.0200351
0.378805 0.225055 0.0252995
0.421744 0.223774 0.0328374
0.466026 0.229343 0.0427405
0.505898 0.229709 0.0499123
0.549264 0.229404 0.0553902
0.593896 0.230442 0.0637217
0.63386 0.231205 0.0672007
0.672862 0.229969 0.0696727
0.710826 0.227039 0.0741894
0.751202 0.225834 0.0806439
0.784558 0.226719 0.0870069
0.815579 0.226688 0.0949721
0.848722 0.228092 0.104234
0.878386 0.226658 0.114153
0.909194 0.228748 0.122499
0.936584 0.231922 0.129931
0.963973 0.229053 0.137636
0.990936 0.236149 0.148516
1 0.239658 0.159655
1 0.238331 0.162219
1 0.241428 0.172671
1 0.251881 0.183734
1 0.257008 0.192294
1 0.261524 0.204532
0 0.267643 0
0.00759899 0.270039 0
0.0693675 0.266911 0
0.119799 0.267872 0
0.167315 0.263966 0.00318914
0.20882 0.263493 0.00660716
0.251682 0.262852 0.0108949
0.295659 0.264698 0.0180209
0.336278 0.265812 0.0283055
0.374716 0.264591 0.0364843
0.415412 0.263493 0.0470588
0.459922 0.268254 0.0560006
0.502907 0.267826 0.0641794
0.541787 0.272267 0.0727398
0.583993 0.274342 0.0769665
0.624949 0.272282 0.0808881
0.669367 0.270832 0.0835737
0.709651 0.273259 0.0890669
0.746242 0.27042 0.0943618
0.779065 0.267903 0.0981613
0.813443 0.269368 0.105882
0.84509 0.269734 0.114336
0.875486 0.269368 0.124254
0.905272 0.267597 0.129778
0.933089 0.269062 0.137499
0.959762 0.265278 0.145388
0.986664 0.267048 0.153079
1 0.271336 0.163851
1 0.271656 0.169116
1 0.273274 0.180026
1 0.279652 0.187747
1 0.286564 0.199405
1 0.295827 0.211765
0 0.306371 0.0109102
0 0.311452 0.0159915
0.0614023 0.312551 0.0141604
0.115938 0.310292 0.0147555
0.169497 0.312398 0.0208438
0.209674 0.311406 0.0237888
0.250492 0.304662 0.0216526
0.295476 0.307912 0.0287938
0.334859 0.307805 0.0357519
0.371572 0.305272 0.045716
0.413474 0.307622 0.058854
0.454948 0.306294 0.0678264
0.49897 0.311559 0.0776989
0.539239 0.309026 0.085069
0.578897 0.313466 0.0925154
0.619516 0.314992 0.0948806
0.662745 0.310964 0.0967575
0.701289 0.313542 0.101106
0.73846 0.309911 0.104158
0.773693 0.308003 0.107866
0.809812 0.311345 0.117403
0.839246 0.308354 0.123674
0.870619 0.308217 0.132845
0.90135 0.308949 0.141176
0.930938 0.304112 0.147738
0.958953 0.305699 0.156191
0.987213 0.308537 0.164416
1 0.308705 0.171588
1 0.304936 0.17734
1 0.306661 0.184192
1 0.313359 0.195468
1 0.318257 0.207141
1 0.322911 0.219608
0 0.363729 0.0392157
0 0.362707 0.0381781
0.0631113 0.35993 0.0390326
0.116854 0.361578 0.0409857
0.168017 0.361273 0.0441138
0.212253 0.360937 0.0470588
0.257969 0.359075 0.0492714
0.296696 0.354559 0.0480354
0.338476 0.353185 0.051957
0.376989 0.349447 0.059678
0.413413 0.347982 0.0680705
0.454017 0.348013 0.0790417
0.50013 0.350362 0.0903182
0.537316 0.352117 0.0972152
0.576959 0.351415 0.102205
0.616419 0.354894 0.106004
0.657847 0.352453 0.110292
0.697826 0.353521 0.115679
0.737377 0.353613 0.119051
0.774014 0.352728 0.124727
0.804898 0.350988 0.130755
0.838697 0.346105 0.136278
0.867338 0.347738 0.144366
0.897429 0.346654 0.150973
0.92549 0.344121 0.159808
0.953094 0.343908 0.166537
0.979965 0.340932 0.171878
1 0.346593 0.181674
1 0.341421 0.187991
1 0.346258 0.197513
1 0.347127 0.205142
1 0.348257 0.213916
1 0.354894 0.224506
0 0.401221 0.0594339
0 0.409934 0.0604105
0.054078 0.4065 0.0607156
0.114809 0.406256 0.0643626
0.166171 0.404669 0.0663157
0.21091 0.402945 0.0683757
0.256168 0.401022 0.0704662
0.296803 0.396689 0.0683757
0.337804 0.394919 0.0720226
0.372549 0.388235 0.0730907
0.414237 0.386343 0.0796826
0.451118 0.387015 0.0867781
0.491371 0.390143 0.09897
0.529946 0.387991 0.106004
0.572778 0.391043 0.111391
0.613016 0.389242 0.115221
0.654047 0.391119 0.12047
0.694942 0.393973 0.125704
0.731746 0.393515 0.131746
0.766659 0.389624 0.135698
0.799558 0.389502 0.141543
0.831876 0.384192 0.147189
0.860563 0.383474 0.155001
0.891783 0.382727 0.162814
0.921691 0.38201 0.168505
0.950256 0.382483 0.176837
0.978225 0.379904 0.183948
1 0.382284 0.194049
1 0.377432 0.199527
1 0.381613 0.207263
1 0.376333 0.214755
1 0.383856 0.222675
1 0.386648 0.237003
0 0.437003 0.0747539
0 0.443351 0.0770886
0.0458381 0.44625 0.0798962
0.108461 0.446082 0.0798962
0.163149 0.445197 0.0827497
0.206195 0.440513 0.0838178
0.255177 0.440925 0.0870069
0.292012 0.437003 0.0847791
0.330999 0.436088 0.0877394
0.372946 0.431022 0.0888533
0.412253 0.42916 0.0912795
0.448585 0.427436 0.094667
0.486763 0.426261 0.103182
0.525872 0.423651 0.110903
0.569406 0.427985 0.120684
0.610986 0.42916 0.125704
0.646204 0.427817 0.128801
0.687617 0.429816 0.136034
0.726375 0.429862 0.141131
0.757717 0.428077 0.145464
0.793347 0.424018 0.151965
0.824079 0.422293 0.158755
0.856718 0.422171 0.164324
0.886 0.420569 0.174365
0.914946 0.418326 0.179843
0.94583 0.417395 0.187594
0.973785 0.41471 0.19559
1 0.416556 0.205158
1 0.413626 0.209964
1 0.414588 0.218631
1 0.413474 0.225238
1 0.414878 0.234272
1 0.418631 0.245838
0 0.475608 0.0874952
0 0.484642 0.0926528
0.0295262 0.484962 0.0926833
0.105028 0.484672 0.0927749
0.154253 0.483772 0.0953384
0.203952 0.483452 0.0966964
0.249149 0.47953 0.0987869
0.288869 0.476173 0.0992599
0.332692 0.475608 0.103182
0.371084 0.472419 0.103182
0.410483 0.471275 0.104112
0.448157 0.46688 0.106218
0.486763 0.466423 0.111879
0.523583 0.463844 0.118624
0.56199 0.462715 0.125811
0.60209 0.464485 0.130785
0.642527 0.465812 0.137865
0.679942 0.464561 0.143755
0.718547 0.464607 0.148791
0.752026 0.462806 0.15552
0.787625 0.46128 0.160906
0.818509 0.459037 0.16817
0.850736 0.458701 0.177691
0.880644 0.455283 0.183093
0.910811 0.453437 0.191455
0.940887 0.453132 0.199222
0.969833 0.450599 0.204883
0.996689 0.451682 0.213199
1 0.448325 0.220996
1 0.449378 0.23003
1 0.449424 0.234195
1 0.44828 0.242115
1 0.453437 0.256123
0 0.524025 0.101472
0 0.528344 0.104372
0.0151675 0.528435 0.102937
0.0920424 0.525979 0.10428
0.149691 0.524819 0.106859
0.197787 0.524514 0.108339
0.245655 0.522698 0.11078
0.289296 0.518669 0.11078
0.333577 0.519478 0.114702
0.373404 0.515602 0.114702
0.409308 0.512749 0.116487
0.447196 0.509331 0.118624
0.487312 0.506004 0.12163
0.521447 0.502449 0.123415
0.563577 0.500252 0.131868
0.601419 0.501671 0.138552
0.635782 0.501717 0.145586
0.676493 0.500465 0.151324
0.713176 0.500435 0.156466
0.747677 0.498527 0.164233
0.782361 0.498161 0.171633
0.81323 0.493263 0.177951
0.844114 0.493385 0.186526
0.874998 0.490684 0.192477
0.905272 0.487861 0.201343
0.933989 0.487907 0.206912
0.966171 0.486763 0.217395
0.990066 0.486534 0.224887
1 0.483207 0.229419
1 0.482704 0.240421
1 0.482902 0.246723
1 0.483787 0.253117
1 0.482841 0.264698
0 0.556741 0.108217
0 0.568338 0.112078
0.00149538 0.572183 0.115953
0.0820783 0.570321 0.11606
0.144747 0.568795 0.11635
0.196323 0.564828 0.11606
0.240162 0.564416 0.119982
0.286137 0.558846 0.119982
0.328435 0.557321 0.122301
0.369162 0.556954 0.125566
0.407965 0.552209 0.127825
0.447364 0.549203 0.127825
0.484031 0.546441 0.129274
0.520714 0.542641 0.132692
0.558862 0.538842 0.135668
0.595193 0.537972 0.142519
0.633768 0.539086 0.152148
0.667872 0.535149 0.158206
0.70489 0.535821 0.163516
0.742245 0.536187 0.172549
0.775113 0.530877 0.179278
0.806989 0.528496 0.187182
0.838956 0.527459 0.195712
0.869398 0.524834 0.201755
0.899626 0.523033 0.211154
0.926589 0.519112 0.218524
0.957916 0.521447 0.227024
0.988113 0.519738 0.236896
1 0.518914 0.243427
1 0.52137 0.253681
1 0.51519 0.257618
1 0.517647 0.267643
1 0.516793 0.276844
0 0.597055 0.11986
0 0.600931 0.12372
0 0.606546 0.125521
0.0664683 0.603113 0.125536
0.134096 0.603464 0.126253
0.187518 0.601129 0.127428
0.234394 0.597375 0.127703
0.281117 0.597543 0.131243
0.321874 0.595041 0.131746
0.36347 0.591424 0.133822
0.400687 0.591089 0.136721
0.443488 0.587549 0.137575
0.480644 0.584405 0.138811
0.519234 0.581659 0.142489
0.555856 0.578424 0.14435
0.591974 0.574563 0.149386
0.62855 0.572915 0.157107
0.660166 0.568811 0.161944
0.700496 0.570642 0.171313
0.733455 0.564996 0.177249
0.766659 0.563149 0.185443
0.799268 0.562722 0.194949
0.830839 0.564309 0.203433
0.863371 0.559915 0.211154
0.892348 0.556008 0.219303
0.923766 0.555261 0.226596
0.953674 0.553918 0.238239
0.982849 0.554406 0.244846
1 0.553429 0.253681
1 0.549996 0.261555
1 0.546212 0.269123
1 0.548333 0.279103
1 0.55172 0.290196
0 0.624018 0.129656
0 0.637446 0.135363
0 0.635782 0.135546
0.0618296 0.637644 0.139162
0.126009 0.634211 0.137758
0.18175 0.633906 0.139254
0.228992 0.631861 0.139345
0.275578 0.630426 0.142855
0.319081 0.631128 0.144366
0.358679 0.629511 0.146838
0.398978 0.627359 0.148608
0.439597 0.623529 0.149264
0.477531 0.618952 0.15111
0.515435 0.617273 0.152193
0.551034 0.614084 0.155932
0.586892 0.611521 0.159197
0.625483 0.610422 0.163912
0.659068 0.604532 0.168627
0.691966 0.602701 0.176349
0.725856 0.600488 0.18407
0.759365 0.596567 0.192477
0.792905 0.594736 0.20087
0.826917 0.594659 0.211154
0.858732 0.592126 0.218875
0.888579 0.5897 0.227054
0.918593 0.588327 0.23621
0.948043 0.586892 0.244114
0.97528 0.585092 0.253971
1 0.585916 0.263005
1 0.58088 0.269291
1 0.576959 0.276844
1 0.579034 0.286702
1 0.58088 0.30013
0 0.660792 0.145098
0 0.662684 0.14699
0 0.662867 0.14902
0.0631113 0.666484 0.152758
0.126711 0.666423 0.150988
0.175372 0.66305 0.150988
0.227329 0.663478 0.15491
0.271321 0.663172 0.156435
0.310292 0.660777 0.156374
0.354711 0.659373 0.158816
0.395224 0.660166 0.162127
0.433143 0.657542 0.162737
0.471077 0.653681 0.164706
0.509682 0.651774 0.165866
0.546319 0.647913 0.167773
0.583886 0.647059 0.170581
0.620584 0.644114 0.174502
0.652445 0.637385 0.176349
0.687007 0.636149 0.182971
0.720104 0.631373 0.190997
0.754406 0.632593 0.201465
0.786465 0.629419 0.209186
0.820584 0.627451 0.218875
0.852018 0.624933 0.226596
0.88333 0.623041 0.234318
0.912383 0.621134 0.243992
0.942153 0.619608 0.252079
0.971084 0.619608 0.261707
0.998291 0.61912 0.271077
1 0.617273 0.280766
1 0.613596 0.288365
1 0.609934 0.298222
1 0.613733 0.307836
0 0.689708 0.15845
0 0.693797 0.166415
0 0.695689 0.166522
0.0715496 0.699443 0.170443
0.123674 0.693889 0.166552
0.177935 0.693629 0.16994
0.220813 0.691402 0.170077
0.267475 0.693172 0.171847
0.307897 0.691325 0.171847
0.348333 0.687617 0.173556
0.388067 0.687617 0.176837
0.427924 0.687236 0.178882
0.465324 0.68333 0.176913
0.501945 0.681117 0.1794
0.540688 0.680018 0.181323
0.577203 0.678798 0.183093
0.611887 0.674022 0.185107
0.646448 0.670954 0.188846
0.682277 0.671138 0.193851
0.71667 0.668498 0.201831
0.749828 0.6654 0.207919
0.780652 0.660883 0.214954
0.812741 0.656245 0.223239
0.845716 0.657008 0.234318
0.8766 0.655787 0.242557
0.908919 0.655848 0.253681
0.939116 0.653681 0.261402
0.966873 0.652049 0.273045
0.996567 0.650019 0.282597
1 0.648264 0.29221
1 0.648402 0.300145
1 0.644434 0.307912
1 0.648646 0.321569
0 0.71667 0.177691
0 0.720943 0.181964
0.00643931 0.724407 0.187503
0.0772717 0.724956 0.185977
0.127916 0.721019 0.184039
0.180789 0.72134 0.186023
0.222385 0.719188 0.186358
0.2663 0.717525 0.188113
0.304479 0.716793 0.189029
0.343862 0.717021 0.191043
0.385336 0.717647 0.194369
0.422919 0.712917 0.193545
0.459312 0.714214 0.19559
0.495903 0.712749 0.196612
0.533562 0.70808 0.196551
0.569741 0.708598 0.200458
0.60502 0.702937 0.199512
0.639536 0.702693 0.202258
0.674495 0.701946 0.206119
0.710536 0.698497 0.210254
0.741421 0.694514 0.21413
0.773648 0.692378 0.222675
0.804898 0.687343 0.230396
0.838605 0.687633 0.239216
0.87071 0.688228 0.24976
0.901579 0.683192 0.257954
0.930953 0.683085 0.269123
0.963378 0.683238 0.280766
0.9897 0.679438 0.290471
1 0.677897 0.296651
1 0.675273 0.307729
1 0.671397 0.31342
1 0.675731 0.327199
0 0.742031 0.195346
0 0.749752 0.201526
0.0387732 0.749874 0.203037
0.0945144 0.747921 0.203342
0.140932 0.747555 0.202899
0.1832 0.747662 0.203189
0.227695 0.746258 0.203189
0.266651 0.746303 0.207111
0.305516 0.745373 0.206531
0.342199 0.74464 0.208042
0.382101 0.744732 0.211398
0.41912 0.743633 0.21207
0.454398 0.741634 0.212497
0.492607 0.738323 0.213565
0.529412 0.740719 0.215854
0.564111 0.736538 0.215702
0.599207 0.73579 0.215747
0.632013 0.733104 0.218021
0.669932 0.731167 0.220783
0.702815 0.72932 0.222797
0.735302 0.72607 0.225727
0.768505 0.724025 0.230396
0.799878 0.718868 0.235782
0.833661 0.717769 0.246494
0.864668 0.717922 0.256275
0.895094 0.715312 0.265202
0.924651 0.715877 0.276844
0.954772 0.713603 0.286519
0.982803 0.711772 0.296208
1 0.704417 0.302327
1 0.704173 0.311635
1 0.700496 0.319356
1 0.702815 0.333333
0 0.770596 0.212253
0.0204166 0.775372 0.217075
0.0666667 0.773953 0.219455
0.112123 0.775494 0.219745
0.153796 0.77322 0.218631
0.197406 0.776349 0.222171
0.232807 0.773037 0.222553
0.270542 0.773037 0.222553
0.307713 0.773037 0.226474
0.343099 0.771939 0.22536
0.38088 0.772061 0.228946
0.417624 0.771435 0.230396
0.452949 0.771145 0.231861
0.487739 0.769131 0.232853
0.522545 0.768383 0.235782
0.56257 0.766659 0.235782
0.593133 0.764218 0.233326
0.629496 0.76228 0.236469
0.66186 0.761364 0.238331
0.69659 0.757839 0.237858
0.730449 0.756374 0.24062
0.763729 0.755535 0.243626
0.795377 0.75169 0.248768
0.826185 0.749218 0.253269
0.858457 0.748165 0.263355
0.889387 0.74461 0.272465
0.920134 0.74342 0.282383
0.948791 0.743999 0.294987
0.976959 0.738231 0.302937
1 0.737865 0.312139
1 0.734218 0.322301
1 0.732769 0.331502
1 0.730388 0.342153
0.0160525 0.797543 0.231495
0.0687572 0.800168 0.235416
0.10486 0.800122 0.237995
0.135912 0.802823 0.238117
0.170382 0.80029 0.241596
0.201587 0.801465 0.239338
0.236149 0.798032 0.239338
0.276051 0.800122 0.241917
0.312108 0.800122 0.245502
0.347433 0.799161 0.245838
0.382101 0.797543 0.247181
0.416785 0.796201 0.248402
0.451972 0.796704 0.250263
0.486885 0.79675 0.252628
0.520562 0.795346 0.253681
0.554803 0.794995 0.255756
0.591485 0.794919 0.257603
0.62504 0.792905 0.256229
0.658976 0.7897 0.257603
0.691844 0.7897 0.258152
0.725261 0.788235 0.258442
0.759213 0.785779 0.261524
0.793561 0.784436 0.264515
0.823056 0.781857 0.269123
0.854231 0.778241 0.274571
0.884443 0.777646 0.281498
0.918502 0.776104 0.294621
0.946731 0.773816 0.304326
0.970581 0.770092 0.312993
0.997665 0.769726 0.324514
1 0.765927 0.332433
1 0.764752 0.342763
1 0.762249 0.358206
0.0713207 0.824506 0.250736
0.111666 0.827115 0.256077
0.129656 0.827207 0.255955
0.160403 0.827207 0.257359
0.186374 0.827207 0.257359
0.215457 0.824506 0.254658
0.249027 0.823514 0.257359
0.281376 0.82388 0.257939
0.316548 0.826902 0.26128
0.349065 0.823285 0.26128
0.383719 0.824506 0.264744
0.417212 0.823285 0.265202
0.452384 0.822736 0.268559
0.487739 0.822187 0.269612
0.519814 0.821775 0.270344
0.553597 0.822019 0.271778
0.585534 0.821317 0.274266
0.618875 0.819944 0.27361
0.652735 0.818189 0.275776
0.687999 0.816663 0.274266
0.719142 0.815198 0.275944
0.751415 0.812741 0.276967
0.78407 0.811521 0.280034
0.816052 0.810758 0.281987
0.846815 0.80589 0.286458
0.877302 0.804639 0.292287
0.907591 0.804669 0.300237
0.939086 0.800977 0.311635
0.965286 0.797055 0.319356
0.992889 0.796689 0.330999
1 0.790539 0.338643
1 0.789212 0.349187
1 0.789212 0.362005
0.111391 0.847547 0.266056
0.137407 0.85037 0.272709
0.155764 0.85037 0.272801
0.179934 0.851637 0.274159
0.206302 0.850507 0.272938
0.228489 0.847547 0.273732
0.257725 0.846647 0.272801
0.291173 0.847929 0.276722
0.326314 0.850095 0.280354
0.355581 0.847242 0.280644
0.388357 0.847547 0.281743
0.421088 0.848295 0.283589
0.455116 0.849683 0.288487
0.484718 0.846891 0.28893
0.517662 0.846922 0.289586
0.551598 0.846448 0.291081
0.585168 0.846998 0.292958
0.616449 0.843565 0.292912
0.64889 0.844114 0.29398
0.680888 0.841382 0.292851
0.713527 0.839292 0.293095
0.745464 0.839323 0.293126
0.776349 0.838605 0.29633
0.807233 0.837812 0.29633
0.839094 0.832837 0.298833
0.872679 0.832486 0.304784
0.900771 0.830762 0.311635
0.931517 0.827771 0.319188
0.959838 0.824018 0.326726
0.98468 0.820096 0.334798
1 0.816114 0.342519
1 0.817716 0.353094
1 0.812253 0.365805
0.145098 0.870588 0.28333
0.169268 0.874479 0.289219
0.187564 0.877272 0.292958
0.203983 0.874784 0.29305
0.222065 0.87451 0.293141
0.248219 0.874052 0.29366
0.274754 0.87512 0.294179
0.300801 0.872862 0.295521
0.334798 0.876722 0.300252
0.364065 0.875059 0.299565
0.39411 0.871565 0.301045
0.426932 0.873503 0.305516
0.457725 0.873411 0.30576
0.486946 0.872145 0.308034
0.520226 0.872862 0.309133
0.551659 0.872679 0.311482
0.583337 0.872053 0.312261
0.613703 0.868101 0.31223
0.642832 0.869734 0.3122
0.674418 0.868605 0.313909
0.708705 0.867643 0.315679
0.740688 0.865354 0.312749
0.770596 0.865751 0.314702
0.801465 0.86302 0.314977
0.833082 0.860533 0.317159
0.866087 0.860349 0.319387
0.895155 0.858274 0.321752
0.925002 0.855879 0.330175
0.950118 0.852445 0.334676
0.978927 0.851865 0.346441
1 0.845045 0.35024
1 0.844114 0.364858
1 0.841184 0.374502
0.197787 0.902815 0.31458
0.214801 0.904418 0.319112
0.221805 0.900862 0.315541
0.233204 0.900618 0.315435
0.253605 0.901747 0.316579
0.270466 0.899886 0.315435
0.298451 0.902937 0.317937
0.321187 0.901289 0.320027
0.349996 0.90074 0.322423
0.379034 0.900618 0.32549
0.407126 0.900023 0.325383
0.436698 0.899565 0.329778
0.468635 0.900618 0.33167
0.496452 0.900618 0.335042
0.526955 0.901091 0.336019
0.555917 0.898772 0.337133
0.586709 0.897551 0.339834
0.620554 0.90016 0.343297
0.647791 0.898024 0.342504
0.680018 0.900267 0.346471
0.711437 0.897017 0.341299
0.739284 0.895644 0.343755
0.77171 0.894316 0.343481
0.802686 0.894118 0.344228
0.834226 0.892561 0.344305
0.859007 0.888853 0.344427
0.892119 0.887984 0.347387
0.920104 0.885786 0.351598
0.953445 0.885191 0.358465
0.980346 0.883497 0.365637
1 0.877089 0.369924
1 0.874113 0.381491
1 0.873167 0.396933
0.221073 0.923033 0.326955
0.236439 0.926757 0.333867
0.244846 0.923781 0.330877
0.259495 0.923705 0.334737
0.27013 0.923125 0.330877
0.285405 0.919966 0.329763
0.306477 0.920455 0.330877
0.334142 0.922499 0.334112
0.358755 0.920836 0.33579
0.387533 0.923354 0.34081
0.413947 0.922774 0.34165
0.442405 0.92195 0.34522
0.473289 0.923781 0.349294
0.500389 0.920592 0.34963
0.530724 0.921981 0.354818
0.562234 0.924727 0.357794
0.585412 0.920226 0.357107
0.618723 0.923384 0.361868
0.648524 0.923033 0.361517
0.677256 0.921447 0.363851
0.707561 0.92105 0.363729
0.736645 0.918761 0.361166
0.765454 0.915938 0.361257
0.797223 0.917327 0.363653
0.828305 0.917525 0.364828
0.854246 0.913283 0.363531
0.883955 0.912016 0.366308
0.911513 0.909209 0.367407
0.942306 0.910384 0.373281
0.972854 0.907347 0.377279
0.998627 0.904128 0.381369
1 0.897154 0.38613
1 0.897063 0.401465
0.244968 0.946319 0.345708
0.252598 0.943008 0.342992
0.26009 0.942473 0.345754
0.271199 0.943008 0.342458
0.284031 0.943435 0.342809
0.303716 0.941985 0.345296
0.320821 0.942519 0.346319
0.347402 0.943008 0.349386
0.369604 0.943389 0.35108
