YOYO-Client/Yoyo/Assets.xcassets/Iceland.dataset/DJI-Pocket-3.cube
TITLE "Generated by Resolve"
LUT_3D_SIZE 9
0 0 0
0.184314 0 0
0.355886 0 0
0.514214 0 0
0.684306 0 0.0196078
0.830884 0 0.0656901
0.941176 0.0490272 0.106859
1 0.102937 0.145586
1 0.160784 0.188235
0 0.184314 0
0.176471 0.183886 0.000488289
0.341421 0.186404 0.00981155
0.513909 0.190997 0.0345006
0.675486 0.184802 0.0558785
0.82089 0.186587 0.0867628
0.936767 0.190204 0.122057
1 0.205875 0.156863
1 0.232837 0.198047
0 0.363729 0.0392157
0.168017 0.361273 0.0441138
0.338476 0.353185 0.051957
0.50013 0.350362 0.0903182
0.657847 0.352453 0.110292
0.804898 0.350988 0.130755
0.92549 0.344121 0.159808
1 0.341421 0.187991
1 0.354894 0.224506
0 0.524025 0.101472
0.149691 0.524819 0.106859
0.333577 0.519478 0.114702
0.487312 0.506004 0.12163
0.635782 0.501717 0.145586
0.782361 0.498161 0.171633
0.905272 0.487861 0.201343
1 0.483207 0.229419
1 0.482841 0.264698
0 0.660792 0.145098
0.126711 0.666423 0.150988
0.310292 0.660777 0.156374
0.471077 0.653681 0.164706
0.620584 0.644114 0.174502
0.754406 0.632593 0.201465
0.88333 0.623041 0.234318
0.998291 0.61912 0.271077
1 0.613733 0.307836
0 0.770596 0.212253
0.153796 0.77322 0.218631
0.307713 0.773037 0.226474
0.452949 0.771145 0.231861
0.593133 0.764218 0.233326
0.730449 0.756374 0.24062
0.858457 0.748165 0.263355
0.976959 0.738231 0.302937
1 0.730388 0.342153
0.145098 0.870588 0.28333
0.222065 0.87451 0.293141
0.334798 0.876722 0.300252
0.457725 0.873411 0.30576
0.583337 0.872053 0.312261
0.708705 0.867643 0.315679
0.833082 0.860533 0.317159
0.950118 0.852445 0.334676
1 0.841184 0.374502
0.269123 0.963729 0.361273
0.30901 0.966293 0.360906
0.382345 0.964096 0.368627
0.484321 0.966674 0.380209
0.588479 0.963241 0.387991
0.701473 0.963241 0.39736
0.815198 0.961761 0.40209
0.924392 0.954833 0.406867
1 0.944121 0.426963
0.364706 1 0.423529
0.391669 1 0.427939
0.441169 1 0.434318
0.518624 1 0.443137
0.603922 1 0.45098
0.702449 1 0.462745
0.799023 1 0.475486
0.895582 1 0.490196
0.988235 1 0.505882
0 0 0.197543
0.182361 0 0.197971
0.356008 0 0.204166
0.51667 0 0.203555
0.682109 0 0.205142
0.824994 0 0.208453
0.9337 0.0459602 0.216297
1 0.110719 0.233326
1 0.168139 0.253437
0 0.188663 0.200855
0.172335 0.188403 0.204028
0.34873 0.186374 0.208438
0.519142 0.186526 0.209186
0.676631 0.177722 0.207141
0.815259 0.179171 0.211139
0.932891 0.190127 0.221958
1 0.212757 0.243381
1 0.239582 0.263172
0 0.367041 0.22536
0.166766 0.360311 0.219394
0.340505 0.355367 0.224201
0.499657 0.355459 0.229221
0.661036 0.353613 0.227024
0.803937 0.348028 0.232685
0.920958 0.341604 0.242222
1 0.346685 0.259998
1 0.356863 0.284306
0 0.525307 0.227756
0.143221 0.528603 0.231876
0.329229 0.517647 0.231998
0.487938 0.507652 0.23769
0.636332 0.50312 0.247639
0.778622 0.49575 0.254948
0.901427 0.49015 0.274388
1 0.486427 0.293889
1 0.487556 0.316487
0 0.66128 0.243381
0.12726 0.668406 0.252506
0.312688 0.662562 0.251225
0.473777 0.655238 0.254994
0.620584 0.644236 0.262135
0.753033 0.631464 0.27834
0.8804 0.62359 0.301045
0.994858 0.619333 0.32668
1 0.615442 0.355642
0.0187533 0.774197 0.287617
0.177157 0.778088 0.295949
0.315969 0.776196 0.298543
0.459068 0.771084 0.301671
0.597482 0.764462 0.304662
0.730327 0.757656 0.307103
0.857114 0.748486 0.32314
0.975326 0.740353 0.355795
1 0.730877 0.384314
0.186145 0.875486 0.342519
0.252598 0.878279 0.350622
0.353857 0.877882 0.3579
0.469368 0.87541 0.363653
0.587198 0.869001 0.363546
0.710246 0.866361 0.36643
0.833082 0.861128 0.368688
0.951705 0.852125 0.381308
1 0.845106 0.416785
0.293019 0.964157 0.403372
0.335531 0.969772 0.4103
0.404349 0.967468 0.414649
0.495949 0.966766 0.421775
0.599725 0.966445 0.428153
0.704082 0.961639 0.433722
0.815961 0.957641 0.437278
0.927062 0.954513 0.441978
1 0.946624 0.461219
0.383825 1 0.457847
0.407782 1 0.462257
0.456367 1 0.464836
0.526162 1 0.469795
0.611765 1 0.477943
0.706188 1 0.487068
0.800732 1 0.499748
0.898589 1 0.513664
0.988235 1 0.528923
0 0 0.367651
0.155886 0 0.37377
0.348531 0 0.375982
0.514824 0.00294499 0.379416
0.676966 0 0.380392
0.815808 0.00221256 0.369726
0.933577 0.0818647 0.366171
1 0.138476 0.367651
1 0.201968 0.376471
0 0.185046 0.368994
0.139773 0.181857 0.371893
0.347036 0.197024 0.381979
0.515526 0.188769 0.38323
0.674937 0.174945 0.378363
0.811856 0.178332 0.369955
0.929229 0.198535 0.365927
1 0.224933 0.370871
1 0.263355 0.380514
0 0.359319 0.382605
0.133364 0.360937 0.384253
0.331243 0.356619 0.383154
0.511147 0.354559 0.384833
0.666789 0.345342 0.376715
0.804074 0.343511 0.374884
0.917891 0.34725 0.378622
1 0.357992 0.385412
1 0.374517 0.394858
0 0.52549 0.394125
0.115679 0.528588 0.396201
0.323003 0.523522 0.388205
0.489632 0.512474 0.388327
0.640253 0.508034 0.388785
0.778286 0.500923 0.39202
0.899382 0.498161 0.399695
1 0.496071 0.407218
1 0.500984 0.420096
0 0.664698 0.3897
0.129412 0.666667 0.394186
0.31606 0.661158 0.3935
0.475914 0.654658 0.396994
0.621073 0.645106 0.398291
0.750912 0.635843 0.406867
0.874876 0.631495 0.421195
0.990997 0.629969 0.439948
1 0.625986 0.450492
0.112993 0.772427 0.410544
0.217884 0.775357 0.416693
0.342214 0.774227 0.420737
0.473823 0.769833 0.423835
0.602152 0.764218 0.424384
0.730755 0.758206 0.42594
0.854902 0.750362 0.436942
0.968277 0.745815 0.457618
1 0.739712 0.475853
0.241917 0.872297 0.442893
0.299626 0.878065 0.452293
0.383948 0.876219 0.455634
0.490471 0.872297 0.460716
0.600732 0.870222 0.463111
0.717556 0.865599 0.466819
0.833646 0.860914 0.465202
0.947021 0.85275 0.474876
1 0.846082 0.497063
0.333822 0.966796 0.482475
0.367514 0.967041 0.486152
0.428611 0.966796 0.489219
0.51632 0.966125 0.496513
0.609674 0.961212 0.498222
0.714382 0.960449 0.505867
0.822828 0.959991 0.514946
0.926955 0.953979 0.51635
1 0.944854 0.530144
0.410788 1 0.514702
0.433829 1 0.519615
0.479408 1 0.522545
0.546319 1 0.526467
0.624506 1 0.532845
0.717159 1 0.543145
0.809064 1 0.55491
0.902083 1 0.569604
0.988235 1 0.582361
0 0.0102998 0.533822
0.097612 0.0024567 0.539712
0.330632 0.0225528 0.547433
0.513664 0.051957 0.551965
0.667399 0.025742 0.546807
0.813718 0.0186313 0.535363
0.926589 0.120226 0.520714
1 0.193256 0.515694
1 0.2598 0.518135
0 0.183948 0.532357
0.082002 0.186984 0.539376
0.32459 0.191409 0.551614
0.510475 0.203433 0.554421
0.66743 0.188022 0.545251
0.806363 0.183261 0.534981
0.922759 0.22295 0.523201
1 0.266819 0.519203
1 0.311391 0.521385
0 0.349996 0.535912
0.00354009 0.342992 0.537865
0.295064 0.342031 0.54403
0.502617 0.357671 0.553826
0.661341 0.343938 0.547189
0.796933 0.350103 0.537728
0.911452 0.365072 0.529595
1 0.385 0.526879
1 0.404654 0.527947
0 0.509743 0.542641
0 0.515862 0.549386
0.282643 0.510521 0.543801
0.478721 0.509743 0.545388
0.645563 0.509285 0.544121
0.775021 0.506371 0.539788
0.895613 0.51043 0.540871
1 0.513726 0.539528
1 0.520104 0.540627
0 0.667887 0.55024
0.107851 0.669062 0.553674
0.318013 0.662684 0.552026
0.485084 0.657145 0.551019
0.624506 0.647669 0.550851
0.747051 0.64268 0.552483
0.868879 0.644724 0.557412
0.980301 0.640406 0.558236
1 0.639948 0.560296
0.174014 0.774502 0.548531
0.256855 0.777646 0.554467
0.371115 0.772946 0.555734
0.496971 0.767559 0.559716
0.617334 0.763485 0.561486
0.732601 0.75787 0.561898
0.849958 0.754162 0.568734
0.960052 0.752941 0.575616
1 0.747372 0.577935
0.288731 0.871565 0.557839
0.341344 0.875746 0.565637
0.416754 0.87512 0.567529
0.513603 0.871794 0.571511
0.618021 0.86685 0.574884
0.726452 0.864179 0.579156
0.835752 0.860014 0.581216
0.943755 0.856001 0.587762
1 0.850858 0.596323
0.368139 0.963241 0.574517
0.402441 0.966232 0.580941
0.45893 0.966079 0.581811
0.535714 0.962051 0.585901
0.630396 0.962097 0.592981
0.727565 0.958495 0.597955
0.827283 0.955139 0.603937
0.926436 0.949859 0.606897
1 0.947051 0.617151
0.445594 1 0.59559
0.468635 1 0.599512
0.509316 1 0.602457
0.568139 1 0.603983
0.645594 1 0.611276
0.729351 1 0.617578
0.819242 1 0.629038
0.906981 1 0.640864
0.988235 1 0.651957
0 0.0529335 0.684306
0 0.047303 0.686519
0.291173 0.057847 0.693629
0.485298 0.0946059 0.698039
0.647059 0.109804 0.697063
0.792889 0.0933852 0.687495
0.922057 0.12549 0.674022
1 0.206867 0.656611
1 0.294118 0.647059
0 0.187503 0.680644
0 0.186206 0.682292
0.281071 0.188663 0.691173
0.480827 0.208606 0.696513
0.646448 0.220218 0.697429
0.791424 0.209369 0.688457
0.918868 0.224567 0.67187
1 0.279835 0.657786
1 0.342153 0.653193
0 0.335286 0.674022
0 0.333639 0.675853
0.260655 0.334432 0.68162
0.466484 0.348898 0.691234
0.639704 0.362493 0.693385
0.783703 0.355947 0.686152
0.907347 0.367041 0.672419
1 0.398108 0.661097
1 0.430396 0.655879
0 0.487007 0.666911
0 0.487343 0.669276
0.23241 0.483818 0.667704
0.444297 0.490135 0.675456
0.628916 0.515694 0.68481
0.767224 0.513756 0.683085
0.889525 0.519356 0.675669
0.994217 0.524178 0.663569
1 0.537255 0.660792
0 0.637247 0.673533
0 0.641184 0.676463
0.273533 0.638483 0.673777
0.45539 0.638605 0.672679
0.609796 0.640192 0.67451
0.752575 0.647791 0.679774
0.871321 0.646326 0.674754
0.981735 0.64596 0.671321
1 0.648035 0.666667
0.139223 0.776226 0.68333
0.236271 0.776226 0.68603
0.359503 0.773953 0.684306
0.492927 0.770062 0.682139
0.62182 0.763607 0.678309
0.738293 0.760327 0.681865
0.848035 0.760601 0.68394
0.957931 0.75848 0.682536
1 0.756619 0.681132
0.287739 0.875486 0.672541
0.338903 0.880201 0.679164
0.416175 0.87512 0.678676
0.52224 0.87335 0.677821
0.632349 0.867643 0.681132
0.736767 0.863539 0.685725
0.838483 0.861158 0.688975
0.939406 0.857237 0.689342
1 0.855879 0.695094
0.38407 0.96495 0.672541
0.417655 0.965377 0.676448
0.475181 0.964462 0.67892
0.55726 0.962737 0.684123
0.646937 0.958953 0.688106
0.742458 0.957504 0.696727
0.837812 0.95613 0.70251
0.927886 0.950698 0.7019
1 0.945342 0.708095
0.492164 1 0.688243
0.513481 1 0.692164
0.547555 1 0.694118
0.601709 1 0.696818
0.670588 1 0.700984
0.752697 1 0.708583
0.833341 1 0.715694
0.912749 1 0.723781
0.988235 1 0.731365
0 0.100984 0.798047
0 0.0996872 0.800183
0.241306 0.102815 0.801953
0.436759 0.134249 0.80325
0.605631 0.177447 0.808331
0.7579 0.193194 0.812802
0.896941 0.18088 0.807111
1 0.204593 0.793805
1 0.280888 0.778424
0 0.197238 0.793988
0 0.201221 0.796262
0.237598 0.199069 0.800885
0.432837 0.220768 0.80238
0.606226 0.253132 0.805982
0.753613 0.268879 0.810117
0.893416 0.258625 0.806195
1 0.271305 0.79443
1 0.332357 0.78088
0 0.327703 0.786404
0 0.327565 0.788785
0.227573 0.329595 0.789639
0.427619 0.344869 0.796292
0.602274 0.374517 0.803555
0.752178 0.394446 0.80708
0.886244 0.385443 0.802335
1 0.391333 0.792401
1 0.42855 0.778302
0 0.466239 0.776043
0 0.466377 0.777478
0.219577 0.466056 0.779965
0.420371 0.478553 0.786068
0.598077 0.507408 0.793561
0.744976 0.531945 0.79884
0.875212 0.524926 0.800259
0.994476 0.519722 0.78854
1 0.53695 0.774578
0 0.607599 0.772549
0 0.611521 0.775097
0.239521 0.609186 0.773526
0.413977 0.6103 0.77377
0.580758 0.619242 0.778439
0.741482 0.64976 0.794888
0.866361 0.646448 0.793561
0.980362 0.64329 0.785046
1 0.649516 0.775006
0.0296025 0.741604 0.778363
0.16849 0.747356 0.783642
0.311696 0.746365 0.781888
0.451041 0.747051 0.78143
0.588235 0.747829 0.780423
0.725231 0.752102 0.782788
0.856138 0.760479 0.789075
0.961395 0.757794 0.780728
1 0.75993 0.777447
0.234684 0.873533 0.792035
0.292866 0.876692 0.794583
0.385962 0.877943 0.794614
0.500282 0.874006 0.792706
0.622065 0.870954 0.790875
0.74432 0.867964 0.790234
0.843961 0.863294 0.790417
0.940993 0.860609 0.791272
1 0.862257 0.791669
0.360784 0.970581 0.778622
0.398322 0.970153 0.781704
0.462608 0.97023 0.781994
0.552956 0.966552 0.783459
0.656214 0.96112 0.786954
0.757809 0.957046 0.793713
0.844694 0.95462 0.797269
0.933516 0.950332 0.799756
1 0.946868 0.805386
0.500496 1 0.775494
0.523537 1 0.779416
0.570214 1 0.783825
0.641672 1 0.792645
0.711269 1 0.796567
0.777874 1 0.800488
0.853315 1 0.806867
0.92372 1 0.812253
0.992157 1 0.820096
0 0.142153 0.900984
0 0.142153 0.900862
0.2 0.149752 0.903181
0.398047 0.177813 0.905394
0.571084 0.226474 0.909804
0.724025 0.274022 0.910292
0.85687 0.287495 0.911772
0.983581 0.266911 0.907835
1 0.276478 0.901961
0 0.215076 0.898283
0 0.218738 0.898512
0.20383 0.220768 0.899046
0.398413 0.24184 0.9037
0.571511 0.283818 0.906371
0.722622 0.32694 0.909438
0.853071 0.337407 0.908248
0.981094 0.323964 0.90753
1 0.329534 0.90013
0 0.332357 0.893141
0 0.33373 0.894209
0.207172 0.338415 0.896757
0.39939 0.350881 0.89868
0.572305 0.385779 0.901473
0.723339 0.425864 0.905211
0.850309 0.436759 0.904112
0.973709 0.426535 0.904234
1 0.419608 0.897063
0 0.45539 0.887129
0 0.460319 0.885954
0.217548 0.465354 0.888487
0.405005 0.477531 0.890272
0.571756 0.502876 0.895277
0.723583 0.537148 0.897444
0.847089 0.55407 0.899504
0.966232 0.540108 0.899092
1 0.530266 0.894606
0 0.589212 0.876478
0 0.590448 0.87953
0.214832 0.593622 0.880644
0.397421 0.594369 0.879225
0.562249 0.609552 0.885298
0.719539 0.640192 0.892653
0.84535 0.659434 0.894362
0.9617 0.649943 0.895582
1 0.640192 0.88481
0 0.721569 0.877943
0.0892805 0.723751 0.878355
0.257206 0.724361 0.87718
0.404471 0.721569 0.876753
0.543816 0.719356 0.876036
0.69865 0.731929 0.879759
0.844358 0.762371 0.889769
0.958038 0.757351 0.890776
1 0.756863 0.881743
0.165682 0.847059 0.882353
0.238666 0.848829 0.883391
0.33872 0.847791 0.882353
0.459525 0.849058 0.882536
0.586145 0.85098 0.882231
0.709438 0.85098 0.878614
0.831617 0.853437 0.877699
0.948837 0.862593 0.883207
1 0.866178 0.879652
0.320836 0.969604 0.892775
0.365011 0.969619 0.893584
0.436118 0.96936 0.890593
0.53286 0.968734 0.892622
0.641672 0.966354 0.889525
0.751431 0.962249 0.88632
0.857206 0.954131 0.886152
0.936584 0.951507 0.890776
1 0.950484 0.893629
0.476463 1 0.872541
0.500984 1 0.872679
0.549996 1 0.873533
0.62414 1 0.873899
0.711757 1 0.876966
0.80882 1 0.888243
0.87892 1 0.893141
0.939086 1 0.897917
0.993133 1 0.903929
0 0.188724 0.996567
0 0.189212 0.993133
0.176593 0.19791 0.993988
0.373709 0.221256 0.995285
0.540932 0.269612 0.994858
0.688045 0.327947 0.996567
0.819974 0.374014 0.993133
0.941726 0.385351 0.993133
1 0.370581 0.993133
0 0.245594 0.996139
0 0.246998 0.990509
0.185672 0.253544 0.993133
0.375433 0.27126 0.993133
0.541726 0.315496 0.99292
0.692027 0.365408 0.992706
0.822507 0.407889 0.992966
0.935653 0.417334 0.990127
1 0.410849 0.996139
0 0.346563 0.99057
0 0.347692 0.990463
0.207202 0.355673 0.99057
0.388159 0.370184 0.992599
0.546441 0.401221 0.989639
0.693721 0.443259 0.989624
0.824201 0.481559 0.99115
0.937362 0.491112 0.98941
1 0.482719 0.992157
0 0.464897 0.983642
0.00215152 0.467292 0.985565
0.237201 0.472969 0.985779
0.403388 0.48481 0.987381
0.553643 0.503578 0.987259
0.698955 0.537499 0.986206
0.82565 0.571252 0.985519
0.934371 0.579568 0.982223
1 0.570092 0.987625
0 0.588479 0.981613
0.0595254 0.590005 0.981674
0.259678 0.593256 0.981369
0.410849 0.595804 0.981613
0.554772 0.608698 0.980758
0.697368 0.629572 0.980545
0.826719 0.662989 0.981308
0.935821 0.678218 0.980911
1 0.66569 0.983581
0 0.709133 0.977935
0.0902419 0.711574 0.97467
0.25478 0.711498 0.97789
0.396262 0.711452 0.974578
0.544213 0.713146 0.97467
0.687938 0.723339 0.973098
0.826566 0.752743 0.974685
0.93286 0.774777 0.973953
1 0.766857 0.977447
0.147799 0.828061 0.974136
0.224201 0.830839 0.97499
0.31722 0.831189 0.974884
0.431739 0.829282 0.969696
0.549264 0.828183 0.968505
0.676478 0.828992 0.967559
0.81529 0.838514 0.964614
0.936538 0.870909 0.970367
1 0.865324 0.970962
0.314397 0.94313 0.974014
0.352346 0.943465 0.974014
0.420737 0.945388 0.975845
0.511467 0.945983 0.973816
0.61146 0.945098 0.970336
0.721569 0.944686 0.968017
0.832181 0.945922 0.965042
0.939101 0.950866 0.965637
1 0.957839 0.965682
0.463233 1 0.970092
0.489708 1 0.969665
0.538354 1 0.96997
0.609125 1 0.967956
0.694362 1 0.966171
0.788724 1 0.964401
0.891539 1 0.965316
0.969116 1 0.973526
0.996078 1 0.98088
0 0.223529 1
0 0.223529 1
0.154894 0.231373 1
0.341665 0.245594 1
0.505882 0.294118 1
0.654414 0.357351 1
0.784314 0.421576 1
0.899504 0.467155 1
0.996078 0.486275 1
0 0.26862 1
0 0.272114 1
0.172427 0.276463 1
0.348714 0.288228 1
0.508095 0.328435 1
0.657664 0.389212 1
0.783825 0.446204 1
0.896025 0.489158 1
0.999512 0.507347 1
0 0.362737 1
0 0.361151 1
0.213474 0.367651 1
0.367163 0.376837 1
0.518135 0.404898 1
0.661891 0.450614 1
0.788235 0.500252 1
0.899504 0.541665 1
0.996078 0.554894 1
0.0441138 0.472053 1
0.142275 0.475303 1
0.267399 0.477455 1
0.401831 0.487678 1
0.527947 0.498527 1
0.666178 0.532784 1
0.793866 0.573648 1
0.899992 0.608515 1
0.994614 0.622553 1
0.201968 0.590204 1
0.248524 0.592401 1
0.3299 0.593133 1
0.430884 0.592889 1
0.54902 0.604898 1
0.673289 0.62182 1
0.798032 0.657847 1
0.906859 0.691905 1
0.992157 0.703914 1
0.1897 0.691173 1
0.245106 0.693629 1
0.338231 0.697551 1
0.456931 0.704845 1
0.574517 0.712016 1
0.68481 0.72108 1
0.807721 0.747051 1
0.909133 0.776471 1
0.992157 0.79559 1
0.252949 0.803922 1
0.292027 0.801099 1
0.360784 0.801709 1
0.462379 0.806012 1
0.576959 0.8103 1
0.705028 0.821698 1
0.818875 0.837003 1
0.924025 0.863233 1
0.996078 0.88333 1
0.371084 0.9196 1
0.396567 0.915679 1
0.449149 0.918624 1
0.527825 0.920653 1
0.624506 0.921569 1
0.729412 0.92726 1
0.840558 0.936156 1
0.943572 0.950988 1
0.992645 0.966171 1
0.521569 1 1
0.537255 1 1
0.578424 1 1
0.640192 1 1
0.7196 1 1
0.817655 1 1
0.912749 1 1
0.984802 1 1
1 1 1
