YOYO-Client/Yoyo/Assets.xcassets/Silk.dataset/Silk.cube
TITLE "Silk"
LUT_3D_SIZE 33
0.0117647 0.0156863 0.0156863
0.0156863 0.0156863 0.0156863
0.0232853 0.0156863 0.0156863
0.0310063 0.0156863 0.0156863
0.0495155 0.0156863 0.0156863
0.0687572 0.0196078 0.0156863
0.0958267 0.0196078 0.0156863
0.125978 0.0196078 0.0126192
0.160784 0.0156863 0.0117647
0.19559 0.00894179 0.0117647
0.233082 0.00122072 0.0117647
0.271687 0 0.0117647
0.310292 0 0.0117647
0.355154 0 0.0117647
0.401465 0 0.0117647
0.447791 0 0.0117647
0.496086 0 0.0117647
0.544366 0 0.0117647
0.590692 0 0.0117647
0.635416 0 0.0117647
0.677943 0 0.0102998
0.716548 0 0.00784314
0.753918 0 0.00784314
0.789822 0 0.00392157
0.824506 0 0.00294499
0.858335 0 0
0.893141 0 0
0.9234 0 0
0.950484 0 0
0.977569 0 0
1 0.00122072 0
1 0.0598001 0
1 0.121569 0
0.0117647 0.0194858 0.0156863
0.0156863 0.0194858 0.0156863
0.0232853 0.0194858 0.0156863
0.0310063 0.0230564 0.0156863
0.0495155 0.0234073 0.0156863
0.0726787 0.0273289 0.0156863
0.099733 0.0273289 0.0156863
0.1299 0.0273289 0.0126192
0.164675 0.0243839 0.0117647
0.199481 0.0166629 0.0117647
0.236927 0.010132 0.0117647
0.275486 0.00131228 0.0117647
0.314092 0 0.0117647
0.358953 0 0.014023
0.405264 0 0.0156252
0.451652 0 0.0156863
0.498039 0 0.0156863
0.548165 0 0.0155642
0.594491 0 0.0117647
0.636957 0 0.0117647
0.677943 0 0.0117647
0.719036 0 0.0103304
0.755154 0 0.00784314
0.792554 0 0.00674449
0.827451 0 0.00294499
0.862165 0 0
0.893141 0 0
0.924025 0 0
0.950988 0 0
0.977569 0 0
1 0.0251164 0
1 0.0867628 0
1 0.137011 0
0.0117647 0.0232853 0.0196078
0.0194858 0.0235142 0.0193637
0.0267338 0.0272068 0.0159152
0.0382391 0.0305333 0.0156863
0.0532235 0.0311284 0.0156863
0.0763409 0.03505 0.0156863
0.103624 0.0380407 0.0156863
0.137499 0.0358587 0.0154879
0.171328 0.0348669 0.0117647
0.206012 0.0283055 0.0117647
0.240757 0.0242618 0.0117647
0.279286 0.0127108 0.0154421
0.320348 0.00505074 0.0156863
0.366674 0 0.0156863
0.409308 0 0.0156863
0.459312 0 0.0156863
0.505638 0 0.0156863
0.551965 0 0.0156863
0.598291 0 0.0155795
0.640833 0 0.0117647
0.681865 0 0.0117647
0.72047 0 0.0116732
0.758999 0 0.00784314
0.793744 0 0.00674449
0.831189 0 0.00386053
0.863066 0 0
0.896819 0 0
0.924025 0 0
0.954192 0 0
0.977569 0.00982681 0
1 0.0630045 0
1 0.109804 0
1 0.15613 0
0.0156863 0.0349279 0.0196078
0.0194858 0.0384833 0.0196078
0.0272068 0.0384833 0.0196078
0.0420386 0.0420691 0.0156863
0.060914 0.0463264 0.0156863
0.0810101 0.0501869 0.0156863
0.110414 0.050248 0.0156863
0.141299 0.050248 0.0156863
0.176104 0.050248 0.0156863
0.213733 0.046067 0.0154269
0.248402 0.0432593 0.0156863
0.287007 0.0355383 0.0156863
0.329534 0.0278172 0.0156863
0.37438 0.0197299 0.0156863
0.420706 0.0102235 0.0156863
0.467033 0.00166323 0.0156863
0.513359 0 0.0156863
0.559686 0 0.0156863
0.604288 0 0.0156863
0.646967 0 0.0155337
0.689342 0 0.0117647
0.727947 0 0.0117647
0.762875 0 0.010544
0.800229 0 0.00784314
0.835019 0 0.00392157
0.866178 0 0
0.897063 0 0
0.927886 0 0
0.954406 0.0241245 0
0.981155 0.0656291 0
1 0.10135 0
1 0.1364 0
1 0.175372 0
0.0117647 0.0573587 0.0196078
0.0199588 0.0606699 0.0196078
0.0276646 0.0607767 0.0196078
0.0424048 0.0643778 0.0157321
0.0647135 0.0686198 0.0126802
0.091783 0.0729686 0.0117647
0.121569 0.0736858 0.0117647
0.152453 0.0730449 0.012253
0.186404 0.0730449 0.012253
0.224872 0.0700847 0.014725
0.262989 0.0687877 0.0156863
0.304341 0.0682994 0.0156863
0.346563 0.0656901 0.0156863
0.388968 0.0616922 0.0194095
0.435294 0.0556039 0.0196078
0.481621 0.047303 0.0196078
0.527947 0.0352941 0.0196078
0.57084 0.020798 0.0177768
0.615167 0.0087892 0.0156863
0.657969 0 0.0156863
0.696574 0 0.0155032
0.733989 0 0.0117647
0.769268 0 0.0117647
0.804059 0 0.00784314
0.838727 0 0.00686656
0.8701 0.0117952 0.00306706
0.900893 0.0335546 0
0.930831 0.0599527 0
0.9579 0.0878004 0
0.981491 0.112703 0
1 0.139498 0
1 0.167163 0
1 0.198047 0
0.00122072 0.0844434 0.0162966
0.012253 0.0877394 0.0196078
0.0236515 0.0877394 0.0196078
0.0390936 0.088304 0.0156863
0.0618906 0.0922103 0.012253
0.0916609 0.0995041 0.0084535
0.125856 0.103426 0.00515755
0.159945 0.103426 0.00453193
0.194491 0.100343 0.0084535
0.232914 0.0995041 0.0108339
0.271687 0.0995041 0.0123751
0.314214 0.102815 0.0156863
0.356512 0.102815 0.0160678
0.401236 0.100496 0.0196078
0.447303 0.098558 0.0196078
0.493629 0.0946517 0.0196078
0.536645 0.0884871 0.0196078
0.582681 0.0837873 0.0196078
0.62536 0.0757305 0.0196078
0.666178 0.0707103 0.0176547
0.704784 0.0642252 0.0156863
0.742031 0.0638437 0.0156863
0.776837 0.0638437 0.0140383
0.809262 0.0688792 0.0115969
0.84268 0.0772106 0.00769055
0.874022 0.0891127 0.00392157
0.904784 0.102571 0
0.931762 0.118608 0
0.958328 0.138476 0
0.984802 0.15491 0
1 0.174762 0
1 0.198047 0
1 0.22562 0
0 0.114702 0.0188754
0.000717174 0.118624 0.0188907
0.00881971 0.118624 0.0195621
0.0278172 0.118624 0.0159915
0.0537728 0.122057 0.0156863
0.0845655 0.125978 0.0084535
0.118624 0.133577 0.00146487
0.160418 0.140719 0
0.202213 0.137499 0
0.240803 0.13521 0.0012665
0.279408 0.13431 0.00416571
0.320836 0.137499 0.0111543
0.366918 0.137499 0.0144961
0.412497 0.140124 0.0161288
0.458824 0.138888 0.0196078
0.50515 0.137499 0.0196078
0.551476 0.136767 0.0196078
0.595956 0.132845 0.0196078
0.638483 0.128603 0.0196078
0.677821 0.128191 0.0196078
0.716152 0.126253 0.0193332
0.750851 0.127443 0.0156863
0.784558 0.127687 0.0156863
0.81883 0.132479 0.0140536
0.850248 0.137011 0.0102388
0.881132 0.148653 0.0071107
0.90869 0.156512 0.00378424
0.935668 0.16936 0
0.962249 0.181613 0
0.985412 0.197055 0
1 0.212543 0
1 0.232013 0
1 0.255879 0
0 0.149508 0.0196078
0 0.152575 0.0196078
0 0.152575 0.0196078
0.0123751 0.152575 0.0196078
0.0428931 0.156115 0.0160678
0.0768444 0.159945 0.0115206
0.110903 0.165042 0.00131228
0.154101 0.172183 0
0.198901 0.176104 0
0.244358 0.176104 0
0.286168 0.173144 0
0.328313 0.172183 0.000564584
0.371572 0.17496 0.00416571
0.420951 0.178439 0.0110323
0.469001 0.180026 0.0161746
0.517525 0.180026 0.0165408
0.563851 0.179171 0.0196078
0.607874 0.179171 0.0196078
0.65037 0.177447 0.0196078
0.689464 0.17525 0.0196078
0.726055 0.176394 0.0196078
0.761395 0.178302 0.0196078
0.795605 0.180117 0.017792
0.827085 0.183948 0.0156863
0.857969 0.19028 0.0140688
0.888182 0.195712 0.0102388
0.915236 0.204166 0.00767529
0.942153 0.215076 0.00378424
0.965423 0.22414 0
0.988479 0.23566 0
1 0.251102 0
1 0.266667 0
1 0.28983 0
0 0.193133 0.0235294
0 0.19408 0.0235294
0 0.194125 0.0235294
0.000885023 0.194125 0.0235294
0.0308843 0.194125 0.0226749
0.0715953 0.198047 0.0192416
0.106126 0.202213 0.0077821
0.147799 0.208942 0
0.19118 0.214466 0
0.240436 0.217639 0
0.289708 0.217639 0
0.335393 0.21474 0
0.381369 0.214343 0
0.427695 0.21471 0.000579843
0.476661 0.218631 0.00416571
0.526802 0.220188 0.0109102
0.574517 0.221576 0.0142214
0.620829 0.221576 0.0166629
0.661524 0.221576 0.0179599
0.70013 0.222766 0.0196078
0.737621 0.224872 0.0196078
0.772061 0.225498 0.0196078
0.803922 0.226719 0.0196078
0.834806 0.230518 0.0185092
0.864958 0.23505 0.0156863
0.892653 0.242039 0.0140688
0.919051 0.24976 0.0107881
0.945953 0.257481 0.0101778
0.969116 0.266178 0.00686656
0.992004 0.277821 0.00294499
1 0.289525 0.00294499
1 0.302205 0.00294499
1 0.320592 0.00587472
0 0.229786 0.0302739
0 0.234775 0.0302739
0 0.237629 0.0302739
0 0.235065 0.0302739
0.0157931 0.234806 0.0302739
0.0640879 0.234806 0.0269627
0.103304 0.237995 0.0183413
0.141665 0.241794 0.00428778
0.181338 0.246571 0
0.229786 0.253315 0
0.279896 0.256352 0
0.332845 0.256504 0
0.382269 0.253315 0
0.429664 0.253315 0
0.479896 0.256001 0
0.529625 0.257816 0.000579843
0.579843 0.261158 0.00361639
0.6262 0.26508 0.00894179
0.670222 0.2663 0.0128634
0.708827 0.267887 0.0144656
0.745953 0.268299 0.0167849
0.780758 0.271809 0.0196078
0.811643 0.273045 0.0196078
0.842527 0.276051 0.0196078
0.870314 0.280644 0.0193332
0.899504 0.285298 0.0185092
0.9243 0.292149 0.0185092
0.949752 0.29987 0.0178988
0.972915 0.307729 0.0145876
0.992889 0.316426 0.0144808
1 0.324392 0.0134737
1 0.337011 0.0135958
1 0.355276 0.0202182
0 0.26569 0.0352941
0 0.272175 0.037995
0 0.272297 0.037995
0 0.272297 0.037995
0.00106813 0.269947 0.037995
0.0487221 0.269612 0.0346838
0.095079 0.269612 0.0296635
0.134188 0.273259 0.0161746
0.172793 0.277455 0.00134279
0.218143 0.284184 0
0.267536 0.291066 0
0.322011 0.294911 0
0.37525 0.295827 0
0.429282 0.294606 0
0.482109 0.295293 0
0.532235 0.295827 0
0.580392 0.299748 0
0.629419 0.30367 0
0.673045 0.307591 0.00175479
0.713848 0.310292 0.00674449
0.751995 0.312535 0.010544
0.786709 0.314641 0.0161135
0.819364 0.318135 0.0196078
0.850248 0.320119 0.0203708
0.877211 0.325978 0.0235294
0.904173 0.330175 0.0241245
0.930388 0.335561 0.0262303
0.953552 0.342275 0.0262303
0.976379 0.347311 0.0262303
0.996445 0.355032 0.0263676
1 0.362829 0.0289158
1 0.374502 0.0290379
1 0.389944 0.0394598
0 0.300496 0.0417945
0 0.306905 0.0430915
0 0.308339 0.045716
0 0.307118 0.0433814
0 0.306981 0.0434577
0.0303044 0.306981 0.0424048
0.086656 0.304417 0.0386053
0.128481 0.306981 0.0298314
0.168994 0.310262 0.0120089
0.211139 0.315068 0
0.256733 0.322789 0
0.30956 0.329625 0
0.36495 0.333471 0
0.421576 0.334432 0
0.478187 0.334432 0
0.529656 0.334432 0
0.580392 0.3364 0
0.628061 0.3402 0
0.673045 0.343999 0
0.715434 0.348592 0
0.755871 0.353201 0.00184634
0.790585 0.357076 0.00750744
0.824506 0.360967 0.0139162
0.855009 0.364843 0.0207065
0.884276 0.368719 0.024506
0.911025 0.372595 0.0303197
0.934188 0.378058 0.0344244
0.957351 0.382101 0.0378729
0.977935 0.389334 0.0404364
0.996445 0.393622 0.0408026
1 0.401343 0.0445258
1 0.410498 0.0509804
1 0.424628 0.062623
0 0.3402 0.0495155
0 0.343084 0.0495155
0 0.343145 0.0495155
0 0.343145 0.0495155
0 0.343145 0.0495155
0.00495918 0.341665 0.0495155
0.0738384 0.341665 0.0475166
0.122667 0.341665 0.0413825
0.164828 0.343145 0.0268406
0.207309 0.347051 0.00575265
0.249027 0.353674 0
0.298421 0.359792 0
0.35288 0.365194 0
0.409796 0.370596 0
0.466819 0.373037 0
0.521935 0.373037 0
0.574014 0.373037 0
0.624262 0.375662 0
0.669947 0.379507 0
0.712398 0.383352 0
0.752453 0.389273 0
0.790219 0.393988 0
0.824506 0.397787 0.00492866
0.85539 0.402655 0.0143435
0.885298 0.4065 0.024506
0.912383 0.412253 0.0322271
0.935546 0.416449 0.0424048
0.958694 0.420706 0.0482643
0.981369 0.427939 0.0558785
1 0.432227 0.0599374
1 0.437507 0.0653544
1 0.446769 0.0716869
1 0.45687 0.079408
0 0.376349 0.053315
0 0.38407 0.054902
0 0.385779 0.054902
0 0.384192 0.054902
0 0.382147 0.054902
0 0.38027 0.054902
0.0577096 0.377935 0.053315
0.117159 0.377935 0.050248
0.160998 0.377935 0.0413367
0.202335 0.380758 0.0229953
0.245228 0.384558 0.00218204
0.29099 0.388357 0
0.340322 0.394629 0
0.395315 0.400519 0
0.452201 0.406699 0
0.507973 0.409308 0
0.56318 0.408515 0
0.613367 0.410407 0
0.662867 0.41323 0
0.707591 0.417151 0
0.747066 0.422553 0
0.784802 0.426352 0
0.821088 0.43357 0
0.85539 0.437873 0.00314336
0.885298 0.443992 0.0174868
0.912383 0.449042 0.0330816
0.935546 0.45478 0.0464942
0.958694 0.459312 0.0582132
0.981659 0.463111 0.0678874
1 0.46836 0.0756085
1 0.474632 0.083238
1 0.482353 0.0895094
1 0.491661 0.101106
0 0.411032 0.0571145
0 0.418753 0.0587778
0 0.420584 0.0588235
0 0.419028 0.0588235
0 0.416663 0.0588235
0 0.414954 0.0573739
0.0342565 0.412741 0.0571145
0.105028 0.411032 0.0571145
0.156619 0.411032 0.050248
0.199634 0.412741 0.036408
0.242115 0.415442 0.0147555
0.28603 0.419242 0
0.333425 0.424506 0
0.382727 0.430762 0
0.438483 0.436271 0
0.495644 0.442283 0
0.550484 0.445228 0
0.602701 0.446326 0
0.651225 0.447074 0
0.697551 0.449638 0
0.739956 0.453437 0
0.781003 0.4598 0
0.817197 0.464958 0
0.851469 0.472679 0
0.882353 0.478126 0.00170901
0.910658 0.484184 0.0260929
0.935546 0.489784 0.0489357
0.958694 0.495445 0.0661784
0.981369 0.49929 0.0776989
1 0.503304 0.0890516
1 0.509316 0.0987716
1 0.514824 0.108751
1 0.524758 0.120348
0 0.445716 0.060914
0 0.451408 0.0626841
0 0.453559 0.0610208
0 0.451667 0.0610819
0 0.449866 0.060914
0 0.447868 0.060914
0.0140383 0.447547 0.060914
0.0956283 0.445716 0.060914
0.153918 0.445716 0.0574502
0.199908 0.445716 0.0489204
0.242359 0.447547 0.0313725
0.28603 0.450843 0.00621042
0.32958 0.453925 0
0.377829 0.46041 0
0.429038 0.465446 0
0.48101 0.472053 0
0.535042 0.475914 0
0.58909 0.47892 0
0.638407 0.48101 0
0.685908 0.482841 0
0.729458 0.484321 0
0.771923 0.489326 0
0.811887 0.495827 0
0.846052 0.503548 0
0.878431 0.508736 0
0.906828 0.515068 0.00201419
0.933852 0.522789 0.0346075
0.958373 0.526589 0.0661326
0.979553 0.533822 0.08542
0.998108 0.537942 0.100679
1 0.541909 0.112261
1 0.54963 0.125978
1 0.557351 0.141421
0 0.476463 0.0627451
0 0.480323 0.0627451
0 0.480385 0.0627451
0 0.480385 0.0627451
0 0.478676 0.0627451
0 0.478431 0.0627451
0 0.476844 0.0627451
0.0846876 0.476463 0.0627451
0.147555 0.476463 0.0627451
0.197299 0.476463 0.057969
0.241672 0.476463 0.045594
0.284062 0.4804 0.0223697
0.326467 0.482841 0.00146487
0.372793 0.486641 0
0.41912 0.491295 0
0.46949 0.498161 0
0.519615 0.501961 0
0.573648 0.507836 0
0.623774 0.511513 0
0.672297 0.513726 0
0.71667 0.514458 0
0.760357 0.51899 0
0.800244 0.524147 0
0.8383 0.529961 0
0.872557 0.536278 0
0.902571 0.543999 0
0.929656 0.549752 0.00221256
0.952819 0.557168 0.0428931
0.975982 0.563241 0.084062
0.996445 0.568994 0.106981
1 0.574762 0.125978
1 0.582483 0.143389
1 0.590188 0.158816
0 0.509316 0.0666667
0 0.513176 0.0684977
0 0.513237 0.0684977
0 0.513237 0.0684977
0 0.509804 0.0684977
0 0.509316 0.0669566
0 0.509316 0.0666667
0.0732891 0.505394 0.0666667
0.145098 0.505394 0.0666667
0.194705 0.505394 0.0645762
0.239704 0.505394 0.0565347
0.283452 0.506752 0.0402991
0.324514 0.508629 0.0146334
0.366918 0.512489 0
0.412207 0.51635 0
0.457725 0.521324 0
0.507973 0.527077 0
0.558206 0.532845 0
0.606622 0.537682 0
0.656855 0.541527 0
0.703182 0.54461 0
0.746792 0.547326 0
0.788602 0.551186 0
0.827207 0.556954 0
0.863447 0.563363 0
0.895705 0.568994 0
0.922667 0.576364 0
0.94902 0.582605 0.00227359
0.971923 0.590326 0.0482338
0.992889 0.595956 0.098085
1 0.603555 0.128298
1 0.609552 0.15111
1 0.617273 0.170459
0 0.5402 0.0722972
0 0.544121 0.0722972
0 0.544121 0.0745098
0 0.544121 0.0722972
0 0.540688 0.0722972
0 0.5402 0.0722972
0 0.537011 0.0722972
0.0707256 0.536278 0.0722972
0.145098 0.536278 0.0722972
0.196689 0.536278 0.0710765
0.243626 0.536278 0.0656901
0.285176 0.536278 0.0565194
0.327047 0.537652 0.0370031
0.368505 0.5402 0.00788891
0.411032 0.543374 0
0.455634 0.547234 0
0.500252 0.552209 0
0.546563 0.556924 0
0.595102 0.563729 0
0.641428 0.567529 0
0.687739 0.572396 0
0.733318 0.575494 0
0.77525 0.579416 0
0.815564 0.583947 0
0.851896 0.588235 0
0.886656 0.594247 0
0.914946 0.601953 0
0.943358 0.609339 0
0.966171 0.613474 0.00221256
0.987625 0.621195 0.0566415
1 0.628916 0.112123
1 0.636637 0.149981
1 0.644358 0.17818
0 0.571084 0.0760967
0 0.574884 0.0799725
0 0.575006 0.0800183
0 0.575006 0.0800183
0 0.571084 0.0784314
0 0.571084 0.076463
0 0.567163 0.0760967
0.0765545 0.567163 0.0760967
0.150607 0.567163 0.0760967
0.202823 0.567163 0.0760967
0.249149 0.567163 0.0750134
0.292897 0.567163 0.0680858
0.332952 0.567163 0.0550546
0.374014 0.568536 0.0307622
0.413931 0.571084 0.0027924
0.453559 0.574258 0
0.497246 0.578119 0
0.539696 0.583093 0
0.585168 0.586892 0
0.630854 0.593668 0
0.676219 0.598413 0
0.719676 0.60325 0
0.763729 0.607095 0
0.803922 0.610956 0
0.840925 0.614801 0
0.876341 0.620813 0
0.907225 0.625116 0
0.937499 0.632837 0
0.960662 0.64007 0
0.983612 0.644358 0.00173953
1 0.652079 0.0617685
1 0.6598 0.126146
1 0.667521 0.173281
0 0.597543 0.0808881
0 0.599924 0.0808881
0 0.6 0.0831769
0 0.601328 0.0808881
0 0.599023 0.0823529
0 0.599023 0.0823529
0 0.596567 0.0823529
0.0913405 0.596567 0.0823529
0.157839 0.596567 0.0823529
0.210132 0.596567 0.0823529
0.257633 0.596567 0.0806744
0.300114 0.596567 0.0773327
0.339223 0.596567 0.0696117
0.377813 0.597436 0.0517281
0.416419 0.598047 0.0216678
0.456321 0.601267 0.000686656
0.496086 0.605142 0
0.537301 0.607721 0
0.578927 0.612894 0
0.621317 0.618647 0
0.665263 0.623041 0
0.708583 0.630259 0
0.750973 0.634104 0
0.792279 0.637949 0
0.830518 0.641794 0
0.864713 0.64564 0
0.898039 0.651469 0
0.926467 0.656001 0
0.953429 0.663539 0
0.979797 0.667521 0
0.998627 0.675242 0.00183108
1 0.68542 0.0763256
1 0.693141 0.151965
0 0.628916 0.0876173
0 0.632715 0.0876173
0 0.62916 0.0876173
0 0.628916 0.0876173
0 0.628916 0.0876173
0 0.625406 0.0862745
0.00976577 0.624994 0.0862745
0.104707 0.624994 0.0862745
0.168383 0.624994 0.0836957
0.219226 0.624033 0.0855573
0.264576 0.623652 0.0862745
0.307454 0.623652 0.0836957
0.346929 0.623652 0.078172
0.385534 0.624994 0.0680858
0.423377 0.626444 0.0456092
0.461402 0.62829 0.0120241
0.498711 0.631495 0
0.538598 0.635416 0
0.577203 0.639338 0
0.618387 0.644846 0
0.658457 0.648646 0
0.699504 0.655024 0
0.740688 0.660166 0
0.780636 0.663966 0
0.818906 0.667765 0
0.85362 0.671 0
0.887861 0.675364 0
0.918746 0.679164 0
0.945708 0.686397 0
0.972305 0.690684 0
0.995056 0.698329 0
1 0.704784 0.00105287
1 0.713848 0.088365
0 0.6598 0.0914168
0 0.6598 0.0953384
0 0.6598 0.0953384
0 0.6598 0.0916762
0 0.656214 0.0914168
0 0.655879 0.0914168
0.0485389 0.655879 0.0914168
0.127459 0.654658 0.0904707
0.184131 0.651957 0.0901961
0.231479 0.651957 0.0901961
0.276616 0.651957 0.0914168
0.317281 0.651957 0.0914168
0.355886 0.651957 0.0874952
0.393759 0.651957 0.0796521
0.43035 0.655344 0.0671092
0.466545 0.655879 0.0409705
0.502571 0.658579 0.00637827
0.539254 0.661067 0
0.577203 0.664912 0
0.615305 0.668009 0
0.653193 0.672587 0
0.691783 0.678187 0
0.730388 0.68333 0
0.768994 0.687129 0
0.807599 0.693874 0
0.844388 0.697795 0
0.876219 0.699519 0
0.907103 0.703365 0
0.937835 0.70956 0
0.964584 0.713848 0
0.987747 0.717647 0
1 0.725368 0
1 0.733089 0
0 0.689586 0.103059
0 0.690684 0.103059
0 0.689647 0.103059
0 0.687022 0.0992447
0 0.686763 0.0991379
0.0102388 0.685832 0.0991379
0.0960861 0.682841 0.096849
0.155505 0.682841 0.0963302
0.205264 0.682841 0.0952163
0.250797 0.682841 0.0955367
0.291295 0.682841 0.0963302
0.332723 0.682841 0.0991379
0.370214 0.682841 0.0963302
0.405356 0.682841 0.0935531
0.44007 0.682841 0.0835889
0.474784 0.684337 0.0671244
0.508949 0.685664 0.0349279
0.543114 0.68809 0.00234989
0.577829 0.690059 0
0.614221 0.69395 0
0.650492 0.697841 0
0.688716 0.701732 0
0.725719 0.706493 0
0.761273 0.710292 0
0.798901 0.717037 0
0.833707 0.721813 0
0.868498 0.725612 0
0.899382 0.728969 0
0.929778 0.732723 0
0.956863 0.736645 0
0.980026 0.74081 0
1 0.747341 0
1 0.752331 0
0 0.71667 0.109804
0 0.71667 0.112657
0 0.71667 0.109804
0 0.715785 0.109804
0.00772107 0.715679 0.109804
0.085359 0.712749 0.106859
0.140139 0.712749 0.106859
0.187655 0.712749 0.106859
0.232349 0.712749 0.106859
0.271931 0.712749 0.106859
0.310536 0.712749 0.10753
0.348165 0.709804 0.107836
0.383215 0.709804 0.107836
0.41912 0.709804 0.106096
0.452628 0.710781 0.100069
0.48481 0.712352 0.0894942
0.518135 0.713726 0.0696117
0.550484 0.714702 0.0355077
0.583642 0.717647 0.00331121
0.617365 0.719829 0
0.652079 0.723033 0
0.686152 0.726833 0
0.72285 0.730632 0
0.757351 0.734432 0
0.792157 0.740444 0
0.8262 0.744976 0
0.858396 0.749569 0
0.891661 0.753399 0
0.922179 0.757229 0
0.949233 0.760174 0
0.976226 0.763973 0
0.999054 0.771695 0
1 0.778439 0
0.00170901 0.747677 0.127199
0.0101625 0.747677 0.127199
0.0189517 0.747677 0.127199
0.0628672 0.74461 0.123568
0.10341 0.74461 0.123278
0.144259 0.743755 0.119356
0.18436 0.741268 0.119356
0.222004 0.740688 0.119356
0.257359 0.740688 0.119356
0.295094 0.740688 0.118746
0.329778 0.740688 0.119356
0.365515 0.739834 0.119356
0.399756 0.739834 0.119356
0.434211 0.739834 0.120607
0.465446 0.740307 0.119356
0.499382 0.740688 0.111727
0.530266 0.742214 0.100618
0.561151 0.743755 0.0788281
0.592035 0.745953 0.0448615
0.625986 0.747677 0.00357061
0.656855 0.751598 0
0.689662 0.752941 0
0.722545 0.756741 0
0.754528 0.76054 0
0.788235 0.76434 0
0.822187 0.768139 0
0.853071 0.775128 0
0.88394 0.779049 0
0.914824 0.783078 0
0.941787 0.786892 0
0.968551 0.790814 0
0.995377 0.794736 0
1 0.798657 0
0.0911727 0.775494 0.143389
0.109834 0.775494 0.143389
0.12755 0.774807 0.142687
0.146029 0.771862 0.139467
0.168383 0.771572 0.13872
0.194232 0.771572 0.135546
0.224399 0.77084 0.134798
0.255146 0.77084 0.134798
0.288426 0.767651 0.134798
0.320104 0.767651 0.134798
0.35317 0.767651 0.134798
0.385046 0.767651 0.135286
0.417929 0.767651 0.135546
0.450004 0.767651 0.137438
0.480888 0.767651 0.136934
0.511772 0.767651 0.133455
0.542641 0.767651 0.125734
0.572793 0.77084 0.112993
0.600488 0.77116 0.091249
0.63064 0.772869 0.0550088
0.661524 0.775036 0.00587472
0.692409 0.778683 0
0.723278 0.782605 0
0.754162 0.784222 0
0.788235 0.788052 0
0.81912 0.794369 0
0.849867 0.798428 0
0.879652 0.802823 0
0.907744 0.806622 0
0.937621 0.810422 0
0.961715 0.814023 0
0.987884 0.817914 0
1 0.82182 0
0.178058 0.802457 0.163241
0.185779 0.802457 0.163333
0.196612 0.802457 0.162615
0.208087 0.801892 0.159625
0.222919 0.798947 0.158694
0.245075 0.798535 0.155901
0.268132 0.798535 0.154894
0.293889 0.798535 0.154772
0.320714 0.798535 0.154772
