YOYO-Client/Yoyo/Assets.xcassets/Silk.dataset/Silk.cube
TITLE "Silk"
LUT_3D_SIZE 5
0.0117647 0.0156863 0.0156863
0.160784 0.0156863 0.0117647
0.496086 0 0.0117647
0.824506 0 0.00294499
1 0.121569 0
0 0.193133 0.0235294
0.19118 0.214466 0
0.574517 0.221576 0.0142214
0.864958 0.23505 0.0156863
1 0.320592 0.00587472
0 0.476463 0.0627451
0.147555 0.476463 0.0627451
0.519615 0.501961 0
0.872557 0.536278 0
1 0.590188 0.158816
0 0.71667 0.109804
0.232349 0.712749 0.106859
0.518135 0.713726 0.0696117
0.792157 0.740444 0
1 0.778439 0
0.541176 0.94902 0.419608
0.586267 0.945098 0.415686
0.705882 0.945098 0.423529
0.849027 0.94902 0.386267
1 0.972549 0.188235
0 0.00784314 0.19118
0.243381 0 0.232593
0.478431 0.0117647 0.222065
0.819608 0 0.188235
1 0.0362707 0.177447
0 0.210544 0.240925
0.236454 0.254414 0.262501
0.577203 0.237247 0.238239
0.85153 0.230945 0.218082
1 0.305882 0.203922
0 0.533822 0.269612
0.207355 0.526101 0.262257
0.567407 0.535546 0.1897
0.8804 0.562737 0.268254
1 0.601465 0.322057
0 0.739223 0.278431
0.276219 0.735286 0.274754
0.542885 0.729412 0.26421
0.802945 0.751965 0.0708934
1 0.786282 0.189944
0.541176 0.952941 0.489219
0.587259 0.949752 0.484321
0.705882 0.946563 0.484321
0.849027 0.949996 0.462745
1 0.972549 0.314702
0 0.00196841 0.492164
0.306859 0 0.566659
0.737255 0 0.613733
0.775494 0.20882 0.519615
1 0.164706 0.501961
0 0.203433 0.472557
0.249012 0.211887 0.539712
0.730388 0.196323 0.618143
0.789578 0.351476 0.541054
1 0.278431 0.488243
0 0.526467 0.556863
0.31397 0.551476 0.572305
0.6598 0.618143 0.615686
0.856611 0.584802 0.566659
1 0.572549 0.513726
0.27451 0.796078 0.602945
0.389212 0.788846 0.585168
0.597055 0.767163 0.55172
0.818631 0.777447 0.492653
1 0.811765 0.588235
0.527459 0.964706 0.645106
0.571084 0.960784 0.637263
0.693141 0.956863 0.625498
0.842161 0.955398 0.621561
1 0.976471 0.533333
0.14313 0 0.752941
0.388479 0 0.782605
0.796078 0 0.853437
1 0 0.852934
0.997055 0.41471 0.772549
0.0259861 0.175494 0.731365
0.336522 0.155886 0.761761
0.766674 0.122911 0.840681
0.987808 0.268879 0.849454
0.979416 0.512749 0.779416
0 0.442161 0.688731
0.185657 0.449882 0.699382
0.623529 0.513726 0.780148
0.925734 0.625986 0.838239
0.951476 0.66862 0.787747
0.35172 0.75172 0.77525
0.45687 0.758083 0.778439
0.661891 0.786282 0.79498
0.855817 0.846693 0.836271
0.984314 0.81471 0.787991
0.582345 0.976471 0.869612
0.609064 0.976471 0.863478
0.691661 0.976471 0.841672
0.82623 0.968627 0.802945
0.996078 0.984314 0.772549
0.596078 0.0588235 0.988235
0.66862 0 0.992157
0.858824 0 1
1 0 1
1 0.309804 0.996078
0.574502 0.291173 0.981369
0.650004 0.262745 0.987503
0.838239 0.198535 1
1 0.300008 1
1 0.451957 0.996078
0.47451 0.558831 0.962737
0.54902 0.54902 0.966171
0.750988 0.533333 0.981369
0.975006 0.594125 1
1 0.672557 0.988235
0.378439 0.775494 0.94902
0.43946 0.772549 0.94902
0.598047 0.768627 0.953429
0.852934 0.785046 0.977203
1 0.860792 0.984314
0.631373 0.960784 0.976471
0.657847 0.960784 0.976471
0.733333 0.964706 0.980392
0.84509 0.976471 0.984314
0.992157 0.992157 0.992157
