YOYO-Client/Yoyo/Assets.xcassets/Silk.dataset/Silk.cube
TITLE "Silk"
LUT_3D_SIZE 9
0.0117647 0.0156863 0.0156863
0.0495155 0.0156863 0.0156863
0.160784 0.0156863 0.0117647
0.310292 0 0.0117647
0.496086 0 0.0117647
0.677943 0 0.0102998
0.824506 0 0.00294499
0.950484 0 0
1 0.121569 0
0.0117647 0.0573587 0.0196078
0.0647135 0.0686198 0.0126802
0.186404 0.0730449 0.012253
0.346563 0.0656901 0.0156863
0.527947 0.0352941 0.0196078
0.696574 0 0.0155032
0.838727 0 0.00686656
0.9579 0.0878004 0
1 0.198047 0
0 0.193133 0.0235294
0.0308843 0.194125 0.0226749
0.19118 0.214466 0
0.381369 0.214343 0
0.574517 0.221576 0.0142214
0.737621 0.224872 0.0196078
0.864958 0.23505 0.0156863
0.969116 0.266178 0.00686656
1 0.320592 0.00587472
0 0.3402 0.0495155
0 0.343145 0.0495155
0.164828 0.343145 0.0268406
0.35288 0.365194 0
0.574014 0.373037 0
0.752453 0.389273 0
0.885298 0.4065 0.024506
0.981369 0.427939 0.0558785
1 0.45687 0.079408
0 0.476463 0.0627451
0 0.478676 0.0627451
0.147555 0.476463 0.0627451
0.326467 0.482841 0.00146487
0.519615 0.501961 0
0.71667 0.514458 0
0.872557 0.536278 0
0.975982 0.563241 0.084062
1 0.590188 0.158816
0 0.597543 0.0808881
0 0.599023 0.0823529
0.157839 0.596567 0.0823529
0.339223 0.596567 0.0696117
0.496086 0.605142 0
0.665263 0.623041 0
0.830518 0.641794 0
0.953429 0.663539 0
1 0.693141 0.151965
0 0.71667 0.109804
0.00772107 0.715679 0.109804
0.232349 0.712749 0.106859
0.383215 0.709804 0.107836
0.518135 0.713726 0.0696117
0.652079 0.723033 0
0.792157 0.740444 0
0.922179 0.757229 0
1 0.778439 0
0.247547 0.833341 0.194125
0.282353 0.829908 0.187259
0.361761 0.825986 0.183825
0.467338 0.825986 0.185962
0.576471 0.825742 0.185779
0.68217 0.829602 0.137743
0.793011 0.841184 0
0.903487 0.856428 0
1 0.872541 0
0.541176 0.94902 0.419608
0.552453 0.94902 0.419608
0.586267 0.945098 0.415686
0.640192 0.945098 0.415686
0.705882 0.945098 0.423529
0.775494 0.945098 0.418143
0.849027 0.94902 0.386267
0.930877 0.957351 0.311757
1 0.972549 0.188235
0.0196078 0.0117647 0.0612802
0.0760357 0.00833143 0.0760357
0.152819 0.0196078 0.0769665
0.318135 0 0.0791028
0.498039 0 0.0848096
0.67187 0 0.0833295
0.820584 0 0.0798962
0.947051 0 0.0721141
1 0.106371 0.0647135
0.000976577 0.0651408 0.0803235
0.0724804 0.07953 0.090425
0.195102 0.0865644 0.0912337
0.350484 0.0872816 0.0960708
0.524727 0.0586099 0.0960708
0.693141 0.00402838 0.0926528
0.835294 0.000106813 0.0884565
0.954467 0.0808881 0.0795758
1 0.193683 0.0724804
0 0.218753 0.117647
0.0560616 0.217151 0.114702
0.210666 0.229038 0.0885176
0.394125 0.232853 0.106844
0.582345 0.235538 0.11606
0.737697 0.230274 0.113817
0.862745 0.238972 0.107256
0.966537 0.266224 0.0994583
1 0.320592 0.0985275
0 0.365682 0.131685
0 0.366171 0.131685
0.188235 0.362249 0.124743
0.373465 0.380575 0.0441138
0.592065 0.386084 0.025391
0.761761 0.400778 0.112062
0.887373 0.414343 0.131502
0.981369 0.432044 0.140841
1 0.460792 0.152453
0 0.499504 0.137499
0 0.501472 0.137743
0.171328 0.495583 0.13579
0.34844 0.498222 0.107439
0.538964 0.515435 0
0.730205 0.525338 0
0.87776 0.545403 0.0591897
0.976196 0.571054 0.177234
1 0.596078 0.222309
0 0.614404 0.151476
0 0.616846 0.151736
0.185458 0.61207 0.151476
0.360784 0.608331 0.145785
0.511452 0.614954 0.0746929
0.677272 0.633219 0
0.837171 0.647868 0
0.956863 0.667643 0.00187686
1 0.700679 0.231373
0 0.727947 0.175128
0.0802319 0.727077 0.175006
0.252842 0.724147 0.172061
0.398306 0.721218 0.169482
0.527443 0.721386 0.150484
0.658808 0.729412 0.0202335
0.796811 0.745098 0
0.925658 0.761044 0
1 0.781979 0
0.260288 0.837247 0.240681
0.297612 0.837247 0.237247
0.373159 0.833448 0.232898
0.475166 0.829908 0.231724
0.582132 0.829419 0.231403
0.685756 0.833341 0.195422
0.79559 0.842039 0.0604105
0.904356 0.857298 0
1 0.875975 0
0.545098 0.952453 0.446571
0.55729 0.94902 0.446571
0.590326 0.94902 0.442649
0.644114 0.946563 0.442649
0.707835 0.945098 0.444602
0.776959 0.945098 0.442649
0.850004 0.94902 0.4103
0.930877 0.960784 0.342641
1 0.972549 0.234318
0 0.00784314 0.19118
0.0887312 0 0.221698
0.243381 0 0.232593
0.294118 0.0585794 0.2103
0.478431 0.0117647 0.222065
0.672175 0 0.201465
0.819608 0 0.188235
0.942763 0 0.180392
1 0.0362707 0.177447
0 0.079408 0.195102
0.0724956 0.0803998 0.218524
0.251286 0.0729229 0.244236
0.317418 0.136645 0.232349
0.51838 0.07187 0.223529
0.69131 0 0.203876
0.827451 0 0.195315
0.947005 0.0226444 0.187533
1 0.162875 0.183948
0 0.210544 0.240925
0.0665751 0.226505 0.249363
0.236454 0.254414 0.262501
0.406836 0.249851 0.25275
0.577203 0.237247 0.238239
0.724636 0.226474 0.226474
0.85153 0.230945 0.218082
0.958419 0.254414 0.207721
1 0.305882 0.203922
0 0.409796 0.290074
0 0.409613 0.279454
0.221607 0.4 0.263416
0.411734 0.407355 0.2318
0.619364 0.4103 0.246754
0.770199 0.41912 0.26569
0.881376 0.422461 0.26128
0.970962 0.432349 0.255573
1 0.459312 0.252323
0 0.533822 0.269612
0 0.533883 0.267826
0.207355 0.526101 0.262257
0.386526 0.522545 0.252384
0.567407 0.535546 0.1897
0.750546 0.542153 0.182101
0.8804 0.562737 0.268254
0.972305 0.583459 0.306981
1 0.601465 0.322057
0 0.638727 0.270222
0 0.638102 0.272053
0.227451 0.633433 0.266392
0.391669 0.6271 0.26453
0.53431 0.630152 0.233143
0.692622 0.646937 0.142382
0.847578 0.658579 0.0843366
0.956863 0.678828 0.236042
1 0.709926 0.353918
0 0.739223 0.278431
0.135134 0.738476 0.278431
0.276219 0.735286 0.274754
0.414862 0.730236 0.271565
0.542885 0.729412 0.26421
0.668162 0.736095 0.209308
0.802945 0.751965 0.0708934
0.927108 0.764767 0
1 0.786282 0.189944
0.267155 0.841184 0.320592
0.304158 0.841184 0.319341
0.376959 0.837354 0.312749
0.47808 0.836393 0.308827
0.585595 0.833341 0.309316
0.689525 0.834485 0.287907
0.796231 0.844724 0.217777
0.904356 0.860334 0.0379034
1 0.875975 0
0.541176 0.952941 0.489219
0.556374 0.952941 0.488228
0.587259 0.949752 0.484321
0.640192 0.94902 0.481376
0.705882 0.946563 0.484321
0.776959 0.945098 0.487129
0.849027 0.949996 0.462745
0.926955 0.960784 0.400854
1 0.972549 0.314702
0 0.00784314 0.337743
0.0516518 0 0.364401
0.300984 0 0.42562
0.494728 0 0.430396
0.507591 0.0311284 0.366415
0.621134 0.119478 0.370596
0.796689 0 0.358816
0.936767 0 0.330571
1 0 0.310292
0 0.0843214 0.337255
0.0589456 0.0803998 0.364645
0.297063 0.0419776 0.428428
0.500481 0 0.436942
0.515938 0.144305 0.377844
0.643137 0.167758 0.380392
0.813916 0.0542458 0.357855
0.942824 0 0.32813
1 0.0746929 0.313726
0 0.211887 0.348409
0.0426947 0.220569 0.358694
0.241642 0.234531 0.407172
0.499657 0.234516 0.447639
0.538109 0.289891 0.407355
0.699123 0.250675 0.388602
0.842527 0.213046 0.356161
0.950484 0.218402 0.332479
1 0.266178 0.319234
0 0.373953 0.407782
0.00321965 0.387686 0.415442
0.252338 0.412497 0.429969
0.468986 0.449332 0.451514
0.624475 0.434318 0.432074
0.750973 0.421057 0.409308
0.861082 0.416175 0.389044
0.955215 0.418814 0.368933
1 0.440253 0.357351
0 0.581613 0.474754
0 0.586114 0.472801
0.271565 0.581369 0.455268
0.450492 0.565652 0.434318
0.609186 0.570336 0.401465
0.76939 0.577234 0.423011
0.877455 0.590692 0.450431
0.959625 0.594125 0.441169
1 0.602701 0.430884
0 0.679896 0.444053
0.138369 0.677745 0.440742
0.295872 0.669581 0.428916
0.440894 0.659541 0.418967
0.573526 0.656153 0.408362
0.71667 0.668696 0.354437
0.858503 0.676341 0.351705
0.951293 0.699809 0.438544
1 0.724514 0.492149
0.139086 0.761273 0.423041
0.210132 0.75967 0.42208
0.31667 0.754406 0.41323
0.441672 0.747967 0.405386
0.566918 0.743008 0.402029
0.682841 0.748043 0.373144
0.810788 0.762066 0.30576
0.930388 0.771878 0.273533
1 0.794736 0.398901
0.280079 0.852445 0.434318
0.314107 0.851164 0.430823
0.383902 0.847547 0.423896
0.480385 0.843702 0.415976
0.5897 0.839796 0.412741
0.694408 0.839887 0.405875
0.796445 0.848646 0.358312
0.903929 0.863096 0.274174
1 0.879896 0.219303
0.534798 0.956863 0.556374
0.548714 0.956863 0.554223
0.580514 0.953552 0.549996
0.633829 0.952941 0.546075
0.701961 0.94902 0.546075
0.775494 0.94902 0.549996
0.846082 0.952941 0.53579
0.924331 0.960784 0.48481
1 0.972549 0.415198
0 0.00196841 0.492164
0.0431373 0 0.51519
0.306859 0 0.566659
0.594614 0 0.627207
0.737255 0 0.613733
0.729412 0 0.532357
0.775494 0.20882 0.519615
0.892164 0.21471 0.519356
1 0.164706 0.501961
0 0.0803998 0.489708
0.0475776 0.0730144 0.511269
0.297551 0.0189364 0.562753
0.58677 0 0.625986
0.737499 0 0.614221
0.7299 0.108003 0.537499
0.778927 0.261036 0.527199
0.899504 0.247059 0.521294
1 0.202457 0.499748
0 0.203433 0.472557
0.000427253 0.207843 0.490745
0.249012 0.211887 0.539712
0.550912 0.199512 0.614466
0.730388 0.196323 0.618143
0.723598 0.302205 0.549996
0.789578 0.351476 0.541054
0.914702 0.309804 0.52108
1 0.278431 0.488243
0 0.348775 0.490684
0.0145876 0.359014 0.498375
0.228977 0.375555 0.513237
0.460746 0.408576 0.573037
0.702571 0.438849 0.618143
0.714672 0.473564 0.572549
0.826658 0.444785 0.551659
0.939956 0.402213 0.50901
1 0.395346 0.476478
0 0.526467 0.556863
0.132235 0.535286 0.562737
0.31397 0.551476 0.572305
0.493874 0.579904 0.590692
0.6598 0.618143 0.615686
0.765194 0.603189 0.59498
0.856611 0.584802 0.566659
0.942397 0.57145 0.536767
1 0.572549 0.513726
0.22475 0.709072 0.627451
0.287739 0.712261 0.626719
0.389273 0.712993 0.621881
0.509804 0.71075 0.607843
0.625986 0.696071 0.585779
0.743358 0.700984 0.557565
0.861585 0.710536 0.579355
0.939712 0.72607 0.605386
1 0.731365 0.599512
0.27451 0.796078 0.602945
0.313909 0.793317 0.599023
0.389212 0.788846 0.585168
0.487984 0.777447 0.565438
0.597055 0.767163 0.55172
0.703792 0.765194 0.542641
0.818631 0.777447 0.492653
0.930877 0.785657 0.490867
1 0.811765 0.588235
0.327947 0.8701 0.578683
0.35491 0.868132 0.575006
0.412192 0.862562 0.563546
0.493629 0.857359 0.549661
0.596323 0.850736 0.539086
0.701076 0.847456 0.537102
0.796445 0.852995 0.50692
0.903639 0.868132 0.443381
1 0.881621 0.42623
0.527459 0.964706 0.645106
0.540688 0.962737 0.641428
0.571084 0.960784 0.637263
0.624506 0.958831 0.629404
0.693141 0.956863 0.625498
0.769116 0.952941 0.625498
0.842161 0.955398 0.621561
0.919112 0.961273 0.587503
1 0.976471 0.533333
0 0 0.629404
0.114885 0 0.644602
0.331243 0 0.679042
0.584314 0 0.729961
0.805875 0 0.767895
0.900008 0 0.750057
0.900496 0.00613413 0.685298
0.905394 0.301167 0.656855
0.964706 0.386267 0.663233
0 0.067155 0.623041
0.107347 0.0514687 0.63769
0.319707 0 0.673411
0.573037 0 0.724819
0.800488 0 0.767498
0.896574 0 0.750286
0.893858 0.138308 0.685298
0.901473 0.344305 0.660029
0.967163 0.409308 0.664714
0 0.191791 0.602945
0.0386053 0.191791 0.618143
0.276097 0.18677 0.652567
0.534798 0.168215 0.708339
0.779965 0.168139 0.760296
0.885298 0.205692 0.747814
0.878553 0.326009 0.687556
0.893706 0.429175 0.664714
0.969604 0.449516 0.666178
0 0.324514 0.58088
0 0.3299 0.589883
0.218555 0.343282 0.614908
0.461769 0.366171 0.674083
0.730663 0.410788 0.74313
0.855879 0.444541 0.74461
0.850492 0.495094 0.692515
0.884993 0.524376 0.675975
0.98291 0.496086 0.662257
0 0.48014 0.610788
0.117159 0.486671 0.616663
0.271809 0.499077 0.624018
0.432288 0.523033 0.641428
0.638117 0.56997 0.699748
0.817182 0.619608 0.741939
0.823529 0.632532 0.703426
0.903822 0.597055 0.677302
1 0.55613 0.638972
0.233265 0.649943 0.676478
0.290806 0.653742 0.679835
0.393927 0.662852 0.684306
0.524086 0.681712 0.695872
0.658824 0.710018 0.714702
0.77847 0.745602 0.740032
0.85069 0.730617 0.717098
0.923659 0.711269 0.687739
1 0.701534 0.661707
0.404776 0.806378 0.742641
0.432227 0.807797 0.742641
0.489219 0.809674 0.742641
0.571084 0.812253 0.739208
0.655634 0.811276 0.725917
0.741924 0.798215 0.703426
0.831067 0.803433 0.679438
0.92285 0.81471 0.699855
0.990066 0.833707 0.7299
0.430396 0.891356 0.739406
0.448218 0.88922 0.736767
0.486229 0.887739 0.728923
0.548699 0.88217 0.711696
0.625742 0.873289 0.687495
0.711757 0.863111 0.669429
0.802411 0.862303 0.65771
0.899077 0.875715 0.615137
0.998535 0.889036 0.625986
0.530877 0.972549 0.757351
0.542458 0.972549 0.75491
0.570962 0.970092 0.74522
0.620584 0.968627 0.732845
0.682353 0.964706 0.720836
0.758892 0.960784 0.713298
0.837247 0.960784 0.714214
0.911269 0.964889 0.693812
1 0.980392 0.652949
0.14313 0 0.752941
0.233341 0 0.763363
0.388479 0 0.782605
0.590692 0 0.817151
0.796078 0 0.853437
0.947051 0 0.873533
1 0 0.852934
1 0.155032 0.801343
0.997055 0.41471 0.772549
0.125978 0.0218204 0.749508
0.219135 0.000320439 0.757565
0.377478 0 0.778958
0.579904 0 0.812436
0.790204 0 0.851102
0.942168 0 0.872587
1 0 0.850004
0.997055 0.24477 0.800916
0.990692 0.446082 0.775616
0.0259861 0.175494 0.731365
0.166354 0.171572 0.741146
0.336522 0.155886 0.761761
0.549386 0.125093 0.799146
0.766674 0.122911 0.840681
0.926802 0.2103 0.866423
0.987808 0.268879 0.849454
0.983948 0.380972 0.800122
0.979416 0.512749 0.779416
0 0.305394 0.700984
0.0150149 0.308873 0.710109
0.257877 0.314244 0.731365
0.482155 0.325689 0.770413
0.716182 0.36231 0.82034
0.893248 0.4336 0.855848
0.96054 0.470436 0.844724
0.955306 0.526726 0.799603
0.963851 0.5935 0.783337
0 0.442161 0.688731
0 0.443931 0.691173
0.185657 0.449882 0.699382
0.387259 0.469123 0.724941
0.623529 0.513726 0.780148
0.838727 0.590692 0.838849
0.925734 0.625986 0.838239
0.922545 0.650797 0.799512
0.951476 0.66862 0.787747
0.0669108 0.594247 0.717159
0.163119 0.596979 0.7196
0.285817 0.603464 0.72108
0.42359 0.616144 0.730068
0.570214 0.637751 0.743389
0.753918 0.695583 0.799512
0.890929 0.750973 0.838239
0.895018 0.750347 0.8038
0.964218 0.720958 0.785657
0.35172 0.75172 0.77525
0.385657 0.751965 0.775494
0.45687 0.758083 0.778439
0.554803 0.769024 0.785168
0.661891 0.786282 0.79498
0.765194 0.812009 0.812161
0.855817 0.846693 0.836271
0.91397 0.82797 0.812009
0.984314 0.81471 0.787991
0.519615 0.890684 0.838117
0.535225 0.890684 0.840681
0.572091 0.891661 0.840803
0.62562 0.895582 0.841306
0.688167 0.899077 0.838239
0.753429 0.898528 0.822553
0.818906 0.884321 0.796323
0.899016 0.890959 0.776471
0.98468 0.906371 0.802945
0.582345 0.976471 0.869612
0.590188 0.976471 0.86569
0.609064 0.976471 0.863478
0.645472 0.976471 0.856001
0.691661 0.976471 0.841672
0.751965 0.972549 0.818143
0.82623 0.968627 0.802945
0.906859 0.96875 0.798657
0.996078 0.984314 0.772549
0.34461 0 0.872541
0.393683 0 0.879469
0.496574 0 0.888121
0.64332 0 0.905882
0.806378 0 0.928679
0.947051 0 0.946258
1 0 0.950484
1 0.0327153 0.930877
1 0.328435 0.896086
0.33431 0 0.869551
0.380331 0 0.876097
0.485725 0 0.884794
0.633783 0 0.903731
0.798535 0 0.925216
0.943145 0 0.944198
1 0.00482185 0.950042
1 0.193622 0.93051
1 0.378927 0.896574
0.291173 0.165194 0.858824
0.343313 0.157244 0.865324
0.452445 0.132479 0.876097
0.606302 0.0856641 0.894484
0.775982 0.0590677 0.917586
0.924514 0.171221 0.938735
1 0.289494 0.946166
1 0.354086 0.928145
1 0.468132 0.896086
0.184924 0.309804 0.836759
0.253758 0.309804 0.843854
0.38172 0.304417 0.85388
0.547051 0.302449 0.874647
0.730053 0.320989 0.902754
0.892287 0.387137 0.928054
0.995224 0.469123 0.93872
1 0.508522 0.924056
1 0.576959 0.892149
0 0.436027 0.8103
0.0245365 0.436027 0.814221
0.240497 0.437751 0.822003
0.437507 0.446418 0.842405
0.64509 0.472175 0.873411
0.835142 0.534554 0.908583
0.959564 0.61323 0.930449
1 0.643381 0.920623
1 0.681865 0.889952
0 0.567163 0.80441
0 0.569299 0.80589
0.114473 0.567163 0.80589
0.32726 0.570596 0.811444
0.519921 0.584314 0.829908
0.742046 0.64062 0.873533
0.91078 0.723857 0.918135
0.975982 0.757351 0.918624
0.978622 0.775189 0.888045
0.144244 0.709804 0.824994
0.204242 0.709804 0.824994
0.30135 0.713359 0.825864
0.417517 0.717815 0.825986
0.542702 0.725734 0.829664
0.66743 0.737758 0.8374
0.831037 0.793286 0.883574
0.945586 0.85005 0.918196
0.956374 0.849515 0.891661
0.452445 0.848524 0.868574
0.472374 0.848524 0.868574
0.51635 0.852338 0.86862
0.582193 0.856214 0.872053
0.662776 0.863996 0.875975
0.749508 0.875669 0.881483
0.837751 0.896086 0.895216
0.921416 0.928359 0.920516
0.976471 0.911269 0.896452
0.631373 0.968139 0.9299
0.639216 0.968627 0.9299
0.65919 0.968627 0.932967
0.693141 0.972061 0.933822
0.737743 0.975982 0.933822
0.787747 0.980087 0.930877
0.838117 0.98088 0.922179
0.903365 0.980392 0.899504
0.992157 0.988235 0.887739
0.596078 0.0588235 0.988235
0.618631 0.0166629 0.991669
0.66862 0 0.992157
0.752453 0 1
0.858824 0 1
0.965194 0 1
1 0 1
1 0.162737 1
1 0.309804 0.996078
0.592645 0.159808 0.988235
0.611765 0.144121 0.988235
0.664714 0.0966964 0.992157
0.748531 0 0.996384
0.853193 0 1
0.961273 0 1
1 0.0973068 1
1 0.25098 1
1 0.359319 0.996078
0.574502 0.291173 0.981369
0.596567 0.282475 0.984314
0.650004 0.262745 0.987503
0.732723 0.229419 0.992157
0.838239 0.198535 1
0.946563 0.216663 1
1 0.300008 1
1 0.381369 1
1 0.451957 0.996078
0.537743 0.429404 0.974014
0.559319 0.425498 0.974014
0.612741 0.412619 0.977935
0.696574 0.397116 0.984314
0.806134 0.386282 0.992889
0.917159 0.403433 1
1 0.458824 1
1 0.520287 1
1 0.564218 0.992157
0.47451 0.558831 0.962737
0.495583 0.55491 0.962737
0.54902 0.54902 0.966171
0.636759 0.541176 0.971817
0.750988 0.533333 0.981369
0.872541 0.546563 0.990936
0.975006 0.594125 1
1 0.645838 1
1 0.672557 0.988235
0.400977 0.671077 0.952941
0.420096 0.66862 0.952941
0.471077 0.664714 0.952941
0.557351 0.660777 0.956863
0.6701 0.656855 0.965927
0.802029 0.664714 0.977386
0.926467 0.700496 0.991058
1 0.753918 0.995895
1 0.773037 0.984314
0.378439 0.775494 0.94902
0.39498 0.772549 0.94902
0.43946 0.772549 0.94902
0.510658 0.772549 0.952941
0.598047 0.768627 0.953429
0.710903 0.767651 0.961883
0.852934 0.785046 0.977203
0.973037 0.837751 0.988602
1 0.860792 0.984314
0.469123 0.872053 0.953429
0.480446 0.872053 0.953429
0.510414 0.872053 0.953429
0.559808 0.872053 0.953429
0.624994 0.875975 0.956863
0.698039 0.876478 0.960784
0.783337 0.879896 0.964706
0.91078 0.896025 0.980392
1 0.930388 0.984314
0.631373 0.960784 0.976471
0.639216 0.960784 0.976471
0.657847 0.960784 0.976471
0.688731 0.964706 0.976471
0.733333 0.964706 0.980392
0.785779 0.968627 0.980392
0.84509 0.976471 0.984314
0.91519 0.984314 0.988235
0.992157 0.992157 0.992157
