YOYO-Client/Yoyo/Assets.xcassets/Shibuya.dataset/Shibuya.cube
TITLE "Generated by Resolve"
LUT_3D_SIZE 9
0.0555123 0.097261 0.110292
0.0872053 0.096849 0.114275
0.197375 0.0880293 0.114214
0.374655 0.076173 0.107759
0.606622 0.0783398 0.0865187
0.811109 0.102525 0.044007
0.937926 0.126925 0.00991836
1 0.13698 0.0261845
1 0.152926 0.119631
0.0572061 0.114412 0.111833
0.0982071 0.120516 0.112367
0.207858 0.140887 0.106798
0.386084 0.165026 0.0927749
0.613321 0.196124 0.0573434
0.809461 0.213748 0.0011902
0.935027 0.215763 0
1 0.209979 0.000564584
1 0.208774 0.109224
0.0694285 0.178851 0.120745
0.121035 0.181796 0.124834
0.251225 0.22565 0.108263
0.418433 0.285786 0.0483558
0.628183 0.333059 0
0.808011 0.348638 0
0.930022 0.337636 0
1 0.318959 0
1 0.302617 0.0842298
0.101564 0.310948 0.13669
0.176013 0.319585 0.144762
0.286778 0.33138 0.167514
0.490074 0.400916 0.101869
0.66511 0.44892 0
0.806531 0.464836 0
0.924117 0.457786 0
1 0.434714 0
1 0.407782 0.0333562
0.16466 0.457069 0.173846
0.238911 0.470237 0.186343
0.360494 0.485237 0.21384
0.50016 0.502922 0.27071
0.716625 0.564523 0.165789
0.830076 0.565942 0
0.918639 0.562585 0
1 0.543084 0
1 0.512917 0
0.254307 0.607004 0.234318
0.317571 0.618357 0.249775
0.430671 0.631235 0.28098
0.573739 0.650294 0.338384
0.703044 0.660334 0.439597
0.849485 0.670298 0.311513
0.933455 0.651896 0.18117
1 0.636484 0.0075227
1 0.61355 0
0.361593 0.735943 0.335637
0.407538 0.740459 0.351843
0.498299 0.746975 0.385977
0.618509 0.757443 0.446174
0.740139 0.768887 0.52784
0.820356 0.770108 0.63476
0.930785 0.753338 0.478676
0.997757 0.722728 0.355657
1 0.697261 0.215213
0.482216 0.833234 0.477211
0.5122 0.833936 0.489693
0.579293 0.836423 0.522362
0.672389 0.840772 0.577447
0.767636 0.845609 0.641123
0.849912 0.851438 0.703868
0.896895 0.845838 0.750576
0.976669 0.819699 0.624659
1 0.782361 0.503868
0.626734 0.911467 0.646113
0.64715 0.911788 0.657023
0.687831 0.911055 0.675929
0.747433 0.91046 0.706767
0.812558 0.909697 0.742443
0.873487 0.909468 0.779812
0.917159 0.905989 0.816434
0.944152 0.896193 0.825895
0.990997 0.873075 0.755611
0.0360723 0.112352 0.140551
0.0766461 0.108858 0.145327
0.185595 0.1066 0.149187
0.364813 0.105135 0.135836
0.589075 0.142428 0.114763
0.792935 0.188464 0.0648051
0.924681 0.223896 0
1 0.226749 0
1 0.21268 0.102708
0.052018 0.126055 0.149874
0.0853285 0.136095 0.152544
0.19884 0.143053 0.147219
0.377798 0.166354 0.13489
0.596551 0.205188 0.108171
0.794766 0.242329 0.0545357
0.924422 0.266377 0
1 0.270512 0
1 0.252567 0.0945144
0.0272679 0.207309 0.193683
0.104448 0.212619 0.172702
0.23621 0.235264 0.175113
0.403769 0.272923 0.117922
0.612741 0.313115 0.0861524
0.797238 0.339071 0.0256809
0.92282 0.347829 0
1 0.350439 0
1 0.328878 0.070222
0.0015259 0.332769 0.203204
0.143862 0.337789 0.202838
0.27921 0.349248 0.229267
0.470527 0.403052 0.205035
0.647715 0.441978 0.0741283
0.798886 0.455467 0
0.919417 0.451057 0
1 0.442252 0
1 0.423194 0.0153811
0.102739 0.471397 0.234852
0.208103 0.482429 0.244465
0.346792 0.496498 0.272236
0.496056 0.516884 0.326543
0.702296 0.568765 0.267063
0.819806 0.566857 0.137057
0.91429 0.561059 0
1 0.542626 0
1 0.521813 0
0.22179 0.615442 0.287282
0.295048 0.627054 0.30396
0.417517 0.638666 0.334279
0.564721 0.656489 0.389807
0.693736 0.667338 0.483879
0.83798 0.677333 0.387839
0.92549 0.657633 0.273869
0.997787 0.640192 0.136797
1 0.617105 0.0644236
0.345434 0.739498 0.379492
0.396719 0.745296 0.397803
0.49099 0.751186 0.43064
0.612406 0.760632 0.487907
0.73283 0.771801 0.565057
0.813489 0.775555 0.662409
0.920195 0.761898 0.535531
0.990204 0.73077 0.419333
1 0.703471 0.290074
0.477607 0.83447 0.508553
0.511757 0.836591 0.524956
0.578912 0.838636 0.55523
0.670649 0.842283 0.605097
0.764324 0.846998 0.662486
0.846174 0.853574 0.720226
0.892729 0.849424 0.766598
0.968841 0.826139 0.657267
1 0.790692 0.549264
0.624674 0.912108 0.660456
0.647059 0.912978 0.673045
0.687175 0.912093 0.690303
0.745815 0.911177 0.718273
0.810529 0.910292 0.751827
0.871305 0.91017 0.787717
0.915816 0.907622 0.822705
0.941649 0.897963 0.833448
0.990005 0.87393 0.758022
0 0.166064 0.242893
0 0.167071 0.24567
0.157061 0.153017 0.274037
0.347646 0.141955 0.278965
0.566308 0.14583 0.300969
0.779461 0.125231 0.260349
0.913863 0.205066 0.254459
1 0.247852 0.237842
1 0.272984 0.210986
0 0.18703 0.256886
0.00244144 0.196216 0.259693
0.169635 0.196292 0.284627
0.357397 0.193729 0.290181
0.580789 0.177234 0.280095
0.778912 0.212207 0.267903
0.913252 0.254856 0.256901
1 0.284428 0.240497
1 0.301595 0.21442
0.00746166 0.236088 0.293599
0.0893721 0.247272 0.296696
0.201419 0.278386 0.307622
0.389578 0.278492 0.287129
0.59585 0.299519 0.276844
0.781872 0.324544 0.266545
0.911528 0.344289 0.259083
1 0.357229 0.247349
1 0.361913 0.22388
0 0.37203 0.395117
0.0838788 0.38201 0.385245
0.233341 0.386648 0.333135
0.432624 0.421683 0.350988
0.620996 0.437751 0.254261
0.785275 0.448875 0.257237
0.908263 0.452369 0.262242
0.999924 0.450965 0.26006
1 0.443946 0.241733
0 0.510109 0.414023
0.00756847 0.517418 0.382544
0.291402 0.516884 0.37084
0.479042 0.544198 0.426703
0.668742 0.583124 0.419348
0.796445 0.574716 0.315557
0.903593 0.564599 0.265446
0.994705 0.551949 0.277775
1 0.535729 0.26833
0.0406806 0.640818 0.423774
0.20354 0.644511 0.421454
0.369314 0.646967 0.424384
0.536416 0.665476 0.480064
0.672602 0.681544 0.562158
0.809277 0.694865 0.521599
0.90428 0.674083 0.423209
0.985458 0.652201 0.31516
1 0.62945 0.303456
0.300145 0.747555 0.486686
0.355932 0.749447 0.485222
0.461082 0.752895 0.503456
0.592172 0.762875 0.558297
0.714565 0.775464 0.627985
0.798978 0.784802 0.708446
0.896284 0.779751 0.634974
0.969116 0.750912 0.538949
1 0.720272 0.422095
0.462242 0.835111 0.57525
0.492729 0.836103 0.576211
0.564157 0.83827 0.603967
0.658595 0.842466 0.647501
0.753628 0.848188 0.697841
0.835691 0.856062 0.749233
0.883818 0.856107 0.796078
0.953155 0.838712 0.714778
1 0.808759 0.633524
0.609537 0.912306 0.682475
0.633341 0.913222 0.694224
0.675517 0.912367 0.710445
0.736584 0.911604 0.736767
0.803357 0.911009 0.768658
0.865339 0.911315 0.802838
0.912734 0.91104 0.835126
0.93611 0.901823 0.849378
0.984512 0.878294 0.774273
0 0.265965 0.406653
0 0.270878 0.405539
0 0.273167 0.432776
0.304189 0.259403 0.477928
0.526711 0.228168 0.464851
0.732845 0.267277 0.487465
0.87335 0.332769 0.504448
0.981888 0.36022 0.487831
1 0.402136 0.489403
0 0.292149 0.423697
0 0.296971 0.422538
0.00244144 0.305196 0.435538
0.311437 0.295323 0.479957
0.533547 0.267903 0.468742
0.732937 0.315358 0.496971
0.877394 0.34612 0.49456
0.979126 0.387778 0.492485
1 0.417609 0.488991
0 0.331914 0.448676
0 0.33933 0.449271
0.0990463 0.355123 0.448203
0.331701 0.365118 0.488289
0.549416 0.360143 0.487907
0.737331 0.392737 0.506813
0.875319 0.412894 0.497917
0.974502 0.442451 0.49984
1 0.455955 0.490349
0.00877394 0.395804 0.488579
0.106966 0.405875 0.492622
0.235782 0.424704 0.495186
0.376211 0.4654 0.5093
0.583673 0.46595 0.492943
0.749004 0.480644 0.492775
0.873671 0.499519 0.500114
0.97026 0.512581 0.503349
1 0.51577 0.495521
0.206546 0.528176 0.595178
0.23212 0.546944 0.602457
0.289418 0.569375 0.592691
0.417487 0.573144 0.534661
0.615122 0.608423 0.571298
0.758251 0.591745 0.480766
0.873579 0.593118 0.495644
0.964736 0.594247 0.508064
1 0.588571 0.504738
0.279866 0.670405 0.650767
0.323995 0.674495 0.645274
0.339452 0.675624 0.598825
0.478767 0.674952 0.573388
0.645258 0.700511 0.646082
0.767346 0.719615 0.6533
0.868177 0.702007 0.577539
0.958373 0.679942 0.51339
1 0.66685 0.517861
0.37322 0.761669 0.659068
0.379034 0.765362 0.6477
0.432731 0.763348 0.628672
0.551888 0.76379 0.629007
0.687144 0.779355 0.688365
0.781109 0.794659 0.750515
0.868406 0.799939 0.724743
0.938811 0.779141 0.661509
1 0.749676 0.569879
0.476951 0.841382 0.690837
0.499367 0.84239 0.690013
0.541283 0.840482 0.678447
0.628931 0.84184 0.689296
0.733577 0.849409 0.735317
0.820493 0.859312 0.781857
0.873213 0.864286 0.827482
0.934524 0.853758 0.774502
0.986389 0.830686 0.717189
0.609613 0.913451 0.751141
0.624613 0.914275 0.751003
0.650492 0.913359 0.741344
0.713741 0.912581 0.757015
0.788388 0.912413 0.788632
0.855055 0.913222 0.821714
0.905928 0.914534 0.851392
0.928344 0.907088 0.870329
0.971725 0.88809 0.811444
0 0.387518 0.581857
0 0.390463 0.578973
0 0.396887 0.580484
0.053193 0.383413 0.622461
0.470665 0.391485 0.668284
0.684092 0.366857 0.649088
0.826581 0.42945 0.646983
0.908125 0.549065 0.695033
0.977142 0.617517 0.728466
0 0.405966 0.589822
0 0.408835 0.587396
0 0.415305 0.580453
0.141772 0.414267 0.622095
0.476722 0.419059 0.668452
0.684932 0.395605 0.649485
0.822049 0.462882 0.654932
0.902678 0.571069 0.703593
0.979873 0.616556 0.722927
0 0.438514 0.605173
0 0.443717 0.60502
0 0.451194 0.599237
0.225971 0.468162 0.620111
0.491157 0.475883 0.669291
0.686427 0.456886 0.650782
0.810864 0.533761 0.675776
0.895598 0.610346 0.717449
0.983001 0.624475 0.71632
0 0.487785 0.631357
0 0.495033 0.633265
0.125582 0.506035 0.630289
0.308888 0.527001 0.628931
0.516884 0.553475 0.672999
0.684688 0.55877 0.669947
0.801053 0.615015 0.704158
0.907088 0.627283 0.704372
0.989532 0.638102 0.702693
0.196536 0.558541 0.668406
0.250004 0.567376 0.672084
0.335363 0.579065 0.671458
0.443366 0.601495 0.673991
0.555856 0.635248 0.684092
0.701228 0.641993 0.682475
0.819852 0.656718 0.690257
0.913634 0.669078 0.696529
0.990387 0.674983 0.696681
0.438682 0.664393 0.739666
0.463905 0.673396 0.744717
0.495323 0.68658 0.747082
0.522591 0.707195 0.741543
0.590249 0.70837 0.702266
0.727764 0.738689 0.737789
0.830747 0.725917 0.685039
0.916945 0.726497 0.691203
0.988449 0.72549 0.694835
0.50605 0.780209 0.79704
0.521752 0.7823 0.795163
0.542367 0.780331 0.782177
0.562173 0.779049 0.750484
0.636027 0.779477 0.727001
0.762142 0.804547 0.783886
0.84361 0.816754 0.788525
0.912398 0.802609 0.744701
0.985382 0.782757 0.695521
0.591516 0.845579 0.812772
0.599496 0.847013 0.809735
0.592798 0.847807 0.790967
0.602838 0.848463 0.762661
0.691844 0.848875 0.7617
0.798352 0.861845 0.808621
0.862455 0.871412 0.849683
0.916945 0.868284 0.824735
0.966094 0.851606 0.784466
0.642191 0.913771 0.825559
0.642451 0.915419 0.820981
0.65098 0.915633 0.811093
0.686442 0.915053 0.80032
0.757687 0.914702 0.805875
0.838239 0.915831 0.840131
0.894682 0.917296 0.868788
0.919539 0.913054 0.893019
0.957473 0.898909 0.849058
0 0.497124 0.720104
0 0.498985 0.717159
0 0.503975 0.709941
0 0.511864 0.723842
0.328054 0.506279 0.755581
0.610651 0.549584 0.787091
0.77232 0.545083 0.777584
0.874388 0.592752 0.770169
0.93669 0.687968 0.807797
0 0.509209 0.722087
0 0.511666 0.72015
0 0.516579 0.713771
0 0.526284 0.722622
0.350912 0.525887 0.754986
0.615366 0.568139 0.786511
0.77026 0.5626 0.777234
0.871046 0.609232 0.773693
0.934356 0.697139 0.810651
0 0.53431 0.728695
0 0.537667 0.727825
0 0.543252 0.722591
0.0683604 0.554971 0.719112
0.403784 0.569848 0.752819
0.625711 0.605127 0.785321
0.7673 0.59939 0.777188
0.865003 0.64564 0.782742
0.92987 0.718547 0.817868
0 0.571664 0.740719
0 0.57673 0.740826
0.049012 0.584497 0.737102
0.274891 0.597513 0.731945
0.468788 0.625788 0.74934
0.640925 0.651759 0.784817
0.767071 0.646799 0.778653
0.859693 0.69424 0.796933
0.925505 0.749142 0.828855
0.194949 0.623148 0.758068
0.247822 0.628931 0.759091
0.327428 0.636896 0.756786
0.423453 0.650721 0.754223
0.517876 0.669017 0.752728
0.659648 0.698985 0.786496
0.772671 0.705135 0.788922
0.860136 0.744564 0.813977
0.94078 0.755291 0.817609
0.433463 0.685115 0.781003
0.455589 0.690455 0.782773
0.492393 0.696803 0.782132
0.546242 0.708003 0.782391
0.611292 0.724575 0.784848
0.685008 0.748089 0.791897
0.792645 0.758389 0.796613
0.880415 0.769696 0.80296
0.95169 0.77731 0.806302
0.588388 0.762554 0.828092
0.601251 0.76733 0.830762
0.622843 0.773754 0.833173
0.65565 0.785885 0.837644
0.671626 0.803082 0.834669
0.714687 0.803403 0.805829
0.819303 0.829221 0.835218
0.889754 0.819287 0.802502
0.954635 0.818341 0.803525
0.660151 0.854246 0.881056
0.664286 0.857725 0.881697
0.669963 0.860746 0.878508
0.68629 0.860594 0.868009
0.703441 0.859556 0.844633
0.753902 0.860685 0.82475
0.850004 0.878355 0.867597
0.901198 0.882002 0.866575
0.948211 0.871122 0.838895
0.718593 0.91429 0.900816
0.722866 0.914748 0.89929
0.728359 0.914565 0.893263
0.73904 0.915404 0.881621
0.736294 0.919493 0.855741
0.805081 0.919417 0.853773
0.879759 0.920668 0.884978
0.913573 0.919264 0.908232
0.943053 0.909773 0.883879
0 0.595682 0.816617
0 0.598062 0.81474
0 0.604181 0.810208
0 0.615656 0.807462
0.396689 0.642145 0.822522
0.556329 0.653895 0.843244
0.725032 0.690074 0.862699
0.831037 0.684489 0.857801
0.912871 0.716899 0.855131
0 0.605295 0.817411
0 0.608026 0.816022
0 0.613916 0.811795
0.00401312 0.625162 0.806699
0.410651 0.650675 0.821714
0.564431 0.662959 0.842618
0.727199 0.697475 0.862135
0.830488 0.691829 0.85742
0.911788 0.724117 0.856291
0 0.624979 0.819883
0 0.628214 0.819028
0 0.63415 0.81529
0.184405 0.645167 0.809461
0.435706 0.667887 0.81944
0.581155 0.682231 0.84126
0.732647 0.714427 0.861418
0.830198 0.709255 0.857145
0.909926 0.740917 0.859373
0 0.654246 0.824796
0.0254978 0.658183 0.824521
0.199863 0.664164 0.821408
0.334356 0.674784 0.816663
0.463249 0.690486 0.815534
0.606119 0.710109 0.839185
0.741299 0.738369 0.86096
0.832181 0.73463 0.857633
0.908537 0.767422 0.865507
0.298177 0.6925 0.832609
0.328374 0.696452 0.832898
0.377401 0.701259 0.830655
0.442512 0.708904 0.827375
0.520088 0.720088 0.822873
0.634714 0.742412 0.835676
0.752178 0.765362 0.861295
0.838407 0.763607 0.859129
0.909361 0.799496 0.874205
0.464042 0.735714 0.844007
0.480491 0.739422 0.844907
0.506767 0.743084 0.843641
0.547539 0.749554 0.841932
0.598062 0.75816 0.839506
0.655756 0.768673 0.83621
0.76556 0.795529 0.862364
0.848188 0.802426 0.865675
0.912535 0.835279 0.885893
0.586908 0.780392 0.859678
0.597879 0.783642 0.860868
0.615656 0.78706 0.860548
0.645441 0.793439 0.860502
0.684688 0.802487 0.860731
0.730571 0.814084 0.86154
0.78323 0.829892 0.864713
0.866865 0.842573 0.872633
0.929656 0.85156 0.877867
0.700236 0.838636 0.892226
0.708232 0.841642 0.893782
0.721279 0.84564 0.895125
0.743633 0.852964 0.897902
0.773327 0.863447 0.902083
0.783871 0.87718 0.900587
0.811032 0.875761 0.876814
0.887678 0.893858 0.899702
0.934035 0.887907 0.881361
0.785306 0.906035 0.933394
0.787503 0.908095 0.933776
0.789334 0.912001 0.933806
0.792126 0.91928 0.933822
0.801831 0.922454 0.927733
0.814313 0.923232 0.911528
0.849561 0.925277 0.895216
0.908202 0.926253 0.921324
0.929503 0.91989 0.913985
0.0220188 0.712581 0.892729
0.112688 0.715557 0.891752
0.247929 0.722423 0.889479
0.362936 0.732479 0.885557
0.502922 0.745113 0.887236
0.628809 0.761242 0.894377
0.71162 0.767803 0.904631
0.814282 0.79144 0.914641
0.884886 0.791577 0.914244
0.140566 0.719326 0.893004
0.200031 0.722301 0.892256
0.289433 0.72842 0.889998
0.385916 0.73756 0.886183
0.509026 0.749081 0.886702
0.634089 0.765545 0.893706
0.714076 0.771313 0.90425
0.815534 0.794827 0.914534
0.885161 0.794522 0.914137
0.264591 0.732097 0.893797
0.296818 0.735058 0.893309
0.354726 0.740246 0.891218
0.42884 0.748226 0.887648
0.520882 0.757855 0.885542
0.641932 0.773831 0.892653
0.720287 0.779965 0.903777
0.81883 0.802915 0.914488
0.885939 0.801633 0.913863
0.359258 0.74902 0.895842
0.38172 0.751995 0.895628
0.422538 0.756436 0.893751
0.479774 0.763348 0.890562
0.541894 0.771023 0.885725
0.647547 0.784329 0.891234
0.729076 0.792828 0.903258
0.824216 0.815259 0.914763
0.887755 0.81384 0.913725
0.449485 0.770809 0.899214
0.463127 0.77322 0.899397
0.485222 0.775586 0.898039
0.526207 0.780667 0.89543
0.58027 0.787854 0.891188
0.648157 0.796567 0.889143
0.738552 0.808331 0.902586
0.831495 0.83064 0.915511
0.892821 0.831281 0.915038
0.542336 0.797772 0.904005
0.55227 0.800046 0.904433
0.567407 0.801953 0.903426
0.592096 0.805081 0.901656
0.623758 0.808713 0.898695
0.671183 0.815122 0.893935
0.754208 0.830106 0.900481
0.840726 0.849226 0.916732
0.900511 0.852567 0.917266
0.628916 0.82742 0.910811
0.636606 0.82948 0.91133
0.648234 0.831327 0.910689
0.66772 0.83447 0.90959
0.693675 0.838453 0.907698
0.725032 0.843046 0.904921
0.764141 0.84889 0.900969
0.852033 0.870924 0.91841
0.909636 0.880186 0.922347
0.710323 0.858305 0.919463
0.71635 0.860136 0.920027
0.725536 0.861936 0.919753
0.741314 0.865141 0.919341
0.763134 0.869627 0.9187
0.791012 0.875731 0.918074
0.825238 0.884215 0.918166
0.865599 0.896178 0.92015
0.919844 0.907652 0.92781
0.798779 0.900771 0.939925
0.802716 0.901991 0.940322
0.809934 0.90399 0.940749
0.822293 0.907515 0.941497
0.839353 0.912337 0.942535
0.860838 0.918471 0.943908
0.871153 0.929351 0.944427
0.891127 0.932128 0.931151
0.918196 0.928359 0.937545
0.589593 0.837827 0.950072
0.597467 0.83917 0.949691
0.616007 0.842405 0.948791
0.645777 0.847913 0.947478
0.687358 0.854612 0.946365
0.747051 0.86038 0.946609
0.794629 0.862989 0.947951
0.837919 0.86656 0.949355
0.88748 0.877531 0.950256
0.595682 0.839597 0.950072
0.603738 0.841047 0.949767
0.621485 0.844114 0.948882
0.65037 0.8495 0.947616
0.689052 0.856382 0.946334
0.747951 0.86183 0.946593
0.796567 0.864881 0.94786
0.838804 0.867872 0.949325
0.887953 0.878691 0.950225
0.608789 0.843778 0.950454
0.616938 0.845365 0.95024
0.633646 0.84831 0.949416
0.661082 0.853529 0.948241
0.695827 0.860502 0.946822
0.750607 0.865721 0.946822
0.801694 0.869856 0.94786
0.841337 0.871565 0.949416
0.889448 0.881956 0.950256
0.624338 0.849638 0.951431
0.632532 0.851347 0.951308
0.648646 0.854276 0.950561
0.674998 0.859388 0.949493
0.708385 0.866178 0.948165
0.753704 0.872145 0.947478
0.809705 0.877974 0.948058
0.845579 0.877699 0.949767
0.892195 0.88748 0.950454
0.636988 0.856046 0.953216
0.643626 0.857466 0.95317
0.659709 0.860441 0.952514
0.686687 0.865782 0.951522
0.720516 0.872801 0.950286
0.756893 0.880476 0.948867
0.812665 0.885771 0.94905
0.851255 0.886076 0.950469
0.896239 0.895338 0.950912
0.681392 0.87013 0.953948
0.685206 0.87097 0.953964
0.692195 0.872145 0.95375
0.704723 0.874388 0.953429
0.728969 0.879164 0.952697
0.769421 0.888106 0.951385
0.813993 0.89575 0.95053
0.858991 0.897093 0.951583
0.901457 0.905348 0.951476
0.722011 0.882414 0.952972
0.724804 0.882933 0.95288
0.731334 0.884199 0.952697
0.742763 0.886397 0.952392
0.759106 0.889586 0.951949
0.77998 0.89369 0.9514
0.819684 0.902953 0.950347
0.871763 0.911757 0.950332
0.905943 0.915984 0.950988
0.76492 0.895171 0.951568
0.767269 0.895644 0.951507
0.77322 0.89688 0.951339
0.783688 0.899062 0.951064
0.798871 0.902281 0.950683
0.818555 0.9066 0.950225
0.842527 0.912016 0.949706
0.875486 0.920272 0.949203
0.910094 0.927138 0.949874
0.807157 0.907622 0.950286
0.809216 0.908095 0.950256
0.814725 0.9093 0.950118
0.824445 0.911482 0.949905
0.83856 0.914672 0.949615
0.856733 0.918868 0.949294
0.878157 0.92401 0.94905
0.900847 0.929717 0.949096
0.912413 0.932921 0.949432
