YOYO-Client/Yoyo/Assets.xcassets/Shibuya.dataset/Shibuya.cube
TITLE "Generated by Resolve"
LUT_3D_SIZE 33
0.0555123 0.097261 0.110292
0.0555123 0.097261 0.110292
0.0613565 0.097261 0.110826
0.0721447 0.0973983 0.112642
0.0872053 0.096849 0.114275
0.106294 0.095552 0.115587
0.131777 0.092958 0.114839
0.162356 0.0904402 0.114641
0.197375 0.0880293 0.114214
0.2365 0.0853895 0.113451
0.279393 0.0822461 0.11223
0.325673 0.0789349 0.110277
0.374655 0.076173 0.107759
0.426795 0.0746014 0.104158
0.485817 0.0741741 0.0994736
0.546624 0.0748302 0.0936751
0.606622 0.0783398 0.0865187
0.664836 0.0840162 0.0773175
0.719936 0.0902113 0.0667735
0.768887 0.0967269 0.0554818
0.811109 0.102525 0.044007
0.847913 0.110048 0.0322423
0.880323 0.117159 0.0228428
0.910185 0.122881 0.0144656
0.937926 0.126925 0.00991836
0.964019 0.130755 0.00708019
0.988479 0.133837 0.00801099
1 0.136049 0.0141451
1 0.13698 0.0261845
1 0.138872 0.0434272
1 0.140917 0.0653239
1 0.144839 0.0897231
1 0.152926 0.119631
0.0555123 0.097261 0.110292
0.057847 0.0970932 0.11046
0.065507 0.0978103 0.111101
0.0755169 0.0986496 0.112093
0.0903182 0.0989853 0.11284
0.109194 0.0991684 0.113466
0.13315 0.0989853 0.113603
0.163073 0.0986954 0.113695
0.197543 0.0980697 0.11313
0.236255 0.0969711 0.112367
0.27863 0.0961013 0.110872
0.324453 0.0955825 0.10869
0.373495 0.095552 0.105653
0.426337 0.0964828 0.101808
0.485374 0.0986496 0.096788
0.545205 0.102647 0.090425
0.6047 0.107729 0.082475
0.66276 0.112398 0.0730755
0.717754 0.117723 0.0622263
0.766735 0.123415 0.049546
0.808988 0.129137 0.0368658
0.845838 0.134966 0.024979
0.878462 0.139406 0.0156863
0.908583 0.142718 0.00874342
0.936645 0.14609 0.00349432
0.962982 0.148791 0.00131228
0.987549 0.150805 0.00251774
1 0.151461 0.00877394
1 0.151659 0.0214237
1 0.152499 0.0396582
1 0.154025 0.0619669
1 0.156725 0.087068
1 0.163836 0.1178
0.0533761 0.100633 0.111299
0.0595407 0.100877 0.111192
0.0665751 0.10222 0.11136
0.0770428 0.10367 0.111833
0.091249 0.104662 0.112322
0.110002 0.10547 0.112886
0.133989 0.106447 0.113054
0.163699 0.107256 0.112657
0.198154 0.108309 0.112016
0.236622 0.108965 0.110857
0.27895 0.110262 0.108904
0.324742 0.111666 0.106554
0.373541 0.113817 0.103288
0.427512 0.117128 0.0987411
0.486107 0.121492 0.0933852
0.545373 0.12665 0.0864118
0.604334 0.132662 0.0777905
0.661738 0.138399 0.0674296
0.716167 0.143709 0.0556497
0.764965 0.148363 0.0419471
0.807202 0.152789 0.0289158
0.844083 0.156954 0.0174868
0.876997 0.160372 0.00831617
0.907225 0.163684 0.000854505
0.935576 0.165316 1.5259e-05
0.96202 0.166461 0
0.986618 0.166903 3.0518e-05
1 0.167712 0.00270085
1 0.167407 0.0145876
1 0.166827 0.0339818
1 0.167102 0.0578317
1 0.169284 0.0842451
1 0.175479 0.115785
0.0541238 0.106508 0.111345
0.0610208 0.106264 0.11191
0.0662852 0.105913 0.113222
0.0789807 0.10927 0.112139
0.0932021 0.112337 0.111879
0.111543 0.114504 0.111894
0.135988 0.116564 0.111666
0.165759 0.118898 0.111177
0.199939 0.121523 0.110079
0.238178 0.124559 0.108644
0.280125 0.12781 0.106447
0.326024 0.131746 0.103304
0.374823 0.136355 0.0994888
0.430137 0.142138 0.0942855
0.48748 0.148425 0.0879835
0.545876 0.155398 0.0800336
0.603754 0.161837 0.070634
0.660517 0.167514 0.0592355
0.714504 0.173388 0.0452735
0.763073 0.177508 0.0302434
0.805325 0.181445 0.0166171
0.842451 0.184176 0.00576791
0.875502 0.186419 0.000244144
0.906126 0.187518 0
0.934478 0.188205 0
0.960876 0.188693 0
0.985382 0.188159 0
1 0.187778 6.10361e-05
1 0.186664 0.00653086
1 0.185153 0.025803
1 0.184573 0.0517891
1 0.185641 0.0794995
1 0.19028 0.111879
0.0572061 0.114412 0.111833
0.0642557 0.114107 0.112764
0.0702831 0.113863 0.113741
0.0772412 0.11371 0.115251
0.0982071 0.120516 0.112367
0.119478 0.126238 0.111162
0.142885 0.131777 0.109636
0.173129 0.136217 0.108431
0.207858 0.140887 0.106798
0.246296 0.146029 0.104601
0.288624 0.151278 0.101778
0.334066 0.15761 0.0979782
0.386084 0.165026 0.0927749
0.441535 0.17322 0.0862593
0.498436 0.181216 0.0785077
0.556085 0.188617 0.0693065
0.613321 0.196124 0.0573434
0.669215 0.202136 0.0429389
0.722042 0.207462 0.0263828
0.768719 0.211093 0.0115511
0.809461 0.213748 0.0011902
0.845487 0.215152 1.5259e-05
0.87747 0.216159 0
0.907286 0.216342 0
0.935027 0.215763 0
0.961089 0.214588 0
0.985534 0.213794 0
1 0.211536 0
1 0.209979 0.000564584
1 0.208057 0.0168765
1 0.206378 0.0457618
1 0.206104 0.0764782
1 0.208774 0.109224
0.0595407 0.123674 0.11339
0.0668956 0.123903 0.114061
0.0744335 0.123888 0.114611
0.0825818 0.123537 0.115526
0.0938125 0.12459 0.116808
0.12462 0.136477 0.111467
0.153094 0.146242 0.108476
0.180255 0.15407 0.105684
0.211933 0.161929 0.102586
0.249699 0.168887 0.0997787
0.291554 0.176562 0.096025
0.339605 0.185412 0.0908827
0.391592 0.194812 0.0843366
0.445975 0.204364 0.0764019
0.501793 0.21326 0.0671397
0.558618 0.222065 0.0551156
0.615228 0.229419 0.0404822
0.670497 0.236133 0.0230411
0.722362 0.241428 0.00613413
0.768429 0.244724 0.000320439
0.808728 0.246464 0
0.844236 0.247135 0
0.876188 0.246952 0
0.906004 0.245914 0
0.933913 0.244663 0
0.960143 0.242817 0
0.984665 0.240894 0
1 0.23801 0
1 0.235477 0
1 0.232425 0.00535592
1 0.229969 0.0361334
1 0.229145 0.070573
1 0.231235 0.106432
0.0619974 0.136385 0.115465
0.0704509 0.137133 0.116121
0.0783246 0.137209 0.116976
0.0881361 0.137133 0.117815
0.09897 0.136736 0.119265
0.11754 0.141527 0.119539
0.156939 0.158175 0.11104
0.191501 0.171099 0.10515
0.222461 0.18143 0.100038
0.257389 0.193347 0.0939803
0.298955 0.20502 0.0875868
0.346716 0.215671 0.0810864
0.397635 0.226368 0.0727398
0.451026 0.236728 0.0628061
0.506096 0.246738 0.0504005
0.561868 0.256031 0.0343938
0.617426 0.263951 0.0167086
0.671534 0.270848 0.00175479
0.722408 0.275914 0
0.767422 0.278798 0
0.807187 0.279744 0
0.842527 0.279622 0
0.874403 0.278599 0
0.904326 0.277226 0
0.932311 0.274876 0
0.958648 0.272297 0
0.98323 0.26923 0
1 0.265797 0
1 0.261982 0
1 0.258442 0.000350958
1 0.255177 0.0224002
1 0.253162 0.0616312
1 0.253956 0.101778
0.0646677 0.153246 0.118212
0.0740673 0.154376 0.118822
0.0834669 0.154788 0.119387
0.095079 0.154925 0.120485
0.108019 0.1552 0.121813
0.120745 0.154406 0.124056
0.149569 0.164767 0.122164
0.196124 0.18584 0.110521
0.237354 0.202396 0.101488
0.273411 0.215137 0.0932631
0.311711 0.22884 0.0835279
0.354101 0.243153 0.0720378
0.403693 0.256001 0.0603647
0.456519 0.268467 0.0453651
0.510658 0.280324 0.0263676
0.565576 0.290303 0.00769055
0.619867 0.298573 0.000534066
0.672953 0.305455 0
0.722515 0.310277 0
0.766613 0.312932 0
0.805814 0.313512 0
0.840864 0.312795 0
0.872923 0.311284 0
0.902953 0.308812 0
0.930907 0.306157 0
0.957092 0.302693 0
0.981521 0.29865 0
1 0.294362 0
1 0.28986 0
1 0.285512 0
1 0.281437 0.00605783
1 0.278325 0.0509651
1 0.278172 0.0947738
0.0694285 0.178851 0.120745
0.0802319 0.179324 0.121309
0.0910658 0.179904 0.121965
0.104784 0.180484 0.123171
0.121035 0.181796 0.124834
0.139116 0.183429 0.127169
0.157076 0.184268 0.131258
0.197131 0.200885 0.125948
0.251225 0.22565 0.108263
0.296956 0.244007 0.0940261
0.335714 0.25713 0.0814984
0.375799 0.271046 0.0669566
0.418433 0.285786 0.0483558
0.467262 0.299184 0.0280156
0.520424 0.311192 0.0075227
0.574456 0.322789 0
0.628183 0.333059 0
0.680064 0.341817 0
0.72781 0.346792 0
0.770306 0.348531 0
0.808011 0.348638 0
0.841978 0.34699 0
0.873274 0.344518 0
0.902586 0.341405 0
0.930022 0.337636 0
0.955932 0.333349 0
0.980209 0.328878 0
0.999878 0.324025 0
1 0.318959 0
1 0.31368 0
1 0.308949 0.00062562
1 0.304692 0.0364843
1 0.302617 0.0842298
0.0742962 0.205646 0.123339
0.0876326 0.209873 0.124315
0.100816 0.211994 0.125353
0.117159 0.213214 0.12665
0.135775 0.214298 0.128511
0.156146 0.21593 0.131106
0.17734 0.217609 0.134722
0.200809 0.219821 0.140719
0.248814 0.24036 0.129442
0.306462 0.266255 0.104936
0.354437 0.284764 0.0852369
0.395605 0.298421 0.0667124
0.437125 0.312184 0.0439612
0.480018 0.32668 0.0153048
0.52665 0.340337 9.15541e-05
0.579187 0.351751 0
0.632197 0.361959 0
0.68336 0.370718 0
0.729885 0.37705 0
0.771282 0.38088 0
0.808164 0.381979 0
0.841459 0.380118 0
0.872343 0.377096 0
0.901442 0.373465 0
0.928893 0.369146 0
0.954833 0.364477 0
0.979232 0.359228 0
1 0.353841 0
1 0.348058 0
1 0.342489 0
1 0.336843 1.5259e-05
1 0.332357 0.0223239
1 0.329778 0.0799725
0.0804456 0.236469 0.126635
0.0960708 0.242344 0.127703
0.110567 0.244892 0.128862
0.128023 0.246189 0.130541
0.148363 0.247272 0.132677
0.170626 0.248768 0.135546
0.1944 0.250767 0.139483
0.217273 0.251621 0.145129
0.247593 0.257542 0.152834
0.302022 0.281422 0.134264
0.363378 0.308156 0.101762
0.413703 0.32697 0.0744793
0.457023 0.340993 0.0466926
0.499489 0.354284 0.0124819
0.542565 0.367941 0
0.586496 0.381109 0
0.635752 0.391577 0
0.685313 0.399603 0
0.730373 0.404852 0
0.770733 0.408026 0
0.806943 0.409323 0
0.839811 0.409598 0
0.870542 0.408438 0
0.89958 0.404868 0
0.927016 0.400275 0
0.952956 0.395056 0
0.977356 0.389319 0
0.998718 0.383429 0
1 0.377157 0
1 0.370626 0
1 0.364508 0
1 0.359487 0.00358587
1 0.356069 0.0693065
0.0884718 0.268894 0.130205
0.105318 0.275685 0.132036
0.120531 0.278706 0.133654
0.139452 0.280278 0.135439
0.16112 0.281498 0.137835
0.185046 0.283146 0.140963
0.210346 0.285451 0.145617
0.237339 0.288472 0.15108
0.261387 0.288731 0.159716
0.299657 0.299672 0.168811
0.360357 0.326116 0.140917
0.424704 0.353277 0.100282
0.477012 0.371878 0.062974
0.521233 0.385199 0.0211032
0.563149 0.397086 0
0.604868 0.408957 0
0.645579 0.420264 0
0.687724 0.429053 0
0.730953 0.433417 0
0.77026 0.435767 0
0.80589 0.436454 0
0.838621 0.436042 0
0.869337 0.435203 0
0.898238 0.433936 0
0.925521 0.430884 0
0.951232 0.425361 0
0.975326 0.419455 0
0.996857 0.412879 0
1 0.405768 0
1 0.398978 0
1 0.392218 0
1 0.386404 0.00047303
1 0.382452 0.0561379
0.101564 0.310948 0.13669
0.117571 0.314473 0.138231
0.133425 0.31635 0.140093
0.153109 0.317876 0.142031
0.176013 0.319585 0.144762
0.201236 0.321645 0.148669
0.228504 0.324437 0.153429
0.257176 0.32752 0.159838
0.286778 0.33138 0.167514
0.312657 0.331228 0.179721
0.360021 0.347738 0.185672
0.424292 0.374823 0.151308
0.490074 0.400916 0.101869
0.542535 0.418189 0.0521248
0.586175 0.429984 0.00543221
0.626444 0.439719 0
0.66511 0.44892 0
0.701091 0.456931 0
0.735393 0.463172 0
0.771817 0.465232 0
0.806531 0.464836 0
0.838758 0.463737 0
0.868955 0.462043 0
0.897383 0.46006 0
0.924117 0.457786 0
0.949386 0.45449 0
0.973251 0.448722 0
0.995041 0.442008 0
1 0.434714 0
1 0.427344 0
1 0.420005 0
1 0.413382 0
1 0.407782 0.0333562
0.112871 0.343786 0.142947
0.131899 0.353368 0.146319
0.149508 0.357702 0.148745
0.169284 0.359304 0.151125
0.192706 0.360128 0.154284
0.218143 0.361669 0.158114
0.246204 0.363836 0.16321
0.275761 0.36672 0.169558
0.306691 0.37026 0.177539
0.337423 0.373693 0.187503
0.367559 0.375723 0.203815
0.421225 0.395453 0.204105
0.487449 0.422095 0.163882
0.553399 0.446571 0.107012
0.604959 0.462058 0.0480812
0.646952 0.471824 0.00350958
0.683467 0.478569 0
0.717113 0.484215 0
0.748119 0.488853 0
0.776989 0.492454 0
0.806699 0.493599 0
0.838499 0.491722 0
0.868315 0.489372 0
0.896544 0.486671 0
0.923217 0.483772 0
0.94844 0.480735 0
0.972259 0.477333 0
0.994202 0.471275 0
1 0.463828 0
1 0.456046 0
1 0.448402 0
1 0.441367 0
1 0.435599 0.0213169
0.128252 0.38027 0.151476
0.146944 0.390326 0.155505
0.16437 0.394736 0.15816
0.18436 0.396368 0.160937
0.207568 0.397284 0.164157
0.233433 0.398749 0.167987
0.262104 0.401175 0.173587
0.292363 0.404196 0.180194
0.324514 0.408087 0.188235
0.357763 0.412772 0.19823
0.388937 0.415412 0.21091
0.424735 0.421042 0.231525
0.48394 0.443458 0.225193
0.550988 0.46891 0.179187
0.615 0.490776 0.118685
0.662745 0.5028 0.0578927
0.699596 0.50869 0.00784314
0.730983 0.511818 0
0.759854 0.514138 0
0.786694 0.515999 0
0.812009 0.517723 0
0.837812 0.518563 0
0.866468 0.516411 0
0.894621 0.513161 0
0.921279 0.509911 0
0.946578 0.506233 0
0.970336 0.502525 0
0.992355 0.498497 0
1 0.491768 0
1 0.483619 0
1 0.475547 0
1 0.467903 0
1 0.461707 0.00289921
0.144854 0.416999 0.161578
0.164034 0.427008 0.165774
0.180331 0.43154 0.168978
0.199985 0.43331 0.171695
0.222965 0.434455 0.175036
0.249348 0.436225 0.179126
0.278431 0.439002 0.185046
0.309712 0.442527 0.191897
0.342794 0.446952 0.200519
0.377401 0.452094 0.21091
0.413291 0.457938 0.222965
0.443961 0.459251 0.238987
0.486854 0.469459 0.262623
0.548074 0.491859 0.247532
0.612665 0.514107 0.198917
0.670314 0.530571 0.138155
0.711543 0.537743 0.0822766
0.743343 0.5402 0.0258488
0.770733 0.540536 0
0.796262 0.540597 0
0.820706 0.540825 0
0.844388 0.54139 0
0.867658 0.542016 0
0.893111 0.540322 0
0.919646 0.536431 0
0.944762 0.53228 0
0.968338 0.527871 0
0.990387 0.523308 0
1 0.518318 0
1 0.510719 0
1 0.502159 0
1 0.494133 0
1 0.487526 0
0.16466 0.457069 0.173846
0.181277 0.462852 0.176959
0.196521 0.465888 0.179889
0.215763 0.468116 0.182849
0.238911 0.470237 0.186343
0.265431 0.472908 0.191379
0.294713 0.476341 0.19733
0.326589 0.480446 0.204868
0.360494 0.485237 0.21384
0.39585 0.490578 0.224323
0.432578 0.496529 0.23653
0.469978 0.502998 0.250782
0.50016 0.502922 0.27071
0.548516 0.516625 0.294423
0.608621 0.536965 0.271763
0.6663 0.553613 0.223529
0.716625 0.564523 0.165789
0.753002 0.568276 0.117037
0.781506 0.568475 0.0654459
0.806348 0.567163 0.0189975
0.830076 0.565942 0
0.852995 0.564996 0
0.875059 0.56437 0
0.896452 0.564141 0
0.918639 0.562585 0
0.942687 0.558404 0
0.965988 0.553475 0
0.987961 0.548318 0
1 0.543084 0
1 0.537194 0
1 0.528878 0
1 0.520455 0
1 0.512917 0
0.184085 0.492363 0.18587
0.201602 0.501167 0.190799
0.217243 0.505501 0.1944
0.235752 0.507576 0.197345
0.257877 0.508995 0.200793
0.283482 0.511009 0.205478
0.312459 0.51397 0.211383
0.343725 0.517494 0.218997
0.37705 0.521935 0.227893
0.412558 0.527031 0.238392
0.449271 0.532845 0.250782
0.487419 0.539361 0.26482
0.52459 0.545113 0.281224
0.556466 0.545892 0.305364
0.605966 0.560433 0.329442
0.660883 0.576364 0.300145
0.711971 0.5879 0.253529
0.756909 0.594965 0.199374
0.789532 0.596109 0.156024
0.815641 0.594675 0.116732
0.83888 0.592279 0.0647898
0.861112 0.589944 0.0167239
0.882536 0.587961 0
0.903304 0.586343 0
0.923461 0.585092 0
0.943252 0.583978 0
0.965087 0.579995 0
0.987076 0.574456 0
1 0.568826 0
1 0.562966 0
1 0.555993 0
1 0.547433 0
1 0.539849 0
0.205814 0.530556 0.200473
0.223133 0.538994 0.205875
0.238193 0.543038 0.209415
0.255741 0.544686 0.212375
0.276905 0.545846 0.215854
0.30164 0.547662 0.220569
0.329915 0.550408 0.226719
0.360632 0.553964 0.233967
0.394018 0.558267 0.243137
0.429175 0.563317 0.253849
0.466255 0.569116 0.2663
0.504356 0.57554 0.280598
0.543511 0.582498 0.296895
0.578531 0.586145 0.316396
0.611536 0.587976 0.344884
0.657008 0.599756 0.366278
0.705653 0.61088 0.332403
0.75082 0.61799 0.286305
0.790997 0.621424 0.233692
0.82034 0.620371 0.193378
0.844068 0.617548 0.15906
0.865995 0.614191 0.119493
0.887083 0.611124 0.0673533
0.907607 0.608454 0.01944
0.927504 0.606195 0
0.946822 0.604257 0
0.965408 0.602609 0
0.984665 0.599405 0
1 0.593545 0
1 0.587076 0
1 0.580407 0
1 0.572412 0
1 0.564416 0
0.22916 0.56849 0.216144
0.245609 0.576425 0.221942
0.259678 0.580041 0.225559
0.276295 0.581491 0.228534
0.296727 0.582589 0.231952
0.320775 0.584451 0.236774
0.348501 0.587304 0.243183
0.379187 0.590967 0.251057
0.4121 0.5953 0.260487
0.447211 0.600305 0.271626
0.483803 0.605737 0.284657
0.521309 0.611475 0.299382
0.559655 0.617517 0.315847
0.597971 0.623697 0.334447
0.627558 0.623117 0.356909
0.660151 0.625711 0.389517
0.700984 0.634562 0.403433
0.74435 0.641581 0.367147
0.784756 0.645212 0.321447
0.821225 0.645914 0.270237
0.848081 0.643198 0.231601
0.870008 0.639261 0.201068
0.890944 0.63537 0.167437
0.911254 0.631769 0.129747
0.930953 0.628519 0.0805219
0.949981 0.625528 0.026154
0.968231 0.622705 0
0.985641 0.620111 0
1 0.617075 0
1 0.611032 0
1 0.604013 0
1 0.596887 0
1 0.588663 0
0.254307 0.607004 0.234318
0.268208 0.612192 0.238575
0.281254 0.614832 0.242145
0.297444 0.616556 0.245594
0.317571 0.618357 0.249775
0.341329 0.620676 0.255253
0.368231 0.623682 0.262425
0.398474 0.627237 0.270863
0.430671 0.631235 0.28098
0.464881 0.635691 0.292729
0.500359 0.640345 0.306294
0.536751 0.645243 0.321462
0.573739 0.650294 0.338384
0.610803 0.655467 0.35697
0.646952 0.660365 0.377401
0.672023 0.657221 0.40325
0.703044 0.660334 0.439597
0.739635 0.666865 0.445441
0.779095 0.670832 0.406836
0.81593 0.671794 0.361929
0.849485 0.670298 0.311513
0.874434 0.666133 0.273869
0.894606 0.661067 0.245029
0.91429 0.656336 0.214374
0.933455 0.651896 0.18117
0.95201 0.647684 0.143145
0.969818 0.643732 0.0940261
0.986954 0.639994 0.0351415
1 0.636484 0.0075227
1 0.633127 0
1 0.628229 0
1 0.621271 0
1 0.61355 0
0.281407 0.644434 0.255985
0.294575 0.64889 0.261341
0.3066 0.651286 0.26508
0.321721 0.652537 0.268421
0.340642 0.653803 0.27277
0.363088 0.65565 0.278447
0.388891 0.658045 0.285618
0.417411 0.66096 0.294209
0.448218 0.66424 0.304646
0.481209 0.667933 0.316564
0.515343 0.672007 0.330327
0.550576 0.67631 0.345937
0.586557 0.680873 0.363394
0.622568 0.685634 0.382666
0.658335 0.690501 0.403616
0.691127 0.693935 0.427024
0.712764 0.689723 0.456397
0.741619 0.693996 0.496269
0.775219 0.698558 0.49221
0.811246 0.699992 0.45301
0.845151 0.698573 0.407889
0.876219 0.694896 0.358022
0.899245 0.68925 0.320912
0.917784 0.683162 0.292943
0.936309 0.677562 0.263828
0.954696 0.672465 0.233616
0.972488 0.667613 0.200977
0.98967 0.663005 0.164569
1 0.658518 0.120104
1 0.654108 0.051545
1 0.649897 0.00787366
1 0.645685 0
1 0.639368 0
0.307851 0.677638 0.280125
0.320256 0.681453 0.285863
0.331548 0.683299 0.289372
0.34493 0.684153 0.292546
0.362264 0.684871 0.29659
0.383139 0.686168 0.302205
0.407324 0.688045 0.30927
0.434409 0.69041 0.318212
0.463966 0.693172 0.328603
0.495247 0.696269 0.340856
0.528161 0.699825 0.354894
0.562112 0.703609 0.370642
0.596643 0.707637 0.388388
0.631327 0.711757 0.407614
0.665705 0.715999 0.428626
0.699077 0.720272 0.450965
0.72665 0.721035 0.475654
0.746105 0.717342 0.507668
0.771572 0.721233 0.54403
0.802716 0.723873 0.531197
0.835767 0.723262 0.492134
0.867338 0.720088 0.447028
0.89659 0.71487 0.397131
0.918379 0.708339 0.360281
0.935882 0.701762 0.333333
0.953613 0.695659 0.305562
0.971405 0.690181 0.27686
0.988617 0.684703 0.245701
1 0.67924 0.211246
1 0.673838 0.171054
1 0.668528 0.120256
1 0.66392 0.0437018
1 0.660319 0.00521859
0.333608 0.70721 0.305699
0.345068 0.710674 0.311772
0.355535 0.712108 0.315541
0.368063 0.712596 0.318517
0.383856 0.713085 0.322255
0.403433 0.714137 0.32781
0.426307 0.715755 0.33521
0.452094 0.717922 0.344335
0.480262 0.720516 0.355276
0.510323 0.7234 0.368032
0.541756 0.726497 0.382452
0.574319 0.729747 0.398398
0.607187 0.73315 0.416068
0.640238 0.73666 0.435187
0.673014 0.740108 0.455512
0.704768 0.743603 0.477241
0.735363 0.747143 0.500023
0.756619 0.744884 0.52546
0.774762 0.742657 0.558892
0.797086 0.746197 0.590555
0.826459 0.747219 0.569986
0.857191 0.745113 0.531289
0.886763 0.740673 0.487114
0.914778 0.734264 0.437247
0.935576 0.727077 0.400946
0.952132 0.719936 0.37435
0.968811 0.713191 0.347036
0.985992 0.706996 0.317952
1 0.700618 0.285847
1 0.694163 0.250126
1 0.687877 0.210636
1 0.682292 0.16701
1 0.677775 0.117662
0.361593 0.735943 0.335637
0.371603 0.738384 0.341131
0.380972 0.739483 0.344503
0.392691 0.739971 0.347692
0.407538 0.740459 0.351843
0.425727 0.741451 0.357778
0.447318 0.742885 0.36524
0.471565 0.744747 0.374792
0.498299 0.746975 0.385977
0.526741 0.749432 0.398825
0.556603 0.75198 0.413184
0.587289 0.754681 0.428885
0.618509 0.757443 0.446174
0.64979 0.760204 0.464973
0.680781 0.763058 0.484886
0.710994 0.765957 0.505684
0.740139 0.768887 0.52784
0.767208 0.771481 0.550927
0.783261 0.767391 0.576623
0.800473 0.767117 0.610208
0.820356 0.770108 0.63476
0.848127 0.769802 0.608743
0.876448 0.766659 0.572045
0.904204 0.761059 0.528557
0.930785 0.753338 0.478676
0.950561 0.745144 0.44155
0.966033 0.737133 0.413977
0.981872 0.72958 0.385489
0.997757 0.722728 0.355657
1 0.715908 0.323552
1 0.709163 0.289113
1 0.702907 0.25304
1 0.697261 0.215213
0.394965 0.766262 0.374746
0.40444 0.768246 0.380224
0.41297 0.76907 0.383734
0.423194 0.769299 0.386572
0.436744 0.769528 0.390478
0.453101 0.770077 0.395941
0.47303 0.771054 0.403189
0.495338 0.772366 0.412314
0.520226 0.774044 0.423285
0.546944 0.775967 0.436133
0.574945 0.778134 0.450431
0.604059 0.780407 0.466529
0.633722 0.782818 0.484016
0.663584 0.785367 0.503075
0.693034 0.787991 0.52314
0.721996 0.790722 0.544533
0.749737 0.793561 0.566751
0.776028 0.796475 0.589151
0.798886 0.798123 0.611643
0.811337 0.793576 0.635691
0.827176 0.794415 0.664851
0.845273 0.796231 0.678538
0.869856 0.794736 0.653452
0.895216 0.790631 0.620096
0.920714 0.783993 0.579095
0.946136 0.774975 0.529397
0.965087 0.765866 0.491875
0.979843 0.757336 0.464424
0.994553 0.749004 0.435843
1 0.741405 0.405127
1 0.733684 0.372244
1 0.726513 0.338827
1 0.720562 0.308919
0.422568 0.789639 0.406714
0.431281 0.791241 0.411948
0.438834 0.791806 0.414939
0.448005 0.791745 0.417548
0.459922 0.791669 0.420951
0.474907 0.79202 0.426108
0.493202 0.792767 0.433356
0.514138 0.793896 0.442161
0.537438 0.795254 0.453193
0.562539 0.796872 0.466011
0.589059 0.798703 0.480186
0.616693 0.800702 0.496193
0.644877 0.802823 0.513573
0.673198 0.805035 0.532235
0.701183 0.807248 0.551858
0.728527 0.809506 0.572183
0.754803 0.81181 0.592782
0.779797 0.814191 0.613108
0.803372 0.816602 0.632807
0.821576 0.816342 0.652399
0.832258 0.812039 0.674189
0.846754 0.81323 0.699886
0.863859 0.814084 0.705242
0.886503 0.811948 0.680827
0.909636 0.80763 0.650675
0.933379 0.800809 0.61297
0.957534 0.791363 0.565545
0.975845 0.78175 0.528084
0.989944 0.772641 0.499855
1 0.763455 0.46978
1 0.755123 0.437385
1 0.747326 0.405081
1 0.740597 0.375631
0.450431 0.811353 0.439338
0.457893 0.812467 0.443793
0.464698 0.812787 0.446464
0.472709 0.812619 0.448615
0.483665 0.812512 0.452033
0.497475 0.812772 0.457252
0.514778 0.813474 0.464729
0.534569 0.814511 0.474205
0.556497 0.815808 0.485206
