YOYO-Client/Yoyo/Assets.xcassets/Shibuya.dataset/Shibuya.cube
TITLE "Generated by Resolve"
LUT_3D_SIZE 5
0.0555123 0.097261 0.110292
0.197375 0.0880293 0.114214
0.606622 0.0783398 0.0865187
0.937926 0.126925 0.00991836
1 0.152926 0.119631
0.0694285 0.178851 0.120745
0.251225 0.22565 0.108263
0.628183 0.333059 0
0.930022 0.337636 0
1 0.302617 0.0842298
0.16466 0.457069 0.173846
0.360494 0.485237 0.21384
0.716625 0.564523 0.165789
0.918639 0.562585 0
1 0.512917 0
0.361593 0.735943 0.335637
0.498299 0.746975 0.385977
0.740139 0.768887 0.52784
0.930785 0.753338 0.478676
1 0.697261 0.215213
0.626734 0.911467 0.646113
0.687831 0.911055 0.675929
0.812558 0.909697 0.742443
0.917159 0.905989 0.816434
0.990997 0.873075 0.755611
0 0.166064 0.242893
0.157061 0.153017 0.274037
0.566308 0.14583 0.300969
0.913863 0.205066 0.254459
1 0.272984 0.210986
0.00746166 0.236088 0.293599
0.201419 0.278386 0.307622
0.59585 0.299519 0.276844
0.911528 0.344289 0.259083
1 0.361913 0.22388
0 0.510109 0.414023
0.291402 0.516884 0.37084
0.668742 0.583124 0.419348
0.903593 0.564599 0.265446
1 0.535729 0.26833
0.300145 0.747555 0.486686
0.461082 0.752895 0.503456
0.714565 0.775464 0.627985
0.896284 0.779751 0.634974
1 0.720272 0.422095
0.609537 0.912306 0.682475
0.675517 0.912367 0.710445
0.803357 0.911009 0.768658
0.912734 0.91104 0.835126
0.984512 0.878294 0.774273
0 0.387518 0.581857
0 0.396887 0.580484
0.470665 0.391485 0.668284
0.826581 0.42945 0.646983
0.977142 0.617517 0.728466
0 0.438514 0.605173
0 0.451194 0.599237
0.491157 0.475883 0.669291
0.810864 0.533761 0.675776
0.983001 0.624475 0.71632
0.196536 0.558541 0.668406
0.335363 0.579065 0.671458
0.555856 0.635248 0.684092
0.819852 0.656718 0.690257
0.990387 0.674983 0.696681
0.50605 0.780209 0.79704
0.542367 0.780331 0.782177
0.636027 0.779477 0.727001
0.84361 0.816754 0.788525
0.985382 0.782757 0.695521
0.642191 0.913771 0.825559
0.65098 0.915633 0.811093
0.757687 0.914702 0.805875
0.894682 0.917296 0.868788
0.957473 0.898909 0.849058
0 0.595682 0.816617
0 0.604181 0.810208
0.396689 0.642145 0.822522
0.725032 0.690074 0.862699
0.912871 0.716899 0.855131
0 0.624979 0.819883
0 0.63415 0.81529
0.435706 0.667887 0.81944
0.732647 0.714427 0.861418
0.909926 0.740917 0.859373
0.298177 0.6925 0.832609
0.377401 0.701259 0.830655
0.520088 0.720088 0.822873
0.752178 0.765362 0.861295
0.909361 0.799496 0.874205
0.586908 0.780392 0.859678
0.615656 0.78706 0.860548
0.684688 0.802487 0.860731
0.78323 0.829892 0.864713
0.929656 0.85156 0.877867
0.785306 0.906035 0.933394
0.789334 0.912001 0.933806
0.801831 0.922454 0.927733
0.849561 0.925277 0.895216
0.929503 0.91989 0.913985
0.589593 0.837827 0.950072
0.616007 0.842405 0.948791
0.687358 0.854612 0.946365
0.794629 0.862989 0.947951
0.88748 0.877531 0.950256
0.608789 0.843778 0.950454
0.633646 0.84831 0.949416
0.695827 0.860502 0.946822
0.801694 0.869856 0.94786
0.889448 0.881956 0.950256
0.636988 0.856046 0.953216
0.659709 0.860441 0.952514
0.720516 0.872801 0.950286
0.812665 0.885771 0.94905
0.896239 0.895338 0.950912
0.722011 0.882414 0.952972
0.731334 0.884199 0.952697
0.759106 0.889586 0.951949
0.819684 0.902953 0.950347
0.905943 0.915984 0.950988
0.807157 0.907622 0.950286
0.814725 0.9093 0.950118
0.83856 0.914672 0.949615
0.878157 0.92401 0.94905
0.912413 0.932921 0.949432
