YOYO-Client/Yoyo/Assets.xcassets/Decisive.dataset/Decisive.cube
TITLE "Decisive"
LUT_3D_SIZE 33
0.0109407 0.0109407 0.0109407
0.0144808 0.0144808 0.0144808
0.0177768 0.0177768 0.0177768
0.0209506 0.0209506 0.0209506
0.0240177 0.0240177 0.0240177
0.0270848 0.0270848 0.0270848
0.0302129 0.0302129 0.0302129
0.0333257 0.0333257 0.0333257
0.0363928 0.0363928 0.0363928
0.0394751 0.0394751 0.0394751
0.0425422 0.0425422 0.0425422
0.0456855 0.0456855 0.0456855
0.0490883 0.0490883 0.0490883
0.0525063 0.0525063 0.0525063
0.0560006 0.0560006 0.0560006
0.0595407 0.0595407 0.0595407
0.0632334 0.0632334 0.0632334
0.0674296 0.0674296 0.0674296
0.0717937 0.0717937 0.0717937
0.0763409 0.0763409 0.0763409
0.0809796 0.0809796 0.0809796
0.0860151 0.0860151 0.0860151
0.0919661 0.0919661 0.0919661
0.0983597 0.0983597 0.0983597
0.105104 0.105104 0.105104
0.11191 0.11191 0.11191
0.118898 0.118898 0.118898
0.126345 0.126345 0.126345
0.134035 0.134035 0.134035
0.141726 0.141726 0.141726
0.149432 0.149432 0.149432
0.157214 0.157214 0.157214
0.165103 0.165103 0.165103
0.0220188 0.0220188 0.0220188
0.0250706 0.0250706 0.0250706
0.0281376 0.0281376 0.0281376
0.0312047 0.0312047 0.0312047
0.0343328 0.0343328 0.0343328
0.0374456 0.0374456 0.0374456
0.040528 0.040528 0.040528
0.0436255 0.0436255 0.0436255
0.0467994 0.0467994 0.0467994
0.0501259 0.0501259 0.0501259
0.0537118 0.0537118 0.0537118
0.0572061 0.0572061 0.0572061
0.0607767 0.0607767 0.0607767
0.0645914 0.0645914 0.0645914
0.0687419 0.0687419 0.0687419
0.0733043 0.0733043 0.0733043
0.0779278 0.0779278 0.0779278
0.0826429 0.0826429 0.0826429
0.087892 0.087892 0.087892
0.0938582 0.0938582 0.0938582
0.10045 0.10045 0.10045
0.107439 0.107439 0.107439
0.11429 0.11429 0.11429
0.12137 0.12137 0.12137
0.128756 0.128756 0.128756
0.136385 0.136385 0.136385
0.14435 0.14435 0.14435
0.152102 0.152102 0.152102
0.15993 0.15993 0.15993
0.167849 0.167849 0.167849
0.175845 0.175845 0.175845
0.183963 0.183963 0.183963
0.192233 0.192233 0.192233
0.0322576 0.0322576 0.0322576
0.0353246 0.0353246 0.0353246
0.0383917 0.0383917 0.0383917
0.0415808 0.0415808 0.0415808
0.0447089 0.0447089 0.0447089
0.0479438 0.0479438 0.0479438
0.0513161 0.0513161 0.0513161
0.0547799 0.0547799 0.0547799
0.0583505 0.0583505 0.0583505
0.0620584 0.0620584 0.0620584
0.06598 0.06598 0.06598
0.0702525 0.0702525 0.0702525
0.0747539 0.0747539 0.0747539
0.0793469 0.0793469 0.0793469
0.0843824 0.0843824 0.0843824
0.0898756 0.0898756 0.0898756
0.0960861 0.0960861 0.0960861
0.102739 0.102739 0.102739
0.109529 0.109529 0.109529
0.116579 0.116579 0.116579
0.123888 0.123888 0.123888
0.13138 0.13138 0.13138
0.13904 0.13904 0.13904
0.146746 0.146746 0.146746
0.154498 0.154498 0.154498
0.162646 0.162646 0.162646
0.170611 0.170611 0.170611
0.178622 0.178622 0.178622
0.186648 0.186648 0.186648
0.19472 0.19472 0.19472
0.203204 0.203204 0.203204
0.211475 0.211475 0.211475
0.219791 0.219791 0.219791
0.0425422 0.0425422 0.0425422
0.0456855 0.0456855 0.0456855
0.0490883 0.0490883 0.0490883
0.0525063 0.0525063 0.0525063
0.0560006 0.0560006 0.0560006
0.0595254 0.0595254 0.0595254
0.0632334 0.0632334 0.0632334
0.0674296 0.0674296 0.0674296
0.0717937 0.0717937 0.0717937
0.0763409 0.0763409 0.0763409
0.0809644 0.0809644 0.0809644
0.0859998 0.0859998 0.0859998
0.0919509 0.0919509 0.0919509
0.0983597 0.0983597 0.0983597
0.105089 0.105089 0.105089
0.111894 0.111894 0.111894
0.118883 0.118883 0.118883
0.126329 0.126329 0.126329
0.13402 0.13402 0.13402
0.141711 0.141711 0.141711
0.149432 0.149432 0.149432
0.157214 0.157214 0.157214
0.165087 0.165087 0.165087
0.173373 0.173373 0.173373
0.181399 0.181399 0.181399
0.189441 0.189441 0.189441
0.197543 0.197543 0.197543
0.205737 0.205737 0.205737
0.214252 0.214252 0.214252
0.222675 0.222675 0.222675
0.231006 0.231006 0.231006
0.239414 0.239414 0.239414
0.247898 0.247898 0.247898
0.0537118 0.0537118 0.0537118
0.0572061 0.0572061 0.0572061
0.0607767 0.0607767 0.0607767
0.0645914 0.0645914 0.0645914
0.0687419 0.0687419 0.0687419
0.0733043 0.0733043 0.0733043
0.0779278 0.0779278 0.0779278
0.0826429 0.0826429 0.0826429
0.087892 0.087892 0.087892
0.0938582 0.0938582 0.0938582
0.10045 0.10045 0.10045
0.107439 0.107439 0.107439
0.11429 0.11429 0.11429
0.12137 0.12137 0.12137
0.128756 0.128756 0.128756
0.136385 0.136385 0.136385
0.14435 0.14435 0.14435
0.152102 0.152102 0.152102
0.15993 0.15993 0.15993
0.167849 0.167849 0.167849
0.175845 0.175845 0.175845
0.183963 0.183963 0.183963
0.192233 0.192233 0.192233
0.200366 0.200366 0.200366
0.208606 0.208606 0.208606
0.216907 0.216907 0.216907
0.225223 0.225223 0.225223
0.233906 0.233906 0.233906
0.242344 0.242344 0.242344
0.250858 0.250858 0.250858
0.259449 0.259449 0.259449
0.26804 0.26804 0.26804
0.276814 0.276814 0.276814
0.06598 0.06598 0.06598
0.0702525 0.0702525 0.0702525
0.0747539 0.0747539 0.0747539
0.0793469 0.0793469 0.0793469
0.0843824 0.0843824 0.0843824
0.0898756 0.0898756 0.0898756
0.0960861 0.0960861 0.0960861
0.102739 0.102739 0.102739
0.109529 0.109529 0.109529
0.116579 0.116579 0.116579
0.123888 0.123888 0.123888
0.13138 0.13138 0.13138
0.13904 0.13904 0.13904
0.146746 0.146746 0.146746
0.154498 0.154498 0.154498
0.162646 0.162646 0.162646
0.170611 0.170611 0.170611
0.178622 0.178622 0.178622
0.186648 0.186648 0.186648
0.19472 0.19472 0.19472
0.203204 0.203204 0.203204
0.211475 0.211475 0.211475
0.219791 0.219791 0.219791
0.228122 0.228122 0.228122
0.236484 0.236484 0.236484
0.245289 0.245289 0.245289
0.253834 0.253834 0.253834
0.262409 0.262409 0.262409
0.271015 0.271015 0.271015
0.279667 0.279667 0.279667
0.288563 0.288563 0.288563
0.297505 0.297505 0.297505
0.30634 0.30634 0.30634
0.0809796 0.0809796 0.0809796
0.0859998 0.0859998 0.0859998
0.0919509 0.0919509 0.0919509
0.0983597 0.0983597 0.0983597
0.105089 0.105089 0.105089
0.111894 0.111894 0.111894
0.118883 0.118883 0.118883
0.126329 0.126329 0.126329
0.13402 0.13402 0.13402
0.141711 0.141711 0.141711
0.149432 0.149432 0.149432
0.157214 0.157214 0.157214
0.165087 0.165087 0.165087
0.173373 0.173373 0.173373
0.181399 0.181399 0.181399
0.189441 0.189441 0.189441
0.197543 0.197543 0.197543
0.205737 0.205737 0.205737
0.214252 0.214252 0.214252
0.222675 0.222675 0.222675
0.231006 0.231006 0.231006
0.239414 0.239414 0.239414
0.247898 0.247898 0.247898
0.256519 0.256519 0.256519
0.265385 0.265385 0.265385
0.274006 0.274006 0.274006
0.282673 0.282673 0.282673
0.291417 0.291417 0.291417
0.300221 0.300221 0.300221
0.309346 0.309346 0.309346
0.318242 0.318242 0.318242
0.327138 0.327138 0.327138
0.336095 0.336095 0.336095
0.10045 0.10045 0.10045
0.107439 0.107439 0.107439
0.11429 0.11429 0.11429
0.12137 0.12137 0.12137
0.128756 0.128756 0.128756
0.136385 0.136385 0.136385
0.14435 0.14435 0.14435
0.152102 0.152102 0.152102
0.15993 0.15993 0.15993
0.167849 0.167849 0.167849
0.175845 0.175845 0.175845
0.183963 0.183963 0.183963
0.192233 0.192233 0.192233
0.200366 0.200366 0.200366
0.208606 0.208606 0.208606
0.216907 0.216907 0.216907
0.225223 0.225223 0.225223
0.233906 0.233906 0.233906
0.242344 0.242344 0.242344
0.250858 0.250858 0.250858
0.259449 0.259449 0.259449
0.26804 0.26804 0.26804
0.276814 0.276814 0.276814
0.285695 0.285695 0.285695
0.294469 0.294469 0.294469
0.303288 0.303288 0.303288
0.312108 0.312108 0.312108
0.320958 0.320958 0.320958
0.33022 0.33022 0.33022
0.339208 0.339208 0.339208
0.348211 0.348211 0.348211
0.357229 0.357229 0.357229
0.366278 0.366278 0.366278
0.123903 0.123903 0.123903
0.13138 0.13138 0.13138
0.13904 0.13904 0.13904
0.146746 0.146746 0.146746
0.154498 0.154498 0.154498
0.162646 0.162646 0.162646
0.170611 0.170611 0.170611
0.178622 0.178622 0.178622
0.186648 0.186648 0.186648
0.19472 0.19472 0.19472
0.203204 0.203204 0.203204
0.211475 0.211475 0.211475
0.219791 0.219791 0.219791
0.228122 0.228122 0.228122
0.236484 0.236484 0.236484
0.245289 0.245289 0.245289
0.253834 0.253834 0.253834
0.262409 0.262409 0.262409
0.271015 0.271015 0.271015
0.279667 0.279667 0.279667
0.288563 0.288563 0.288563
0.297505 0.297505 0.297505
0.30634 0.30634 0.30634
0.315175 0.315175 0.315175
0.324041 0.324041 0.324041
0.332982 0.332982 0.332982
0.342321 0.342321 0.342321
0.351339 0.351339 0.351339
0.360357 0.360357 0.360357
0.369406 0.369406 0.369406
0.378515 0.378515 0.378515
0.387884 0.387884 0.387884
0.397147 0.397147 0.397147
0.149432 0.149432 0.149432
0.157214 0.157214 0.157214
0.165087 0.165087 0.165087
0.173373 0.173373 0.173373
0.181399 0.181399 0.181399
0.189441 0.189441 0.189441
0.197543 0.197543 0.197543
0.205737 0.205737 0.205737
0.214252 0.214252 0.214252
0.222675 0.222675 0.222675
0.231006 0.231006 0.231006
0.239414 0.239414 0.239414
0.247898 0.247898 0.247898
0.256519 0.256519 0.256519
0.265385 0.265385 0.265385
0.274006 0.274006 0.274006
0.282673 0.282673 0.282673
0.291417 0.291417 0.291417
0.300221 0.300221 0.300221
0.309346 0.309346 0.309346
0.318242 0.318242 0.318242
0.327138 0.327138 0.327138
0.336095 0.336095 0.336095
0.345083 0.345083 0.345083
0.354208 0.354208 0.354208
0.363485 0.363485 0.363485
0.372549 0.372549 0.372549
0.381674 0.381674 0.381674
0.390814 0.390814 0.390814
0.399969 0.399969 0.399969
0.409491 0.409491 0.409491
0.418677 0.418677 0.418677
0.427878 0.427878 0.427878
0.175845 0.175845 0.175845
0.183963 0.183963 0.183963
0.192233 0.192233 0.192233
0.200366 0.200366 0.200366
0.208606 0.208606 0.208606
0.216907 0.216907 0.216907
0.225223 0.225223 0.225223
0.233906 0.233906 0.233906
0.242344 0.242344 0.242344
0.250858 0.250858 0.250858
0.259449 0.259449 0.259449
0.26804 0.26804 0.26804
0.276814 0.276814 0.276814
0.285695 0.285695 0.285695
0.294469 0.294469 0.294469
0.303288 0.303288 0.303288
0.312108 0.312108 0.312108
0.320958 0.320958 0.320958
0.33022 0.33022 0.33022
0.339208 0.339208 0.339208
0.348211 0.348211 0.348211
0.357229 0.357229 0.357229
0.366278 0.366278 0.366278
0.375708 0.375708 0.375708
0.384833 0.384833 0.384833
0.393988 0.393988 0.393988
0.403143 0.403143 0.403143
0.412314 0.412314 0.412314
0.421866 0.421866 0.421866
0.431083 0.431083 0.431083
0.440314 0.440314 0.440314
0.449546 0.449546 0.449546
0.458793 0.458793 0.458793
0.20322 0.20322 0.20322
0.211475 0.211475 0.211475
0.219791 0.219791 0.219791
0.228122 0.228122 0.228122
0.236484 0.236484 0.236484
0.245289 0.245289 0.245289
0.253834 0.253834 0.253834
0.262409 0.262409 0.262409
0.271015 0.271015 0.271015
0.279667 0.279667 0.279667
0.288563 0.288563 0.288563
0.297505 0.297505 0.297505
0.30634 0.30634 0.30634
0.315175 0.315175 0.315175
0.324041 0.324041 0.324041
0.332982 0.332982 0.332982
0.342321 0.342321 0.342321
0.351339 0.351339 0.351339
0.360357 0.360357 0.360357
0.369406 0.369406 0.369406
0.378515 0.378515 0.378515
0.387884 0.387884 0.387884
0.397147 0.397147 0.397147
0.406317 0.406317 0.406317
0.415488 0.415488 0.415488
0.424689 0.424689 0.424689
0.433967 0.433967 0.433967
0.443519 0.443519 0.443519
0.45275 0.45275 0.45275
0.461982 0.461982 0.461982
0.471229 0.471229 0.471229
0.480476 0.480476 0.480476
0.490028 0.490028 0.490028
0.231006 0.231006 0.231006
0.239414 0.239414 0.239414
0.247898 0.247898 0.247898
0.256519 0.256519 0.256519
0.265385 0.265385 0.265385
0.274006 0.274006 0.274006
0.282673 0.282673 0.282673
0.291417 0.291417 0.291417
0.300221 0.300221 0.300221
0.309346 0.309346 0.309346
0.318242 0.318242 0.318242
0.327138 0.327138 0.327138
0.336095 0.336095 0.336095
0.345083 0.345083 0.345083
0.354208 0.354208 0.354208
0.363485 0.363485 0.363485
0.372549 0.372549 0.372549
0.381674 0.381674 0.381674
0.390814 0.390814 0.390814
0.399969 0.399969 0.399969
0.409491 0.409491 0.409491
0.418677 0.418677 0.418677
0.427878 0.427878 0.427878
0.43711 0.43711 0.43711
0.446357 0.446357 0.446357
0.455741 0.455741 0.455741
0.465187 0.465187 0.465187
0.474434 0.474434 0.474434
0.48368 0.48368 0.48368
0.492943 0.492943 0.492943
0.50219 0.50219 0.50219
0.511772 0.511772 0.511772
0.521004 0.521004 0.521004
0.259449 0.259449 0.259449
0.26804 0.26804 0.26804
0.276814 0.276814 0.276814
0.285695 0.285695 0.285695
0.294469 0.294469 0.294469
0.303288 0.303288 0.303288
0.312108 0.312108 0.312108
0.320958 0.320958 0.320958
0.33022 0.33022 0.33022
0.339208 0.339208 0.339208
0.348211 0.348211 0.348211
0.357229 0.357229 0.357229
0.366278 0.366278 0.366278
0.375708 0.375708 0.375708
0.384833 0.384833 0.384833
0.393988 0.393988 0.393988
0.403143 0.403143 0.403143
0.412314 0.412314 0.412314
0.421866 0.421866 0.421866
0.431083 0.431083 0.431083
0.440314 0.440314 0.440314
0.449546 0.449546 0.449546
0.458793 0.458793 0.458793
0.468208 0.468208 0.468208
0.477638 0.477638 0.477638
0.4869 0.4869 0.4869
0.496147 0.496147 0.496147
0.505394 0.505394 0.505394
0.514611 0.514611 0.514611
0.524193 0.524193 0.524193
0.53341 0.53341 0.53341
0.542611 0.542611 0.542611
0.551797 0.551797 0.551797
0.288563 0.288563 0.288563
0.297505 0.297505 0.297505
0.30634 0.30634 0.30634
0.315175 0.315175 0.315175
0.324041 0.324041 0.324041
0.332982 0.332982 0.332982
0.342321 0.342321 0.342321
0.351339 0.351339 0.351339
0.360357 0.360357 0.360357
0.369406 0.369406 0.369406
0.378515 0.378515 0.378515
0.387884 0.387884 0.387884
0.397147 0.397147 0.397147
0.406317 0.406317 0.406317
0.415488 0.415488 0.415488
0.424689 0.424689 0.424689
0.433967 0.433967 0.433967
0.443519 0.443519 0.443519
0.45275 0.45275 0.45275
0.461982 0.461982 0.461982
0.471229 0.471229 0.471229
0.480476 0.480476 0.480476
0.490028 0.490028 0.490028
0.499352 0.499352 0.499352
0.508583 0.508583 0.508583
0.517815 0.517815 0.517815
0.527031 0.527031 0.527031
0.536324 0.536324 0.536324
0.5458 0.5458 0.5458
0.554971 0.554971 0.554971
0.564111 0.564111 0.564111
0.57322 0.57322 0.57322
0.58233 0.58233 0.58233
0.318242 0.318242 0.318242
0.327138 0.327138 0.327138
0.336095 0.336095 0.336095
0.345083 0.345083 0.345083
0.354208 0.354208 0.354208
0.363485 0.363485 0.363485
0.372549 0.372549 0.372549
0.381674 0.381674 0.381674
0.390814 0.390814 0.390814
0.399969 0.399969 0.399969
0.409491 0.409491 0.409491
0.418677 0.418677 0.418677
0.427878 0.427878 0.427878
0.43711 0.43711 0.43711
0.446357 0.446357 0.446357
0.455741 0.455741 0.455741
0.465187 0.465187 0.465187
0.474434 0.474434 0.474434
0.48368 0.48368 0.48368
0.492943 0.492943 0.492943
0.50219 0.50219 0.50219
0.511772 0.511772 0.511772
0.521004 0.521004 0.521004
0.530221 0.530221 0.530221
0.539422 0.539422 0.539422
0.548623 0.548623 0.548623
0.558129 0.558129 0.558129
0.567269 0.567269 0.567269
0.576379 0.576379 0.576379
0.585489 0.585489 0.585489
0.594568 0.594568 0.594568
0.603937 0.603937 0.603937
0.612924 0.612924 0.612924
0.348211 0.348211 0.348211
0.357229 0.357229 0.357229
0.366278 0.366278 0.366278
0.375708 0.375708 0.375708
0.384833 0.384833 0.384833
0.393988 0.393988 0.393988
0.403143 0.403143 0.403143
0.412314 0.412314 0.412314
0.421866 0.421866 0.421866
0.431083 0.431083 0.431083
0.440314 0.440314 0.440314
0.449546 0.449546 0.449546
0.458793 0.458793 0.458793
0.468208 0.468208 0.468208
0.477638 0.477638 0.477638
0.4869 0.4869 0.4869
0.496147 0.496147 0.496147
0.505394 0.505394 0.505394
0.514611 0.514611 0.514611
0.524193 0.524193 0.524193
0.53341 0.53341 0.53341
0.542611 0.542611 0.542611
0.551797 0.551797 0.551797
0.560952 0.560952 0.560952
0.570291 0.570291 0.570291
0.579538 0.579538 0.579538
0.588632 0.588632 0.588632
0.597696 0.597696 0.597696
0.606714 0.606714 0.606714
0.615702 0.615702 0.615702
0.624979 0.624979 0.624979
0.633921 0.633921 0.633921
0.642802 0.642802 0.642802
0.378515 0.378515 0.378515
0.387884 0.387884 0.387884
0.397147 0.397147 0.397147
0.406317 0.406317 0.406317
0.415488 0.415488 0.415488
0.424689 0.424689 0.424689
0.433967 0.433967 0.433967
0.443519 0.443519 0.443519
0.45275 0.45275 0.45275
0.461982 0.461982 0.461982
0.471229 0.471229 0.471229
0.480476 0.480476 0.480476
0.490028 0.490028 0.490028
0.499352 0.499352 0.499352
0.508583 0.508583 0.508583
0.517815 0.517815 0.517815
0.527031 0.527031 0.527031
0.536324 0.536324 0.536324
0.5458 0.5458 0.5458
0.554971 0.554971 0.554971
0.564111 0.564111 0.564111
0.57322 0.57322 0.57322
0.58233 0.58233 0.58233
0.59176 0.59176 0.59176
0.600824 0.600824 0.600824
0.609812 0.609812 0.609812
0.618769 0.618769 0.618769
0.627726 0.627726 0.627726
0.63679 0.63679 0.63679
0.645853 0.645853 0.645853
0.654658 0.654658 0.654658
0.663417 0.663417 0.663417
0.67216 0.67216 0.67216
0.409491 0.409491 0.409491
0.418677 0.418677 0.418677
0.427878 0.427878 0.427878
0.43711 0.43711 0.43711
0.446357 0.446357 0.446357
0.455741 0.455741 0.455741
0.465187 0.465187 0.465187
0.474434 0.474434 0.474434
0.48368 0.48368 0.48368
0.492943 0.492943 0.492943
0.50219 0.50219 0.50219
0.511772 0.511772 0.511772
0.521004 0.521004 0.521004
0.530221 0.530221 0.530221
0.539422 0.539422 0.539422
0.548623 0.548623 0.548623
0.558129 0.558129 0.558129
0.567269 0.567269 0.567269
0.576379 0.576379 0.576379
0.585489 0.585489 0.585489
0.594568 0.594568 0.594568
0.603937 0.603937 0.603937
0.612924 0.612924 0.612924
0.621881 0.621881 0.621881
0.630823 0.630823 0.630823
0.639735 0.639735 0.639735
0.648722 0.648722 0.648722
0.657694 0.657694 0.657694
0.666438 0.666438 0.666438
0.675181 0.675181 0.675181
0.683864 0.683864 0.683864
0.69247 0.69247 0.69247
0.70132 0.70132 0.70132
0.440314 0.440314 0.440314
0.449546 0.449546 0.449546
0.458793 0.458793 0.458793
0.468208 0.468208 0.468208
0.477638 0.477638 0.477638
0.4869 0.4869 0.4869
0.496147 0.496147 0.496147
0.505394 0.505394 0.505394
0.514611 0.514611 0.514611
0.524193 0.524193 0.524193
0.53341 0.53341 0.53341
0.542611 0.542611 0.542611
0.551797 0.551797 0.551797
0.560952 0.560952 0.560952
0.570291 0.570291 0.570291
0.579538 0.579538 0.579538
0.588632 0.588632 0.588632
0.597696 0.597696 0.597696
0.606714 0.606714 0.606714
0.615702 0.615702 0.615702
0.624979 0.624979 0.624979
0.633921 0.633921 0.633921
0.642802 0.642802 0.642802
0.651621 0.651621 0.651621
0.66038 0.66038 0.66038
0.669398 0.669398 0.669398
0.678187 0.678187 0.678187
0.686854 0.686854 0.686854
0.69543 0.69543 0.69543
0.703944 0.703944 0.703944
0.71252 0.71252 0.71252
0.721233 0.721233 0.721233
0.729625 0.729625 0.729625
0.471244 0.471244 0.471244
0.480476 0.480476 0.480476
0.490028 0.490028 0.490028
0.499352 0.499352 0.499352
0.508583 0.508583 0.508583
0.517815 0.517815 0.517815
0.527031 0.527031 0.527031
0.536324 0.536324 0.536324
0.5458 0.5458 0.5458
0.554971 0.554971 0.554971
0.564111 0.564111 0.564111
0.57322 0.57322 0.57322
0.58233 0.58233 0.58233
0.59176 0.59176 0.59176
0.600824 0.600824 0.600824
0.609812 0.609812 0.609812
0.618769 0.618769 0.618769
0.627726 0.627726 0.627726
0.63679 0.63679 0.63679
0.645853 0.645853 0.645853
0.654658 0.654658 0.654658
0.663417 0.663417 0.663417
0.67216 0.67216 0.67216
0.680858 0.680858 0.680858
0.68983 0.68983 0.68983
0.698375 0.698375 0.698375
0.706889 0.706889 0.706889
0.715373 0.715373 0.715373
0.723827 0.723827 0.723827
0.732509 0.732509 0.732509
0.74078 0.74078 0.74078
0.748989 0.748989 0.748989
0.757198 0.757198 0.757198
0.50219 0.50219 0.50219
0.511772 0.511772 0.511772
0.521004 0.521004 0.521004
0.530221 0.530221 0.530221
0.539422 0.539422 0.539422
0.548623 0.548623 0.548623
0.558129 0.558129 0.558129
0.567269 0.567269 0.567269
0.576379 0.576379 0.576379
0.585489 0.585489 0.585489
0.594568 0.594568 0.594568
0.603937 0.603937 0.603937
0.612924 0.612924 0.612924
0.621881 0.621881 0.621881
0.630823 0.630823 0.630823
0.639735 0.639735 0.639735
0.648722 0.648722 0.648722
0.657694 0.657694 0.657694
0.666438 0.666438 0.666438
0.675181 0.675181 0.675181
0.683864 0.683864 0.683864
0.69247 0.69247 0.69247
0.70132 0.70132 0.70132
0.709819 0.709819 0.709819
0.718303 0.718303 0.718303
0.726726 0.726726 0.726726
0.735058 0.735058 0.735058
0.743496 0.743496 0.743496
0.751842 0.751842 0.751842
0.760037 0.760037 0.760037
0.768154 0.768154 0.768154
0.776165 0.776165 0.776165
0.784131 0.784131 0.784131
0.53341 0.53341 0.53341
0.542611 0.542611 0.542611
0.551797 0.551797 0.551797
0.560952 0.560952 0.560952
0.570291 0.570291 0.570291
0.579538 0.579538 0.579538
0.588632 0.588632 0.588632
0.597696 0.597696 0.597696
0.606714 0.606714 0.606714
0.615702 0.615702 0.615702
0.624979 0.624979 0.624979
0.633921 0.633921 0.633921
0.642802 0.642802 0.642802
0.651621 0.651621 0.651621
0.66038 0.66038 0.66038
0.669398 0.669398 0.669398
0.678187 0.678187 0.678187
0.686854 0.686854 0.686854
0.69543 0.69543 0.69543
0.703944 0.703944 0.703944
0.71252 0.71252 0.71252
0.721233 0.721233 0.721233
0.729625 0.729625 0.729625
0.737911 0.737911 0.737911
0.746151 0.746151 0.746151
0.75436 0.75436 0.75436
0.762844 0.762844 0.762844
0.770947 0.770947 0.770947
0.778927 0.778927 0.778927
0.786847 0.786847 0.786847
0.794766 0.794766 0.794766
0.802731 0.802731 0.802731
0.810681 0.810681 0.810681
0.564111 0.564111 0.564111
0.57322 0.57322 0.57322
0.58233 0.58233 0.58233
0.59176 0.59176 0.59176
0.600824 0.600824 0.600824
0.609812 0.609812 0.609812
0.618769 0.618769 0.618769
0.627726 0.627726 0.627726
0.63679 0.63679 0.63679
0.645853 0.645853 0.645853
0.654658 0.654658 0.654658
0.663417 0.663417 0.663417
0.67216 0.67216 0.67216
0.680858 0.680858 0.680858
0.68983 0.68983 0.68983
0.698375 0.698375 0.698375
0.706889 0.706889 0.706889
0.715373 0.715373 0.715373
0.723827 0.723827 0.723827
0.732509 0.732509 0.732509
0.74078 0.74078 0.74078
0.748989 0.748989 0.748989
0.757198 0.757198 0.757198
0.765362 0.765362 0.765362
0.773709 0.773709 0.773709
0.781674 0.781674 0.781674
0.789593 0.789593 0.789593
0.797482 0.797482 0.797482
0.80531 0.80531 0.80531
0.813169 0.813169 0.813169
0.820966 0.820966 0.820966
0.82855 0.82855 0.82855
0.836118 0.836118 0.836118
0.594568 0.594568 0.594568
0.603937 0.603937 0.603937
0.612924 0.612924 0.612924
0.621881 0.621881 0.621881
0.630823 0.630823 0.630823
0.639735 0.639735 0.639735
0.648722 0.648722 0.648722
0.657694 0.657694 0.657694
0.666438 0.666438 0.666438
0.675181 0.675181 0.675181
0.683864 0.683864 0.683864
0.69247 0.69247 0.69247
0.70132 0.70132 0.70132
0.709819 0.709819 0.709819
0.718303 0.718303 0.718303
0.726726 0.726726 0.726726
0.735058 0.735058 0.735058
0.743496 0.743496 0.743496
0.751842 0.751842 0.751842
0.760037 0.760037 0.760037
0.768154 0.768154 0.768154
0.776165 0.776165 0.776165
0.784131 0.784131 0.784131
0.792325 0.792325 0.792325
0.800214 0.800214 0.800214
0.808011 0.808011 0.808011
0.815702 0.815702 0.815702
0.823301 0.823301 0.823301
0.831113 0.831113 0.831113
0.838727 0.838727 0.838727
0.846189 0.846189 0.846189
0.853529 0.853529 0.853529
0.860807 0.860807 0.860807
0.624979 0.624979 0.624979
0.633921 0.633921 0.633921
0.642802 0.642802 0.642802
0.651621 0.651621 0.651621
0.66038 0.66038 0.66038
0.669398 0.669398 0.669398
0.678187 0.678187 0.678187
0.686854 0.686854 0.686854
0.69543 0.69543 0.69543
0.703944 0.703944 0.703944
0.71252 0.71252 0.71252
0.721233 0.721233 0.721233
0.729625 0.729625 0.729625
0.737911 0.737911 0.737911
0.746151 0.746151 0.746151
0.75436 0.75436 0.75436
0.762844 0.762844 0.762844
0.770947 0.770947 0.770947
0.778927 0.778927 0.778927
0.786847 0.786847 0.786847
0.794766 0.794766 0.794766
0.802731 0.802731 0.802731
0.810681 0.810681 0.810681
0.818341 0.818341 0.818341
0.825925 0.825925 0.825925
0.833509 0.833509 0.833509
0.841031 0.841031 0.841031
0.848737 0.848737 0.848737
0.856062 0.856062 0.856062
0.86331 0.86331 0.86331
0.870527 0.870527 0.870527
0.877531 0.877531 0.877531
0.884413 0.884413 0.884413
0.654658 0.654658 0.654658
0.663417 0.663417 0.663417
0.67216 0.67216 0.67216
0.680858 0.680858 0.680858
0.68983 0.68983 0.68983
0.698375 0.698375 0.698375
0.706889 0.706889 0.706889
0.715373 0.715373 0.715373
0.723827 0.723827 0.723827
0.732509 0.732509 0.732509
0.74078 0.74078 0.74078
0.748989 0.748989 0.748989
0.757198 0.757198 0.757198
0.765362 0.765362 0.765362
0.773709 0.773709 0.773709
0.781674 0.781674 0.781674
0.789593 0.789593 0.789593
0.797482 0.797482 0.797482
0.80531 0.80531 0.80531
0.813169 0.813169 0.813169
0.820966 0.820966 0.820966
0.82855 0.82855 0.82855
0.836118 0.836118 0.836118
0.84361 0.84361 0.84361
0.850996 0.850996 0.850996
0.858564 0.858564 0.858564
0.865812 0.865812 0.865812
0.872984 0.872984 0.872984
0.879881 0.879881 0.879881
0.886366 0.886366 0.886366
0.892653 0.892653 0.892653
0.898772 0.898772 0.898772
