YOYO-Client/Yoyo/Assets.xcassets/Decisive.dataset/Decisive.cube
TITLE "Decisive"
LUT_3D_SIZE 5
0.0109407 0.0109407 0.0109407
0.0363928 0.0363928 0.0363928
0.0632334 0.0632334 0.0632334
0.105104 0.105104 0.105104
0.165103 0.165103 0.165103
0.123903 0.123903 0.123903
0.186648 0.186648 0.186648
0.253834 0.253834 0.253834
0.324041 0.324041 0.324041
0.397147 0.397147 0.397147
0.348211 0.348211 0.348211
0.421866 0.421866 0.421866
0.496147 0.496147 0.496147
0.570291 0.570291 0.570291
0.642802 0.642802 0.642802
0.594568 0.594568 0.594568
0.666438 0.666438 0.666438
0.735058 0.735058 0.735058
0.800214 0.800214 0.800214
0.860807 0.860807 0.860807
0.820966 0.820966 0.820966
0.879881 0.879881 0.879881
0.924804 0.924804 0.924804
0.956115 0.956115 0.956115
0.981796 0.981796 0.981796
0.0223239 0.0223239 0.0223239
0.0471351 0.0471351 0.0471351
0.0783856 0.0783856 0.0783856
0.129519 0.129519 0.129519
0.193027 0.193027 0.193027
0.150195 0.150195 0.150195
0.214878 0.214878 0.214878
0.283528 0.283528 0.283528
0.355001 0.355001 0.355001
0.428794 0.428794 0.428794
0.379416 0.379416 0.379416
0.453666 0.453666 0.453666
0.527932 0.527932 0.527932
0.601709 0.601709 0.601709
0.673014 0.673014 0.673014
0.625772 0.625772 0.625772
0.696269 0.696269 0.696269
0.763439 0.763439 0.763439
0.826673 0.826673 0.826673
0.885008 0.885008 0.885008
0.846922 0.846922 0.846922
0.901198 0.901198 0.901198
0.939345 0.939345 0.939345
0.967453 0.967453 0.967453
0.992279 0.992279 0.992279
0.0328679 0.0328679 0.0328679
0.0590066 0.0590066 0.0590066
0.0973831 0.0973831 0.0973831
0.156054 0.156054 0.156054
0.221439 0.221439 0.221439
0.177432 0.177432 0.177432
0.244022 0.244022 0.244022
0.313863 0.313863 0.313863
0.386648 0.386648 0.386648
0.460609 0.460609 0.460609
0.410956 0.410956 0.410956
0.485512 0.485512 0.485512
0.559701 0.559701 0.559701
0.632593 0.632593 0.632593
0.702678 0.702678 0.702678
0.656397 0.656397 0.656397
0.725475 0.725475 0.725475
0.79115 0.79115 0.79115
0.852445 0.852445 0.852445
0.905806 0.905806 0.905806
0.871931 0.871931 0.871931
0.919524 0.919524 0.919524
0.952148 0.952148 0.952148
0.978241 0.978241 0.978241
1 1 1
0.043473 0.043473 0.043473
0.0731365 0.0731365 0.0731365
0.121019 0.121019 0.121019
0.183673 0.183673 0.183673
0.250446 0.250446 0.250446
0.205341 0.205341 0.205341
0.273579 0.273579 0.273579
0.34464 0.34464 0.34464
0.418219 0.418219 0.418219
0.492485 0.492485 0.492485
0.443061 0.443061 0.443061
0.517357 0.517357 0.517357
0.591318 0.591318 0.591318
0.662974 0.662974 0.662974
0.732097 0.732097 0.732097
0.686427 0.686427 0.686427
0.753964 0.753964 0.753964
0.81796 0.81796 0.81796
0.877195 0.877195 0.877195
0.922988 0.922988 0.922988
0.894316 0.894316 0.894316
0.934813 0.934813 0.934813
0.963714 0.963714 0.963714
0.9888 0.9888 0.9888
1 1 1
0.054963 0.054963 0.054963
0.0901808 0.0901808 0.0901808
0.147143 0.147143 0.147143
0.211902 0.211902 0.211902
0.28011 0.28011 0.28011
0.234241 0.234241 0.234241
0.303716 0.303716 0.303716
0.37615 0.37615 0.37615
0.450004 0.450004 0.450004
0.524605 0.524605 0.524605
0.474891 0.474891 0.474891
0.549065 0.549065 0.549065
0.622324 0.622324 0.622324
0.692882 0.692882 0.692882
0.760433 0.760433 0.760433
0.715801 0.715801 0.715801
0.782071 0.782071 0.782071
0.843976 0.843976 0.843976
0.899062 0.899062 0.899062
0.937819 0.937819 0.937819
0.913985 0.913985 0.913985
0.947982 0.947982 0.947982
0.97467 0.97467 0.97467
0.999313 0.999313 0.999313
1 1 1
