YOYO-Client/Yoyo/Assets.xcassets/Decisive.dataset/Decisive.cube
TITLE "Decisive"
LUT_3D_SIZE 9
0.0109407 0.0109407 0.0109407
0.0240177 0.0240177 0.0240177
0.0363928 0.0363928 0.0363928
0.0490883 0.0490883 0.0490883
0.0632334 0.0632334 0.0632334
0.0809796 0.0809796 0.0809796
0.105104 0.105104 0.105104
0.134035 0.134035 0.134035
0.165103 0.165103 0.165103
0.0537118 0.0537118 0.0537118
0.0687419 0.0687419 0.0687419
0.087892 0.087892 0.087892
0.11429 0.11429 0.11429
0.14435 0.14435 0.14435
0.175845 0.175845 0.175845
0.208606 0.208606 0.208606
0.242344 0.242344 0.242344
0.276814 0.276814 0.276814
0.123903 0.123903 0.123903
0.154498 0.154498 0.154498
0.186648 0.186648 0.186648
0.219791 0.219791 0.219791
0.253834 0.253834 0.253834
0.288563 0.288563 0.288563
0.324041 0.324041 0.324041
0.360357 0.360357 0.360357
0.397147 0.397147 0.397147
0.231006 0.231006 0.231006
0.265385 0.265385 0.265385
0.300221 0.300221 0.300221
0.336095 0.336095 0.336095
0.372549 0.372549 0.372549
0.409491 0.409491 0.409491
0.446357 0.446357 0.446357
0.48368 0.48368 0.48368
0.521004 0.521004 0.521004
0.348211 0.348211 0.348211
0.384833 0.384833 0.384833
0.421866 0.421866 0.421866
0.458793 0.458793 0.458793
0.496147 0.496147 0.496147
0.53341 0.53341 0.53341
0.570291 0.570291 0.570291
0.606714 0.606714 0.606714
0.642802 0.642802 0.642802
0.471244 0.471244 0.471244
0.508583 0.508583 0.508583
0.5458 0.5458 0.5458
0.58233 0.58233 0.58233
0.618769 0.618769 0.618769
0.654658 0.654658 0.654658
0.68983 0.68983 0.68983
0.723827 0.723827 0.723827
0.757198 0.757198 0.757198
0.594568 0.594568 0.594568
0.630823 0.630823 0.630823
0.666438 0.666438 0.666438
0.70132 0.70132 0.70132
0.735058 0.735058 0.735058
0.768154 0.768154 0.768154
0.800214 0.800214 0.800214
0.831113 0.831113 0.831113
0.860807 0.860807 0.860807
0.71252 0.71252 0.71252
0.746151 0.746151 0.746151
0.778927 0.778927 0.778927
0.810681 0.810681 0.810681
0.841031 0.841031 0.841031
0.870527 0.870527 0.870527
0.896696 0.896696 0.896696
0.918624 0.918624 0.918624
0.936324 0.936324 0.936324
0.820966 0.820966 0.820966
0.850996 0.850996 0.850996
0.879881 0.879881 0.879881
0.904677 0.904677 0.904677
0.924804 0.924804 0.924804
0.941451 0.941451 0.941451
0.956115 0.956115 0.956115
0.969345 0.969345 0.969345
0.981796 0.981796 0.981796
0.0168154 0.0168154 0.0168154
0.0293584 0.0293584 0.0293584
0.0417029 0.0417029 0.0417029
0.054963 0.054963 0.054963
0.0704814 0.0704814 0.0704814
0.0901808 0.0901808 0.0901808
0.116838 0.116838 0.116838
0.147143 0.147143 0.147143
0.179034 0.179034 0.179034
0.0597086 0.0597086 0.0597086
0.0765545 0.0765545 0.0765545
0.0986801 0.0986801 0.0986801
0.126604 0.126604 0.126604
0.157595 0.157595 0.157595
0.189837 0.189837 0.189837
0.223072 0.223072 0.223072
0.256886 0.256886 0.256886
0.291859 0.291859 0.291859
0.136767 0.136767 0.136767
0.168246 0.168246 0.168246
0.200763 0.200763 0.200763
0.234226 0.234226 0.234226
0.268467 0.268467 0.268467
0.303716 0.303716 0.303716
0.339651 0.339651 0.339651
0.37615 0.37615 0.37615
0.412757 0.412757 0.412757
0.245624 0.245624 0.245624
0.280095 0.280095 0.280095
0.315602 0.315602 0.315602
0.351781 0.351781 0.351781
0.38822 0.38822 0.38822
0.425147 0.425147 0.425147
0.46244 0.46244 0.46244
0.499794 0.499794 0.499794
0.53669 0.53669 0.53669
0.363943 0.363943 0.363943
0.400427 0.400427 0.400427
0.437568 0.437568 0.437568
0.474891 0.474891 0.474891
0.51223 0.51223 0.51223
0.549065 0.549065 0.549065
0.585931 0.585931 0.585931
0.622324 0.622324 0.622324
0.658122 0.658122 0.658122
0.487358 0.487358 0.487358
0.524605 0.524605 0.524605
0.561395 0.561395 0.561395
0.598138 0.598138 0.598138
0.634348 0.634348 0.634348
0.669718 0.669718 0.669718
0.704356 0.704356 0.704356
0.738323 0.738323 0.738323
0.771344 0.771344 0.771344
0.610254 0.610254 0.610254
0.646296 0.646296 0.646296
0.681285 0.681285 0.681285
0.715785 0.715785 0.715785
0.749401 0.749401 0.749401
0.782071 0.782071 0.782071
0.813458 0.813458 0.813458
0.843976 0.843976 0.843976
0.873335 0.873335 0.873335
0.727138 0.727138 0.727138
0.760433 0.760433 0.760433
0.792721 0.792721 0.792721
0.823682 0.823682 0.823682
0.853895 0.853895 0.853895
0.88249 0.88249 0.88249
0.906844 0.906844 0.906844
0.926421 0.926421 0.926421
0.942946 0.942946 0.942946
0.83389 0.83389 0.83389
0.863661 0.863661 0.863661
0.890944 0.890944 0.890944
0.913985 0.913985 0.913985
0.932342 0.932342 0.932342
0.947982 0.947982 0.947982
0.961898 0.961898 0.961898
0.97467 0.97467 0.97467
0.986999 0.986999 0.986999
0.0223239 0.0223239 0.0223239
0.0345769 0.0345769 0.0345769
0.0471351 0.0471351 0.0471351
0.0611429 0.0611429 0.0611429
0.0783856 0.0783856 0.0783856
0.101076 0.101076 0.101076
0.129519 0.129519 0.129519
0.160723 0.160723 0.160723
0.193027 0.193027 0.193027
0.066392 0.066392 0.066392
0.0847791 0.0847791 0.0847791
0.110201 0.110201 0.110201
0.139803 0.139803 0.139803
0.171389 0.171389 0.171389
0.204028 0.204028 0.204028
0.237324 0.237324 0.237324
0.27187 0.27187 0.27187
0.30721 0.30721 0.30721
0.150195 0.150195 0.150195
0.182193 0.182193 0.182193
0.214878 0.214878 0.214878
0.248753 0.248753 0.248753
0.283528 0.283528 0.283528
0.319112 0.319112 0.319112
0.355001 0.355001 0.355001
0.391714 0.391714 0.391714
0.428794 0.428794 0.428794
0.260288 0.260288 0.260288
0.295338 0.295338 0.295338
0.331106 0.331106 0.331106
0.367163 0.367163 0.367163
0.404044 0.404044 0.404044
0.44123 0.44123 0.44123
0.478553 0.478553 0.478553
0.515526 0.515526 0.515526
0.552697 0.552697 0.552697
0.379416 0.379416 0.379416
0.416403 0.416403 0.416403
0.453666 0.453666 0.453666
0.490715 0.490715 0.490715
0.527932 0.527932 0.527932
0.565011 0.565011 0.565011
0.601709 0.601709 0.601709
0.637537 0.637537 0.637537
0.673014 0.673014 0.673014
0.503105 0.503105 0.503105
0.540337 0.540337 0.540337
0.577279 0.577279 0.577279
0.613809 0.613809 0.613809
0.649439 0.649439 0.649439
0.684718 0.684718 0.684718
0.719142 0.719142 0.719142
0.752651 0.752651 0.752651
0.784894 0.784894 0.784894
0.625772 0.625772 0.625772
0.66125 0.66125 0.66125
0.696269 0.696269 0.696269
0.730449 0.730449 0.730449
0.763439 0.763439 0.763439
0.795529 0.795529 0.795529
0.826673 0.826673 0.826673
0.856764 0.856764 0.856764
0.885008 0.885008 0.885008
0.741588 0.741588 0.741588
0.774304 0.774304 0.774304
0.806088 0.806088 0.806088
0.836866 0.836866 0.836866
0.866529 0.866529 0.866529
0.893111 0.893111 0.893111
0.915801 0.915801 0.915801
0.934005 0.934005 0.934005
0.949447 0.949447 0.949447
0.846922 0.846922 0.846922
0.876051 0.876051 0.876051
0.901198 0.901198 0.901198
0.922087 0.922087 0.922087
0.939345 0.939345 0.939345
0.954223 0.954223 0.954223
0.967453 0.967453 0.967453
0.979995 0.979995 0.979995
0.992279 0.992279 0.992279
0.0275425 0.0275425 0.0275425
0.0399176 0.0399176 0.0399176
0.0530251 0.0530251 0.0530251
0.0680095 0.0680095 0.0680095
0.0868086 0.0868086 0.0868086
0.112932 0.112932 0.112932
0.142855 0.142855 0.142855
0.174365 0.174365 0.174365
0.206989 0.206989 0.206989
0.0738537 0.0738537 0.0738537
0.0948043 0.0948043 0.0948043
0.122438 0.122438 0.122438
0.153262 0.153262 0.153262
0.185061 0.185061 0.185061
0.218143 0.218143 0.218143
0.252125 0.252125 0.252125
0.286992 0.286992 0.286992
0.322286 0.322286 0.322286
0.163836 0.163836 0.163836
0.195926 0.195926 0.195926
0.229358 0.229358 0.229358
0.263691 0.263691 0.263691
0.298772 0.298772 0.298772
0.33431 0.33431 0.33431
0.370764 0.370764 0.370764
0.407675 0.407675 0.407675
0.444678 0.444678 0.444678
0.275288 0.275288 0.275288
0.310353 0.310353 0.310353
0.346426 0.346426 0.346426
0.383017 0.383017 0.383017
0.420035 0.420035 0.420035
0.456947 0.456947 0.456947
0.494316 0.494316 0.494316
0.531579 0.531579 0.531579
0.568612 0.568612 0.568612
0.395346 0.395346 0.395346
0.432441 0.432441 0.432441
0.469398 0.469398 0.469398
0.506752 0.506752 0.506752
0.543969 0.543969 0.543969
0.580865 0.580865 0.580865
0.616999 0.616999 0.616999
0.652918 0.652918 0.652918
0.688121 0.688121 0.688121
0.519173 0.519173 0.519173
0.556329 0.556329 0.556329
0.592782 0.592782 0.592782
0.629053 0.629053 0.629053
0.664714 0.664714 0.664714
0.699641 0.699641 0.699641
0.733608 0.733608 0.733608
0.766552 0.766552 0.766552
0.798657 0.798657 0.798657
0.641047 0.641047 0.641047
0.676463 0.676463 0.676463
0.711086 0.711086 0.711086
0.744518 0.744518 0.744518
0.777356 0.777356 0.777356
0.809155 0.809155 0.809155
0.839841 0.839841 0.839841
0.869093 0.869093 0.869093
0.895506 0.895506 0.895506
0.755581 0.755581 0.755581
0.788022 0.788022 0.788022
0.819471 0.819471 0.819471
0.849836 0.849836 0.849836
0.878538 0.878538 0.878538
0.903532 0.903532 0.903532
0.923888 0.923888 0.923888
0.94081 0.94081 0.94081
0.955444 0.955444 0.955444
0.859419 0.859419 0.859419
0.887297 0.887297 0.887297
0.911025 0.911025 0.911025
0.929946 0.929946 0.929946
0.945785 0.945785 0.945785
0.95993 0.95993 0.95993
0.972946 0.972946 0.972946
0.985321 0.985321 0.985321
0.997482 0.997482 0.997482
0.0328679 0.0328679 0.0328679
0.0453346 0.0453346 0.0453346
0.0590066 0.0590066 0.0590066
0.0756695 0.0756695 0.0756695
0.0973831 0.0973831 0.0973831
0.125368 0.125368 0.125368
0.156054 0.156054 0.156054
0.188251 0.188251 0.188251
0.221439 0.221439 0.221439
0.0819257 0.0819257 0.0819257
0.106432 0.106432 0.106432
0.135409 0.135409 0.135409
0.166659 0.166659 0.166659
0.199145 0.199145 0.199145
0.23267 0.23267 0.23267
0.266804 0.266804 0.266804
0.301976 0.301976 0.301976
0.337865 0.337865 0.337865
0.177432 0.177432 0.177432
0.210239 0.210239 0.210239
0.244022 0.244022 0.244022
0.27837 0.27837 0.27837
0.313863 0.313863 0.313863
0.349996 0.349996 0.349996
0.386648 0.386648 0.386648
0.423331 0.423331 0.423331
0.460609 0.460609 0.460609
0.29012 0.29012 0.29012
0.325811 0.325811 0.325811
0.362142 0.362142 0.362142
0.398856 0.398856 0.398856
0.435752 0.435752 0.435752
0.47306 0.47306 0.47306
0.510414 0.510414 0.510414
0.547356 0.547356 0.547356
0.584131 0.584131 0.584131
0.410956 0.410956 0.410956
0.448173 0.448173 0.448173
0.485512 0.485512 0.485512
0.52282 0.52282 0.52282
0.559701 0.559701 0.559701
0.596353 0.596353 0.596353
0.632593 0.632593 0.632593
0.668177 0.668177 0.668177
0.702678 0.702678 0.702678
0.535225 0.535225 0.535225
0.571862 0.571862 0.571862
0.608484 0.608484 0.608484
0.644556 0.644556 0.644556
0.679835 0.679835 0.679835
0.714122 0.714122 0.714122
0.747784 0.747784 0.747784
0.780499 0.780499 0.780499
0.812207 0.812207 0.812207
0.656397 0.656397 0.656397
0.691478 0.691478 0.691478
0.725475 0.725475 0.725475
0.758816 0.758816 0.758816
0.79115 0.79115 0.79115
0.822309 0.822309 0.822309
0.852445 0.852445 0.852445
0.881193 0.881193 0.881193
0.905806 0.905806 0.905806
0.769757 0.769757 0.769757
0.801755 0.801755 0.801755
0.83238 0.83238 0.83238
0.862226 0.862226 0.862226
0.889738 0.889738 0.889738
0.913069 0.913069 0.913069
0.931502 0.931502 0.931502
0.94725 0.94725 0.94725
0.961242 0.961242 0.961242
0.871931 0.871931 0.871931
0.897887 0.897887 0.897887
0.919524 0.919524 0.919524
0.937041 0.937041 0.937041
0.952148 0.952148 0.952148
0.965652 0.965652 0.965652
0.978241 0.978241 0.978241
0.990478 0.990478 0.990478
1 1 1
0.0381323 0.0381323 0.0381323
0.0509804 0.0509804 0.0509804
0.0655833 0.0655833 0.0655833
0.0838941 0.0838941 0.0838941
0.108873 0.108873 0.108873
0.138293 0.138293 0.138293
0.169833 0.169833 0.169833
0.202411 0.202411 0.202411
0.235676 0.235676 0.235676
0.0913558 0.0913558 0.0913558
0.118181 0.118181 0.118181
0.148653 0.148653 0.148653
0.180606 0.180606 0.180606
0.213519 0.213519 0.213519
0.247059 0.247059 0.247059
0.281819 0.281819 0.281819
0.317357 0.317357 0.317357
0.353536 0.353536 0.353536
0.19144 0.19144 0.19144
0.224537 0.224537 0.224537
0.258595 0.258595 0.258595
0.293584 0.293584 0.293584
0.329335 0.329335 0.329335
0.365377 0.365377 0.365377
0.402228 0.402228 0.402228
0.439399 0.439399 0.439399
0.476722 0.476722 0.476722
0.30547 0.30547 0.30547
0.341421 0.341421 0.341421
0.377615 0.377615 0.377615
0.414588 0.414588 0.414588
0.451835 0.451835 0.451835
0.489174 0.489174 0.489174
0.526116 0.526116 0.526116
0.563195 0.563195 0.563195
0.599924 0.599924 0.599924
0.426978 0.426978 0.426978
0.464271 0.464271 0.464271
0.501457 0.501457 0.501457
0.538506 0.538506 0.538506
0.575479 0.575479 0.575479
0.612039 0.612039 0.612039
0.648035 0.648035 0.648035
0.683009 0.683009 0.683009
0.717464 0.717464 0.717464
0.550896 0.550896 0.550896
0.587732 0.587732 0.587732
0.624094 0.624094 0.624094
0.659571 0.659571 0.659571
0.694575 0.694575 0.694575
0.728786 0.728786 0.728786
0.762051 0.762051 0.762051
0.793973 0.793973 0.793973
0.825177 0.825177 0.825177
0.67129 0.67129 0.67129
0.706035 0.706035 0.706035
0.739956 0.739956 0.739956
0.772915 0.772915 0.772915
0.804547 0.804547 0.804547
0.83537 0.83537 0.83537
0.865095 0.865095 0.865095
0.892149 0.892149 0.892149
0.914839 0.914839 0.914839
0.783536 0.783536 0.783536
0.814939 0.814939 0.814939
0.845457 0.845457 0.845457
0.874723 0.874723 0.874723
0.900084 0.900084 0.900084
0.921172 0.921172 0.921172
0.938582 0.938582 0.938582
0.953536 0.953536 0.953536
0.966812 0.966812 0.966812
0.883772 0.883772 0.883772
0.90782 0.90782 0.90782
0.927306 0.927306 0.927306
0.943694 0.943694 0.943694
0.958099 0.958099 0.958099
0.971099 0.971099 0.971099
0.983505 0.983505 0.983505
0.995773 0.995773 0.995773
1 1 1
0.043473 0.043473 0.043473
0.0570382 0.0570382 0.0570382
0.0731365 0.0731365 0.0731365
0.0935531 0.0935531 0.0935531
0.121019 0.121019 0.121019
0.151736 0.151736 0.151736
0.183673 0.183673 0.183673
0.21651 0.21651 0.21651
0.250446 0.250446 0.250446
0.102419 0.102419 0.102419
0.130999 0.130999 0.130999
0.162264 0.162264 0.162264
0.194324 0.194324 0.194324
0.227695 0.227695 0.227695
0.261982 0.261982 0.261982
0.297078 0.297078 0.297078
0.332631 0.332631 0.332631
0.368963 0.368963 0.368963
0.205341 0.205341 0.205341
0.238987 0.238987 0.238987
0.273579 0.273579 0.273579
0.308949 0.308949 0.308949
0.34464 0.34464 0.34464
0.381216 0.381216 0.381216
0.418219 0.418219 0.418219
0.455406 0.455406 0.455406
0.492485 0.492485 0.492485
0.320607 0.320607 0.320607
0.356786 0.356786 0.356786
0.39353 0.39353 0.39353
0.430625 0.430625 0.430625
0.467872 0.467872 0.467872
0.504921 0.504921 0.504921
0.542153 0.542153 0.542153
0.57908 0.57908 0.57908
0.615366 0.615366 0.615366
0.443061 0.443061 0.443061
0.480018 0.480018 0.480018
0.517357 0.517357 0.517357
0.554513 0.554513 0.554513
0.591318 0.591318 0.591318
0.627283 0.627283 0.627283
0.662974 0.662974 0.662974
0.697948 0.697948 0.697948
0.732097 0.732097 0.732097
0.566812 0.566812 0.566812
0.603494 0.603494 0.603494
0.639292 0.639292 0.639292
0.674739 0.674739 0.674739
0.709407 0.709407 0.709407
0.743191 0.743191 0.743191
0.775784 0.775784 0.775784
0.807614 0.807614 0.807614
0.838346 0.838346 0.838346
0.686427 0.686427 0.686427
0.720806 0.720806 0.720806
0.753964 0.753964 0.753964
0.786465 0.786465 0.786465
0.81796 0.81796 0.81796
0.848371 0.848371 0.848371
0.877195 0.877195 0.877195
0.902358 0.902358 0.902358
0.922988 0.922988 0.922988
0.797101 0.797101 0.797101
0.828183 0.828183 0.828183
0.858213 0.858213 0.858213
0.886046 0.886046 0.886046
0.909972 0.909972 0.909972
0.929076 0.929076 0.929076
0.945174 0.945174 0.945174
0.959274 0.959274 0.959274
0.97232 0.97232 0.97232
0.894316 0.894316 0.894316
0.916747 0.916747 0.916747
0.934813 0.934813 0.934813
0.950042 0.950042 0.950042
0.963714 0.963714 0.963714
0.976471 0.976471 0.976471
0.9888 0.9888 0.9888
1 1 1
1 1 1
0.0490883 0.0490883 0.0490883
0.0632334 0.0632334 0.0632334
0.0809796 0.0809796 0.0809796
0.105104 0.105104 0.105104
0.134035 0.134035 0.134035
0.165103 0.165103 0.165103
0.197543 0.197543 0.197543
0.231022 0.231022 0.231022
0.2654 0.2654 0.2654
0.11429 0.11429 0.11429
0.14435 0.14435 0.14435
0.175845 0.175845 0.175845
0.208606 0.208606 0.208606
0.242344 0.242344 0.242344
0.276814 0.276814 0.276814
0.312108 0.312108 0.312108
0.348211 0.348211 0.348211
0.384833 0.384833 0.384833
0.219791 0.219791 0.219791
0.253819 0.253819 0.253819
0.288563 0.288563 0.288563
0.324041 0.324041 0.324041
0.360357 0.360357 0.360357
0.397147 0.397147 0.397147
0.433967 0.433967 0.433967
0.471229 0.471229 0.471229
0.508583 0.508583 0.508583
0.336095 0.336095 0.336095
0.372549 0.372549 0.372549
0.409491 0.409491 0.409491
0.446342 0.446342 0.446342
0.48368 0.48368 0.48368
0.521004 0.521004 0.521004
0.558129 0.558129 0.558129
0.594568 0.594568 0.594568
0.630823 0.630823 0.630823
0.458793 0.458793 0.458793
0.496147 0.496147 0.496147
0.53341 0.53341 0.53341
0.570291 0.570291 0.570291
0.606714 0.606714 0.606714
0.642802 0.642802 0.642802
0.678187 0.678187 0.678187
0.71252 0.71252 0.71252
0.746151 0.746151 0.746151
0.58233 0.58233 0.58233
0.618769 0.618769 0.618769
0.654658 0.654658 0.654658
0.689815 0.689815 0.689815
0.723827 0.723827 0.723827
0.757198 0.757198 0.757198
0.789593 0.789593 0.789593
0.820966 0.820966 0.820966
0.850996 0.850996 0.850996
0.701335 0.701335 0.701335
0.735058 0.735058 0.735058
0.768154 0.768154 0.768154
0.800214 0.800214 0.800214
0.831113 0.831113 0.831113
0.860792 0.860792 0.860792
0.888518 0.888518 0.888518
0.912047 0.912047 0.912047
0.930709 0.930709 0.930709
0.810681 0.810681 0.810681
0.841031 0.841031 0.841031
0.870527 0.870527 0.870527
0.896681 0.896681 0.896681
0.918624 0.918624 0.918624
0.936324 0.936324 0.936324
0.951446 0.951446 0.951446
0.965011 0.965011 0.965011
0.977691 0.977691 0.977691
0.904677 0.904677 0.904677
0.924804 0.924804 0.924804
0.941451 0.941451 0.941451
0.956115 0.956115 0.956115
0.969345 0.969345 0.969345
0.981796 0.981796 0.981796
0.993973 0.993973 0.993973
1 1 1
1 1 1
0.054963 0.054963 0.054963
0.0704814 0.0704814 0.0704814
0.0901808 0.0901808 0.0901808
0.116838 0.116838 0.116838
0.147143 0.147143 0.147143
0.179034 0.179034 0.179034
0.211902 0.211902 0.211902
0.24564 0.24564 0.24564
0.28011 0.28011 0.28011
0.126604 0.126604 0.126604
0.157595 0.157595 0.157595
0.189837 0.189837 0.189837
0.223072 0.223072 0.223072
0.256886 0.256886 0.256886
0.291859 0.291859 0.291859
0.327565 0.327565 0.327565
0.363928 0.363928 0.363928
0.400427 0.400427 0.400427
0.234241 0.234241 0.234241
0.268467 0.268467 0.268467
0.303716 0.303716 0.303716
0.339651 0.339651 0.339651
0.37615 0.37615 0.37615
0.412757 0.412757 0.412757
0.450004 0.450004 0.450004
0.487358 0.487358 0.487358
0.524605 0.524605 0.524605
0.351781 0.351781 0.351781
0.38822 0.38822 0.38822
0.425147 0.425147 0.425147
0.46244 0.46244 0.46244
0.499794 0.499794 0.499794
0.53669 0.53669 0.53669
0.573678 0.573678 0.573678
0.610254 0.610254 0.610254
0.646296 0.646296 0.646296
0.474891 0.474891 0.474891
0.51223 0.51223 0.51223
0.549065 0.549065 0.549065
0.585931 0.585931 0.585931
0.622324 0.622324 0.622324
0.658122 0.658122 0.658122
0.692882 0.692882 0.692882
0.727138 0.727138 0.727138
0.760433 0.760433 0.760433
0.598154 0.598154 0.598154
0.634348 0.634348 0.634348
0.669718 0.669718 0.669718
0.704356 0.704356 0.704356
0.738323 0.738323 0.738323
0.771344 0.771344 0.771344
0.803021 0.803021 0.803021
0.833875 0.833875 0.833875
0.863661 0.863661 0.863661
0.715801 0.715801 0.715801
0.749401 0.749401 0.749401
0.782071 0.782071 0.782071
0.813458 0.813458 0.813458
0.843976 0.843976 0.843976
0.873335 0.873335 0.873335
0.899062 0.899062 0.899062
0.920272 0.920272 0.920272
0.937819 0.937819 0.937819
0.823682 0.823682 0.823682
0.853895 0.853895 0.853895
0.88249 0.88249 0.88249
0.906844 0.906844 0.906844
0.926421 0.926421 0.926421
0.942946 0.942946 0.942946
0.957443 0.957443 0.957443
0.970596 0.970596 0.970596
0.98291 0.98291 0.98291
0.913985 0.913985 0.913985
0.932342 0.932342 0.932342
0.947982 0.947982 0.947982
0.961898 0.961898 0.961898
0.97467 0.97467 0.97467
0.986999 0.986999 0.986999
0.999313 0.999313 0.999313
1 1 1
1 1 1
