YOYO-Client/Yoyo/Assets.xcassets/NewYork.dataset/NewYork.cube
TITLE "Generated by Resolve"
LUT_3D_SIZE 5
0 0 0
0.338231 0.000976577 0.0196078
0.745098 0 0.0392157
0.901961 0.0117647 0.0470588
0.901961 0.0117647 0.0470588
0.0647135 0.308827 0
0.400732 0.310048 0
0.722545 0.344121 0.009308
0.895094 0.392401 0.0470588
0.912749 0.387259 0.0284276
0.111757 0.605875 0
0.234806 0.611765 0
0.695094 0.605875 0
0.899992 0.6 0
0.95491 0.582361 0
0.182345 0.819608 0
0.2 0.819608 0
0.502449 0.825986 0
0.877699 0.819608 0
1 0.803922 0
0.207843 0.996078 0
0.207843 0.996078 0
0.270588 0.996078 0
0.779416 0.992157 0
0.972549 0.980392 0
0.0686198 0 0.367651
0.333089 0 0.337255
0.707347 0 0.273533
0.902205 0 0.215686
0.905882 0 0.106859
0.084062 0.231373 0.282597
0.27274 0.253132 0.254902
0.670588 0.308217 0.295705
0.891905 0.304906 0.253925
0.900252 0.201968 0.0911727
0.111269 0.590204 0.033341
0.15404 0.605509 0.00404364
0.684321 0.589212 0.000732433
0.88333 0.598413 0.172183
0.953429 0.623041 0.318624
0.18529 0.819608 0
0.187686 0.82034 0
0.472297 0.822309 0
0.885115 0.812741 0
1 0.804898 0
0.207843 0.996078 0
0.207843 0.996078 0
0.263722 0.996078 0
0.775494 0.992157 0
0.972549 0.980392 0
0.137255 0 0.662745
0.248524 0 0.641184
0.647059 0 0.635294
0.87892 0 0.538231
0.966659 0.182361 0.547051
0.1402 0.146563 0.609308
0.187869 0.154894 0.600977
0.627451 0.118868 0.607111
0.877333 0.183581 0.528679
0.958831 0.451957 0.600977
0.157839 0.500984 0.561761
0.159808 0.50074 0.546075
0.5402 0.536278 0.512261
0.845594 0.623285 0.602945
0.956863 0.616663 0.572549
0.195102 0.805386 0.314702
0.193988 0.803433 0.297429
0.325734 0.81912 0.213977
0.860914 0.808331 0.246937
0.989212 0.805386 0.357351
0.207843 0.996078 0
0.207843 0.996078 0
0.21471 0.996078 0
0.745098 0.992157 0
0.972549 0.980392 0
0.152941 0 0.813733
0.152941 0 0.809796
0.475486 0 0.835294
0.822553 0 0.858579
1 0.027451 0.807843
0.152941 0.0345617 0.799023
0.152941 0.0208286 0.800305
0.469978 0 0.827817
0.828428 0 0.845106
1 0.0328374 0.817899
0.168627 0.374502 0.782849
0.168627 0.373526 0.779416
0.434318 0.440925 0.801968
0.811276 0.430396 0.827451
0.993133 0.441184 0.782361
0.200977 0.717647 0.796811
0.200977 0.721569 0.804105
0.357229 0.746441 0.797543
0.758022 0.757107 0.758755
0.980392 0.846082 0.842161
0.210788 0.992157 0.684321
0.211765 0.995834 0.658824
0.216175 0.992157 0.632349
0.599756 0.992157 0.533089
0.975494 0.976471 0.4598
0.160784 0 0.901961
0.160784 0 0.901961
0.20589 0 0.901961
0.652949 0 0.977447
0.917647 0.00784314 0.996078
0.160784 0 0.901961
0.160784 0 0.901961
0.220584 0 0.901961
0.652949 0 0.977447
0.921569 0.0117647 0.996078
0.168627 0.184314 0.901961
0.168627 0.175006 0.903426
0.177447 0.157839 0.901961
0.638239 0.14461 0.964706
0.937255 0.121569 0.99411
0.181369 0.52549 0.901961
0.181369 0.524514 0.901961
0.184802 0.542641 0.898039
0.632837 0.654169 0.957839
0.937255 0.654902 0.988235
0.2 0.901961 0.988235
0.2 0.905882 0.984314
0.2 0.913725 0.988235
0.668635 0.933333 0.967651
0.94902 0.956863 0.976471
