YOYO-Client/Yoyo/Assets.xcassets/NewYork.dataset/NewYork.cube
TITLE "Generated by Resolve"
LUT_3D_SIZE 33
0 0 0
0.0346838 0 0
0.0656901 0 0.00392157
0.104051 0.00392157 0.00747692
0.146563 0.00392157 0.0112764
0.196323 0.00723278 0.0117647
0.246571 0.00784314 0.0156863
0.292897 0.00477607 0.0187533
0.338231 0.000976577 0.0196078
0.392279 0 0.0196078
0.446326 0 0.0223087
0.493874 0 0.0235294
0.546563 0 0.027451
0.606867 0 0.0313725
0.662013 0 0.0352941
0.70454 0 0.0373846
0.745098 0 0.0392157
0.770214 0 0.0392157
0.797299 0 0.0392157
0.822065 0 0.0431373
0.847547 0 0.0485237
0.866789 0.00134279 0.0509804
0.88481 0.00784314 0.0509804
0.895216 0.00894179 0.0498817
0.901961 0.0117647 0.0470588
0.901961 0.0117647 0.0470588
0.901961 0.0117647 0.0470588
0.901961 0.0117647 0.0470588
0.901961 0.0117647 0.0470588
0.901961 0.0117647 0.0470588
0.901961 0.0117647 0.0470588
0.901961 0.0117647 0.0470588
0.901961 0.0117647 0.0470588
0.0037995 0.0308843 0
0.0460822 0.0308843 0
0.073518 0.0308843 0
0.119127 0.0383612 0.00357061
0.15819 0.0425269 0.00737011
0.200229 0.0458534 0.0149691
0.246571 0.0495308 0.0156863
0.289799 0.050248 0.0225681
0.332448 0.0471809 0.0235294
0.377905 0.0423133 0.020676
0.430884 0.0396735 0.0196078
0.482307 0.0358587 0.0196841
0.53492 0.0345617 0.0236057
0.592966 0.0344396 0.0298314
0.648768 0.0344396 0.0336309
0.692958 0.0344396 0.0373846
0.733455 0.0325933 0.0392157
0.764279 0.0249943 0.0392157
0.789578 0.0179446 0.0392157
0.812741 0 0.0392615
0.838407 0 0.0446784
0.859068 0.00134279 0.0471046
0.877089 0.00514229 0.0509804
0.892485 0.00894179 0.0471504
0.901961 0.0117647 0.0470588
0.901961 0.0117647 0.0470588
0.901961 0.0117647 0.0470588
0.901961 0.0117647 0.0470588
0.901961 0.0117647 0.0470588
0.901961 0.0117647 0.0470588
0.901961 0.0117647 0.0470588
0.901961 0.0117647 0.0470588
0.901961 0.0117647 0.0470588
0.0115206 0.0617685 0
0.0501259 0.0617685 0
0.0848249 0.0617685 0
0.126955 0.0692454 0
0.169146 0.0769665 0.0034638
0.208453 0.0813306 0.0111543
0.25098 0.0852522 0.0158846
0.28983 0.0889754 0.0226749
0.331365 0.091783 0.027451
0.377691 0.0887922 0.0243839
0.421408 0.0848859 0.0196078
0.472999 0.0848096 0.0232853
0.527199 0.0848096 0.025742
0.583673 0.0845655 0.0333104
0.637003 0.0866255 0.0351873
0.681376 0.0882277 0.0389715
0.721813 0.0899519 0.0410468
0.752697 0.0856641 0.0392157
0.781857 0.0776226 0.0392157
0.808804 0.0600443 0.0407111
0.830732 0.0441138 0.0431373
0.851347 0.0454719 0.04448
0.873289 0.051957 0.0470588
0.888487 0.0532387 0.0470588
0.899199 0.0552071 0.0470588
0.901961 0.0524453 0.0470588
0.901961 0.0503395 0.0470588
0.901961 0.0411688 0.0470588
0.901961 0.0370336 0.0470588
0.901961 0.0301518 0.0470588
0.901961 0.0262455 0.0470588
0.901961 0.0264744 0.0470588
0.901961 0.0301518 0.0470588
0.0231632 0.10367 0
0.0543984 0.104051 0
0.0923018 0.104051 0
0.145739 0.104372 0
0.188602 0.108339 0
0.21973 0.108339 0.000366217
0.258701 0.111894 0.00747692
0.297307 0.112627 0.015198
0.336187 0.115557 0.019089
0.385168 0.119097 0.0236362
0.431235 0.118868 0.0234073
0.477699 0.132235 0.0360418
0.528298 0.134905 0.0422675
0.574975 0.138598 0.0486458
0.625574 0.143008 0.0518044
0.66981 0.152255 0.0483558
0.710536 0.155886 0.0486458
0.744976 0.157671 0.042771
0.774136 0.153399 0.042771
0.798901 0.151293 0.0431373
0.822919 0.137133 0.0466926
0.839948 0.137133 0.04448
0.861753 0.137133 0.0470588
0.88101 0.137133 0.0484321
0.894484 0.136522 0.0497292
0.898039 0.128801 0.0470588
0.898039 0.12137 0.0470588
0.898039 0.105379 0.0470588
0.898039 0.0988479 0.0470588
0.898405 0.0865949 0.0477607
0.89839 0.0795605 0.0509499
0.898039 0.0722972 0.0470588
0.894484 0.0762188 0.0470588
0.0382391 0.149508 0
0.0653239 0.149996 0
0.099321 0.153429 0
0.156909 0.149554 0
0.210849 0.146929 0
0.242649 0.143191 0
0.27393 0.139773 0.000396735
0.311894 0.142641 0.00440986
0.34963 0.143008 0.0112764
0.398657 0.146914 0.0152132
0.449516 0.155703 0.0224613
0.495827 0.17084 0.0390936
0.53872 0.18352 0.0509804
0.582727 0.187625 0.0572366
0.625528 0.194858 0.0590372
0.670344 0.2065 0.056733
0.709072 0.217639 0.0529335
0.743862 0.219837 0.0486458
0.773281 0.223316 0.0446326
0.796445 0.219409 0.0479591
0.818326 0.218631 0.0517739
0.837674 0.218631 0.0527352
0.854658 0.215198 0.0515602
0.873899 0.21471 0.0539254
0.891173 0.209796 0.0522011
0.894118 0.20209 0.0470588
0.894118 0.193713 0.0470588
0.894606 0.17818 0.0470588
0.894606 0.162799 0.0470588
0.894606 0.151232 0.0471046
0.894606 0.136522 0.0509804
0.894118 0.128893 0.0470588
0.890684 0.127443 0.0470588
0.0386053 0.181857 0
0.0589456 0.185657 0
0.0932174 0.189456 0
0.150607 0.189151 0
0.208453 0.18909 0
0.25803 0.185687 0
0.289952 0.181872 0
0.321309 0.181109 0.00047303
0.361517 0.181247 0.00701915
0.404974 0.181689 0.0108339
0.455207 0.188296 0.0150759
0.501717 0.202701 0.0220645
0.547433 0.212375 0.0329747
0.593393 0.219486 0.0355383
0.633951 0.229404 0.0393378
0.676478 0.244526 0.044358
0.713726 0.254414 0.0440528
0.74461 0.263279 0.0473793
0.77377 0.26862 0.0465705
0.796933 0.272175 0.059556
0.818631 0.272068 0.0635996
0.834287 0.277852 0.0726787
0.853437 0.277455 0.0726787
0.872801 0.277455 0.0728466
0.890349 0.276005 0.0736553
0.894118 0.272053 0.0522316
0.897429 0.2636 0.0470588
0.897429 0.252079 0.0432288
0.897429 0.236637 0.0441596
0.897429 0.224567 0.0470588
0.897795 0.21323 0.0476692
0.894118 0.205631 0.0470588
0.894118 0.205631 0.0470588
0.0495155 0.219852 0
0.0540475 0.216663 0
0.0887312 0.22034 0
0.139345 0.22414 0
0.197299 0.227695 0
0.254765 0.227695 0
0.307515 0.226963 0
0.339467 0.223896 0
0.37084 0.220645 0.000732433
0.413352 0.217029 0.004654
0.456382 0.219364 0.00857557
0.505638 0.231006 0.012253
0.551965 0.242649 0.0152285
0.598291 0.25037 0.0171511
0.642084 0.260288 0.0210727
0.682704 0.275731 0.0270848
0.720836 0.289219 0.0308843
0.750225 0.297276 0.0363775
0.777691 0.304662 0.0419928
0.800565 0.312383 0.0556344
0.82182 0.319356 0.0652323
0.837263 0.325734 0.0766003
0.853437 0.330648 0.0840772
0.872801 0.332845 0.0862745
0.89099 0.336034 0.088304
0.89482 0.331945 0.0704662
0.898039 0.327306 0.0496529
0.898039 0.318379 0.0463264
0.898039 0.307256 0.0431373
0.898039 0.294972 0.0431373
0.898039 0.28333 0.0438697
0.8972 0.279652 0.0438697
0.894118 0.279652 0.0438697
0.0540475 0.257603 0
0.0609293 0.257603 0
0.0922255 0.258396 0
0.134676 0.262013 0
0.186145 0.265919 0
0.240558 0.2663 0
0.299229 0.2663 0
0.347982 0.265629 0
0.381826 0.261738 0
0.417777 0.255634 0
0.459678 0.255131 0.00355535
0.501717 0.261891 0.00679026
0.548577 0.271611 0.00869764
0.598291 0.277333 0.0105135
0.641062 0.287251 0.0126192
0.681468 0.302693 0.0151064
0.720043 0.314641 0.0208896
0.752453 0.317769 0.0247959
0.781613 0.32549 0.0283055
0.803922 0.336278 0.0319677
0.82562 0.342077 0.0417945
0.841917 0.35172 0.0429389
0.858305 0.357626 0.0535286
0.875853 0.361517 0.0664225
0.892149 0.365408 0.070222
0.901961 0.368933 0.0780499
0.908095 0.367529 0.0609903
0.908095 0.363592 0.0535592
0.907698 0.355154 0.0496376
0.905028 0.347341 0.0389258
0.905028 0.335973 0.0361486
0.905028 0.335164 0.0361486
0.905028 0.335164 0.0361486
0.0647135 0.308827 0
0.0732586 0.308827 0
0.100069 0.309804 0
0.131502 0.309804 0
0.177935 0.309804 0
0.229038 0.313726 0
0.288426 0.31078 0
0.346288 0.31078 0
0.400732 0.310048 0
0.436912 0.303059 0
0.470283 0.299016 0
0.507973 0.302937 0.000640879
0.549996 0.306371 0.00453193
0.597299 0.311147 0.00489815
0.643076 0.318868 0.00489815
0.68394 0.332601 0.00836194
0.722545 0.344121 0.009308
0.755398 0.346471 0.0145876
0.784558 0.350729 0.0170901
0.807721 0.35845 0.0176394
0.830518 0.366171 0.0186313
0.848768 0.374884 0.0176394
0.86421 0.384619 0.0201572
0.879652 0.38851 0.0335851
0.895094 0.392401 0.0470588
0.906615 0.396933 0.059556
0.916671 0.4 0.0674601
0.916671 0.399023 0.0625925
0.916671 0.397543 0.0569924
0.915694 0.392859 0.0424048
0.912749 0.386145 0.0284276
0.912749 0.384314 0.0284276
0.912749 0.387259 0.0284276
0.0694896 0.343511 0
0.0849317 0.355154 0
0.0977188 0.359197 0
0.125124 0.359197 0
0.16054 0.358221 0
0.207477 0.358083 0
0.268009 0.355276 0
0.330388 0.351354 0
0.397299 0.354284 0
0.451408 0.351354 0
0.483085 0.347555 0
0.515801 0.343511 0
0.553429 0.344564 0
0.596613 0.346288 0
0.641169 0.353552 0.00109865
0.682109 0.362966 0.00392157
0.720165 0.37261 0.00392157
0.756374 0.377813 0.00553903
0.785534 0.38114 0.00894179
0.80589 0.385412 0.00894179
0.828626 0.392081 0.0104219
0.84976 0.398047 0.0156863
0.865202 0.404883 0.0148013
0.880644 0.408774 0.0150759
0.896086 0.41265 0.0267185
0.911284 0.416541 0.0324712
0.921569 0.421317 0.044358
0.921569 0.42414 0.0462806
0.92192 0.42414 0.0414282
0.924392 0.424033 0.0398413
0.924392 0.41912 0.0272068
0.924392 0.41912 0.0235294
0.924392 0.423041 0.0235294
0.0745098 0.382101 0
0.0873426 0.393668 0
0.0989395 0.39762 0
0.117662 0.399023 0
0.15172 0.397787 0
0.191348 0.395514 0
0.244846 0.394385 0
0.307576 0.390814 0
0.37525 0.390875 0
0.444724 0.393118 0
0.494987 0.39118 0
0.523217 0.387381 0
0.557351 0.386023 0
0.597559 0.383703 0
0.638483 0.386725 0
0.68101 0.393256 0
0.718257 0.400977 0
0.753033 0.407431 0
0.7823 0.411322 0.00122072
0.804776 0.415198 0.00122072
0.826932 0.420096 0.00270085
0.847181 0.422965 0.00906386
0.867887 0.427695 0.0117647
0.880644 0.431617 0.0117647
0.896086 0.435538 0.0132906
0.911513 0.435813 0.0150759
0.925994 0.439689 0.0193637
0.928191 0.441306 0.0232853
0.928191 0.444938 0.0231327
0.929671 0.447425 0.0220645
0.932113 0.450004 0.0207523
0.932189 0.450004 0.0196078
0.934798 0.451225 0.0196078
0.0810101 0.416785 0
0.0861524 0.425864 0
0.0937057 0.429908 0
0.112627 0.432471 0
0.140566 0.432471 0
0.178683 0.432471 0
0.225742 0.432471 0
0.283452 0.429404 0
0.349142 0.42562 0
0.417639 0.425605 0
0.480522 0.425986 0
0.526177 0.425986 0
0.560433 0.422187 0
0.595956 0.420706 0
0.637354 0.421469 0
0.677806 0.425345 0
0.713726 0.431861 0
0.745953 0.437751 0
0.779049 0.441672 0
0.804776 0.442222 0
0.82536 0.447059 0
0.847181 0.453437 0.000457771
0.869123 0.457359 0.00526436
0.884565 0.457725 0.00526436
0.89865 0.46128 0.00526436
0.913527 0.462623 0.00613413
0.929046 0.465202 0.00918593
0.935912 0.466545 0.0131075
0.935912 0.469123 0.0131075
0.933577 0.466667 0.0131075
0.937255 0.470542 0.0131075
0.937255 0.471809 0.0131075
0.937255 0.471809 0.0131075
0.0862745 0.465202 0
0.0901503 0.468086 0
0.0925002 0.469612 0
0.106477 0.471824 0
0.132845 0.472053 0
0.168505 0.472053 0
0.211765 0.470802 0
0.2636 0.473533 0
0.323156 0.469123 0
0.3888 0.462867 0
0.453437 0.461769 0
0.511788 0.464851 0
0.563729 0.461769 0
0.598413 0.458442 0
0.637003 0.458671 0
0.677089 0.460609 0
0.713726 0.463966 0
0.74461 0.46978 0
0.77377 0.472541 0
0.800855 0.472541 0
0.826474 0.474022 0
0.848783 0.481743 0
0.869123 0.488243 0
0.885252 0.487816 0
0.901839 0.488243 0
0.915114 0.488243 0.00146487
0.928954 0.492149 0.00146487
0.937865 0.492149 0.00332647
0.943633 0.492149 0.00538643
0.943496 0.49192 0.00538643
0.939803 0.489708 0.00538643
0.941176 0.489708 0.00538643
0.941176 0.489708 0.00538643
0.0886091 0.497917 0
0.0924544 0.50956 0
0.0998703 0.513603 0
0.109285 0.517311 0
0.125902 0.517525 0
0.156008 0.514214 0
0.194858 0.510414 0
0.241917 0.509682 0
0.295949 0.509682 0
0.357671 0.506416 0
0.421195 0.50576 0
0.481865 0.50576 0
0.546075 0.503304 0
0.599878 0.500893 0
0.638483 0.497917 0
0.677089 0.497917 0
0.711757 0.498711 0
0.738354 0.499504 0
0.769238 0.503426 0
0.796201 0.50248 0
0.821698 0.501976 0
0.847181 0.505577 0
0.869123 0.511269 0
0.884565 0.516793 0
0.899992 0.516396 0
0.915434 0.515541 0
0.930144 0.516793 0
0.937865 0.516793 0
0.945388 0.516793 0
0.947204 0.516793 0
0.945098 0.512871 0
0.945098 0.510536 0
0.945098 0.512871 0
0.0963302 0.536522 0
0.0963302 0.545953 0
0.101854 0.549889 0
0.112993 0.549996 0
0.124514 0.549996 0
0.144976 0.549996 0
0.178347 0.546807 0
0.22182 0.544732 0
0.272801 0.544366 0
0.329656 0.544366 0
0.389212 0.544366 0
0.45098 0.544366 0
0.51667 0.544366 0
0.58468 0.540444 0
0.638483 0.538231 0
0.675914 0.536522 0
0.709804 0.534554 0
0.73492 0.532601 0
0.761517 0.530388 0
0.790814 0.530388 0
0.817899 0.530388 0
0.84181 0.530388 0
0.865736 0.533333 0
0.884565 0.541054 0
0.899992 0.546075 0
0.915434 0.545602 0
0.930144 0.543557 0
0.93814 0.541817 0
0.94902 0.539956 0
0.94902 0.539956 0
0.948913 0.539712 0
0.94902 0.535912 0
0.94902 0.532113 0
0.104051 0.571206 0
0.106065 0.578927 0
0.109926 0.58088 0
0.111894 0.581079 0
0.12108 0.58088 0
0.139345 0.58088 0
0.163607 0.58088 0
0.202457 0.577417 0
0.253559 0.579049 0
0.307591 0.579049 0
0.36434 0.580301 0
0.425391 0.58088 0
0.485786 0.58088 0
0.549874 0.577813 0
0.616251 0.575128 0
0.667155 0.572061 0
0.704723 0.571206 0
0.73492 0.568261 0
0.758083 0.56556 0
0.783093 0.562509 0
0.811643 0.561273 0
0.839338 0.561273 0
0.862501 0.562493 0
0.881743 0.566293 0
0.899992 0.573037 0
0.915434 0.573037 0
0.930877 0.570611 0
0.942107 0.567041 0
0.951339 0.564935 0
0.955032 0.563119 0
0.95491 0.562875 0
0.95111 0.559197 0
0.95111 0.557351 0
0.111757 0.605875 0
0.115557 0.609735 0
0.117647 0.611765 0
0.121386 0.611765 0
0.123278 0.611765 0
0.136034 0.609812 0
0.158572 0.609812 0
0.187869 0.609812 0
0.234806 0.611765 0
0.288365 0.611765 0
0.342397 0.611765 0
0.399023 0.615015 0
0.457603 0.611765 0
0.517464 0.611765 0
0.581491 0.609812 0
0.646082 0.606806 0
0.695094 0.605875 0
0.730755 0.605875 0
0.759197 0.603067 0
0.779293 0.597238 0
0.805875 0.594125 0
0.832837 0.594125 0
0.861891 0.594125 0
0.881193 0.596628 0
0.899992 0.6 0
0.915007 0.6 0
0.928923 0.599268 0
0.94406 0.595468 0
0.955398 0.591669 0
0.959197 0.588235 0
0.962737 0.586145 0
0.958694 0.584314 0
0.95491 0.582361 0
0.119478 0.630884 0
0.1234 0.638605 0
0.1234 0.640681 0
0.126955 0.640803 0
0.130755 0.638727 0
0.141787 0.640482 0
0.158923 0.638727 0
0.184802 0.638727 0
0.222278 0.640284 0
0.270954 0.640803 0
0.319814 0.640803 0
0.373281 0.640803 0
0.430564 0.640803 0
0.488472 0.640803 0
0.554711 0.638727 0
0.621942 0.637751 0
0.682719 0.634806 0
0.726833 0.634806 0
0.758999 0.632059 0
0.782345 0.627451 0
0.80441 0.625116 0
0.82829 0.623041 0
0.856733 0.623697 0
0.879316 0.626963 0
0.899992 0.628519 0
0.915434 0.625116 0
0.930877 0.625467 0
0.948165 0.626352 0
0.96289 0.622553 0
0.966735 0.61709 0
0.970459 0.613352 0
0.968322 0.615137 0
0.962615 0.611276 0
0.131121 0.657847 0
0.131121 0.663905 0
0.132845 0.66569 0
0.132845 0.66569 0
0.13698 0.66569 0
0.148058 0.66569 0
0.162829 0.66569 0
0.184802 0.66569 0
0.217334 0.667887 0
0.257099 0.667887 0
0.301762 0.667887 0
0.350713 0.667887 0
0.404166 0.667887 0
0.462135 0.666575 0
0.526711 0.66569 0
0.59791 0.66569 0
0.659556 0.664836 0
0.714412 0.661768 0
0.757122 0.658335 0
0.782147 0.652323 0
0.805478 0.64828 0
0.827573 0.64828 0
0.852934 0.648814 0
0.876097 0.653315 0
0.896635 0.65742 0
0.915434 0.653544 0
0.931624 0.652201 0
0.95024 0.652476 0
0.966918 0.653437 0
0.970718 0.645716 0
0.974258 0.640436 0
0.974258 0.642161 0
0.974258 0.642161 0
0.138842 0.68481 0
0.142641 0.690974 0
0.142763 0.692653 0
0.142763 0.692653 0
0.144167 0.692653 0
0.149996 0.692653 0
0.163241 0.692653 0
0.181735 0.692653 0
0.210178 0.694392 0
0.244968 0.694972 0
0.284077 0.694972 0
0.329351 0.694972 0
0.385916 0.694972 0
0.441947 0.694972 0
0.501152 0.691752 0
0.569238 0.691051 0
0.632837 0.691051 0
0.69044 0.689967 0
0.741756 0.688029 0
0.775738 0.683207 0
0.801816 0.676966 0
0.827573 0.676966 0
0.849515 0.676463 0
0.868376 0.676478 0
0.892744 0.683207 0
0.912032 0.682704 0
0.931319 0.679286 0
0.95024 0.679286 0
0.967727 0.68069 0
0.978058 0.6766 0
0.981979 0.669017 0
0.980392 0.667521 0
0.981979 0.669123 0
0.148043 0.714214 0
0.150484 0.718059 0
0.150484 0.720439 0
0.150484 0.718364 0
0.153918 0.718135 0
0.158328 0.721675 0
0.165438 0.722057 0
0.181735 0.723522 0
0.206744 0.723522 0
0.237247 0.723522 0
0.270832 0.723522 0
0.310536 0.723522 0
0.365682 0.723522 0
0.423529 0.72108 0
0.481376 0.720256 0
0.543145 0.717159 0
0.604166 0.717159 0
0.664042 0.717159 0
0.717159 0.717159 0
0.761883 0.716167 0
0.794125 0.710781 0
0.824994 0.710277 0
0.84828 0.708553 0
0.867109 0.704295 0
0.888243 0.703914 0
0.907591 0.706691 0
0.92723 0.705394 0
0.946548 0.706004 0
0.96698 0.709133 0
0.978546 0.705257 0
0.9897 0.69984 0
0.987213 0.695994 0
0.985779 0.693629 0
0.158206 0.741299 0
0.158206 0.745144 0
0.158206 0.74522 0
0.158206 0.74522 0
0.161807 0.746563 0
0.165438 0.749142 0
0.169726 0.749142 0
0.179538 0.749142 0
0.199634 0.749142 0
0.228565 0.749142 0
0.259998 0.749142 0
0.296452 0.749142 0
0.34548 0.749142 0
0.402823 0.749142 0
0.459907 0.750484 0
0.517784 0.750484 0
0.57763 0.746563 0
0.636759 0.749142 0
0.695689 0.749142 0
0.742763 0.746014 0
0.785046 0.744259 0
0.81973 0.742184 0
0.848585 0.74049 0
0.867903 0.737621 0
0.885298 0.734798 0
0.907591 0.734798 0
0.926955 0.736889 0
0.94519 0.733455 0
0.964508 0.737377 0
0.981125 0.734676 0
0.992248 0.7308 0
0.993469 0.726955 0
0.992157 0.725612 0
0.165927 0.768383 0
0.167163 0.769574 0
0.167163 0.772137 0
0.169604 0.772045 0
0.169848 0.772305 0
0.169848 0.773342 0
0.173541 0.776226 0
0.183459 0.774121 0
0.196445 0.77261 0
0.218235 0.772305 0
0.247547 0.772305 0
0.282231 0.772305 0
0.328893 0.772305 0
0.380148 0.772305 0
0.435294 0.776913 0
0.492683 0.780804 0
0.549996 0.779416 0
0.607965 0.776883 0
0.665934 0.775051 0
0.718883 0.772305 0
0.766705 0.769604 0
0.809552 0.768383 0
0.842512 0.765682 0
0.864073 0.765682 0
0.884993 0.765682 0
0.906645 0.765682 0
0.926955 0.76495 0
0.942397 0.760113 0
0.958175 0.756954 0
0.979904 0.76054 0
0.996078 0.757763 0
0.996078 0.756527 0
0.996078 0.753918 0
0.173648 0.792645 0
0.177569 0.795468 0
0.177569 0.795468 0
0.173922 0.795468 0
0.176471 0.794507 0
0.177569 0.795468 0
0.179858 0.798291 0
0.187381 0.798291 0
0.198047 0.795468 0
0.213474 0.795468 0
0.238361 0.795468 0
0.270588 0.795468 0
0.314458 0.795468 0
0.360784 0.795468 0
0.412619 0.79939 0
0.468254 0.804807 0
0.524147 0.804715 0
0.582101 0.801465 0
0.641794 0.79939 0
0.699138 0.797787 0
0.75024 0.795468 0
0.794125 0.795468 0
0.834073 0.792645 0
0.858213 0.792645 0
0.880552 0.79237 0
0.90454 0.791547 0
0.926955 0.791547 0
0.942397 0.788113 0
0.954406 0.783352 0
0.973556 0.78114 0
0.992401 0.783459 0
0.997177 0.779782 0
0.997177 0.779782 0
0.182345 0.819608 0
0.18529 0.819608 0
0.18529 0.819608 0
0.182345 0.819608 0
0.182345 0.819608 0
0.184833 0.818173 0
0.18529 0.818631 0
0.192279 0.818631 0
0.2 0.819608 0
0.214191 0.819608 0
0.235538 0.819608 0
0.263203 0.819608 0
0.301472 0.819608 0
0.344152 0.819608 0
0.394308 0.822248 0
0.444968 0.826078 0
0.502449 0.825986 0
0.560388 0.823529 0
0.620584 0.820584 0
0.68333 0.820584 0
0.73431 0.820584 0
0.780636 0.820584 0
0.820584 0.820584 0
0.851469 0.820584 0
0.877699 0.819608 0
0.904753 0.816449 0
0.927947 0.815686 0
0.941939 0.815229 0
0.955032 0.812253 0
0.974258 0.80882 0
0.991424 0.807843 0
0.996201 0.803922 0
1 0.803922 0
0.18909 0.845716 0
0.18909 0.848676 0
0.18909 0.848768 0
0.18909 0.845991 0
0.18909 0.845716 0
0.18909 0.845716 0
0.191577 0.845716 0
0.195407 0.845716 0
0.202945 0.845716 0
0.212863 0.845716 0
0.230762 0.845716 0
0.25594 0.845716 0
0.289296 0.845716 0
0.3299 0.845716 0
0.375372 0.845716 0
0.425208 0.849226 0
0.476967 0.851164 0
0.534478 0.849638 0
0.600244 0.849638 0
0.664561 0.849638 0
0.719982 0.849638 0
0.766857 0.849638 0
0.810437 0.849638 0
0.842771 0.849638 0
0.872023 0.848646 0
0.899748 0.844846 0
0.925399 0.841794 0
0.942275 0.841794 0
0.956985 0.841413 0
0.972427 0.837873 0
0.987671 0.837674 0
0.996201 0.834775 0
1 0.833951 0
0.196078 0.868879 0
0.196078 0.868879 0
0.196078 0.868879 0
0.196078 0.868879 0
0.196078 0.868879 0
0.196078 0.868879 0
0.196674 0.868879 0
0.196811 0.868879 0
0.202945 0.868879 0
0.210452 0.868879 0
0.224262 0.868879 0
0.244846 0.868879 0
0.275456 0.868879 0
0.312139 0.868879 0
0.35465 0.868879 0
0.400961 0.868879 0
0.448768 0.870466 0
0.498085 0.872404 0
0.564706 0.872801 0
0.634928 0.872801 0
0.693629 0.872801 0
0.744488 0.873045 0
0.788464 0.873533 0
0.829862 0.873533 0
0.86183 0.872801 0
0.888808 0.868879 0
0.91519 0.865553 0
0.937118 0.864958 0
0.953826 0.864866 0
0.968627 0.861036 0
0.983825 0.861036 0
0.992386 0.861036 0
1 0.861769 0
0.2 0.892027 0
0.2 0.892027 0
0.2 0.892027 0
0.2 0.892027 0
0.2 0.892027 0
0.2 0.892027 0
0.2 0.889342 0
0.2 0.888106 0
0.203922 0.891417 0
