YOYO-Client/Yoyo/Assets.xcassets/NewYork.dataset/NewYork.cube
TITLE "Generated by Resolve"
LUT_3D_SIZE 9
0 0 0
0.146563 0.00392157 0.0112764
0.338231 0.000976577 0.0196078
0.546563 0 0.027451
0.745098 0 0.0392157
0.847547 0 0.0485237
0.901961 0.0117647 0.0470588
0.901961 0.0117647 0.0470588
0.901961 0.0117647 0.0470588
0.0382391 0.149508 0
0.210849 0.146929 0
0.34963 0.143008 0.0112764
0.53872 0.18352 0.0509804
0.709072 0.217639 0.0529335
0.818326 0.218631 0.0517739
0.891173 0.209796 0.0522011
0.894606 0.162799 0.0470588
0.890684 0.127443 0.0470588
0.0647135 0.308827 0
0.177935 0.309804 0
0.400732 0.310048 0
0.549996 0.306371 0.00453193
0.722545 0.344121 0.009308
0.830518 0.366171 0.0186313
0.895094 0.392401 0.0470588
0.916671 0.397543 0.0569924
0.912749 0.387259 0.0284276
0.0862745 0.465202 0
0.132845 0.472053 0
0.323156 0.469123 0
0.563729 0.461769 0
0.713726 0.463966 0
0.826474 0.474022 0
0.901839 0.488243 0
0.943633 0.492149 0.00538643
0.941176 0.489708 0.00538643
0.111757 0.605875 0
0.123278 0.611765 0
0.234806 0.611765 0
0.457603 0.611765 0
0.695094 0.605875 0
0.805875 0.594125 0
0.899992 0.6 0
0.955398 0.591669 0
0.95491 0.582361 0
0.148043 0.714214 0
0.153918 0.718135 0
0.206744 0.723522 0
0.365682 0.723522 0
0.604166 0.717159 0
0.794125 0.710781 0
0.888243 0.703914 0
0.96698 0.709133 0
0.985779 0.693629 0
0.182345 0.819608 0
0.182345 0.819608 0
0.2 0.819608 0
0.301472 0.819608 0
0.502449 0.825986 0
0.73431 0.820584 0
0.877699 0.819608 0
0.955032 0.812253 0
1 0.803922 0
0.203922 0.916671 0
0.203922 0.916671 0
0.203922 0.912261 0
0.239704 0.916182 0
0.38677 0.916182 0
0.627451 0.915999 0
0.831861 0.916548 0
0.946075 0.911772 0
0.996078 0.911269 0
0.207843 0.996078 0
0.207843 0.996078 0
0.207843 0.996078 0
0.207843 0.996078 0
0.270588 0.996078 0
0.481376 0.996078 0
0.779416 0.992157 0
0.926955 0.984314 0
0.972549 0.980392 0
0.0186313 0 0.18088
0.161822 0 0.184802
0.327443 0 0.134798
0.535103 0 0.114702
0.722057 0 0.0789197
0.838727 0 0.0629282
0.899382 0.0117647 0.0470588
0.901961 0.0117647 0.0470588
0.901961 0.0117647 0.0470588
0.0377508 0.111696 0.137743
0.14609 0.126467 0.133516
0.311223 0.125612 0.14667
0.518624 0.1299 0.131502
0.71519 0.131899 0.106096
0.822248 0.133852 0.0594949
0.891173 0.117494 0.0467384
0.898528 0.0506752 0.0431373
0.901961 0.0186313 0.0470588
0.065568 0.286641 0.0617685
0.120104 0.295354 0.0448157
0.369543 0.294606 0.0408026
0.518624 0.292653 0.105516
0.691356 0.346563 0.173526
0.803922 0.380697 0.22623
0.8822 0.391638 0.218784
0.901473 0.353765 0.157839
0.901473 0.31519 0.0500038
0.0835126 0.457176 0
0.102281 0.456687 0
0.293324 0.453925 0
0.558816 0.454231 0
0.69926 0.45359 0
0.815686 0.47303 0.0280308
0.895537 0.494118 0.0857252
0.938582 0.504417 0.131945
0.935973 0.504112 0.135225
0.113725 0.602213 0
0.115679 0.604135 0
0.226169 0.607843 0
0.449424 0.607019 0
0.70013 0.602213 0
0.807904 0.590448 0
0.899992 0.598108 0
0.959045 0.593622 0
0.960296 0.582361 0
0.148043 0.715007 0
0.154253 0.722057 0
0.201465 0.723522 0
0.363546 0.723522 0
0.601465 0.718227 0
0.798413 0.710781 0
0.888243 0.703914 0
0.96698 0.708827 0
0.985779 0.693629 0
0.18529 0.820584 0
0.18529 0.823529 0
0.2 0.822553 0
0.302083 0.820584 0
0.502449 0.827451 0
0.737118 0.820584 0
0.877699 0.82034 0
0.955032 0.809674 0
1 0.803922 0
0.203922 0.920104 0
0.203922 0.920104 0
0.203922 0.915816 0
0.239704 0.9196 0
0.38677 0.916182 0
0.627451 0.918318 0
0.831861 0.916548 0
0.946075 0.911772 0
0.996078 0.911772 0
0.207843 0.996078 0
0.207843 0.996078 0
0.207843 0.996078 0
0.207843 0.996078 0
0.266911 0.996078 0
0.47892 0.996078 0
0.779416 0.992157 0
0.923964 0.984314 0
0.972549 0.980392 0
0.0686198 0 0.367651
0.12488 0 0.355398
0.333089 0 0.337255
0.507713 0 0.287251
0.707347 0 0.273533
0.831861 0 0.258946
0.902205 0 0.215686
0.908827 0 0.155398
0.905882 0 0.106859
0.0652018 0.076463 0.320958
0.104036 0.080415 0.312001
0.307073 0.0581216 0.314763
0.489342 0.0591897 0.273411
0.695277 0.0888533 0.271565
0.823575 0.120592 0.248569
0.906493 0.130358 0.225986
0.912688 0.0902571 0.163378
0.90576 0.0249943 0.0975509
0.084062 0.231373 0.282597
0.100984 0.237507 0.275364
0.27274 0.253132 0.254902
0.4663 0.278553 0.290929
0.670588 0.308217 0.295705
0.813077 0.311147 0.282597
0.891905 0.304906 0.253925
0.908705 0.260914 0.176532
0.900252 0.201968 0.0911727
0.0937514 0.425498 0.182361
0.0931411 0.429557 0.162387
0.198535 0.437751 0.130571
0.495583 0.433371 0.146365
0.657908 0.451286 0.246448
0.781491 0.498039 0.346563
0.871443 0.538689 0.409216
0.931868 0.542092 0.399008
0.926467 0.509316 0.33872
0.111269 0.590204 0.033341
0.113237 0.596139 0.0299077
0.15404 0.605509 0.00404364
0.397055 0.591302 0.0130465
0.684321 0.589212 0.000732433
0.796201 0.582361 0.0461433
0.88333 0.598413 0.172183
0.950607 0.617029 0.271748
0.953429 0.623041 0.318624
0.148043 0.714702 0
0.150484 0.72015 0
0.167651 0.720714 0
0.317159 0.718212 0
0.573465 0.716609 0
0.794125 0.710613 0
0.886671 0.698161 0
0.966125 0.709239 0
0.9897 0.700862 0
0.18529 0.819608 0
0.18529 0.82182 0
0.187686 0.82034 0
0.267521 0.823682 0
0.472297 0.822309 0
0.729656 0.822797 0
0.885115 0.812741 0
0.954894 0.80882 0
1 0.804898 0
0.203922 0.920104 0
0.203922 0.920302 0
0.203922 0.915679 0
0.232532 0.922179 0
0.380148 0.917037 0
0.639094 0.915724 0
0.839094 0.919264 0
0.946395 0.910948 0
0.996078 0.907835 0
0.207843 0.996078 0
0.207843 0.996078 0
0.207843 0.996078 0
0.207843 0.996078 0
0.263722 0.996078 0
0.480888 0.996078 0
0.775494 0.992157 0
0.923537 0.984314 0
0.972549 0.980392 0
0.112261 0 0.527443
0.130388 0 0.515999
0.304417 0 0.511772
0.508827 0 0.503929
0.670588 0 0.438727
0.806378 0 0.40827
0.907835 0.0194858 0.407965
0.939895 0.15668 0.400488
0.93579 0.162737 0.375982
0.108339 0.030396 0.498039
0.115679 0.030396 0.490089
0.269963 0.0114748 0.48838
0.488731 0 0.474998
0.663142 0 0.432532
0.80087 0.0112612 0.404837
0.896086 0.168185 0.415686
0.93431 0.230335 0.404837
0.927947 0.200488 0.355398
0.118135 0.18677 0.453437
0.114961 0.179904 0.448341
0.235019 0.201999 0.444327
0.455329 0.188006 0.443824
0.640681 0.206622 0.407843
0.788434 0.272557 0.420066
0.892531 0.325246 0.419974
0.936812 0.340032 0.40206
0.934798 0.310414 0.368017
0.127382 0.359808 0.427451
0.126467 0.359869 0.419181
0.188922 0.381369 0.403113
0.402365 0.394751 0.376623
0.610056 0.437995 0.432593
0.768139 0.48336 0.463218
0.882292 0.496605 0.462776
0.942931 0.485847 0.429969
0.930388 0.427512 0.35938
0.1299 0.563485 0.306859
0.129747 0.565835 0.3075
0.146502 0.570153 0.274022
0.293416 0.578988 0.237629
0.621439 0.569116 0.280018
0.758328 0.585779 0.386374
0.857176 0.629786 0.486336
0.935286 0.662745 0.547433
0.947066 0.660288 0.537011
0.151415 0.699931 0.161273
0.152941 0.703807 0.153857
0.156344 0.711894 0.136477
0.232349 0.720104 0.101411
0.50956 0.702937 0.144335
0.775006 0.701122 0.129198
0.873793 0.693141 0.183246
0.950423 0.710597 0.305501
0.970657 0.71519 0.356435
0.18529 0.816663 0.00735485
0.18529 0.818006 0.0116426
0.18529 0.816663 0.0041352
0.215198 0.833326 0
0.415747 0.825299 0
0.702205 0.820905 0
0.876478 0.815686 0
0.957961 0.808469 0
1 0.800977 0
0.203922 0.920104 0
0.203922 0.923537 0
0.203922 0.923537 0
0.210483 0.915877 0
0.32343 0.9196 0
0.590509 0.915679 0
0.833951 0.9196 0
0.952346 0.907835 0
1 0.907835 0
0.207843 0.996078 0
0.207843 0.996078 0
0.207843 0.996078 0
0.207843 0.996078 0
0.248524 0.996078 0
0.460227 0.992706 0
0.776471 0.988235 0
0.927443 0.98677 0
0.972549 0.977935 0
0.137255 0 0.662745
0.133577 0 0.653193
0.248524 0 0.641184
0.442649 0 0.660044
0.647059 0 0.635294
0.796078 0 0.600977
0.87892 0 0.538231
0.969604 0.00833143 0.527703
0.966659 0.182361 0.547051
0.135042 0.00343328 0.640192
0.133333 0 0.631098
0.232898 0 0.622126
0.433082 0 0.642649
0.642893 0 0.629419
0.792157 0 0.581216
0.887556 0 0.538781
0.964706 0.101228 0.534768
0.962737 0.293873 0.562249
0.1402 0.146563 0.609308
0.140688 0.141909 0.608576
0.187869 0.154894 0.600977
0.397543 0.145403 0.612558
0.627451 0.118868 0.607111
0.773526 0.119112 0.560174
0.877333 0.183581 0.528679
0.954971 0.319799 0.556313
0.958831 0.451957 0.600977
0.149508 0.305394 0.579416
0.148287 0.304906 0.572152
0.169848 0.306432 0.565682
0.368627 0.341421 0.564706
0.593988 0.331868 0.56875
0.74583 0.355886 0.537438
0.863172 0.4421 0.563241
0.95024 0.512932 0.579843
0.952209 0.527947 0.575494
0.157839 0.500984 0.561761
0.158694 0.496086 0.56495
0.159808 0.50074 0.546075
0.321447 0.528313 0.535424
0.5402 0.536278 0.512261
0.709682 0.570718 0.567163
0.845594 0.623285 0.602945
0.94583 0.632471 0.605386
0.956863 0.616663 0.572549
0.173526 0.676966 0.473045
0.175982 0.681285 0.47187
0.174136 0.680461 0.45687
0.256306 0.686061 0.426261
0.427695 0.693141 0.38468
0.724514 0.683055 0.414466
0.838727 0.698528 0.510292
0.929076 0.738811 0.606775
0.965438 0.75613 0.647791
0.195102 0.805386 0.314702
0.195102 0.806867 0.319539
0.193988 0.803433 0.297429
0.211765 0.815686 0.26183
0.325734 0.81912 0.213977
0.641108 0.808331 0.259312
0.860914 0.808331 0.246937
0.951232 0.800977 0.29308
0.989212 0.805386 0.357351
0.207843 0.920104 0.10367
0.207843 0.921813 0.0926223
0.207843 0.9196 0.0684977
0.206134 0.923033 0.0307927
0.251469 0.935286 0.00257877
0.510048 0.919509 0.0117952
0.811765 0.921324 0
0.949783 0.909804 0
1 0.901717 0
0.207843 0.996078 0
0.207843 0.996078 0
0.207843 0.996078 0
0.207843 0.996078 0
0.21471 0.996078 0
0.372061 0.993622 0
0.745098 0.992157 0
0.925246 0.986023 0
0.972549 0.980392 0
0.146563 0 0.751965
0.14638 0 0.74197
0.188235 0 0.732723
0.368627 0 0.750484
0.574014 0 0.770336
0.749508 0 0.757351
0.875975 0 0.724025
0.962066 0.00802625 0.678431
0.997543 0.0235294 0.656855
0.14638 0 0.737255
0.145098 0 0.730175
0.179156 0 0.721614
0.34902 0 0.735363
0.562249 0 0.761273
0.740749 0 0.751598
0.876341 0 0.723476
0.961273 0.00408942 0.680552
0.997055 0.0418555 0.658824
0.14902 0.103914 0.717159
0.14902 0.0959487 0.720943
0.164584 0.0991073 0.709407
0.340398 0.0987564 0.717357
0.553674 0.0465095 0.738415
0.741299 0.0195315 0.745998
0.879377 0.0272068 0.714641
0.960784 0.0624857 0.665736
0.9897 0.194125 0.667155
0.157778 0.258274 0.694606
0.156985 0.258015 0.696071
0.161334 0.253986 0.692164
0.308888 0.296574 0.70222
0.527977 0.294148 0.71519
0.725978 0.287251 0.722957
0.862745 0.294606 0.694896
0.942275 0.333272 0.661936
0.974945 0.447547 0.677882
0.164706 0.425238 0.67451
0.164706 0.428428 0.674601
0.164706 0.423285 0.669551
0.280888 0.45687 0.674998
0.508705 0.496208 0.682353
0.701534 0.488457 0.697856
0.832166 0.502266 0.666972
0.93138 0.571817 0.681285
0.968627 0.639216 0.710048
0.181857 0.61912 0.692653
0.182788 0.621576 0.688365
0.182559 0.619348 0.692195
0.237751 0.630884 0.679759
0.46569 0.656855 0.665171
0.650492 0.646937 0.63122
0.807843 0.684062 0.692454
0.928313 0.744793 0.731746
0.968627 0.74461 0.729412
0.20882 0.787259 0.635782
0.20882 0.788724 0.635065
0.20882 0.788724 0.622553
0.217639 0.784802 0.615198
0.376837 0.794186 0.583337
0.559991 0.798413 0.541314
0.819242 0.792279 0.546075
0.924025 0.805035 0.645182
0.976471 0.827451 0.705394
0.219608 0.907042 0.491478
0.219608 0.91133 0.485679
0.219608 0.910964 0.470024
0.219608 0.905882 0.469978
0.283177 0.918318 0.431128
0.424811 0.9196 0.387015
0.761273 0.915145 0.373281
0.937255 0.90753 0.338964
1 0.899992 0.312993
0.21323 0.993622 0.232837
0.21323 0.992157 0.25098
0.213855 0.996078 0.246937
0.21323 0.994614 0.232776
0.217899 0.996078 0.155642
0.294545 0.996078 0.0960861
0.685786 0.993988 0.00662242
0.92224 0.988235 0
0.980392 0.976471 0
0.152941 0 0.813733
0.152941 0 0.810788
0.152941 0 0.809796
0.278431 0 0.801968
0.475486 0 0.835294
0.673167 0 0.866178
0.822553 0 0.858579
0.938109 0.00355535 0.837873
1 0.027451 0.807843
0.152941 0 0.809796
0.152941 0 0.808499
0.152941 0 0.803098
0.278843 0 0.799512
0.472236 0 0.835172
0.675792 0 0.862181
0.823651 0 0.85658
0.941176 0.00355535 0.830823
1 0.027451 0.815686
0.152941 0.0345617 0.799023
0.152941 0.0252384 0.799878
0.152941 0.0208286 0.800305
0.262013 0.0129549 0.795102
0.469978 0 0.827817
0.676753 0 0.866178
0.828428 0 0.845106
0.951965 0.0128939 0.83389
1 0.0328374 0.817899
0.163241 0.200977 0.795102
0.163241 0.203662 0.794491
0.161852 0.201617 0.790997
0.24213 0.23093 0.794736
0.454353 0.238911 0.806928
0.661021 0.21973 0.838041
0.820706 0.214466 0.844327
0.949416 0.21146 0.825681
1 0.214221 0.798535
0.168627 0.374502 0.782849
0.168627 0.377935 0.786282
0.168627 0.373526 0.779416
0.207233 0.386831 0.782361
0.434318 0.440925 0.801968
0.634012 0.436332 0.820096
0.811276 0.430396 0.827451
0.938231 0.429603 0.805692
0.993133 0.441184 0.782361
0.17464 0.527947 0.765805
0.176471 0.530388 0.766537
0.176471 0.528222 0.769635
0.188388 0.536614 0.76704
0.412741 0.58793 0.786084
0.616495 0.607843 0.7897
0.789181 0.600275 0.801801
0.91194 0.616541 0.774639
0.976471 0.679896 0.791547
0.200977 0.717647 0.796811
0.200977 0.717647 0.807507
0.200977 0.721569 0.804105
0.200977 0.721935 0.80267
0.357229 0.746441 0.797543
0.583795 0.766918 0.783948
0.758022 0.757107 0.758755
0.907744 0.806134 0.812497
0.980392 0.846082 0.842161
0.211765 0.899504 0.790204
0.214343 0.903059 0.782528
0.21471 0.900404 0.781949
0.21471 0.902937 0.770352
0.256184 0.899077 0.751293
0.480766 0.902937 0.731289
0.693294 0.899504 0.674113
0.909499 0.895094 0.6701
0.983825 0.896452 0.720104
0.210788 0.992157 0.684321
0.210788 0.992157 0.677455
0.211765 0.995834 0.658824
0.21471 0.993255 0.647425
0.216175 0.992157 0.632349
0.377691 0.992157 0.635538
0.599756 0.992157 0.533089
0.892164 0.983337 0.473411
0.975494 0.976471 0.4598
0.156863 0 0.875486
0.156863 0 0.875486
0.156863 0 0.875486
0.171756 0 0.871565
0.369848 0 0.886763
0.58529 0 0.927459
0.75993 0 0.953918
0.883757 0 0.942641
0.983337 0.0269627 0.934798
0.156863 0 0.875486
0.156863 0 0.875486
0.156863 0 0.875486
0.181247 0 0.871565
0.373983 0 0.888243
0.579904 0 0.925109
0.756481 0 0.950439
0.883818 0 0.942596
0.987259 0.030457 0.9299
0.156863 0 0.871931
0.156863 0 0.875166
0.156863 0 0.872053
0.172076 0 0.86508
0.35993 0 0.881498
0.556313 0 0.918883
0.757382 0 0.946929
0.887572 0 0.9449
0.987381 0.027451 0.934676
0.163424 0.117159 0.871565
0.163241 0.118624 0.869947
0.163241 0.117632 0.867994
0.164157 0.110979 0.867643
0.352117 0.117128 0.874815
0.567346 0.0936751 0.916182
0.761273 0.0628519 0.94844
0.899184 0.0771496 0.940871
0.991669 0.0704051 0.929412
0.172549 0.300984 0.863966
0.172549 0.295308 0.868345
0.172549 0.304417 0.867643
0.172549 0.298528 0.860288
0.329534 0.348531 0.887861
0.548775 0.352697 0.898283
0.743633 0.3364 0.927947
0.89485 0.331594 0.936767
0.99559 0.3299 0.928679
0.176471 0.466484 0.861585
0.176471 0.472358 0.8598
0.176471 0.462867 0.860243
0.176471 0.472236 0.8598
0.300343 0.513726 0.873533
0.54345 0.558389 0.89987
0.7234 0.546029 0.91577
0.894789 0.545769 0.927108
0.99559 0.545098 0.916976
0.191791 0.623529 0.852079
0.191791 0.623529 0.855772
0.191791 0.620584 0.855512
0.192645 0.624506 0.852445
0.23682 0.643809 0.858335
0.519112 0.703929 0.882353
0.715938 0.719982 0.900252
0.883452 0.710781 0.907835
0.987381 0.730022 0.893019
0.20827 0.817639 0.907835
0.20827 0.820645 0.908217
0.207843 0.821393 0.906111
0.207843 0.839887 0.918929
0.212802 0.849271 0.918349
0.447944 0.853758 0.894499
0.689219 0.868696 0.885603
0.868955 0.86949 0.884749
0.975982 0.898955 0.913298
0.196078 0.983825 0.916182
0.196078 0.984253 0.912749
0.196078 0.987747 0.905028
0.196078 0.984131 0.908827
0.197787 0.984314 0.88922
0.327459 0.980392 0.887739
0.645594 0.979049 0.867643
0.865629 0.972061 0.854902
0.960296 0.968139 0.8701
0.160784 0 0.901961
0.160784 0 0.901961
0.160784 0 0.901961
0.160784 0 0.901961
0.20589 0 0.901961
0.437751 0 0.930877
0.652949 0 0.977447
0.821576 0 1
0.917647 0.00784314 0.996078
0.160784 0 0.901961
0.160784 0 0.901961
0.160784 0 0.901961
0.160784 0 0.901961
0.215198 0 0.901961
0.448524 0 0.936095
0.657359 0 0.98088
0.824994 0 1
0.918135 0.00833143 0.996078
0.160784 0 0.901961
0.160784 0 0.901961
0.160784 0 0.901961
0.160784 0 0.901961
0.220584 0 0.901961
0.44596 0 0.931991
0.652949 0 0.977447
0.822065 0 1
0.921569 0.0117647 0.996078
0.160784 0 0.901961
0.160784 0 0.901961
0.160784 0 0.901961
0.160784 0 0.901961
0.200488 0 0.901228
0.423529 0 0.930877
0.642161 0 0.973526
0.825803 0 0.996078
0.929412 0.0117647 0.993622
0.168627 0.184314 0.901961
0.168627 0.178439 0.898039
0.168627 0.175006 0.903426
0.168627 0.164706 0.90074
0.177447 0.157839 0.901961
0.405875 0.165927 0.922301
0.638239 0.14461 0.964706
0.833585 0.119615 0.996078
0.937255 0.121569 0.99411
0.176471 0.359319 0.898039
0.176471 0.359319 0.899504
0.176471 0.353918 0.901961
0.176471 0.364767 0.901961
0.179171 0.372061 0.90074
0.398032 0.428855 0.935363
0.627207 0.441184 0.948165
0.819913 0.422858 0.988235
0.939712 0.424018 0.994614
0.181369 0.52549 0.901961
0.181369 0.531365 0.904906
0.181369 0.524514 0.901961
0.181369 0.528435 0.899138
0.184802 0.542641 0.898039
0.405142 0.617029 0.930877
0.632837 0.654169 0.957839
0.818998 0.651835 0.973037
0.937255 0.654902 0.988235
0.200488 0.693629 0.902449
0.200488 0.697063 0.905882
0.200488 0.694484 0.906371
0.20264 0.697551 0.903426
0.203922 0.709804 0.899016
0.286275 0.740993 0.917159
0.638849 0.811765 0.957839
0.845167 0.849088 0.976471
0.941176 0.861769 0.979904
0.2 0.901961 0.988235
0.2 0.901961 0.988235
0.2 0.905882 0.984314
0.2 0.905882 0.984314
0.2 0.913725 0.988235
0.261769 0.929412 0.988235
0.668635 0.933333 0.967651
0.88481 0.952941 0.972549
0.94902 0.956863 0.976471
