YOYO-Client/Yoyo/Assets.xcassets/GoldenGate.dataset/GoldenGate.cube
TITLE "GoldenGate"
LUT_3D_SIZE 8
DOMAIN_MIN 0.000000 0.000000 0.000000
DOMAIN_MAX 0.903226 0.903226 0.903226
0.142550 0.145357 0.147555
0.158999 0.147707 0.147982
0.218479 0.157229 0.148379
0.321447 0.177676 0.145724
0.503441 0.224277 0.128939
0.734188 0.293889 0.030610
0.906432 0.351568 0.000000
1.000000 0.394110 0.000000
0.145113 0.158846 0.148562
0.162478 0.157717 0.149233
0.220249 0.170108 0.147799
0.320500 0.190951 0.144991
0.498054 0.238407 0.127871
0.720882 0.305241 0.028229
0.892973 0.360143 0.000000
1.000000 0.401740 0.000000
0.156649 0.202487 0.152926
0.174868 0.202945 0.153231
0.224430 0.198734 0.155276
0.339025 0.237247 0.145693
0.531670 0.307774 0.106935
0.745174 0.372168 0.000000
0.910948 0.417975 0.000000
1.000000 0.447639 0.000000
0.178225 0.289860 0.152834
0.199527 0.289860 0.152682
0.267247 0.293095 0.151431
0.359777 0.293278 0.153567
0.569665 0.381415 0.092317
0.777890 0.467292 0.000000
0.923430 0.506981 0.000000
1.000000 0.519921 0.000000
0.212924 0.446357 0.104677
0.242527 0.446448 0.103914
0.330785 0.450507 0.096681
0.453162 0.460578 0.067353
0.567224 0.444495 0.094789
0.761776 0.513573 0.000000
0.914122 0.568078 0.000000
1.000000 0.602258 0.000000
0.261265 0.626215 0.000000
0.294163 0.630365 0.000000
0.391577 0.631006 0.000000
0.521660 0.633082 0.000000
0.663722 0.636011 0.000000
0.770871 0.596216 0.000000
0.913054 0.626612 0.000000
1.000000 0.655970 0.000000
0.319524 0.780026 0.000000
0.347295 0.780392 0.000000
0.435737 0.778775 0.000000
0.558618 0.776913 0.000000
0.694453 0.773648 0.000000
0.834043 0.771817 0.000000
0.917723 0.711818 0.000000
1.000000 0.712795 0.107210
0.392279 0.894865 0.000000
0.411994 0.894469 0.000000
0.483284 0.893248 0.000000
0.589197 0.891600 0.000000
0.707149 0.883391 0.000000
0.837339 0.880674 0.000000
0.965118 0.877287 0.040589
1.000000 0.807370 0.253269
0.139834 0.149325 0.163729
0.157839 0.148501 0.165194
0.211032 0.157229 0.164187
0.306798 0.175570 0.165621
0.482399 0.213382 0.155734
0.705837 0.276280 0.118715
0.882261 0.335393 0.000000
1.000000 0.382727 0.000000
0.142153 0.159579 0.165194
0.159762 0.162997 0.165164
0.213596 0.170809 0.166110
0.311406 0.188693 0.165011
0.486366 0.229618 0.153323
0.705379 0.291997 0.113466
0.877501 0.347143 0.000000
1.000000 0.391699 0.000000
0.148928 0.205661 0.168399
0.169955 0.205844 0.168673
0.222782 0.202609 0.170108
0.333440 0.237430 0.162997
0.515953 0.296056 0.138827
0.723903 0.356573 0.066957
0.889006 0.402625 0.000000
1.000000 0.437049 0.000000
0.162448 0.289281 0.166903
0.187472 0.289555 0.166659
0.260685 0.292973 0.165805
0.349401 0.288640 0.168276
0.541650 0.365454 0.129641
0.749844 0.451026 0.000000
0.902007 0.491585 0.000000
1.000000 0.509819 0.000000
0.186526 0.445777 0.129061
0.221286 0.445136 0.128786
0.317784 0.447028 0.124788
0.440955 0.453559 0.114443
0.552758 0.435462 0.126925
0.747524 0.505028 0.000000
0.904448 0.562219 0.000000
1.000000 0.598322 0.000000
0.231083 0.621302 0.000000
0.267491 0.621546 0.000000
0.373510 0.622522 0.000000
0.508263 0.625788 0.000000
0.653529 0.629969 0.000000
0.764553 0.592981 0.000000
0.907897 0.624201 0.000000
1.000000 0.654047 0.000000
0.295201 0.775235 0.000000
0.324193 0.774014 0.000000
0.419501 0.772183 0.000000
0.546624 0.771115 0.000000
0.686305 0.769650 0.000000
0.827268 0.767910 0.000000
0.911254 0.708064 0.000000
1.000000 0.709834 0.135836
0.375860 0.891875 0.000000
0.397711 0.892088 0.000000
0.472480 0.890684 0.000000
0.581140 0.889128 0.000000
0.706416 0.886137 0.000000
0.835660 0.881773 0.017731
0.962615 0.877043 0.138155
1.000000 0.807858 0.273045
0.120577 0.161898 0.217136
0.133944 0.157473 0.219150
0.209506 0.157290 0.222599
0.313329 0.163302 0.222080
0.475074 0.173892 0.218814
0.703273 0.228611 0.212070
0.883848 0.300969 0.196902
1.000000 0.362982 0.188418
0.132265 0.176761 0.216220
0.146609 0.175357 0.217960
0.210422 0.171756 0.221653
0.310948 0.179263 0.220615
0.476905 0.196384 0.218875
0.700557 0.250156 0.210422
0.879393 0.315465 0.192569
1.000000 0.373205 0.183383
0.144259 0.208072 0.221897
0.159762 0.210086 0.221836
0.216526 0.219211 0.220829
0.326329 0.235630 0.221714
0.510369 0.273228 0.216709
0.721736 0.327733 0.200320
0.888853 0.378576 0.182101
1.000000 0.421515 0.176272
0.088075 0.304967 0.243839
0.127657 0.306737 0.237766
0.233616 0.311345 0.219944
0.356603 0.306920 0.222263
0.554070 0.377691 0.205661
0.755367 0.447547 0.173617
0.903685 0.478309 0.158328
1.000000 0.501549 0.162387
0.000000 0.463905 0.202487
0.000000 0.463905 0.202182
0.265019 0.465156 0.200809
0.431037 0.471168 0.196902
0.563928 0.452613 0.205051
0.754147 0.514519 0.175204
0.906676 0.568048 0.145388
1.000000 0.599908 0.140291
0.000000 0.632563 0.154879
0.040345 0.632959 0.154940
0.309941 0.632624 0.153780
0.480629 0.633570 0.149722
0.642267 0.635889 0.143008
0.762539 0.599390 0.185519
0.905516 0.630457 0.189090
1.000000 0.661891 0.205509
0.173861 0.782773 0.119875
0.229648 0.781704 0.119020
0.367926 0.778897 0.118288
0.519402 0.776211 0.120241
0.670832 0.773709 0.124666
0.819242 0.771939 0.137240
0.909880 0.715908 0.224796
1.000000 0.720058 0.271183
0.327825 0.894377 0.199252
0.352636 0.893706 0.198856
0.439704 0.892149 0.204471
0.562310 0.890929 0.220218
0.693385 0.887755 0.234134
0.826749 0.883940 0.255192
0.955169 0.879484 0.281529
1.000000 0.814542 0.357397
0.000000 0.191043 0.326055
0.000000 0.185580 0.329717
0.168948 0.171328 0.334447
0.320836 0.159579 0.341619
0.495644 0.129610 0.353613
0.695247 0.112886 0.347082
0.861967 0.226993 0.338537
0.992950 0.342290 0.353521
0.000000 0.207889 0.327581
0.000000 0.203769 0.329870
0.168215 0.186069 0.335302
0.322972 0.174533 0.342840
0.502068 0.149966 0.353613
0.695277 0.156405 0.344396
0.862669 0.254429 0.339788
0.992706 0.357061 0.354253
0.000000 0.248936 0.327794
0.028107 0.249699 0.327977
0.174868 0.243412 0.332830
0.326024 0.228641 0.340826
0.510887 0.233188 0.344945
0.700862 0.274998 0.344213
0.877989 0.351171 0.353979
0.999176 0.418524 0.364843
0.000000 0.311803 0.344671
0.000000 0.313115 0.344457
0.188144 0.320897 0.343938
0.341863 0.341894 0.341009
0.533349 0.373816 0.345190
0.727199 0.416266 0.347417
0.885527 0.460334 0.352544
1.000000 0.500114 0.364294
0.000000 0.488136 0.415045
0.000000 0.488746 0.409186
0.000000 0.493355 0.383490
0.374304 0.500511 0.342016
0.567010 0.485145 0.346960
0.755428 0.540826 0.351202
0.902373 0.590845 0.358984
1.000000 0.604608 0.372808
0.000000 0.654292 0.394385
0.000000 0.658412 0.382391
0.000000 0.659663 0.339025
0.416327 0.657496 0.340093
0.621668 0.656703 0.339727
0.759548 0.621729 0.355474
0.898802 0.652461 0.372473
1.000000 0.686000 0.395727
0.000000 0.793606 0.343938
0.000000 0.793454 0.344671
0.228824 0.791775 0.346227
0.466163 0.788693 0.349554
0.643519 0.784970 0.351995
0.801968 0.781521 0.356725
0.901213 0.731899 0.388556
0.996674 0.741085 0.423529
0.239475 0.900145 0.387671
0.277379 0.899687 0.388098
0.390204 0.897917 0.390448
0.532311 0.895018 0.396796
0.673060 0.891295 0.404303
0.809476 0.887297 0.415290
0.938689 0.883268 0.431128
1.000000 0.828000 0.477180
0.000000 0.249485 0.511376
0.000000 0.241947 0.514519
0.000000 0.195590 0.519432
0.284062 0.176638 0.525231
0.505028 0.118379 0.534356
0.700862 0.000000 0.530022
0.869718 0.139101 0.507256
0.973419 0.359075 0.513237
0.000000 0.266300 0.512047
0.000000 0.259831 0.515343
0.000000 0.212894 0.521172
0.280369 0.193393 0.525261
0.505913 0.145418 0.534508
0.703426 0.086488 0.529290
0.868559 0.187503 0.506401
0.970550 0.380682 0.516930
0.000000 0.319036 0.508751
0.000000 0.315099 0.510369
0.000000 0.294041 0.516075
0.262272 0.254429 0.524102
0.505211 0.228977 0.529900
0.704829 0.224521 0.519860
0.859281 0.308324 0.503410
0.957214 0.451881 0.530571
0.000000 0.382788 0.515068
0.000000 0.383032 0.514794
0.000000 0.385992 0.514824
0.278935 0.382238 0.520317
0.514641 0.362097 0.527886
0.710079 0.386481 0.512535
0.842802 0.466712 0.522240
0.962371 0.531884 0.541222
0.000000 0.473854 0.528862
0.000000 0.475502 0.528923
0.000000 0.482124 0.527977
0.321569 0.497902 0.525109
0.529747 0.524865 0.517693
0.711177 0.555413 0.524529
0.860502 0.589380 0.533928
0.971984 0.621332 0.545647
0.000000 0.659144 0.601648
0.000000 0.659693 0.598230
0.000000 0.659510 0.581018
0.306096 0.660151 0.547601
0.551110 0.663203 0.511040
0.731594 0.648066 0.521263
0.874815 0.688655 0.543511
0.978668 0.725460 0.563439
0.000000 0.795193 0.582788
0.000000 0.794400 0.579187
0.170321 0.792508 0.566094
0.348058 0.795254 0.519158
0.591241 0.790860 0.522515
0.764370 0.787228 0.524102
0.878447 0.751705 0.538018
0.976471 0.768338 0.562097
0.162387 0.898283 0.558160
0.171817 0.898558 0.551202
0.270787 0.898589 0.534203
0.471962 0.896910 0.541619
0.637263 0.892943 0.547814
0.780606 0.889158 0.554498
0.910979 0.885527 0.563409
0.986664 0.842374 0.590143
0.000000 0.318090 0.690700
0.000000 0.310979 0.692164
0.000000 0.268681 0.694331
0.000000 0.222538 0.699123
0.439246 0.190707 0.702052
0.672511 0.113344 0.704067
0.861173 0.145296 0.688838
0.987152 0.303319 0.653681
0.000000 0.330083 0.685115
0.000000 0.323583 0.685878
0.000000 0.288334 0.689052
0.000000 0.236637 0.692927
0.434089 0.209049 0.696101
0.668635 0.151369 0.699245
0.857389 0.180819 0.684504
0.983001 0.322362 0.651301
0.000000 0.382177 0.685542
0.000000 0.377722 0.686152
0.000000 0.357824 0.689570
0.000000 0.299229 0.692256
0.430243 0.284886 0.694667
0.671199 0.260227 0.697810
0.858183 0.296605 0.681514
0.973968 0.413062 0.654353
0.000000 0.459480 0.683162
0.000000 0.459419 0.682399
0.000000 0.455360 0.683894
0.145998 0.442756 0.691463
0.444739 0.416480 0.697047
0.682673 0.409491 0.699001
0.858152 0.448463 0.679805
0.958038 0.539452 0.667414
0.000000 0.529076 0.683314
0.000000 0.530053 0.682979
0.000000 0.535271 0.682002
0.254032 0.550225 0.680354
0.495308 0.564508 0.680964
0.686305 0.552605 0.685389
0.843626 0.582025 0.669276
0.931670 0.652277 0.683680
0.000000 0.623713 0.688045
0.000000 0.626184 0.688930
0.000000 0.631800 0.687587
0.331701 0.644068 0.684901
0.530663 0.662898 0.680354
0.700038 0.690089 0.676295
0.839170 0.717891 0.687831
0.945159 0.743038 0.698695
0.000000 0.787655 0.752255
0.000000 0.790036 0.753414
0.000000 0.797269 0.755612
0.288884 0.805020 0.740658
0.555291 0.801816 0.708217
0.721828 0.800168 0.679561
0.852171 0.783566 0.684016
0.953216 0.811521 0.705531
0.000000 0.901762 0.739528
0.000000 0.901122 0.737240
0.294530 0.899229 0.729915
0.479347 0.896666 0.719142
0.598291 0.896086 0.689662
0.745968 0.892760 0.687556
0.877043 0.890288 0.692561
0.962829 0.862638 0.705867
0.000000 0.375921 0.816312
0.000000 0.372045 0.817716
0.000000 0.351812 0.818875
0.000000 0.290318 0.821897
0.299596 0.282506 0.821958
0.572992 0.270024 0.822019
0.785702 0.257542 0.821378
0.956176 0.330877 0.808652
0.000000 0.384955 0.810971
0.000000 0.381537 0.812619
0.000000 0.363989 0.814054
0.000000 0.301122 0.816648
0.295506 0.293309 0.816434
0.568231 0.280308 0.815854
0.779904 0.265934 0.814572
0.949432 0.331975 0.801022
0.000000 0.429847 0.811032
0.000000 0.427008 0.811337
0.000000 0.415320 0.811887
0.000000 0.378088 0.814206
0.305852 0.356176 0.814176
0.573022 0.351202 0.814206
0.784573 0.351171 0.815274
0.949493 0.417182 0.802396
0.000000 0.504570 0.809232
0.000000 0.502770 0.808804
0.000000 0.497566 0.808652
0.000000 0.494118 0.810422
0.358648 0.467781 0.812528
0.594079 0.470863 0.813443
0.793118 0.476600 0.814908
0.944244 0.524773 0.799557
0.000000 0.574304 0.803861
0.000000 0.574456 0.802609
0.000000 0.579461 0.800595
0.137209 0.591089 0.799527
0.457343 0.599084 0.801083
0.617395 0.587274 0.803830
0.796597 0.589014 0.805905
0.935790 0.630793 0.793942
0.000000 0.648646 0.804288
0.000000 0.650172 0.804257
0.000000 0.656489 0.803494
0.290532 0.669978 0.801968
0.504723 0.691951 0.798886
0.673396 0.715175 0.799588
0.810880 0.711452 0.804379
0.928344 0.735225 0.793759
0.000000 0.741085 0.810666
0.000000 0.742885 0.811032
0.192935 0.747677 0.810086
0.398840 0.757839 0.808530
0.561883 0.772549 0.805325
0.701289 0.790860 0.801602
0.821103 0.811551 0.798398
0.924804 0.833921 0.809720
0.000000 0.872831 0.855222
0.000000 0.874174 0.855711
0.156039 0.880308 0.858488
0.380011 0.889982 0.861570
0.546044 0.902495 0.856962
0.715206 0.898802 0.827085
0.839414 0.897581 0.805112
0.937743 0.885435 0.810666
0.000000 0.441138 0.908690
0.000000 0.440772 0.909148
0.000000 0.438239 0.908568
0.000000 0.409430 0.910369
0.161654 0.396521 0.910735
0.493385 0.404303 0.909728
0.694942 0.417456 0.909300
0.870207 0.438514 0.907805
0.000000 0.448157 0.906126
0.000000 0.447913 0.906645
0.000000 0.446204 0.906584
0.000000 0.422431 0.907958
0.171023 0.405798 0.908598
0.494209 0.413245 0.907622
0.693721 0.424170 0.906889
0.868345 0.442847 0.905303
0.000000 0.482216 0.903563
0.000000 0.482094 0.903716
0.000000 0.481849 0.903380
0.000000 0.484443 0.904967
0.243992 0.456489 0.905974
0.510216 0.462196 0.904570
0.700221 0.472663 0.904173
0.869688 0.488106 0.903166
0.000000 0.538415 0.900145
0.000000 0.539117 0.900420
0.000000 0.541527 0.900206
0.000000 0.553979 0.900145
0.356909 0.545373 0.901305
0.546654 0.546136 0.901122
0.715785 0.553735 0.901396
0.874601 0.565393 0.901488
0.000000 0.610986 0.895171
0.000000 0.611902 0.895506
0.000000 0.611078 0.895476
0.000000 0.620264 0.895354
0.450843 0.641291 0.894011
0.586023 0.634302 0.895293
0.733272 0.640314 0.896574
0.880766 0.651087 0.898802
0.000000 0.670680 0.895354
0.000000 0.671351 0.894743
0.000000 0.676051 0.892973
0.190555 0.688716 0.890867
0.454994 0.711116 0.888792
0.648341 0.735897 0.890776
0.763027 0.737758 0.895872
0.892851 0.746914 0.900328
0.000000 0.745968 0.898955
0.000000 0.746944 0.898619
0.000000 0.751675 0.897429
0.352850 0.762966 0.895933
0.527886 0.781369 0.893706
0.673457 0.805692 0.891875
0.800626 0.829526 0.894072
0.901091 0.827817 0.897490
0.255558 0.832609 0.906401
0.280247 0.833402 0.906096
0.366094 0.837430 0.905364
0.483436 0.845975 0.904509
0.603540 0.857877 0.902983
0.717800 0.872496 0.900908
0.822477 0.889067 0.898955
0.912078 0.905882 0.897368
