YOYO-Client/Yoyo/Assets.xcassets/GoldenGate.dataset/GoldenGate.cube
TITLE "GoldenGate"
LUT_3D_SIZE 5
DOMAIN_MIN 0.000000 0.000000 0.000000
DOMAIN_MAX 0.903226 0.903226 0.903226
0.142550 0.145357 0.147555
0.201114 0.154299 0.148318
0.403265 0.197299 0.140169
0.785031 0.310460 0.000000
1.000000 0.394110 0.000000
0.152590 0.189181 0.151278
0.205478 0.185794 0.153262
0.423346 0.256260 0.132479
0.790066 0.366857 0.000000
1.000000 0.434791 0.000000
0.193515 0.360784 0.139986
0.273991 0.362707 0.137819
0.461402 0.366918 0.135897
0.811398 0.505425 0.000000
1.000000 0.562707 0.000000
0.276616 0.673579 0.000000
0.376532 0.673823 0.000000
0.605737 0.675532 0.000000
0.813382 0.628931 0.000000
1.000000 0.669673 0.000000
0.392279 0.894865 0.000000
0.461707 0.893553 0.000000
0.643732 0.884794 0.000000
0.869810 0.880003 0.000000
1.000000 0.807370 0.253269
0.128420 0.157717 0.199802
0.192691 0.154452 0.204440
0.377783 0.174411 0.201205
0.749203 0.262181 0.180484
1.000000 0.367437 0.142336
0.146426 0.192691 0.203830
0.198367 0.201144 0.203159
0.401434 0.235386 0.201328
0.761563 0.328008 0.167300
1.000000 0.411048 0.130159
0.000000 0.372320 0.194888
0.230838 0.373236 0.193942
0.449958 0.367193 0.195682
0.796506 0.497383 0.110689
1.000000 0.552514 0.048249
0.126741 0.680262 0.059693
0.314153 0.680446 0.056886
0.588067 0.680598 0.019593
0.810239 0.633234 0.147921
1.000000 0.674861 0.180331
0.350713 0.896422 0.159365
0.430365 0.894865 0.164920
0.634302 0.890562 0.188296
0.864073 0.883818 0.230167
1.000000 0.815061 0.342107
0.000000 0.216983 0.413519
0.000000 0.183413 0.420386
0.406928 0.146670 0.433539
0.748440 0.000885 0.433600
0.977874 0.357824 0.442817
0.000000 0.269657 0.412543
0.000000 0.252934 0.418799
0.410651 0.209018 0.433722
0.745052 0.226078 0.425116
0.979950 0.412116 0.449439
0.000000 0.388647 0.434363
0.000000 0.394171 0.433326
0.431525 0.429938 0.427131
0.762295 0.492226 0.438544
0.987549 0.559838 0.460334
0.000000 0.698146 0.500008
0.000000 0.696345 0.480690
0.494636 0.697566 0.431403
0.788815 0.663752 0.445838
0.988861 0.714107 0.481666
0.028260 0.899260 0.458686
0.298589 0.898100 0.461402
0.581048 0.893034 0.471077
0.828305 0.886137 0.484779
0.996551 0.833036 0.528374
0.000000 0.331518 0.722591
0.000000 0.303899 0.726009
0.243748 0.225223 0.731044
0.702052 0.139223 0.734463
0.980957 0.295476 0.690517
0.000000 0.377173 0.718349
0.000000 0.358618 0.720699
0.228428 0.285161 0.726528
0.700313 0.244633 0.729397
0.974395 0.367895 0.687282
0.000000 0.498878 0.709071
0.000000 0.500908 0.706813
0.327611 0.500603 0.710567
0.703090 0.476722 0.714076
0.946715 0.576593 0.693202
0.000000 0.658412 0.724239
0.000000 0.662348 0.722255
0.445441 0.684047 0.717861
0.734035 0.723812 0.709590
0.938293 0.765896 0.726955
0.000000 0.903929 0.781460
0.137789 0.902556 0.774350
0.540978 0.897917 0.751156
0.772549 0.894377 0.720851
0.956603 0.868132 0.733028
0.000000 0.441138 0.908690
0.000000 0.438544 0.908629
0.000000 0.393530 0.911162
0.547845 0.407202 0.909636
0.870207 0.438514 0.907805
0.000000 0.471870 0.904814
0.000000 0.471199 0.904906
0.000000 0.439918 0.907103
0.557244 0.449866 0.905760
0.870268 0.477302 0.904784
0.000000 0.571496 0.898314
0.000000 0.573022 0.897673
0.310979 0.595239 0.896086
0.601434 0.586481 0.896666
0.876860 0.605890 0.899657
0.000000 0.691127 0.897642
0.000000 0.695369 0.896208
0.380224 0.718959 0.892271
0.689357 0.759457 0.890776
0.895018 0.767849 0.899779
0.255558 0.832609 0.906401
0.340276 0.836027 0.905577
0.544121 0.851621 0.903868
0.745144 0.876524 0.900420
0.912078 0.905882 0.897368
