YOYO-Client/Yoyo/Assets.xcassets/GoldenGate.dataset/GoldenGate.cube
TITLE "GoldenGate"
LUT_3D_SIZE 32
0.142550 0.145357 0.147555
0.143191 0.145510 0.147524
0.145449 0.145907 0.147646
0.150576 0.146609 0.147646
0.158999 0.147707 0.147982
0.171359 0.149630 0.148074
0.185550 0.151705 0.148257
0.201114 0.154299 0.148318
0.218479 0.157229 0.148379
0.238712 0.160891 0.148196
0.261936 0.165316 0.147829
0.289311 0.170840 0.146914
0.321447 0.177676 0.145724
0.359655 0.186496 0.143557
0.403265 0.197299 0.140169
0.451484 0.209873 0.135744
0.503441 0.224277 0.128939
0.558160 0.239963 0.119783
0.614405 0.256657 0.107027
0.676600 0.275639 0.086488
0.734188 0.293889 0.030610
0.785031 0.310460 0.000000
0.830198 0.325322 0.000000
0.870512 0.339178 0.000000
0.906432 0.351568 0.000000
0.938750 0.363043 0.000000
0.968475 0.373816 0.000000
0.996033 0.384161 0.000000
1.000000 0.394110 0.000000
1.000000 0.403906 0.000000
1.000000 0.413428 0.000000
1.000000 0.422980 0.000000
0.142458 0.145998 0.147677
0.143008 0.145724 0.147707
0.145937 0.146273 0.147585
0.150637 0.147005 0.147799
0.159457 0.148074 0.147921
0.171450 0.150027 0.148013
0.185367 0.152163 0.148226
0.200809 0.154574 0.148287
0.217899 0.157717 0.148348
0.237888 0.161227 0.148165
0.260746 0.165591 0.147829
0.287724 0.171023 0.146975
0.319554 0.177676 0.145602
0.357305 0.186526 0.143709
0.400519 0.197147 0.140444
0.448341 0.209720 0.135866
0.500145 0.224002 0.129458
0.554589 0.239658 0.120516
0.610925 0.256199 0.108003
0.672358 0.274907 0.088472
0.728969 0.292760 0.035523
0.779324 0.309026 0.000000
0.824125 0.323888 0.000000
0.864683 0.337652 0.000000
0.900847 0.350072 0.000000
0.933623 0.361639 0.000000
0.963806 0.372473 0.000000
0.991852 0.383001 0.000000
1.000000 0.393011 0.000000
1.000000 0.402838 0.000000
1.000000 0.412482 0.000000
1.000000 0.422004 0.000000
0.143038 0.147860 0.147860
0.143679 0.148013 0.147829
0.146334 0.147707 0.148013
0.151003 0.148653 0.147799
0.159976 0.150515 0.147768
0.172030 0.152224 0.147890
0.185611 0.154330 0.148104
0.201022 0.156680 0.148165
0.218173 0.159579 0.148257
0.237919 0.163058 0.148287
0.260716 0.167544 0.147738
0.287572 0.172946 0.146853
0.319097 0.179751 0.145693
0.356481 0.188571 0.143587
0.399359 0.199191 0.140566
0.447059 0.211795 0.135927
0.498573 0.226078 0.129549
0.553002 0.241611 0.120333
0.609033 0.258183 0.107851
0.670375 0.276921 0.088228
0.726497 0.294499 0.035798
0.776516 0.310643 0.000000
0.821256 0.325170 0.000000
0.861875 0.338750 0.000000
0.898192 0.351232 0.000000
0.930999 0.362707 0.000000
0.961364 0.373480 0.000000
0.989654 0.383825 0.000000
1.000000 0.393866 0.000000
1.000000 0.403693 0.000000
1.000000 0.413245 0.000000
1.000000 0.422705 0.000000
0.143771 0.152102 0.148104
0.144503 0.152041 0.148318
0.147677 0.152102 0.148226
0.152316 0.151583 0.148623
0.161593 0.153323 0.148409
0.173251 0.156222 0.147921
0.186831 0.158633 0.147860
0.202060 0.160922 0.148165
0.219150 0.163699 0.148013
0.238712 0.167269 0.148043
0.261601 0.171572 0.147463
0.288334 0.177279 0.146487
0.319890 0.184115 0.145266
0.356878 0.193057 0.143313
0.399481 0.203799 0.140200
0.446418 0.216403 0.135531
0.497475 0.230594 0.128878
0.551141 0.246036 0.119875
0.606683 0.262486 0.107332
0.666957 0.280949 0.087312
0.721614 0.297917 0.035035
0.770871 0.313573 0.000000
0.815579 0.327947 0.000000
0.856962 0.341497 0.000000
0.894224 0.354009 0.000000
0.928130 0.365637 0.000000
0.959350 0.376623 0.000000
0.988251 0.386908 0.000000
1.000000 0.396857 0.000000
1.000000 0.406531 0.000000
1.000000 0.415869 0.000000
1.000000 0.424994 0.000000
0.145113 0.158846 0.148562
0.145693 0.158968 0.148745
0.149538 0.158968 0.148684
0.155673 0.159274 0.148714
0.162478 0.157717 0.149233
0.174350 0.159915 0.149050
0.187442 0.163027 0.148653
0.202853 0.167025 0.148013
0.220249 0.170108 0.147799
0.239841 0.173648 0.147555
0.262486 0.178073 0.146944
0.289158 0.183658 0.146151
0.320500 0.190951 0.144991
0.357641 0.200107 0.142672
0.399969 0.211032 0.139590
0.447181 0.223941 0.134646
0.498054 0.238407 0.127871
0.551934 0.254002 0.118135
0.608484 0.270756 0.104585
0.667353 0.288670 0.082643
0.720882 0.305241 0.028229
0.769467 0.320439 0.000000
0.814023 0.334539 0.000000
0.855497 0.347845 0.000000
0.892973 0.360143 0.000000
0.927153 0.371405 0.000000
0.958434 0.382025 0.000000
0.987304 0.392035 0.000000
1.000000 0.401740 0.000000
1.000000 0.411078 0.000000
1.000000 0.420111 0.000000
1.000000 0.428962 0.000000
0.146944 0.167300 0.149142
0.148043 0.167208 0.149325
0.151095 0.167269 0.149264
0.157076 0.167544 0.149508
0.166445 0.167788 0.149477
0.174716 0.165194 0.150118
0.188510 0.167727 0.149783
0.203586 0.171603 0.149142
0.221500 0.176516 0.148379
0.242435 0.182498 0.147189
0.265446 0.187259 0.146395
0.292454 0.193210 0.145663
0.324193 0.200809 0.144259
0.361364 0.210544 0.142061
0.404150 0.221958 0.138338
0.451301 0.235111 0.133181
0.502281 0.249882 0.125521
0.556115 0.265721 0.115206
0.614160 0.283146 0.099611
0.671626 0.300755 0.069001
0.724117 0.316838 0.010529
0.772061 0.331518 0.000000
0.847868 0.356847 0.000000
0.886076 0.368719 0.000000
0.920226 0.379492 0.000000
0.951293 0.389471 0.000000
0.979644 0.398749 0.000000
1.000000 0.407538 0.000000
1.000000 0.416052 0.000000
1.000000 0.424414 0.000000
1.000000 0.432532 0.000000
1.000000 0.440528 0.000000
0.149325 0.177951 0.149844
0.150362 0.177859 0.150027
0.153353 0.177890 0.149966
0.159945 0.178103 0.149996
0.168734 0.178347 0.150179
0.180362 0.178683 0.150271
0.189670 0.175082 0.151247
0.206424 0.178470 0.151034
0.224643 0.183505 0.150179
0.246098 0.189944 0.148836
0.271611 0.197940 0.147219
0.302373 0.208225 0.144533
0.335607 0.216770 0.142763
0.374334 0.227054 0.139895
0.417945 0.239261 0.135286
0.465248 0.253025 0.129091
0.516411 0.268009 0.120089
0.570733 0.284337 0.107607
0.631647 0.303044 0.087984
0.689082 0.320653 0.031342
0.742336 0.336858 0.000000
0.791501 0.351781 0.000000
0.837125 0.365576 0.000000
0.878141 0.378180 0.000000
0.914641 0.389197 0.000000
0.946929 0.398993 0.000000
0.975921 0.407752 0.000000
1.000000 0.416175 0.000000
1.000000 0.424231 0.000000
1.000000 0.431952 0.000000
1.000000 0.439551 0.000000
1.000000 0.447211 0.000000
0.152590 0.189181 0.151278
0.153292 0.189120 0.151278
0.156435 0.189303 0.151186
0.162325 0.189364 0.151247
0.171237 0.189578 0.151431
0.182650 0.189883 0.151492
0.196078 0.190463 0.151644
0.205478 0.185794 0.153262
0.225406 0.190341 0.152834
0.246433 0.196780 0.151644
0.271855 0.204959 0.149752
0.302037 0.215518 0.147219
0.338415 0.228794 0.143130
0.380011 0.243687 0.137728
0.423346 0.256260 0.132479
0.470405 0.270207 0.125490
0.520958 0.285283 0.115450
0.577844 0.303014 0.100099
0.635889 0.320958 0.067536
0.690883 0.337560 0.005982
0.742153 0.352667 0.000000
0.790066 0.366857 0.000000
0.834989 0.379980 0.000000
0.875547 0.391638 0.000000
0.911894 0.402106 0.000000
0.944213 0.411261 0.000000
0.973266 0.419623 0.000000
0.999969 0.427283 0.000000
1.000000 0.434791 0.000000
1.000000 0.441962 0.000000
1.000000 0.449012 0.000000
1.000000 0.456123 0.000000
0.156649 0.202487 0.152926
0.157198 0.202579 0.152895
0.160311 0.202579 0.153017
0.165988 0.202670 0.153109
0.174868 0.202945 0.153231
0.185946 0.203250 0.153323
0.199344 0.203738 0.153262
0.213626 0.203861 0.153628
0.224430 0.198734 0.155276
0.247501 0.204532 0.154726
0.272801 0.212955 0.152773
0.302831 0.223697 0.150118
0.339025 0.237247 0.145693
0.381109 0.253635 0.139712
0.428931 0.272831 0.130434
0.478798 0.291173 0.119448
0.531670 0.307774 0.106935
0.587304 0.325078 0.088014
0.643000 0.342290 0.032410
0.695644 0.357855 0.000000
0.745174 0.372168 0.000000
0.791623 0.385260 0.000000
0.835416 0.397467 0.000000
0.875181 0.408331 0.000000
0.910948 0.417975 0.000000
0.942931 0.426215 0.000000
0.971923 0.433845 0.000000
0.998535 0.440833 0.000000
1.000000 0.447639 0.000000
1.000000 0.454139 0.000000
1.000000 0.460670 0.000000
1.000000 0.467079 0.000000
0.160983 0.218479 0.154513
0.161654 0.218418 0.154513
0.164797 0.218296 0.154452
0.170474 0.218479 0.154513
0.179171 0.218601 0.154452
0.190372 0.218967 0.154513
0.203799 0.219364 0.154665
0.219333 0.220127 0.154604
0.234104 0.219364 0.155093
0.246738 0.214328 0.157107
0.274052 0.221439 0.155856
0.303777 0.232334 0.152926
0.339361 0.246159 0.148592
0.381018 0.262638 0.142336
0.428473 0.282078 0.133181
0.482765 0.305028 0.119295
0.541527 0.330144 0.097139
0.598596 0.350713 0.048737
0.652338 0.367102 0.000000
0.703059 0.381659 0.000000
0.750301 0.394690 0.000000
0.794522 0.406317 0.000000
0.836149 0.417212 0.000000
0.874083 0.426612 0.000000
0.908629 0.435035 0.000000
0.940124 0.442451 0.000000
0.968902 0.449317 0.000000
0.995666 0.455665 0.000000
1.000000 0.461799 0.000000
1.000000 0.467811 0.000000
1.000000 0.473640 0.000000
1.000000 0.479530 0.000000
0.165805 0.236576 0.155367
0.166659 0.236637 0.155337
0.169589 0.236667 0.155276
0.175509 0.236881 0.155276
0.184360 0.237064 0.155215
0.195712 0.237552 0.155215
0.209812 0.238132 0.155276
0.225895 0.238926 0.155154
0.243381 0.240116 0.155062
0.259068 0.238315 0.155886
0.274296 0.233280 0.157839
0.306218 0.242252 0.155978
0.341894 0.256443 0.151217
0.383673 0.273655 0.144747
0.432471 0.294469 0.135195
0.485908 0.317327 0.120821
0.543084 0.341863 0.099306
0.602533 0.367346 0.034913
0.660334 0.391943 0.000000
0.709987 0.407263 0.000000
0.755337 0.418952 0.000000
0.798032 0.429603 0.000000
0.838346 0.439368 0.000000
0.875303 0.447730 0.000000
0.909148 0.455146 0.000000
0.940032 0.461677 0.000000
0.968475 0.467659 0.000000
0.995026 0.473121 0.000000
1.000000 0.478431 0.000000
1.000000 0.483680 0.000000
1.000000 0.488777 0.000000
1.000000 0.493996 0.000000
0.171145 0.259098 0.154940
0.171939 0.259129 0.154910
0.175174 0.259220 0.155001
0.181430 0.259373 0.155032
0.190738 0.259678 0.154910
0.202823 0.260288 0.154788
0.217563 0.260960 0.154757
0.234531 0.261997 0.154513
0.253452 0.263188 0.154269
0.273655 0.264683 0.154025
0.289891 0.261692 0.155123
0.308171 0.257053 0.157321
0.358953 0.276463 0.152956
0.405921 0.297215 0.144594
0.457313 0.319921 0.132815
0.513054 0.344366 0.115297
0.571496 0.369909 0.087556
0.630610 0.395209 0.000000
0.686244 0.418372 0.000000
0.737881 0.439521 0.000000
0.785702 0.458686 0.000000
0.825132 0.467109 0.000000
0.861265 0.473915 0.000000
0.894682 0.479866 0.000000
0.925292 0.484993 0.000000
0.953552 0.489387 0.000000
0.979675 0.493446 0.000000
1.000000 0.497169 0.000000
1.000000 0.500969 0.000000
1.000000 0.504723 0.000000
1.000000 0.508537 0.000000
1.000000 0.512596 0.000000
0.178225 0.289860 0.152834
0.179080 0.289830 0.152834
0.182528 0.289799 0.152956
0.189670 0.289769 0.152773
0.199527 0.289860 0.152682
0.212711 0.290257 0.152560
0.228611 0.290776 0.152285
0.246830 0.291783 0.151888
0.267247 0.293095 0.151431
0.289769 0.295201 0.150698
0.315221 0.298955 0.149722
0.334630 0.295995 0.151736
0.359777 0.293278 0.153567
0.407019 0.308598 0.147799
0.458534 0.332158 0.135470
0.512810 0.356451 0.118379
0.569665 0.381415 0.092317
0.626642 0.405951 0.009339
0.680629 0.428382 0.000000
0.730922 0.448707 0.000000
0.777890 0.467292 0.000000
0.821500 0.484108 0.000000
0.860410 0.497902 0.000000
0.893126 0.502831 0.000000
0.923430 0.506981 0.000000
0.951537 0.510582 0.000000
0.977630 0.513909 0.000000
1.000000 0.516960 0.000000
1.000000 0.519921 0.000000
1.000000 0.523064 0.000000
1.000000 0.526207 0.000000
1.000000 0.529473 0.000000
0.185092 0.321416 0.148592
0.185916 0.321386 0.148592
0.189944 0.321172 0.148562
0.197452 0.321111 0.148379
0.208072 0.321172 0.148440
0.222354 0.321752 0.147951
0.239597 0.322881 0.147494
0.259373 0.324468 0.146914
0.281743 0.326513 0.145907
0.306310 0.329351 0.144717
0.332799 0.332860 0.143374
0.361395 0.337041 0.141604
0.381231 0.331731 0.144717
0.409094 0.328832 0.146792
0.459236 0.344213 0.139040
0.513420 0.369177 0.121584
0.568566 0.393683 0.096132
0.623865 0.417578 0.020417
0.676509 0.439521 0.000000
0.725826 0.459297 0.000000
0.772152 0.477455 0.000000
0.815854 0.494240 0.000000
0.855406 0.508995 0.000000
0.891478 0.522118 0.000000
0.923369 0.531182 0.000000
0.951049 0.533867 0.000000
0.976867 0.536187 0.000000
1.000000 0.538415 0.000000
1.000000 0.540612 0.000000
1.000000 0.542901 0.000000
1.000000 0.545251 0.000000
1.000000 0.547814 0.000000
0.193515 0.360784 0.139986
0.194797 0.360723 0.139986
0.198978 0.360601 0.139925
0.206943 0.360510 0.139925
0.219150 0.360449 0.139773
0.234348 0.360754 0.139254
0.252720 0.361456 0.138827
0.273991 0.362707 0.137819
0.297642 0.364477 0.136568
0.323217 0.366949 0.135073
0.351171 0.370245 0.132937
0.380957 0.374365 0.130373
0.412512 0.378759 0.127565
0.431220 0.370489 0.133394
0.461402 0.366918 0.135897
0.513085 0.381323 0.125856
0.568780 0.406836 0.100313
0.622614 0.430365 0.031922
0.673854 0.451728 0.000000
0.722133 0.471046 0.000000
0.767941 0.488899 0.000000
0.811398 0.505425 0.000000
0.851011 0.519951 0.000000
0.887083 0.532769 0.000000
0.919951 0.544121 0.000000
0.949889 0.554284 0.000000
0.976562 0.559869 0.000000
1.000000 0.561212 0.000000
1.000000 0.562707 0.000000
1.000000 0.564294 0.000000
1.000000 0.566064 0.000000
1.000000 0.567956 0.000000
0.203250 0.402838 0.126314
0.204196 0.402960 0.126192
0.208896 0.402899 0.126040
0.217990 0.402960 0.125917
0.230808 0.402991 0.125582
0.247532 0.403418 0.125002
0.267247 0.404334 0.124117
0.289860 0.405768 0.122530
0.315099 0.407630 0.120821
0.342382 0.410010 0.118532
0.371344 0.412757 0.115755
0.401953 0.415839 0.112703
0.433814 0.419379 0.108492
0.465736 0.422156 0.104646
0.482918 0.410224 0.115938
0.513817 0.405249 0.119936
0.565820 0.417975 0.106935
0.620600 0.442603 0.047578
0.670802 0.463722 0.000000
0.718349 0.482826 0.000000
0.764187 0.500725 0.000000
0.807736 0.517266 0.000000
0.847440 0.531823 0.000000
0.883787 0.544518 0.000000
0.916869 0.555810 0.000000
0.947204 0.565789 0.000000
0.975067 0.574792 0.000000
1.000000 0.583093 0.000000
1.000000 0.586053 0.000000
1.000000 0.586755 0.000000
1.000000 0.587549 0.000000
1.000000 0.588525 0.000000
0.212924 0.446357 0.104677
0.214267 0.446296 0.104677
0.219364 0.446326 0.104372
0.228641 0.446387 0.104158
0.242527 0.446448 0.103914
0.259922 0.446876 0.102968
0.280766 0.447669 0.101259
0.304601 0.448829 0.099397
0.330785 0.450507 0.096681
0.358862 0.452461 0.093416
0.389014 0.454780 0.089143
0.420356 0.457527 0.081392
0.453162 0.460578 0.067353
0.486793 0.463630 0.050355
0.517693 0.463874 0.044221
0.535241 0.450263 0.088167
0.567224 0.444495 0.094789
0.617884 0.454414 0.070466
0.669581 0.476967 0.000000
0.716335 0.495796 0.000000
0.761776 0.513573 0.000000
0.804990 0.530022 0.000000
0.844572 0.544396 0.000000
0.880888 0.557000 0.000000
0.914122 0.568078 0.000000
0.944579 0.577874 0.000000
0.972808 0.586755 0.000000
0.998810 0.594812 0.000000
1.000000 0.602258 0.000000
1.000000 0.609064 0.000000
1.000000 0.610132 0.000000
1.000000 0.610315 0.000000
0.224155 0.492500 0.040040
0.225742 0.492744 0.038911
0.234409 0.506798 0.006378
0.244877 0.506798 0.005402
0.260349 0.506828 0.004181
0.279301 0.507073 0.000000
0.302129 0.507439 0.000000
0.327581 0.508202 0.000000
0.355505 0.509422 0.000000
0.385840 0.510979 0.000000
0.417700 0.512779 0.000000
0.450782 0.514885 0.000000
0.484688 0.516838 0.000000
0.519219 0.518608 0.000000
0.554070 0.520226 0.000000
0.582910 0.516411 0.000000
0.599451 0.499702 0.000000
0.630488 0.491035 0.004578
0.676509 0.495796 0.000000
0.723995 0.515343 0.000000
0.767727 0.532158 0.000000
0.809445 0.547570 0.000000
0.847654 0.561028 0.000000
0.882750 0.572778 0.000000
0.914916 0.582940 0.000000
0.944549 0.592035 0.000000
0.972015 0.600183 0.000000
0.997589 0.607660 0.000000
1.000000 0.614588 0.000000
1.000000 0.621027 0.000000
1.000000 0.627131 0.000000
1.000000 0.632685 0.000000
0.237095 0.543114 0.000000
0.238926 0.544427 0.000000
0.244602 0.545800 0.000000
0.254978 0.546990 0.000000
0.271122 0.547967 0.000000
0.290684 0.548394 0.000000
0.313573 0.548760 0.000000
0.339391 0.549157 0.000000
0.367712 0.549859 0.000000
0.397955 0.550927 0.000000
0.430060 0.552178 0.000000
0.463172 0.553674 0.000000
0.497444 0.554986 0.000000
0.531853 0.556359 0.000000
0.566888 0.557610 0.000000
0.602197 0.558770 0.000000
0.628595 0.552056 0.000000
0.645472 0.534630 0.000000
0.676448 0.525170 0.000000
0.720150 0.527153 0.000000
0.765591 0.545434 0.000000
0.806912 0.560815 0.000000
0.845060 0.574151 0.000000
0.880064 0.585779 0.000000
0.912108 0.595789 0.000000
0.941772 0.604700 0.000000
0.969268 0.612634 0.000000
0.994995 0.619898 0.000000
1.000000 0.626642 0.000000
1.000000 0.632959 0.000000
1.000000 0.638819 0.000000
1.000000 0.644282 0.000000
0.248722 0.584985 0.000000
0.250584 0.586297 0.000000
0.256260 0.587671 0.000000
0.266697 0.588983 0.000000
0.282444 0.589868 0.000000
0.302617 0.590204 0.000000
0.325872 0.590387 0.000000
0.351598 0.590631 0.000000
0.379980 0.590997 0.000000
0.410376 0.591577 0.000000
0.442451 0.592401 0.000000
0.475746 0.593317 0.000000
0.510002 0.594263 0.000000
0.544762 0.595209 0.000000
0.580041 0.596185 0.000000
0.615381 0.597009 0.000000
0.650996 0.597772 0.000000
0.674952 0.588067 0.000000
0.691951 0.569848 0.000000
0.722530 0.559564 0.000000
0.763577 0.558679 0.000000
0.805203 0.574487 0.000000
0.842985 0.587793 0.000000
0.877867 0.599207 0.000000
0.909850 0.609155 0.000000
0.939513 0.617884 0.000000
0.967010 0.625635 0.000000
0.992706 0.632715 0.000000
1.000000 0.639307 0.000000
1.000000 0.645380 0.000000
1.000000 0.651118 0.000000
1.000000 0.656428 0.000000
0.261265 0.626215 0.000000
0.262394 0.627405 0.000000
0.268589 0.628565 0.000000
0.279026 0.629603 0.000000
0.294163 0.630365 0.000000
0.314397 0.630549 0.000000
0.337224 0.630762 0.000000
0.363012 0.630793 0.000000
0.391577 0.631006 0.000000
0.421942 0.631312 0.000000
0.453956 0.631861 0.000000
0.487343 0.632471 0.000000
0.521660 0.633082 0.000000
0.556512 0.633722 0.000000
0.591852 0.634363 0.000000
0.627588 0.635126 0.000000
0.663722 0.636011 0.000000
0.700069 0.637049 0.000000
0.722255 0.625147 0.000000
0.740169 0.606958 0.000000
0.770871 0.596216 0.000000
0.809079 0.592157 0.000000
0.846250 0.605188 0.000000
0.881010 0.616693 0.000000
0.913054 0.626612 0.000000
0.942596 0.635218 0.000000
0.969940 0.642847 0.000000
0.995392 0.649683 0.000000
1.000000 0.655970 0.000000
1.000000 0.661799 0.000000
1.000000 0.667231 0.000000
1.000000 0.672236 0.000000
0.276616 0.673579 0.000000
0.278172 0.674037 0.000000
0.283299 0.674372 0.000000
0.293462 0.674495 0.000000
0.308721 0.674464 0.000000
0.328191 0.674189 0.000000
0.350805 0.673976 0.000000
0.376532 0.673823 0.000000
0.404822 0.673854 0.000000
0.435462 0.674037 0.000000
0.467597 0.674342 0.000000
0.501030 0.674708 0.000000
0.535180 0.675013 0.000000
0.570184 0.675319 0.000000
0.605737 0.675532 0.000000
0.641474 0.675715 0.000000
0.677241 0.675959 0.000000
0.713375 0.676234 0.000000
0.749355 0.676661 0.000000
0.768246 0.661097 0.000000
0.785092 0.641688 0.000000
0.813382 0.628931 0.000000
0.847257 0.620874 0.000000
0.879820 0.630945 0.000000
0.911254 0.640558 0.000000
0.940703 0.649073 0.000000
0.968109 0.656672 0.000000
0.993622 0.663447 0.000000
1.000000 0.669673 0.000000
1.000000 0.675349 0.000000
1.000000 0.680659 0.000000
1.000000 0.685512 0.000000
0.290410 0.711482 0.000000
0.291539 0.711849 0.000000
0.296696 0.712123 0.000000
0.306737 0.712184 0.000000
0.321050 0.712123 0.000000
0.339910 0.711910 0.000000
0.362676 0.711604 0.000000
0.387854 0.711391 0.000000
0.415473 0.711269 0.000000
0.445777 0.711238 0.000000
0.477424 0.711238 0.000000
0.510430 0.711360 0.000000
0.544457 0.711360 0.000000
0.579156 0.711391 0.000000
0.614466 0.711360 0.000000
0.649897 0.711360 0.000000
0.685786 0.711360 0.000000
0.721523 0.711421 0.000000
0.757412 0.711482 0.000000
0.793057 0.711452 0.000000
0.809079 0.693202 0.000000
0.825650 0.673091 0.000000
0.852232 0.659205 0.000000
0.883116 0.648676 0.000000
0.909300 0.654292 0.000000
0.938018 0.662409 0.000000
0.965515 0.669978 0.000000
0.991028 0.676753 0.000000
1.000000 0.682918 0.000000
1.000000 0.688594 0.000000
1.000000 0.693904 0.000000
1.000000 0.698848 0.004852
0.306249 0.749935 0.000000
0.307652 0.750454 0.000000
0.312444 0.750637 0.000000
0.321691 0.750454 0.000000
0.335302 0.749996 0.000000
0.353674 0.749233 0.000000
0.375067 0.748348 0.000000
0.399084 0.747524 0.000000
0.426032 0.746731 0.000000
0.455116 0.746029 0.000000
0.485725 0.745327 0.000000
0.518090 0.744808 0.000000
0.551202 0.744259 0.000000
0.585229 0.743618 0.000000
0.619409 0.742916 0.000000
0.654078 0.742184 0.000000
0.689082 0.741573 0.000000
0.724208 0.741115 0.000000
0.759518 0.740902 0.000000
0.795041 0.740871 0.000000
0.827604 0.738338 0.000000
0.843381 0.719844 0.000000
0.859403 0.699458 0.000000
0.884367 0.684718 0.000000
0.912383 0.672663 0.000000
0.938170 0.677729 0.000000
0.964050 0.684230 0.000000
0.989258 0.690730 0.000000
1.000000 0.696712 0.000000
1.000000 0.702205 0.002777
1.000000 0.707424 0.084230
1.000000 0.712337 0.119844
0.319524 0.780026 0.000000
0.320775 0.780453 0.000000
0.325475 0.780728 0.000000
0.334142 0.780636 0.000000
0.347295 0.780392 0.000000
0.364477 0.780026 0.000000
0.385718 0.779599 0.000000
0.409461 0.779171 0.000000
0.435737 0.778775 0.000000
0.464149 0.778378 0.000000
0.494362 0.777951 0.000000
0.525963 0.777493 0.000000
0.558618 0.776913 0.000000
0.592096 0.776211 0.000000
0.625849 0.775418 0.000000
0.659968 0.774533 0.000000
0.694453 0.773648 0.000000
0.729091 0.772915 0.000000
0.764065 0.772396 0.000000
0.799039 0.772030 0.000000
0.834043 0.771817 0.000000
0.863279 0.766598 0.000000
0.878569 0.747768 0.000000
0.894102 0.727230 0.000000
0.917723 0.711818 0.000000
0.943481 0.698848 0.000000
0.966613 0.701717 0.041779
0.989868 0.706966 0.085328
1.000000 0.712795 0.107210
1.000000 0.718166 0.129061
1.000000 0.723262 0.151644
1.000000 0.727810 0.174044
0.335363 0.810819 0.000000
0.336278 0.811032 0.000000
0.340490 0.811063 0.000000
0.348547 0.810941 0.000000
0.360845 0.810666 0.000000
0.377386 0.810208 0.000000
0.397467 0.809689 0.000000
0.420172 0.809201 0.000000
0.445197 0.808713 0.000000
0.472511 0.808225 0.000000
0.501823 0.807675 0.000000
0.532677 0.807156 0.000000
0.564416 0.806516 0.000000
0.597101 0.805783 0.000000
0.630274 0.804898 0.000000
0.663905 0.803891 0.000000
0.697810 0.802945 0.000000
0.731991 0.801999 0.000000
0.766354 0.801266 0.000000
0.800870 0.800748 0.000000
0.835264 0.800351 0.000000
0.869535 0.799924 0.000000
0.895354 0.792020 0.000000
0.910094 0.772885 0.000000
0.925017 0.752224 0.000000
0.947082 0.736416 0.000000
0.970550 0.722744 0.115785
0.991211 0.723476 0.137697
1.000000 0.727565 0.153414
1.000000 0.732967 0.172091
1.000000 0.737789 0.190799
1.000000 0.742245 0.210849
0.350927 0.838590 0.000000
0.351995 0.838743 0.000000
0.355840 0.838834 0.000000
0.363470 0.838773 0.000000
0.374945 0.838682 0.000000
0.390448 0.838590 0.000000
0.410040 0.838621 0.000000
0.432502 0.838712 0.000000
0.457069 0.838956 0.000000
0.483894 0.839231 0.000000
0.512871 0.839506 0.000000
0.543236 0.839628 0.000000
0.574792 0.839597 0.000000
0.607172 0.839353 0.000000
0.640040 0.838804 0.000000
0.673213 0.837980 0.000000
0.706508 0.837064 0.000000
0.740261 0.836088 0.000000
0.774044 0.835264 0.000000
0.807950 0.834501 0.000000
0.841794 0.833860 0.000000
0.875547 0.833188 0.000000
0.908934 0.832425 0.000000
0.931334 0.821897 0.000000
0.945403 0.802579 0.000000
0.959594 0.781918 0.074891
0.979858 0.765682 0.150576
1.000000 0.751339 0.195712
1.000000 0.750149 0.213718
1.000000 0.752712 0.228397
1.000000 0.757229 0.246098
1.000000 0.761471 0.265049
0.373022 0.869993 0.000000
0.373907 0.869963 0.000000
0.377386 0.869871 0.000000
0.383978 0.869688 0.000000
0.394598 0.869413 0.000000
0.408881 0.869047 0.000000
0.426581 0.868650 0.000000
0.447608 0.868254 0.000000
0.470344 0.867918 0.000000
0.495552 0.867552 0.000000
0.522576 0.867155 0.000000
0.551293 0.866728 0.000000
0.581537 0.866178 0.000000
0.612299 0.865537 0.000000
0.644068 0.864775 0.000000
0.676234 0.863890 0.000000
0.708827 0.862913 0.000000
0.741756 0.861967 0.000000
0.774838 0.861082 0.000000
0.808011 0.860258 0.000000
0.841215 0.859403 0.000000
0.874174 0.858579 0.000000
0.906859 0.857694 0.000000
