YOYO-Client/Yoyo/Assets.xcassets/London.dataset/London.cube
TITLE "YOYO London"
LUT_3D_SIZE 32
0.082094 0.083986 0.081849
0.084688 0.084230 0.081758
0.088960 0.084138 0.081636
0.096101 0.084108 0.081727
0.105501 0.084138 0.081727
0.117067 0.083406 0.081666
0.131350 0.082521 0.081422
0.148592 0.080507 0.081056
0.169772 0.076905 0.080415
0.194827 0.071199 0.079377
0.224247 0.060914 0.078187
0.257603 0.027436 0.076143
0.294347 0.000000 0.073243
0.334142 0.000000 0.069764
0.376165 0.000000 0.064546
0.419898 0.000000 0.057496
0.464698 0.000000 0.041444
0.509819 0.000000 0.017609
0.556542 0.000000 0.000000
0.603601 0.000000 0.000000
0.648371 0.000000 0.000000
0.690730 0.000000 0.000000
0.730465 0.000000 0.000000
0.767971 0.000000 0.000000
0.804501 0.000000 0.000000
0.840085 0.000000 0.000000
0.874540 0.000000 0.000000
0.907713 0.000000 0.000000
0.939178 0.000000 0.000000
0.968444 0.000000 0.000000
0.995026 0.089570 0.000000
1.000000 0.159518 0.000000
0.082002 0.086519 0.082246
0.084749 0.086427 0.081575
0.089052 0.086030 0.081483
0.096254 0.085695 0.081300
0.105959 0.085328 0.081300
0.117189 0.085023 0.081209
0.131502 0.083833 0.080995
0.148714 0.081788 0.080629
0.169833 0.078676 0.080262
0.195041 0.072633 0.079255
0.224430 0.062654 0.077729
0.257542 0.033448 0.075685
0.294194 0.000000 0.073060
0.333776 0.000000 0.069154
0.375677 0.000000 0.064363
0.419318 0.000000 0.056245
0.463996 0.000000 0.039918
0.509026 0.000000 0.017151
0.555413 0.000000 0.000000
0.602106 0.000000 0.000000
0.646693 0.000000 0.000000
0.688960 0.000000 0.000000
0.728695 0.000000 0.000000
0.766262 0.000000 0.000000
0.802823 0.000000 0.000000
0.838499 0.000000 0.000000
0.873167 0.000000 0.000000
0.906462 0.000000 0.000000
0.938079 0.000000 0.000000
0.967529 0.000000 0.000000
0.994232 0.095033 0.000000
1.000000 0.162203 0.000000
0.081697 0.090242 0.082521
0.083680 0.090272 0.081849
0.089113 0.090028 0.081422
0.096559 0.088441 0.081025
0.106325 0.087465 0.080812
0.117800 0.086763 0.080720
0.131991 0.085634 0.080842
0.149142 0.083650 0.080446
0.170382 0.080568 0.079744
0.195346 0.075166 0.078706
0.224674 0.065675 0.077516
0.257847 0.042206 0.075410
0.294377 0.000000 0.072450
0.333989 0.000000 0.068849
0.375860 0.000000 0.063539
0.419471 0.000000 0.055482
0.464057 0.000000 0.038758
0.508873 0.000000 0.014801
0.555413 0.000000 0.000000
0.601648 0.000000 0.000000
0.646082 0.000000 0.000000
0.688319 0.000000 0.000000
0.728054 0.000000 0.000000
0.765591 0.000000 0.000000
0.802182 0.000000 0.000000
0.837827 0.000000 0.000000
0.872526 0.000000 0.000000
0.905882 0.000000 0.000000
0.937591 0.000000 0.000000
0.967071 0.000000 0.000000
0.993805 0.103853 0.000000
1.000000 0.167422 0.000000
0.081453 0.096559 0.083772
0.082521 0.096437 0.082216
0.085512 0.096315 0.082155
0.095979 0.096376 0.081239
0.106752 0.093355 0.080568
0.118868 0.091371 0.079957
0.132998 0.089723 0.079774
0.150332 0.088045 0.079652
0.171603 0.084779 0.078981
0.196750 0.079866 0.077882
0.225986 0.071443 0.076326
0.259220 0.056031 0.074464
0.295781 0.010315 0.071382
0.335271 0.000000 0.067628
0.376928 0.000000 0.062074
0.420569 0.000000 0.052552
0.464851 0.000000 0.035767
0.509575 0.000000 0.012818
0.555718 0.000000 0.000000
0.601434 0.000000 0.000000
0.645502 0.000000 0.000000
0.687404 0.000000 0.000000
0.727230 0.000000 0.000000
0.764828 0.000000 0.000000
0.801724 0.000000 0.000000
0.837705 0.000000 0.000000
0.872557 0.000000 0.000000
0.905974 0.000000 0.000000
0.937682 0.000000 0.000000
0.967071 0.000000 0.000000
0.993683 0.123598 0.000000
1.000000 0.179355 0.000000
0.081544 0.104341 0.085084
0.081788 0.104616 0.083558
0.083833 0.104372 0.082918
0.090578 0.104250 0.082429
0.105379 0.104524 0.080995
0.119448 0.100679 0.079927
0.134371 0.097658 0.079225
0.152041 0.094881 0.078553
0.173342 0.092073 0.077821
0.198642 0.087495 0.076722
0.228000 0.080873 0.075044
0.261082 0.069581 0.072999
0.297581 0.044190 0.070192
0.337072 0.000000 0.066224
0.378790 0.000000 0.061219
0.422339 0.000000 0.050721
0.466712 0.000000 0.031769
0.512139 0.000000 0.007965
0.557794 0.000000 0.000000
0.602960 0.000000 0.000000
0.646448 0.000000 0.000000
0.688014 0.000000 0.000000
0.727535 0.000000 0.000000
0.765103 0.000000 0.000000
0.801816 0.000000 0.000000
0.837736 0.000000 0.000000
0.872526 0.000000 0.000000
0.905852 0.000000 0.000000
0.937469 0.000000 0.000000
0.966796 0.077211 0.000000
0.993408 0.148775 0.000000
1.000000 0.196506 0.000000
0.081392 0.114046 0.086641
0.081971 0.114229 0.085451
0.082338 0.114260 0.083650
0.087526 0.113893 0.083253
0.098268 0.114321 0.082551
0.117403 0.114992 0.080568
0.135988 0.110811 0.079255
0.154269 0.107301 0.078370
0.176059 0.102632 0.077516
0.201480 0.098695 0.076356
0.231174 0.093233 0.074525
0.264408 0.084535 0.072358
0.301061 0.070771 0.069337
0.340520 0.035065 0.065187
0.382147 0.000000 0.059480
0.425727 0.000000 0.046998
0.470069 0.000000 0.026184
0.515831 0.000000 0.001343
0.560998 0.000000 0.000000
0.605707 0.000000 0.000000
0.648829 0.000000 0.000000
0.690181 0.000000 0.000000
0.741299 0.000000 0.000000
0.778103 0.000000 0.000000
0.813931 0.000000 0.000000
0.848661 0.000000 0.000000
0.882139 0.000000 0.000000
0.914153 0.000000 0.000000
0.944396 0.069764 0.000000
0.972412 0.141329 0.000000
0.997803 0.187930 0.000000
1.000000 0.226108 0.000000
0.080568 0.126558 0.088594
0.081209 0.126497 0.087434
0.081575 0.126528 0.085695
0.084932 0.126406 0.083864
0.093019 0.125551 0.083742
0.109224 0.127504 0.082307
0.133852 0.129397 0.079774
0.158297 0.125277 0.078035
0.181308 0.120729 0.077150
0.207645 0.115206 0.075502
0.237400 0.108888 0.073396
0.271183 0.102083 0.071015
0.308263 0.091402 0.067659
0.347967 0.075715 0.062989
0.389532 0.038025 0.055451
0.432685 0.000000 0.039002
0.477638 0.000000 0.016907
0.523613 0.000000 0.000000
0.568597 0.000000 0.000000
0.613123 0.000000 0.000000
0.656428 0.000000 0.000000
0.698207 0.000000 0.000000
0.737881 0.000000 0.000000
0.775814 0.000000 0.000000
0.812680 0.000000 0.000000
0.847929 0.000000 0.000000
0.881621 0.000000 0.000000
0.913603 0.054047 0.000000
0.943847 0.129335 0.000000
0.971771 0.176791 0.000000
0.997101 0.215183 0.000000
1.000000 0.248875 0.000000
0.078645 0.141329 0.090272
0.079225 0.141482 0.089448
0.079683 0.141482 0.087434
0.080903 0.141451 0.083589
0.089357 0.140688 0.083803
0.101564 0.141024 0.083375
0.123384 0.144198 0.081117
0.154208 0.147005 0.078431
0.185641 0.143099 0.076356
0.213077 0.138186 0.074525
0.243595 0.131899 0.072145
0.276677 0.123445 0.069032
0.313390 0.114687 0.065217
0.353063 0.103578 0.059663
0.394629 0.087373 0.048707
0.438025 0.062013 0.028962
0.483375 0.000000 0.004456
0.528161 0.000000 0.000000
0.572320 0.000000 0.000000
0.616022 0.000000 0.000000
0.658625 0.000000 0.000000
0.699611 0.000000 0.000000
0.738796 0.000000 0.000000
0.776272 0.000000 0.000000
0.812802 0.000000 0.000000
0.847898 0.000000 0.000000
0.881407 0.077028 0.000000
0.913298 0.131991 0.000000
0.943420 0.174746 0.000000
0.971221 0.211612 0.000000
0.996521 0.244572 0.000000
1.000000 0.274144 0.000000
0.075257 0.159640 0.091981
0.076356 0.159579 0.090883
0.076722 0.159731 0.089204
0.077607 0.159579 0.085481
0.084047 0.159152 0.083009
0.095155 0.158083 0.083192
0.113588 0.160647 0.081758
0.141726 0.165286 0.078981
0.180056 0.169680 0.074983
0.219974 0.166262 0.071168
0.251804 0.160464 0.068482
0.285863 0.153170 0.065095
0.322026 0.143709 0.060487
0.359808 0.131746 0.051759
0.401709 0.120790 0.035462
0.445777 0.106966 0.013458
0.490120 0.087587 0.000000
0.534234 0.060273 0.000000
0.577478 0.000000 0.000000
0.620356 0.000000 0.000000
0.661982 0.000000 0.000000
0.702327 0.000000 0.000000
0.740780 0.000000 0.000000
0.777798 0.000000 0.000000
0.813870 0.053162 0.000000
0.848600 0.107057 0.000000
0.881865 0.148959 0.000000
0.913481 0.183169 0.000000
0.943328 0.216007 0.000000
0.970977 0.246677 0.000000
0.996094 0.274876 0.000000
1.000000 0.300969 0.000000
0.069276 0.181613 0.093690
0.070497 0.181704 0.092592
0.071046 0.181582 0.090700
0.072175 0.181460 0.086488
0.075685 0.181064 0.081392
0.088441 0.180117 0.081575
0.102937 0.178866 0.081392
0.129915 0.184787 0.078645
0.165530 0.191287 0.074342
0.212131 0.197360 0.068025
0.260807 0.194522 0.061646
0.296330 0.187625 0.056153
0.333440 0.179141 0.047303
0.372473 0.169314 0.031617
0.412512 0.157198 0.014466
0.454414 0.144717 0.000000
0.498390 0.133639 0.000000
0.541833 0.121279 0.000000
0.584375 0.108614 0.000000
0.626123 0.097810 0.000000
0.666651 0.091371 0.000000
0.705745 0.091859 0.000000
0.743008 0.100038 0.000000
0.779202 0.116152 0.000000
0.814633 0.139559 0.000000
0.848936 0.166354 0.000000
0.881956 0.196872 0.000000
0.913512 0.226932 0.000000
0.943297 0.254582 0.000000
0.970855 0.281254 0.000000
0.995911 0.306218 0.000000
1.000000 0.329534 0.000000
0.059480 0.206760 0.094972
0.060670 0.206943 0.094118
0.061372 0.206943 0.092012
0.062959 0.206607 0.087617
0.065126 0.206394 0.080446
0.077516 0.205631 0.078401
0.094820 0.204288 0.078248
0.116457 0.205692 0.077058
0.150820 0.213596 0.072694
0.194827 0.221927 0.065827
0.249821 0.230137 0.052155
0.308782 0.228885 0.028382
0.347875 0.221378 0.014557
0.387671 0.212039 0.000000
0.427924 0.201755 0.000000
0.467720 0.189609 0.000000
0.507073 0.175906 0.000000
0.549065 0.167300 0.000000
0.590753 0.160494 0.000000
0.631525 0.156130 0.000000
0.671077 0.155032 0.000000
0.709407 0.157626 0.000000
0.746029 0.164553 0.000000
0.781643 0.176638 0.000000
0.816556 0.194034 0.000000
0.850340 0.215244 0.000000
0.882872 0.240177 0.000000
0.914061 0.267155 0.000000
0.943481 0.292363 0.000000
0.970703 0.315831 0.000000
0.995575 0.337896 0.000000
1.000000 0.358587 0.000000
0.026154 0.235569 0.095949
0.030365 0.235813 0.095094
0.032624 0.235630 0.092805
0.036835 0.235416 0.087831
0.042725 0.235142 0.080415
0.059144 0.234653 0.073701
0.081270 0.233402 0.073579
0.103700 0.231418 0.073457
0.134371 0.237064 0.069703
0.177096 0.247105 0.062226
0.230137 0.258213 0.042603
0.294896 0.269169 0.003723
0.370794 0.275761 0.000000
0.414771 0.266941 0.000000
0.455665 0.256718 0.000000
0.495613 0.245487 0.000000
0.534173 0.233951 0.000000
0.571374 0.221836 0.000000
0.607904 0.212131 0.000000
0.646906 0.210422 0.000000
0.684627 0.210941 0.000000
0.720974 0.214817 0.000000
0.755825 0.221164 0.000000
0.790158 0.231907 0.000000
0.823850 0.246860 0.000000
0.856535 0.265080 0.000000
0.888029 0.286412 0.000000
0.918181 0.309606 0.000000
0.946624 0.333410 0.000000
0.973053 0.353613 0.000000
0.997162 0.372534 0.000000
1.000000 0.390661 0.000000
0.000000 0.269230 0.096468
0.000000 0.269566 0.095827
0.000000 0.269230 0.093050
0.000000 0.268925 0.087892
0.000000 0.268254 0.079286
0.001038 0.267613 0.067475
0.058320 0.266117 0.065583
0.088289 0.264561 0.065766
0.115480 0.262943 0.065278
0.158572 0.274968 0.054108
0.210941 0.288243 0.025971
0.274662 0.302159 0.000000
0.348974 0.316289 0.000000
0.423743 0.319036 0.000000
0.472175 0.310857 0.000000
0.512139 0.300389 0.000000
0.550195 0.289433 0.000000
0.586206 0.278721 0.000000
0.620294 0.268345 0.000000
0.653773 0.259251 0.000000
0.688899 0.257084 0.000000
0.724331 0.260685 0.000000
0.758480 0.266850 0.000000
0.792233 0.276432 0.000000
0.825315 0.289647 0.000000
0.857481 0.306004 0.000000
0.888579 0.325109 0.000000
0.918334 0.345861 0.000000
0.946563 0.367285 0.000000
0.972717 0.387060 0.000000
0.996674 0.404211 0.000000
1.000000 0.420417 0.000000
0.000000 0.303777 0.096620
0.000000 0.304143 0.095674
0.000000 0.304082 0.093111
0.000000 0.303716 0.087404
0.000000 0.303227 0.077394
0.000000 0.302586 0.063539
0.000000 0.301549 0.049409
0.061494 0.299931 0.049256
0.098604 0.297948 0.048768
0.135927 0.301061 0.039918
0.188174 0.315312 0.008026
0.249241 0.330755 0.000000
0.320836 0.346624 0.000000
0.402045 0.362432 0.000000
0.478157 0.365942 0.000000
0.529534 0.358984 0.000000
0.566705 0.348058 0.000000
0.601373 0.337011 0.000000
0.633997 0.326452 0.000000
0.665980 0.317662 0.000000
0.697475 0.310582 0.000000
0.728267 0.305211 0.000000
0.761776 0.310887 0.000000
0.794919 0.319707 0.000000
0.827420 0.331670 0.000000
0.859098 0.346563 0.000000
0.889708 0.363348 0.000000
0.919036 0.382055 0.000000
0.946899 0.401495 0.000000
0.972747 0.420783 0.000000
0.996460 0.436316 0.000000
1.000000 0.450813 0.000000
0.000000 0.342290 0.096437
0.000000 0.342473 0.095033
0.000000 0.342351 0.092714
0.000000 0.341985 0.085542
0.000000 0.341192 0.074739
0.000000 0.340276 0.056123
0.000000 0.338994 0.011017
0.000000 0.337194 0.011322
0.070497 0.335119 0.011261
0.113039 0.332555 0.010712
0.161990 0.342229 0.000000
0.222873 0.358618 0.000000
0.292210 0.375708 0.000000
0.370733 0.393103 0.000000
0.455879 0.410224 0.000000
0.531243 0.414343 0.000000
0.584009 0.409491 0.000000
0.616999 0.397284 0.000000
0.648127 0.385992 0.000000
0.678737 0.376623 0.000000
0.708583 0.368719 0.000000
0.737942 0.362799 0.000000
0.767178 0.359533 0.000000
0.797787 0.362219 0.000000
0.829740 0.372808 0.000000
0.860990 0.386175 0.000000
0.891234 0.401587 0.000000
0.920378 0.418616 0.000000
0.947936 0.436469 0.000000
0.973541 0.453956 0.000000
0.997040 0.469337 0.000000
1.000000 0.482399 0.000000
0.000000 0.381872 0.095491
0.000000 0.382330 0.094209
0.000000 0.382177 0.091585
0.000000 0.381689 0.084108
0.000000 0.380957 0.071595
0.000000 0.380041 0.042206
0.000000 0.378912 0.000000
0.000000 0.377356 0.000000
0.000000 0.375128 0.000000
0.085542 0.372442 0.000000
0.131655 0.369696 0.000000
0.194308 0.386481 0.000000
0.263127 0.404028 0.000000
0.339544 0.422034 0.000000
0.422461 0.439826 0.000000
0.508598 0.457618 0.000000
0.580285 0.462257 0.000000
0.632593 0.458717 0.000000
0.662501 0.446204 0.000000
0.691890 0.435737 0.000000
0.720485 0.427039 0.000000
0.748684 0.420447 0.000000
0.776974 0.416358 0.000000
0.805417 0.415045 0.000000
0.833860 0.416480 0.000000
0.863920 0.426398 0.000000
0.893645 0.440223 0.000000
0.922210 0.455543 0.000000
0.949248 0.471290 0.000000
0.974273 0.486946 0.000000
0.997345 0.501793 0.000000
1.000000 0.513146 0.000000
0.000000 0.421820 0.094911
0.000000 0.422095 0.093172
0.000000 0.422065 0.090425
0.000000 0.421607 0.082216
0.000000 0.420722 0.067140
0.000000 0.419928 0.026154
0.000000 0.418585 0.000000
0.000000 0.417304 0.000000
0.000000 0.414832 0.000000
0.000000 0.412177 0.000000
0.105440 0.409033 0.000000
0.161685 0.412909 0.000000
0.231876 0.431098 0.000000
0.307530 0.449531 0.000000
0.389044 0.467994 0.000000
0.474128 0.486091 0.000000
0.558709 0.504112 0.000000
0.625147 0.507897 0.000000
0.676722 0.505852 0.000000
0.704555 0.493812 0.000000
0.731746 0.483833 0.000000
0.758846 0.476234 0.000000
0.786069 0.471138 0.000000
0.813413 0.468788 0.000000
0.840726 0.468910 0.000000
0.868040 0.471504 0.000000
0.895476 0.477546 0.000000
0.923552 0.491341 0.000000
0.950134 0.505425 0.000000
0.974792 0.519341 0.000000
0.997589 0.532555 0.000000
1.000000 0.543786 0.000000
0.000000 0.462776 0.094270
0.000000 0.463142 0.093019
0.000000 0.470314 0.090578
0.000000 0.469612 0.080110
0.000000 0.468788 0.062257
0.000000 0.467353 0.003021
0.000000 0.465919 0.000000
0.000000 0.464271 0.000000
0.000000 0.461830 0.000000
0.000000 0.459022 0.000000
0.054414 0.455665 0.000000
0.130373 0.451698 0.000000
0.199863 0.462867 0.000000
0.278141 0.481697 0.000000
0.360143 0.500481 0.000000
0.445441 0.518700 0.000000
0.530449 0.536065 0.000000
0.610010 0.553307 0.000000
0.670405 0.555810 0.000000
0.720394 0.554498 0.000000
0.746059 0.542901 0.000000
0.771908 0.533928 0.000000
0.797757 0.527459 0.000000
0.823606 0.523461 0.000000
0.849302 0.521721 0.000000
0.874968 0.522393 0.000000
0.900511 0.525139 0.000000
0.925872 0.529961 0.000000
0.951110 0.539300 0.000000
0.975280 0.551507 0.000000
0.997711 0.563104 0.000000
1.000000 0.573816 0.000000
0.000000 0.506645 0.095125
0.000000 0.507805 0.093355
0.000000 0.508965 0.090944
0.000000 0.509331 0.080110
0.000000 0.509178 0.059968
0.000000 0.508293 0.000000
0.000000 0.507042 0.000000
0.000000 0.505516 0.000000
0.000000 0.503655 0.000000
0.000000 0.500877 0.000000
0.000000 0.497719 0.000000
0.092653 0.493904 0.000000
0.159213 0.489815 0.000000
0.242344 0.508873 0.000000
0.325689 0.527703 0.000000
0.411627 0.545556 0.000000
0.497047 0.562524 0.000000
0.577966 0.579034 0.000000
0.652796 0.595666 0.000000
0.707942 0.597223 0.000000
0.757382 0.597620 0.000000
0.782254 0.587579 0.000000
0.806973 0.579950 0.000000
0.831754 0.574670 0.000000
0.856352 0.571588 0.000000
0.880919 0.570642 0.000000
0.905364 0.571771 0.000000
0.929564 0.574670 0.000000
0.953216 0.578882 0.000000
0.975921 0.583795 0.000000
0.997925 0.593530 0.000000
1.000000 0.602960 0.000000
0.000000 0.549035 0.096864
0.000000 0.550011 0.094881
0.000000 0.551141 0.092775
0.000000 0.551568 0.081178
0.000000 0.551507 0.059205
0.000000 0.550774 0.000000
0.000000 0.549554 0.000000
0.000000 0.548241 0.000000
0.000000 0.546715 0.000000
0.000000 0.544274 0.000000
0.000000 0.541375 0.000000
0.000000 0.537896 0.000000
0.128939 0.533684 0.000000
0.203067 0.537285 0.000000
0.291020 0.555688 0.000000
0.377935 0.573175 0.000000
0.464515 0.589563 0.000000
0.547082 0.605341 0.000000
0.623285 0.620966 0.000000
0.693019 0.636683 0.000000
0.743832 0.637873 0.000000
0.792844 0.640223 0.000000
0.816526 0.631342 0.000000
0.840146 0.624720 0.000000
0.863584 0.620081 0.000000
0.886900 0.617456 0.000000
0.910124 0.616693 0.000000
0.933165 0.617792 0.000000
0.955627 0.619989 0.000000
0.977356 0.622950 0.000000
0.998260 0.626490 0.000000
1.000000 0.631312 0.000000
0.000000 0.591180 0.101198
0.000000 0.592187 0.099275
0.000000 0.593133 0.096590
0.000000 0.593713 0.086580
0.000000 0.593591 0.062745
0.000000 0.592889 0.000000
0.000000 0.591943 0.000000
0.000000 0.590753 0.000000
0.000000 0.589410 0.000000
0.000000 0.587488 0.000000
0.000000 0.584985 0.000000
0.000000 0.581750 0.000000
0.078065 0.577935 0.000000
0.167117 0.573480 0.000000
0.252934 0.584314 0.000000
0.343633 0.601373 0.000000
0.432441 0.617487 0.000000
0.517388 0.632837 0.000000
0.595727 0.647761 0.000000
0.667567 0.662989 0.000000
0.733333 0.678767 0.000000
0.780819 0.680293 0.000000
0.828214 0.683223 0.000000
0.850706 0.675441 0.000000
0.873045 0.669398 0.000000
0.895171 0.665370 0.000000
0.917144 0.662745 0.000000
0.938842 0.661860 0.000000
0.960021 0.661952 0.000000
0.980621 0.662989 0.000000
1.000000 0.664607 0.000000
1.000000 0.666438 0.000000
0.000000 0.636042 0.109438
0.000000 0.636622 0.107698
0.000000 0.636957 0.105104
0.000000 0.637110 0.094423
0.000000 0.636774 0.072206
0.000000 0.636103 0.000000
0.000000 0.635248 0.000000
0.000000 0.634302 0.000000
0.000000 0.633234 0.000000
0.000000 0.632136 0.000000
0.000000 0.629999 0.000000
0.000000 0.627344 0.000000
0.000000 0.624048 0.000000
0.134951 0.620020 0.000000
0.210422 0.615900 0.000000
0.308934 0.632197 0.000000
0.401129 0.647364 0.000000
0.488594 0.661585 0.000000
0.569207 0.675593 0.000000
0.642939 0.689815 0.000000
0.710170 0.704219 0.000000
0.771084 0.718868 0.000000
0.814511 0.719509 0.000000
0.858152 0.721065 0.000000
0.880034 0.713954 0.000000
0.900969 0.708186 0.000000
0.921721 0.704097 0.000000
0.942321 0.701350 0.000000
0.962432 0.699763 0.000000
0.982086 0.699001 0.000000
1.000000 0.699062 0.000000
1.000000 0.699397 0.000000
0.000000 0.676875 0.120272
0.000000 0.677394 0.118532
0.000000 0.677821 0.115969
0.000000 0.677974 0.107240
0.000000 0.677699 0.086061
0.000000 0.677089 0.027008
0.000000 0.676448 0.000000
0.000000 0.675563 0.000000
0.000000 0.674708 0.000000
0.000000 0.673732 0.000000
0.000000 0.672236 0.000000
0.000000 0.669978 0.000000
0.000000 0.667170 0.000000
0.078370 0.663691 0.000000
0.185428 0.659571 0.000000
0.268803 0.662135 0.000000
0.367224 0.676478 0.000000
0.458473 0.690120 0.000000
0.542565 0.703456 0.000000
0.618738 0.716823 0.000000
0.687770 0.730251 0.000000
0.750332 0.743648 0.000000
0.806821 0.756924 0.000000
0.846433 0.756710 0.000000
0.883909 0.754421 0.000000
0.906249 0.748196 0.000000
0.925872 0.742580 0.000000
0.945312 0.738277 0.000000
0.964446 0.735042 0.000000
0.983246 0.732876 0.000000
1.000000 0.731411 0.000000
1.000000 0.730526 0.000000
0.000000 0.719753 0.135561
0.000000 0.720150 0.133730
0.000000 0.720516 0.131716
0.000000 0.720607 0.123537
0.000000 0.720211 0.104158
0.000000 0.719631 0.069856
0.000000 0.718898 0.000000
0.000000 0.718013 0.000000
0.000000 0.717037 0.000000
0.000000 0.716060 0.000000
0.000000 0.714870 0.000000
0.000000 0.712703 0.000000
0.000000 0.710109 0.000000
0.000000 0.706844 0.000000
0.153323 0.702968 0.000000
0.236454 0.698543 0.000000
0.330419 0.706294 0.000000
0.427100 0.719081 0.000000
0.514855 0.731472 0.000000
0.594141 0.743771 0.000000
0.665370 0.755978 0.000000
0.729580 0.768032 0.000000
0.787076 0.779721 0.000000
0.838895 0.790890 0.000000
0.875242 0.789761 0.000000
0.908537 0.785367 0.000000
0.930571 0.779385 0.000000
0.948791 0.773495 0.000000
0.966857 0.768795 0.000000
0.984741 0.765133 0.000000
1.000000 0.762295 0.000000
1.000000 0.760128 0.000000
0.000000 0.760006 0.153323
0.000000 0.760403 0.151583
0.000000 0.760708 0.149691
0.000000 0.760830 0.142733
0.000000 0.760555 0.125185
0.000000 0.760128 0.096620
0.000000 0.759579 0.009247
0.000000 0.758999 0.000000
0.000000 0.758328 0.000000
0.000000 0.757748 0.000000
0.000000 0.757198 0.000000
0.000000 0.755673 0.000000
0.000000 0.753567 0.000000
0.000000 0.750942 0.000000
0.107057 0.747677 0.000000
0.216922 0.743923 0.000000
0.292546 0.740108 0.000000
0.397070 0.751980 0.000000
0.490303 0.763180 0.000000
0.572747 0.774105 0.000000
0.646174 0.784695 0.000000
0.711788 0.795041 0.000000
0.770504 0.804959 0.000000
0.822904 0.814328 0.000000
0.870176 0.823087 0.000000
0.903716 0.821317 0.000000
0.931518 0.813291 0.000000
0.952850 0.806882 0.000000
0.969909 0.800961 0.000000
0.986786 0.796017 0.000000
1.000000 0.791928 0.000000
1.000000 0.788632 0.000000
0.000000 0.801144 0.175113
0.000000 0.801450 0.173434
0.000000 0.801633 0.171664
0.000000 0.801663 0.165927
0.000000 0.801328 0.149569
0.000000 0.800961 0.124880
0.000000 0.800504 0.082551
0.000000 0.800015 0.000000
0.000000 0.799557 0.000000
0.000000 0.799252 0.000000
0.000000 0.798917 0.000000
0.000000 0.798398 0.000000
0.000000 0.796780 0.000000
0.000000 0.794614 0.000000
0.000000 0.791897 0.000000
0.192935 0.788571 0.000000
0.279850 0.784878 0.000000
0.365209 0.786007 0.000000
0.465095 0.795743 0.000000
0.551476 0.804959 0.000000
0.627405 0.813779 0.000000
0.694789 0.822232 0.000000
0.754543 0.830198 0.000000
0.807645 0.837705 0.000000
0.855283 0.844663 0.000000
0.898283 0.851011 0.000000
0.929198 0.848447 0.000000
0.952331 0.837644 0.000000
0.972290 0.830259 0.000000
0.988312 0.824247 0.000000
1.000000 0.819181 0.000000
1.000000 0.814908 0.000000
0.000000 0.840818 0.200168
0.000000 0.840970 0.198856
0.000000 0.841093 0.196719
0.000000 0.841154 0.192294
0.000000 0.841093 0.177737
0.000000 0.841093 0.156161
0.000000 0.841184 0.122652
0.000000 0.841428 0.059083
0.000000 0.841794 0.000000
0.000000 0.842313 0.000000
0.000000 0.842893 0.000000
0.000000 0.843503 0.000000
0.000000 0.842802 0.000000
0.000000 0.841398 0.000000
0.000000 0.839353 0.000000
0.169467 0.836698 0.000000
0.273075 0.833463 0.000000
0.350561 0.829953 0.000000
0.444862 0.834043 0.000000
0.535973 0.840970 0.000000
0.614527 0.847410 0.000000
0.683284 0.853452 0.000000
0.743526 0.859098 0.000000
0.796933 0.864347 0.000000
0.844450 0.869139 0.000000
0.887144 0.873533 0.000000
0.925902 0.877440 0.000000
0.954131 0.873930 0.000000
0.973053 0.860899 0.000000
0.991394 0.852171 0.000000
1.000000 0.846128 0.000000
1.000000 0.840848 0.000000
0.000000 0.881865 0.231601
0.000000 0.881926 0.230381
0.000000 0.881956 0.228702
0.000000 0.881926 0.224765
0.000000 0.881804 0.211856
0.000000 0.881773 0.192203
0.000000 0.881804 0.164736
0.000000 0.881895 0.122042
0.000000 0.882170 0.000000
0.000000 0.882536 0.000000
0.000000 0.882902 0.000000
0.000000 0.883452 0.000000
0.000000 0.883268 0.000000
0.000000 0.881987 0.000000
0.000000 0.880156 0.000000
0.133730 0.877775 0.000000
0.261082 0.874937 0.000000
0.347082 0.871824 0.000000
0.419623 0.868772 0.000000
0.516747 0.873411 0.000000
0.598657 0.877562 0.000000
0.668879 0.881376 0.000000
0.730129 0.884855 0.000000
