YOYO-Client/Yoyo/Assets.xcassets/London.dataset/London.cube
TITLE "YOYO London"
LUT_3D_SIZE 8
DOMAIN_MIN 0.000000 0.000000 0.000000
DOMAIN_MAX 0.903226 0.903226 0.903226
0.082094 0.083986 0.081849
0.105501 0.084138 0.081727
0.169772 0.076905 0.080415
0.294347 0.000000 0.073243
0.464698 0.000000 0.041444
0.648371 0.000000 0.000000
0.804501 0.000000 0.000000
0.939178 0.000000 0.000000
0.081544 0.104341 0.085084
0.105379 0.104524 0.080995
0.173342 0.092073 0.077821
0.297581 0.044190 0.070192
0.466712 0.000000 0.031769
0.646448 0.000000 0.000000
0.801816 0.000000 0.000000
0.937469 0.000000 0.000000
0.075257 0.159640 0.091981
0.084047 0.159152 0.083009
0.180056 0.169680 0.074983
0.322026 0.143709 0.060487
0.490120 0.087587 0.000000
0.661982 0.000000 0.000000
0.813870 0.053162 0.000000
0.943328 0.216007 0.000000
0.000000 0.269230 0.096468
0.000000 0.268254 0.079286
0.115480 0.262943 0.065278
0.348974 0.316289 0.000000
0.550195 0.289433 0.000000
0.688899 0.257084 0.000000
0.825315 0.289647 0.000000
0.946563 0.367285 0.000000
0.000000 0.421820 0.094911
0.000000 0.420722 0.067140
0.000000 0.414832 0.000000
0.231876 0.431098 0.000000
0.558709 0.504112 0.000000
0.731746 0.483833 0.000000
0.840726 0.468910 0.000000
0.950134 0.505425 0.000000
0.000000 0.591180 0.101198
0.000000 0.593591 0.062745
0.000000 0.589410 0.000000
0.078065 0.577935 0.000000
0.432441 0.617487 0.000000
0.733333 0.678767 0.000000
0.873045 0.669398 0.000000
0.960021 0.661952 0.000000
0.000000 0.760006 0.153323
0.000000 0.760555 0.125185
0.000000 0.758328 0.000000
0.000000 0.753567 0.000000
0.292546 0.740108 0.000000
0.646174 0.784695 0.000000
0.870176 0.823087 0.000000
0.969909 0.800961 0.000000
0.000000 0.916655 0.263798
0.000000 0.916625 0.246983
0.000000 0.917632 0.117708
0.000000 0.920409 0.000000
0.243931 0.909880 0.000000
0.580407 0.905394 0.000000
0.818631 0.911803 0.000000
0.968475 0.916014 0.000000
0.083619 0.083314 0.100587
0.103395 0.083680 0.096651
0.165591 0.081239 0.093812
0.290074 0.006928 0.089265
0.460090 0.000000 0.069032
0.639490 0.000000 0.000000
0.797086 0.000000 0.000000
0.934905 0.000000 0.000000
0.079622 0.101015 0.101076
0.103395 0.103792 0.100282
0.169253 0.099245 0.096651
0.295262 0.061433 0.087892
0.464240 0.000000 0.065766
0.640925 0.000000 0.000000
0.795865 0.000000 0.000000
0.933135 0.000000 0.000000
0.075288 0.159915 0.108003
0.096498 0.161746 0.106203
0.179019 0.168582 0.093721
0.316716 0.140902 0.080110
0.485023 0.084077 0.039002
0.655116 0.000000 0.000000
0.805081 0.000000 0.000000
0.938231 0.201053 0.000000
0.000000 0.269718 0.117037
0.042878 0.272648 0.111421
0.119051 0.268559 0.082826
0.342809 0.310094 0.005921
0.534722 0.276463 0.000000
0.677852 0.244602 0.000000
0.816434 0.273136 0.000000
0.941741 0.352941 0.000000
0.000000 0.423682 0.123690
0.000000 0.425299 0.112764
0.000000 0.419837 0.000000
0.226444 0.426429 0.000000
0.551934 0.497230 0.000000
0.725002 0.474830 0.000000
0.835721 0.458381 0.000000
0.947539 0.497475 0.000000
0.000000 0.590265 0.136538
0.000000 0.591882 0.122103
0.000000 0.588678 0.000000
0.075319 0.578393 0.000000
0.425757 0.613825 0.000000
0.731533 0.676783 0.000000
0.870817 0.665705 0.000000
0.958343 0.656886 0.000000
0.000000 0.756527 0.182956
0.000000 0.756405 0.168643
0.000000 0.755154 0.000000
0.000000 0.752071 0.000000
0.288548 0.739010 0.000000
0.640711 0.781613 0.000000
0.867399 0.820401 0.000000
0.967956 0.798215 0.000000
0.000000 0.914946 0.285069
0.000000 0.915190 0.274510
0.000000 0.916197 0.181674
0.000000 0.919158 0.000000
0.240330 0.912535 0.000000
0.575891 0.905791 0.000000
0.816648 0.911284 0.000000
0.967529 0.915373 0.000000
0.085389 0.080262 0.152834
0.111330 0.078004 0.154696
0.167819 0.076265 0.140719
0.292760 0.000000 0.136355
0.464271 0.000000 0.112764
0.642206 0.000000 0.096468
0.798795 0.000000 0.000000
0.937102 0.000000 0.000000
0.077363 0.094179 0.152773
0.107118 0.098451 0.155337
0.170535 0.095216 0.145327
0.297337 0.020966 0.137179
0.467109 0.000000 0.123598
0.643671 0.000000 0.094209
0.798550 0.000000 0.000000
0.936584 0.000000 0.000000
0.064149 0.150881 0.158999
0.087251 0.154604 0.159854
0.176944 0.168643 0.161532
0.316777 0.147158 0.144869
0.489754 0.076204 0.121462
0.658015 0.000000 0.082307
0.805966 0.000000 0.000000
0.939117 0.138766 0.000000
0.000000 0.279179 0.181888
0.000000 0.282597 0.179141
0.152987 0.292699 0.169223
0.347356 0.312932 0.140597
0.529656 0.263279 0.102724
0.681086 0.236240 0.005890
0.818723 0.254246 0.000000
0.943786 0.328222 0.000000
0.000000 0.433051 0.198734
0.000000 0.436255 0.194003
0.069184 0.445747 0.176455
0.219333 0.431342 0.113924
0.557488 0.501610 0.006378
0.721828 0.465736 0.000000
0.833188 0.439490 0.000000
0.948730 0.484077 0.000000
0.000000 0.598657 0.223667
0.000000 0.600641 0.217014
0.000000 0.605829 0.190280
0.072267 0.596918 0.000000
0.413489 0.611414 0.000000
0.730098 0.675502 0.000000
0.867582 0.658991 0.000000
0.958251 0.647211 0.000000
0.000000 0.762753 0.271763
0.000000 0.762966 0.263005
0.000000 0.763638 0.229404
0.000000 0.761044 0.000000
0.288121 0.746517 0.000000
0.631098 0.779568 0.000000
0.867552 0.821317 0.000000
0.968566 0.797910 0.000000
0.000000 0.917021 0.358556
0.000000 0.916747 0.348791
0.000000 0.916167 0.319219
0.000000 0.919280 0.132326
0.208652 0.915007 0.000000
0.554192 0.904906 0.000000
0.811063 0.911162 0.000000
0.966827 0.915740 0.000000
0.078828 0.071351 0.255467
0.115358 0.066377 0.260105
0.223758 0.000000 0.274327
0.308324 0.000000 0.236240
0.469886 0.000000 0.228702
0.646784 0.000000 0.199191
0.797604 0.000000 0.151614
0.933410 0.000000 0.140810
0.069581 0.090944 0.258335
0.106020 0.087221 0.262333
0.216037 0.039155 0.275639
0.313146 0.000000 0.241855
0.475319 0.000000 0.231205
0.648737 0.000000 0.198184
0.796567 0.000000 0.163394
0.933928 0.000000 0.135775
0.000000 0.131350 0.257755
0.000000 0.131228 0.259983
0.179355 0.145907 0.276432
0.326482 0.137057 0.261662
0.493935 0.000824 0.240330
0.661311 0.000000 0.198917
0.805478 0.000000 0.180270
0.939544 0.000000 0.121584
0.000000 0.250950 0.275883
0.000000 0.256138 0.277958
0.126284 0.276249 0.285771
0.346075 0.315465 0.300420
0.523003 0.276524 0.260258
0.678431 0.238865 0.217807
0.815854 0.229099 0.167330
0.943664 0.285374 0.083528
0.000000 0.452918 0.322789
0.000000 0.455421 0.320409
0.000000 0.464881 0.312627
0.300938 0.478035 0.300572
0.560632 0.506767 0.273533
0.711666 0.450080 0.215366
0.832425 0.431006 0.139651
0.949248 0.464118 0.000000
0.000000 0.615686 0.349035
0.000000 0.619440 0.346593
0.000000 0.624109 0.332128
0.232700 0.630396 0.306767
0.394903 0.611780 0.217777
0.729976 0.678920 0.231327
0.861692 0.650324 0.155581
0.956481 0.628565 0.000000
0.000000 0.771939 0.393133
0.000000 0.772915 0.387884
0.000000 0.775143 0.367834
0.099184 0.776120 0.330022
0.293126 0.766079 0.171420
0.612360 0.777554 0.154391
0.864439 0.822141 0.172641
0.965606 0.795285 0.000000
0.000000 0.921813 0.470985
0.000000 0.922087 0.464546
0.000000 0.921965 0.439734
0.000000 0.919219 0.398840
0.121614 0.920775 0.156771
0.522026 0.905547 0.104829
0.798428 0.910460 0.118959
0.963165 0.915892 0.102449
0.058930 0.026032 0.397925
0.117464 0.000000 0.403082
0.243809 0.000000 0.420264
0.434424 0.000000 0.451026
0.501610 0.000000 0.377813
0.654688 0.000000 0.369085
0.801846 0.000000 0.347265
0.937591 0.000000 0.310216
0.000000 0.068147 0.399084
0.097810 0.054200 0.404517
0.232212 0.000000 0.421332
0.427222 0.000000 0.451301
0.505364 0.000000 0.383032
0.656580 0.000000 0.372290
0.803128 0.000000 0.346624
0.938048 0.000000 0.305730
0.000000 0.106630 0.391272
0.000000 0.112215 0.398901
0.181857 0.113283 0.420020
0.398749 0.000000 0.451240
0.516777 0.000000 0.401007
0.662379 0.000000 0.380713
0.805905 0.000000 0.342962
0.938598 0.000000 0.286992
0.000000 0.213260 0.402625
0.000000 0.214084 0.405005
0.000000 0.218540 0.414343
0.336126 0.261845 0.448402
0.535424 0.275212 0.435920
0.677729 0.231815 0.396124
0.812558 0.139071 0.334020
0.936370 0.232853 0.310124
0.000000 0.391669 0.428840
0.000000 0.396948 0.431098
0.000000 0.415778 0.439521
0.271611 0.452979 0.456794
0.552911 0.510765 0.486336
0.694789 0.459236 0.420478
0.821805 0.424048 0.352544
0.943725 0.432563 0.288762
0.000000 0.624689 0.493812
0.000000 0.628412 0.493690
0.000000 0.639399 0.491402
0.183536 0.645960 0.480049
0.485176 0.647913 0.464088
0.719936 0.679561 0.456886
0.845182 0.629572 0.374121
0.950744 0.609979 0.275303
0.000000 0.783719 0.533654
0.000000 0.784176 0.530358
0.000000 0.785916 0.518547
0.000000 0.787442 0.495583
0.411719 0.783474 0.460761
0.568536 0.767025 0.356237
0.853574 0.821286 0.425605
0.956115 0.788693 0.351873
0.000000 0.924865 0.596857
0.000000 0.924926 0.592462
0.000000 0.924926 0.576043
0.000000 0.925017 0.545586
0.356878 0.916716 0.501244
0.501457 0.911040 0.341344
0.772244 0.907591 0.355718
0.952728 0.915038 0.404059
0.088411 0.000000 0.567559
0.150942 0.000000 0.571527
0.285405 0.000000 0.584497
0.463691 0.000000 0.608545
0.651270 0.000000 0.639429
0.684413 0.000000 0.544701
0.808011 0.000000 0.536522
0.932189 0.000000 0.539269
0.000000 0.000000 0.565301
0.120546 0.000000 0.568994
0.268681 0.000000 0.582574
0.453407 0.000000 0.607050
0.649439 0.000000 0.640375
0.684932 0.000000 0.547234
0.807797 0.000000 0.537438
0.932067 0.000000 0.537682
0.000000 0.085939 0.560632
0.000000 0.084047 0.565881
0.203189 0.000000 0.580926
0.418921 0.000000 0.606622
0.636042 0.000000 0.642145
0.690700 0.000000 0.560418
0.809384 0.000000 0.544335
0.933135 0.000000 0.534020
0.000000 0.166598 0.549920
0.000000 0.163027 0.551049
0.000000 0.162692 0.566796
0.342626 0.199557 0.602564
0.601038 0.172244 0.641077
0.699611 0.218875 0.585931
0.811551 0.203250 0.558495
0.935271 0.139864 0.525353
0.000000 0.346014 0.571191
0.000000 0.346685 0.572595
0.000000 0.350011 0.577874
0.134096 0.357336 0.588586
0.520226 0.427710 0.625238
0.701411 0.474281 0.616602
0.813565 0.432136 0.565850
0.934478 0.390997 0.504417
0.000000 0.555230 0.594873
0.000000 0.558862 0.596826
0.000000 0.570520 0.601587
0.000000 0.591943 0.611261
0.452552 0.624689 0.628717
0.709865 0.689662 0.669368
0.820554 0.635309 0.591028
0.934386 0.608637 0.519615
0.000000 0.786954 0.674861
0.000000 0.789303 0.675074
0.000000 0.795712 0.673610
0.000000 0.805203 0.669642
0.380682 0.803738 0.653803
0.642023 0.796719 0.635126
0.838163 0.823667 0.641505
0.939452 0.778531 0.556298
0.000000 0.931914 0.729366
0.000000 0.932006 0.726833
0.000000 0.932128 0.717891
0.000000 0.931334 0.700374
0.256199 0.924834 0.670832
0.584405 0.910369 0.636164
0.725673 0.901518 0.537774
0.935760 0.914336 0.622034
0.201877 0.000000 0.741482
0.245975 0.000000 0.744839
0.362829 0.000000 0.753079
0.515679 0.000000 0.767666
0.674464 0.000000 0.788449
0.801572 0.000000 0.800137
0.825071 0.000000 0.709804
0.928374 0.000000 0.710445
0.166476 0.000000 0.737362
0.216861 0.000000 0.740658
0.342748 0.000000 0.749294
0.502373 0.000000 0.763729
0.666102 0.000000 0.784695
0.798062 0.000000 0.797818
0.822202 0.000000 0.707362
0.925597 0.000000 0.706935
0.000000 0.000000 0.736294
0.000000 0.000000 0.738582
0.269963 0.000000 0.746517
0.462837 0.000000 0.761715
0.645808 0.000000 0.783139
0.796078 0.000000 0.802853
0.824949 0.000000 0.716640
0.926879 0.000000 0.712734
0.000000 0.107912 0.724971
0.000000 0.110018 0.727291
0.000000 0.116884 0.737545
0.372137 0.068544 0.756374
0.602991 0.000000 0.780087
0.787839 0.000000 0.810269
0.827451 0.102144 0.732418
0.925658 0.172885 0.719539
0.000000 0.287816 0.726101
0.000000 0.283177 0.725551
0.000000 0.266758 0.725338
0.000000 0.233829 0.733120
0.502678 0.323369 0.764614
0.742824 0.373449 0.799344
0.821988 0.426429 0.747768
0.918578 0.435767 0.727016
0.000000 0.516197 0.743130
0.000000 0.515618 0.743313
0.000000 0.513359 0.744320
0.000000 0.509056 0.747005
0.269657 0.502251 0.751186
0.664546 0.594568 0.782223
0.819364 0.651820 0.778408
0.914214 0.617304 0.732448
0.000000 0.721553 0.764523
0.000000 0.723293 0.765225
0.000000 0.727993 0.766384
0.000000 0.736507 0.769070
0.266026 0.748135 0.773098
0.601923 0.772305 0.784604
0.823941 0.830137 0.822477
0.910613 0.779721 0.749294
0.000000 0.926696 0.838560
0.000000 0.927459 0.838041
0.000000 0.931212 0.837675
0.000000 0.934020 0.833402
0.082521 0.931823 0.824094
0.549767 0.919890 0.807065
0.764218 0.904448 0.787961
0.915282 0.913420 0.802274
0.347997 0.000000 0.895506
0.381567 0.000000 0.896544
0.471351 0.000000 0.898405
0.586786 0.000000 0.902678
0.709987 0.000000 0.908690
0.827604 0.000000 0.916442
0.913817 0.000000 0.916320
0.934417 0.000000 0.851438
0.336767 0.000000 0.894438
0.367132 0.000000 0.895384
0.455604 0.000000 0.897337
0.575891 0.000000 0.901457
0.703304 0.000000 0.907652
0.823789 0.000000 0.915557
0.912169 0.000000 0.915618
0.933257 0.000000 0.850858
0.227420 0.000000 0.892851
0.272587 0.000000 0.893614
0.390997 0.000000 0.895323
0.537713 0.000000 0.900847
0.681666 0.000000 0.906950
0.812070 0.000000 0.914641
0.908965 0.000000 0.916289
0.932341 0.000000 0.853117
0.000000 0.000000 0.890959
0.000000 0.000000 0.891936
0.198672 0.000000 0.893889
0.448463 0.000000 0.898772
0.635462 0.000000 0.905486
0.788540 0.000000 0.913634
0.902647 0.000000 0.918242
0.930480 0.000000 0.858335
0.000000 0.191379 0.886687
0.000000 0.180209 0.886992
0.000000 0.135225 0.889647
0.000000 0.143343 0.894499
0.531060 0.178653 0.900175
0.740139 0.179995 0.908751
0.888121 0.294560 0.918303
0.923949 0.374945 0.864683
0.000000 0.470069 0.891966
0.000000 0.464363 0.891630
0.000000 0.443793 0.891020
0.000000 0.402167 0.890776
0.000000 0.326482 0.891875
0.644678 0.477241 0.899321
0.848142 0.566339 0.911589
0.914702 0.615595 0.875761
0.000000 0.701534 0.896666
0.000000 0.699977 0.896452
0.000000 0.694484 0.896086
0.000000 0.684993 0.896025
0.000000 0.669459 0.895415
0.416724 0.651728 0.893248
0.777127 0.739834 0.898192
0.902800 0.796780 0.889158
0.000000 0.873930 0.904082
0.000000 0.874266 0.904082
0.000000 0.875639 0.903990
0.000000 0.877958 0.903868
0.000000 0.878996 0.902922
0.448676 0.877836 0.900542
0.727199 0.884520 0.898711
0.904173 0.914855 0.913359
