YOYO-Client/Yoyo/Assets.xcassets/London.dataset/London.cube
TITLE "YOYO London"
LUT_3D_SIZE 5
DOMAIN_MIN 0.000000 0.000000 0.000000
DOMAIN_MAX 0.903226 0.903226 0.903226
0.082094 0.083986 0.081849
0.148592 0.080507 0.081056
0.376165 0.000000 0.064546
0.690730 0.000000 0.000000
0.939178 0.000000 0.000000
0.078645 0.141329 0.090272
0.154208 0.147005 0.078431
0.394629 0.087373 0.048707
0.699611 0.000000 0.000000
0.943420 0.174746 0.000000
0.000000 0.342290 0.096437
0.000000 0.337194 0.011322
0.455879 0.410224 0.000000
0.737942 0.362799 0.000000
0.947936 0.436469 0.000000
0.000000 0.636042 0.109438
0.000000 0.634302 0.000000
0.210422 0.615900 0.000000
0.771084 0.718868 0.000000
0.962432 0.699763 0.000000
0.000000 0.916655 0.263798
0.000000 0.917235 0.170840
0.000000 0.914214 0.000000
0.653193 0.907225 0.000000
0.968475 0.916014 0.000000
0.085451 0.081147 0.134859
0.145022 0.081300 0.125338
0.373724 0.000000 0.107607
0.681025 0.000000 0.054444
0.935119 0.000000 0.000000
0.074159 0.134035 0.139101
0.150393 0.145449 0.139742
0.392920 0.087037 0.113832
0.692073 0.000000 0.009979
0.938048 0.097566 0.000000
0.000000 0.349889 0.168124
0.084382 0.359594 0.151736
0.449866 0.403296 0.061494
0.726619 0.335027 0.000000
0.946715 0.414740 0.000000
0.000000 0.642298 0.209598
0.000000 0.646998 0.178470
0.215885 0.628931 0.000000
0.769711 0.717647 0.000000
0.961547 0.691646 0.000000
0.000000 0.918120 0.338109
0.000000 0.917662 0.307500
0.000000 0.919615 0.000000
0.640284 0.907561 0.000000
0.967987 0.916381 0.000000
0.069306 0.061189 0.323491
0.196994 0.000000 0.339574
0.401801 0.000000 0.302342
0.690089 0.000000 0.276036
0.936950 0.000000 0.193973
0.000000 0.103731 0.320714
0.154208 0.110445 0.341192
0.416938 0.000000 0.321874
0.697108 0.000000 0.275883
0.934264 0.000000 0.230198
0.000000 0.317510 0.349798
0.000000 0.336065 0.357794
0.451759 0.411078 0.390570
0.721126 0.339727 0.297520
0.944427 0.358434 0.192569
0.000000 0.663539 0.430304
0.000000 0.667079 0.418860
0.344091 0.674678 0.381262
0.762661 0.718685 0.338201
0.955535 0.662898 0.142977
0.000000 0.922423 0.531579
0.000000 0.923217 0.513420
0.204379 0.918364 0.445808
0.570520 0.903410 0.222873
0.958648 0.915160 0.275120
0.109773 0.000000 0.608667
0.262303 0.000000 0.620752
0.566400 0.000000 0.661646
0.721462 0.000000 0.584710
0.929076 0.000000 0.588128
0.000000 0.026642 0.605615
0.190280 0.000000 0.617762
0.541588 0.000000 0.659358
0.724453 0.000000 0.594263
0.928985 0.000000 0.584833
0.000000 0.234195 0.595544
0.000000 0.225986 0.598932
0.423255 0.280919 0.644770
0.728939 0.332799 0.627955
0.930175 0.291203 0.572961
0.000000 0.597101 0.637781
0.000000 0.605219 0.640375
0.243107 0.638056 0.655360
0.741665 0.729366 0.712215
0.929076 0.651057 0.576440
0.000000 0.933745 0.760739
0.000000 0.934417 0.754269
0.000000 0.931609 0.727230
0.632868 0.909178 0.673762
0.930510 0.914000 0.671504
0.347997 0.000000 0.895506
0.446296 0.000000 0.897765
0.648554 0.000000 0.905486
0.855680 0.000000 0.918730
0.934417 0.000000 0.851438
0.269657 0.000000 0.893828
0.383459 0.000000 0.895933
0.620874 0.000000 0.904143
0.845762 0.000000 0.917357
0.933074 0.000000 0.852964
0.000000 0.086061 0.888823
0.000000 0.064179 0.891081
0.485939 0.000000 0.898955
0.804074 0.000000 0.913054
0.927703 0.206699 0.860960
0.000000 0.535851 0.894224
0.000000 0.521019 0.893675
0.000000 0.461250 0.893217
0.676783 0.547265 0.898619
0.911803 0.666377 0.878813
0.000000 0.873930 0.904082
0.000000 0.875181 0.904021
0.000000 0.878874 0.903593
0.530846 0.878294 0.899901
0.904173 0.914855 0.913359
