YOYO-Client/Yoyo/Assets.xcassets/Marrakech.dataset/Marrakech.cube
TITLE "Marrakech"
LUT_3D_SIZE 5
DOMAIN_MIN 0.000000 0.000000 0.000000
DOMAIN_MAX 0.903226 0.903226 0.903226
0.092744 0.113039 0.111910
0.170077 0.117067 0.114137
0.426062 0.095949 0.111635
0.780972 0.082551 0.071321
0.985382 0.318303 0.000000
0.086305 0.175509 0.130617
0.162570 0.191958 0.124666
0.463142 0.199374 0.112123
0.796078 0.248264 0.031281
0.987854 0.391028 0.000000
0.000000 0.428687 0.187442
0.091646 0.419867 0.199283
0.463600 0.515709 0.132113
0.814145 0.551324 0.000000
0.990600 0.568536 0.105379
0.240635 0.693080 0.330297
0.319158 0.689082 0.338811
0.504570 0.693996 0.356054
0.759396 0.748867 0.337285
0.975341 0.772671 0.359960
0.603265 0.868315 0.574121
0.620478 0.867063 0.578454
0.676081 0.858640 0.590509
0.774014 0.883543 0.602655
0.915282 0.917296 0.605188
0.095644 0.118196 0.177707
0.165743 0.121675 0.182559
0.420111 0.089082 0.187106
0.760189 0.119203 0.196445
0.970275 0.316075 0.191379
0.065553 0.191135 0.196567
0.174319 0.199710 0.203494
0.446174 0.214481 0.205447
0.776242 0.252018 0.199588
0.972229 0.386603 0.196963
0.000000 0.454292 0.251713
0.139010 0.446540 0.261143
0.464576 0.509148 0.244511
0.804837 0.536919 0.225803
0.980926 0.571038 0.255467
0.291936 0.700557 0.384253
0.358618 0.696803 0.391516
0.519554 0.692927 0.412024
0.758816 0.748440 0.406073
0.970794 0.771664 0.429450
0.608942 0.870420 0.591180
0.625574 0.868986 0.594873
0.685512 0.864469 0.611383
0.778347 0.884825 0.624292
0.917052 0.918914 0.629480
0.000000 0.135225 0.414343
0.201480 0.139101 0.420508
0.469734 0.140261 0.441932
0.776974 0.289708 0.482643
0.976501 0.294804 0.441871
0.000000 0.225834 0.435706
0.214145 0.231235 0.439094
0.486549 0.253391 0.455543
0.775753 0.356756 0.484230
0.968841 0.370184 0.440894
0.000000 0.499123 0.468360
0.083406 0.504540 0.472328
0.508934 0.523674 0.489174
0.766384 0.542138 0.485176
0.947143 0.584070 0.490547
0.396765 0.726284 0.537682
0.456214 0.723049 0.542412
0.582483 0.711330 0.552056
0.761105 0.749111 0.569146
0.959289 0.766232 0.583581
0.617517 0.879606 0.645441
0.635035 0.878386 0.648524
0.695674 0.873289 0.660487
0.782773 0.879179 0.678462
0.917998 0.917723 0.690639
0.270573 0.177218 0.678248
0.361883 0.179812 0.680262
0.594476 0.203616 0.686671
0.804166 0.319249 0.697353
0.935607 0.551965 0.707637
0.291356 0.282750 0.681209
0.376226 0.287694 0.682399
0.597345 0.317082 0.687221
0.795560 0.409125 0.696223
0.929595 0.591730 0.711727
0.252964 0.521965 0.678706
0.357794 0.527367 0.680659
0.591058 0.556359 0.687495
0.773404 0.599725 0.697566
0.923125 0.698146 0.734157
0.409339 0.739528 0.697536
0.459480 0.739162 0.698085
0.603662 0.741024 0.703151
0.771298 0.750332 0.715816
0.934020 0.753506 0.708583
0.604273 0.900694 0.741115
0.625452 0.899901 0.742550
0.702449 0.896971 0.750423
0.798764 0.887358 0.761898
0.922850 0.918883 0.787533
0.565820 0.351843 0.872618
0.601099 0.362615 0.872374
0.710567 0.412451 0.872435
0.836912 0.502281 0.872526
0.956085 0.593805 0.876280
0.565972 0.431586 0.869932
0.599542 0.440009 0.869871
0.705135 0.477607 0.870024
0.831083 0.545830 0.870726
0.951659 0.620447 0.875639
0.557885 0.605615 0.866209
0.588983 0.608606 0.866056
0.690608 0.624262 0.866972
0.817014 0.655940 0.869688
0.942321 0.700404 0.878538
0.544854 0.748165 0.867277
0.568536 0.747585 0.866972
0.657465 0.748440 0.868132
0.802670 0.768887 0.877073
0.936400 0.807370 0.890929
0.599329 0.904143 0.887968
0.617334 0.904265 0.888243
0.687709 0.905974 0.890379
0.800229 0.909728 0.894652
0.927184 0.919646 0.905669
