YOYO-Client/Yoyo/Assets.xcassets/Marrakech.dataset/Marrakech.cube
TITLE "Marrakech"
LUT_3D_SIZE 8
DOMAIN_MIN 0.000000 0.000000 0.000000
DOMAIN_MAX 0.903226 0.903226 0.903226
0.092744 0.113039 0.111910
0.112428 0.114412 0.112642
0.194553 0.117494 0.114382
0.331060 0.111482 0.113924
0.532952 0.039155 0.107576
0.736355 0.000000 0.087770
0.883391 0.196048 0.000000
0.985382 0.318303 0.000000
0.094606 0.127871 0.117922
0.111604 0.132082 0.116396
0.200381 0.133944 0.115206
0.335668 0.133761 0.114168
0.534783 0.116518 0.108064
0.736110 0.123415 0.085267
0.877379 0.222019 0.000000
0.980682 0.332311 0.000000
0.078309 0.197818 0.137575
0.106508 0.196170 0.140658
0.186679 0.221561 0.129152
0.369116 0.238285 0.114778
0.577752 0.238132 0.101045
0.763607 0.271214 0.038270
0.891112 0.336828 0.000000
0.987060 0.412116 0.000000
0.000000 0.335485 0.169131
0.000000 0.333257 0.172152
0.159365 0.342687 0.174502
0.350500 0.410010 0.132113
0.620233 0.460517 0.000000
0.793515 0.454994 0.000000
0.901488 0.478553 0.000000
0.989776 0.516014 0.000000
0.000000 0.518212 0.211307
0.000000 0.516197 0.214359
0.141878 0.509545 0.227726
0.333410 0.544335 0.214420
0.570245 0.598901 0.160983
0.772702 0.633326 0.081605
0.892180 0.625849 0.119173
0.993835 0.620996 0.172274
0.129213 0.661707 0.297551
0.182986 0.662593 0.302007
0.289769 0.657588 0.312169
0.408972 0.655360 0.326116
0.563989 0.687343 0.314458
0.729061 0.723018 0.297063
0.881559 0.754360 0.291112
0.979767 0.745449 0.323003
0.429786 0.767483 0.429541
0.440955 0.767086 0.431861
0.478004 0.763760 0.438300
0.537469 0.757870 0.451728
0.616999 0.767666 0.458015
0.720424 0.793240 0.457801
0.834897 0.822538 0.455818
0.959503 0.851255 0.464149
0.603265 0.868315 0.574121
0.607813 0.867918 0.575158
0.626764 0.866667 0.580194
0.660883 0.864591 0.590631
0.699550 0.858000 0.598230
0.757198 0.878141 0.601648
0.829679 0.899290 0.604883
0.915282 0.917296 0.605188
0.095064 0.114931 0.129458
0.111849 0.115969 0.130129
0.190097 0.114961 0.130892
0.320439 0.123659 0.140291
0.518853 0.093996 0.139345
0.723995 0.051942 0.129335
0.868956 0.189639 0.110445
0.974609 0.309758 0.083162
0.089570 0.131991 0.134646
0.114504 0.134371 0.137118
0.195407 0.140261 0.139834
0.329534 0.143618 0.142214
0.527092 0.130800 0.139925
0.728176 0.134035 0.128176
0.867704 0.219547 0.108278
0.971954 0.326238 0.078706
0.088624 0.206424 0.156893
0.114931 0.204868 0.160006
0.190311 0.223056 0.155001
0.366400 0.235233 0.146761
0.567651 0.240269 0.138582
0.750942 0.268070 0.121279
0.877592 0.327153 0.098970
0.976928 0.403784 0.080323
0.000000 0.340307 0.186679
0.000000 0.338567 0.189487
0.170291 0.341039 0.196567
0.344762 0.401343 0.165164
0.602014 0.443763 0.115785
0.778988 0.437873 0.103243
0.887968 0.467201 0.096803
0.979828 0.508354 0.115969
0.000000 0.521416 0.229252
0.000000 0.518944 0.231815
0.155795 0.511192 0.243473
0.332860 0.538628 0.235996
0.562554 0.591791 0.193271
0.764828 0.625849 0.148928
0.886076 0.619684 0.167575
0.987396 0.617792 0.204257
0.141878 0.660792 0.310063
0.185550 0.659663 0.312535
0.290776 0.654963 0.322240
0.407874 0.650568 0.337987
0.560815 0.683619 0.329107
0.726223 0.720455 0.316197
0.877897 0.751431 0.313146
0.976226 0.742916 0.340215
0.428107 0.765499 0.434730
0.436896 0.764309 0.435431
0.474189 0.760800 0.441505
0.534844 0.755306 0.454994
0.614679 0.764584 0.463935
0.717830 0.790433 0.464302
0.831846 0.819333 0.462104
0.956542 0.848142 0.470069
0.600305 0.866239 0.574365
0.605737 0.866300 0.576165
0.624598 0.864927 0.580957
0.658991 0.862852 0.591272
0.703059 0.859617 0.605921
0.758511 0.878447 0.607568
0.829587 0.898741 0.609308
0.915007 0.916869 0.609796
0.093385 0.119509 0.200717
0.116793 0.120089 0.201999
0.191592 0.126101 0.207523
0.316991 0.146212 0.220706
0.532769 0.000000 0.213535
0.724269 0.033875 0.220859
0.863890 0.208133 0.225589
0.970428 0.322393 0.227359
0.096101 0.141878 0.209049
0.122133 0.143587 0.210025
0.196201 0.150790 0.214115
0.325872 0.164309 0.225040
0.534569 0.093904 0.213993
0.720821 0.156130 0.225895
0.862669 0.235294 0.225223
0.968444 0.338842 0.226780
0.017823 0.220676 0.225040
0.098695 0.223178 0.226993
0.204135 0.232395 0.234073
0.361028 0.242954 0.235325
0.561089 0.253361 0.235233
0.744106 0.279850 0.233280
0.871031 0.337499 0.231693
0.970642 0.411841 0.235843
0.000000 0.374517 0.256229
0.000000 0.376135 0.260105
0.203738 0.372137 0.267399
0.365911 0.412085 0.261814
0.611719 0.438575 0.250889
0.772824 0.444373 0.249363
0.881956 0.476448 0.251469
0.974365 0.516899 0.263066
0.000000 0.548333 0.299840
0.000000 0.546380 0.302068
0.212528 0.539117 0.311528
0.365393 0.545037 0.321172
0.576074 0.597742 0.303532
0.764797 0.624414 0.293217
0.884337 0.617792 0.302586
0.980255 0.623987 0.322576
0.227207 0.672663 0.372412
0.255558 0.671687 0.374517
0.338109 0.666682 0.381811
0.440436 0.657404 0.396460
0.570184 0.683223 0.397742
0.726741 0.720546 0.395544
0.873259 0.749691 0.402960
0.972564 0.742947 0.422461
0.455665 0.771725 0.477546
0.463844 0.770626 0.478218
0.497322 0.766842 0.482368
0.552972 0.760891 0.492561
0.623438 0.763516 0.503746
0.721157 0.790494 0.507469
0.833036 0.821042 0.510735
0.955840 0.850004 0.523674
0.607263 0.869261 0.593896
0.611505 0.868650 0.594446
0.629908 0.867185 0.598596
0.664485 0.865629 0.608698
0.707881 0.862150 0.621881
0.761898 0.878050 0.627680
0.831785 0.899107 0.631098
0.916075 0.917601 0.633295
0.043275 0.128634 0.329564
0.112184 0.129946 0.332189
0.217319 0.135103 0.338689
0.353613 0.139406 0.351049
0.533593 0.169100 0.368811
0.744137 0.158206 0.385107
0.879271 0.103822 0.353460
0.968963 0.288914 0.355657
0.071412 0.155856 0.339818
0.121981 0.157168 0.341253
0.224826 0.162325 0.346319
0.361242 0.168978 0.357427
0.540826 0.204257 0.375128
0.745418 0.191348 0.385016
0.878019 0.153536 0.350378
0.964324 0.323003 0.360662
0.000000 0.237461 0.355566
0.084321 0.239536 0.358343
0.228672 0.250462 0.364874
0.376989 0.265690 0.373327
0.564355 0.319158 0.397894
0.751217 0.283879 0.379644
0.866148 0.339208 0.372961
0.954894 0.426825 0.382086
0.000000 0.396765 0.381323
0.000000 0.398718 0.382727
0.186130 0.407599 0.388708
0.394018 0.423163 0.400488
0.591638 0.434333 0.398444
0.743984 0.454932 0.397681
0.859312 0.487465 0.399969
0.956817 0.527153 0.407630
0.000000 0.582910 0.416236
0.000000 0.582208 0.417517
0.270939 0.580621 0.426459
0.432746 0.572351 0.439216
0.593866 0.604913 0.444587
0.760952 0.619837 0.447028
0.874388 0.618860 0.451026
0.964599 0.634394 0.458198
0.349371 0.694850 0.482094
0.374487 0.695674 0.486305
0.413611 0.691829 0.480995
0.502190 0.682429 0.490181
0.595544 0.686580 0.500389
0.731777 0.723842 0.505821
0.867399 0.747951 0.516686
0.967041 0.742458 0.526635
0.492988 0.783261 0.542382
0.501610 0.782681 0.543450
0.533745 0.779629 0.547204
0.585443 0.774044 0.554711
0.644251 0.765835 0.565667
0.728878 0.791592 0.572656
0.835142 0.823178 0.579278
0.952941 0.849790 0.594171
0.619226 0.877226 0.629297
0.623651 0.876799 0.630030
0.641474 0.875181 0.633234
0.674098 0.872465 0.640223
0.716548 0.868498 0.650843
0.767117 0.876555 0.660487
0.835080 0.899077 0.666285
0.918273 0.918883 0.672023
0.019928 0.143282 0.501183
0.128420 0.144320 0.503258
0.261509 0.145876 0.508110
0.419776 0.146151 0.517357
0.590784 0.152285 0.530968
0.735470 0.252201 0.537133
0.859800 0.408362 0.566430
0.962982 0.416632 0.554498
0.080964 0.173953 0.507408
0.144137 0.174716 0.509392
0.270329 0.177584 0.513634
0.425757 0.181552 0.520958
0.594995 0.194095 0.534142
0.736324 0.286717 0.540307
0.858579 0.422766 0.567254
0.961639 0.427893 0.553765
0.032563 0.267857 0.520745
0.139528 0.269657 0.521660
0.277836 0.275731 0.524529
0.438178 0.289281 0.531090
0.601709 0.314244 0.541405
0.732692 0.395026 0.548272
0.852934 0.467689 0.566186
0.956146 0.462715 0.546593
0.000000 0.412909 0.529503
0.000000 0.414435 0.530327
0.247166 0.422736 0.535088
0.444892 0.444862 0.544823
0.605707 0.471931 0.553399
0.729915 0.536522 0.570092
0.849088 0.525719 0.557549
0.947051 0.525811 0.534813
0.000000 0.588586 0.546899
0.000000 0.589532 0.547814
0.258488 0.592462 0.551110
0.450385 0.597467 0.557305
0.606775 0.605341 0.566217
0.733028 0.609400 0.562219
0.841306 0.619654 0.559869
0.939361 0.635401 0.560662
0.300694 0.710689 0.566644
0.328466 0.710170 0.567407
0.416480 0.707118 0.569848
0.531548 0.702693 0.577569
0.626062 0.694453 0.586511
0.734035 0.722530 0.599695
0.859373 0.739071 0.609003
0.958953 0.735592 0.612757
0.514336 0.795651 0.613611
0.522911 0.794919 0.613916
0.558160 0.792691 0.616815
0.607294 0.789822 0.618952
0.667628 0.781277 0.625513
0.733822 0.787381 0.634974
0.836149 0.822629 0.646021
0.948669 0.844724 0.659754
0.630732 0.884245 0.674861
0.632136 0.883970 0.673640
0.640528 0.882902 0.669947
0.676905 0.880797 0.676936
0.721767 0.876310 0.685512
0.770596 0.870848 0.697230
0.836393 0.896178 0.706111
0.919341 0.918151 0.715206
0.228916 0.168460 0.650263
0.260868 0.168856 0.651148
0.361028 0.170871 0.652674
0.502129 0.177371 0.656489
0.651942 0.210147 0.663325
0.774624 0.280095 0.671168
0.853391 0.406836 0.665370
0.938537 0.558862 0.691188
0.237308 0.200839 0.649287
0.266636 0.201602 0.649683
0.363928 0.204410 0.651514
0.502312 0.213199 0.655421
0.649256 0.243809 0.661433
0.770779 0.307561 0.669245
0.849638 0.425635 0.664363
0.935760 0.568200 0.691249
0.254276 0.304814 0.655390
0.282872 0.306279 0.655787
0.379004 0.312902 0.657649
0.512505 0.326207 0.659602
0.650904 0.358251 0.664118
0.765164 0.410834 0.671077
0.843351 0.502525 0.669734
0.931029 0.612024 0.699245
0.222416 0.446052 0.658991
0.259464 0.447852 0.659510
0.384161 0.464546 0.661677
0.521996 0.480995 0.665675
0.651514 0.507378 0.670344
0.757076 0.542016 0.676967
0.838041 0.603296 0.683497
0.929931 0.662135 0.709285
0.239200 0.592309 0.657832
0.272801 0.592981 0.658076
0.376654 0.595819 0.659388
0.506188 0.602594 0.662287
0.641779 0.620752 0.670802
0.745418 0.641382 0.679103
0.835172 0.685481 0.697902
0.932708 0.677333 0.690913
0.354009 0.712978 0.668757
0.375463 0.713588 0.669764
0.442664 0.713832 0.671168
0.538354 0.714900 0.674128
0.640772 0.717647 0.678981
0.743771 0.725063 0.688289
0.840818 0.727260 0.684840
0.935607 0.731991 0.682338
0.491249 0.814969 0.692348
0.502434 0.814969 0.692927
0.541436 0.813535 0.693751
0.606561 0.810849 0.695827
0.685939 0.806882 0.700984
0.755612 0.798123 0.706447
0.842130 0.825559 0.721065
0.947601 0.840024 0.732357
0.610254 0.897002 0.724880
0.615229 0.896544 0.724971
0.637293 0.895354 0.726619
0.678767 0.893706 0.731441
0.731868 0.890593 0.738582
0.780941 0.883879 0.743618
0.839445 0.891966 0.756161
0.921996 0.918608 0.771603
0.408789 0.224460 0.764645
0.427558 0.226902 0.765347
0.494057 0.234501 0.765866
0.596521 0.255528 0.767544
0.704067 0.300450 0.769528
0.799710 0.373114 0.771939
0.880034 0.450294 0.776089
0.931029 0.539330 0.763607
0.410193 0.255253 0.762509
0.428931 0.257481 0.763302
0.494118 0.264530 0.763973
0.593988 0.283513 0.765164
0.700435 0.324529 0.766964
0.795346 0.390478 0.769009
0.875486 0.461311 0.772885
0.927062 0.545434 0.760922
0.422980 0.359075 0.764004
0.439704 0.360723 0.764126
0.501244 0.367895 0.764309
0.595666 0.385595 0.765225
0.696468 0.418952 0.766476
0.788693 0.469947 0.768948
0.869230 0.524651 0.774533
0.924620 0.593744 0.766995
0.430030 0.498665 0.764218
0.445563 0.499397 0.764004
0.503868 0.504784 0.764004
0.593744 0.518364 0.765377
0.690181 0.540246 0.767300
0.780697 0.572717 0.771298
0.860929 0.608118 0.778286
0.921691 0.658167 0.776486
0.406012 0.609827 0.758236
0.422065 0.610040 0.758206
0.483497 0.613214 0.759579
0.579736 0.624079 0.763455
0.679164 0.638178 0.766812
0.770443 0.657282 0.772183
0.852079 0.680690 0.780819
0.921996 0.723629 0.789853
0.452277 0.714534 0.763058
0.463935 0.714717 0.763302
0.507622 0.715114 0.764065
0.577569 0.716152 0.765713
0.661372 0.718776 0.768215
0.763516 0.734493 0.779110
0.850401 0.754482 0.790982
0.925872 0.794797 0.811673
0.509697 0.810086 0.778012
0.518608 0.810391 0.778531
0.550866 0.810605 0.779446
0.607324 0.811490 0.781521
0.679164 0.813199 0.784726
0.759945 0.817166 0.790005
0.846098 0.825132 0.799283
0.931395 0.825498 0.793881
0.578851 0.912047 0.799527
0.585290 0.911955 0.799832
0.611841 0.911711 0.801175
0.657557 0.910460 0.802976
0.718593 0.908080 0.805997
0.789364 0.904540 0.812222
0.852079 0.896941 0.818692
0.925566 0.920043 0.838590
0.565820 0.351843 0.872618
0.575830 0.355413 0.872831
0.613031 0.366857 0.872282
0.674922 0.393469 0.872404
0.747036 0.434913 0.872343
0.819303 0.487770 0.872343
0.888670 0.546258 0.873411
0.956085 0.593805 0.876280
0.565087 0.374304 0.870939
0.575067 0.377508 0.871183
0.612116 0.388525 0.870970
0.673060 0.412573 0.870939
0.744808 0.450813 0.870970
0.817136 0.499916 0.871122
0.886595 0.554192 0.872068
0.954131 0.599084 0.874937
0.565209 0.455085 0.869078
0.574365 0.457313 0.869108
0.609613 0.465370 0.868833
0.669490 0.485420 0.869718
0.739528 0.513024 0.869688
0.811398 0.549218 0.869902
0.881590 0.591913 0.871550
0.949950 0.628473 0.875090
0.561822 0.558007 0.866880
0.570855 0.559594 0.867063
0.604974 0.564843 0.867124
0.662593 0.576562 0.867796
0.731991 0.594629 0.868681
0.804196 0.618647 0.870085
0.875578 0.648219 0.872831
0.945006 0.675532 0.877379
0.542351 0.643702 0.865415
0.551659 0.644678 0.865843
0.594903 0.653040 0.865873
0.649958 0.657435 0.867002
0.720485 0.668025 0.868406
0.794827 0.683619 0.870695
0.869078 0.705074 0.874723
0.940276 0.727901 0.880888
0.534844 0.725917 0.864073
0.541192 0.725551 0.863828
0.568078 0.724819 0.863340
0.623774 0.726253 0.865171
0.698604 0.732540 0.869566
0.784909 0.748470 0.874571
0.865537 0.768276 0.881132
0.937530 0.791043 0.889036
0.567773 0.810849 0.874327
0.573358 0.810758 0.874266
0.596429 0.810544 0.874296
0.639521 0.810880 0.874937
0.698390 0.812100 0.876066
0.768399 0.815671 0.878080
0.859037 0.834714 0.887572
0.932769 0.857664 0.897337
0.599329 0.904143 0.887968
0.603967 0.904112 0.887999
0.624079 0.904387 0.888365
0.662409 0.905303 0.889555
0.716396 0.906737 0.891295
0.782376 0.908965 0.893797
0.855253 0.912779 0.898009
0.927184 0.919646 0.905669
