YOYO-Client/Yoyo/Assets.xcassets/Marrakech.dataset/Marrakech.cube
TITLE "Marrakech"
LUT_3D_SIZE 32
0.092744 0.113039 0.111910
0.093477 0.112978 0.111910
0.096315 0.113313 0.112123
0.102724 0.113619 0.112306
0.112428 0.114412 0.112642
0.128573 0.115175 0.113130
0.148196 0.116182 0.113710
0.170077 0.117067 0.114137
0.194553 0.117494 0.114382
0.222446 0.117739 0.114595
0.254337 0.117098 0.114778
0.290410 0.115236 0.114504
0.331060 0.111482 0.113924
0.376562 0.105226 0.112856
0.426062 0.095949 0.111635
0.478553 0.078920 0.109865
0.532952 0.039155 0.107576
0.587549 0.001740 0.104646
0.640620 0.000000 0.100282
0.690913 0.000000 0.095033
0.736355 0.000000 0.087770
0.780972 0.082551 0.071321
0.819181 0.125887 0.049256
0.853056 0.162142 0.024079
0.883391 0.196048 0.000000
0.911284 0.227817 0.000000
0.937194 0.259129 0.000000
0.961822 0.289006 0.000000
0.985382 0.318303 0.000000
1.000000 0.346502 0.000000
1.000000 0.373785 0.000000
1.000000 0.399603 0.000000
0.093111 0.113283 0.112184
0.093599 0.113558 0.112154
0.096773 0.113588 0.112093
0.103029 0.113893 0.112581
0.112703 0.114687 0.112917
0.128634 0.115755 0.113344
0.147921 0.116823 0.113619
0.169833 0.117708 0.114046
0.194095 0.118166 0.114595
0.221653 0.118532 0.114534
0.253422 0.117708 0.114748
0.289250 0.115724 0.114504
0.329564 0.112581 0.113924
0.374853 0.107027 0.113130
0.424170 0.097627 0.111696
0.476448 0.082948 0.109926
0.530846 0.046754 0.107668
0.585321 0.007507 0.104891
0.638544 0.000000 0.100557
0.688869 0.000000 0.095277
0.734249 0.002930 0.088319
0.778439 0.083101 0.072755
0.816373 0.124636 0.050874
0.850034 0.160372 0.025727
0.880430 0.193606 0.001801
0.908354 0.225742 0.000000
0.934478 0.256626 0.000000
0.959258 0.286656 0.000000
0.983032 0.315831 0.000000
1.000000 0.344213 0.000000
1.000000 0.371649 0.000000
1.000000 0.397650 0.000000
0.093019 0.115358 0.113161
0.093507 0.115633 0.113130
0.095857 0.116030 0.112703
0.102937 0.116274 0.112856
0.113344 0.116701 0.113252
0.129885 0.117922 0.113619
0.148836 0.119265 0.113863
0.170596 0.120119 0.114290
0.194888 0.120821 0.114778
0.222568 0.120851 0.115053
0.253971 0.120363 0.114931
0.289769 0.119020 0.114321
0.329931 0.116304 0.113985
0.374975 0.111147 0.112886
0.424201 0.103059 0.111666
0.476417 0.092042 0.109834
0.530449 0.068177 0.107881
0.585077 0.033082 0.104585
0.638148 0.006348 0.100221
0.688350 0.002747 0.094881
0.734127 0.035035 0.088014
0.777859 0.097322 0.072175
0.815366 0.132540 0.049561
0.848905 0.165713 0.026062
0.879179 0.197910 0.001038
0.907012 0.228489 0.000000
0.933165 0.258885 0.000000
0.957946 0.288609 0.000000
0.981842 0.317296 0.000000
1.000000 0.345586 0.000000
1.000000 0.372686 0.000000
1.000000 0.398535 0.000000
0.094240 0.120150 0.114900
0.094820 0.120089 0.115206
0.096620 0.120241 0.115145
0.101259 0.121553 0.114595
0.113741 0.122591 0.113893
0.131777 0.123293 0.114015
0.151278 0.124147 0.114290
0.173098 0.125154 0.114656
0.197208 0.125765 0.115175
0.224826 0.126223 0.115053
0.256474 0.125856 0.114870
0.292180 0.125032 0.114473
0.332403 0.123079 0.114015
0.377142 0.119173 0.113100
0.426154 0.113039 0.111727
0.477729 0.105196 0.110048
0.531548 0.094362 0.107942
0.585351 0.080720 0.104891
0.638178 0.059815 0.100435
0.687922 0.062074 0.094942
0.733852 0.090730 0.087556
0.776486 0.117037 0.071351
0.813504 0.146487 0.049195
0.846921 0.176425 0.024628
0.877470 0.206485 0.000000
0.905638 0.236271 0.000000
0.932189 0.265812 0.000000
0.957214 0.294774 0.000000
0.981231 0.323156 0.000000
1.000000 0.350683 0.000000
1.000000 0.376928 0.000000
1.000000 0.402075 0.000000
0.094606 0.127871 0.117922
0.095033 0.128084 0.117891
0.097566 0.127871 0.118441
0.101472 0.129122 0.117922
0.111604 0.132082 0.116396
0.130190 0.134920 0.115206
0.152041 0.134463 0.115023
0.176059 0.133272 0.115053
0.200381 0.133944 0.115206
0.228305 0.134676 0.115297
0.259770 0.134707 0.115053
0.295537 0.134676 0.114778
0.335668 0.133761 0.114168
0.380621 0.131411 0.113283
0.429328 0.127535 0.112276
0.481239 0.122591 0.110567
0.534783 0.116518 0.108064
0.588586 0.110262 0.104677
0.640742 0.106447 0.099886
0.690028 0.110048 0.093568
0.736110 0.123415 0.085267
0.777584 0.143893 0.068574
0.813993 0.168368 0.043824
0.847105 0.194400 0.021302
0.877379 0.222019 0.000000
0.905547 0.249729 0.000000
0.931853 0.277714 0.000000
0.956786 0.305150 0.000000
0.980682 0.332311 0.000000
1.000000 0.358770 0.000000
1.000000 0.384070 0.000000
1.000000 0.408240 0.000000
0.093202 0.140444 0.120516
0.093568 0.140658 0.120760
0.096437 0.140230 0.121096
0.101686 0.140322 0.121553
0.109621 0.143557 0.120302
0.125338 0.147250 0.118196
0.150240 0.151461 0.115572
0.175357 0.150576 0.115572
0.203281 0.148684 0.115755
0.233585 0.147433 0.115755
0.265690 0.148165 0.115572
0.301946 0.148775 0.115084
0.342565 0.148867 0.114748
0.387671 0.148226 0.113771
0.436652 0.146822 0.112886
0.488228 0.144137 0.110780
0.541741 0.141176 0.107790
0.595117 0.138918 0.103792
0.646693 0.139498 0.098543
0.694972 0.144625 0.091920
0.740932 0.157351 0.081483
0.781216 0.174929 0.060212
0.832883 0.209689 0.024323
0.864561 0.234073 0.000763
0.893309 0.259342 0.000000
0.920012 0.284611 0.000000
0.944915 0.309850 0.000000
0.968566 0.334752 0.000000
0.991302 0.359350 0.000000
1.000000 0.383185 0.000000
1.000000 0.406012 0.000000
1.000000 0.427588 0.000000
0.090486 0.156863 0.124575
0.091218 0.156802 0.124575
0.094514 0.156619 0.125368
0.101106 0.156008 0.126192
0.108156 0.157900 0.125978
0.121218 0.162509 0.123537
0.142519 0.168032 0.120516
0.174197 0.174380 0.116701
0.204715 0.174044 0.116213
0.238651 0.172366 0.116152
0.276219 0.169497 0.116091
0.315648 0.169039 0.116030
0.357427 0.170535 0.115358
0.403388 0.171267 0.114351
0.452644 0.171420 0.112490
0.504143 0.171115 0.109895
0.556878 0.170993 0.106020
0.608972 0.171847 0.101411
0.659174 0.174777 0.095583
0.708614 0.183322 0.087190
0.753872 0.197086 0.067597
0.793790 0.214511 0.043183
0.829404 0.234745 0.018982
0.861723 0.257206 0.000000
0.891203 0.280461 0.000000
0.918090 0.304051 0.000000
0.943084 0.327337 0.000000
0.966583 0.350561 0.000000
0.989258 0.373388 0.000000
1.000000 0.395453 0.000000
1.000000 0.416846 0.000000
1.000000 0.437171 0.000000
0.086305 0.175509 0.130617
0.087953 0.175296 0.130648
0.092164 0.175113 0.131136
0.098939 0.174594 0.132174
0.108614 0.174197 0.133577
0.119051 0.178714 0.131777
0.136599 0.184512 0.128664
0.162570 0.191958 0.124666
0.199649 0.200809 0.119387
0.236515 0.202762 0.117739
0.275792 0.202060 0.117128
0.319310 0.200168 0.116609
0.367407 0.196353 0.115816
0.413916 0.197818 0.114321
0.463142 0.199374 0.112123
0.513878 0.200900 0.108858
0.565789 0.202548 0.104616
0.616846 0.205661 0.099031
0.667750 0.211093 0.091920
0.715419 0.220371 0.079316
0.757961 0.232822 0.056092
0.796078 0.248264 0.031281
0.830350 0.266270 0.005341
0.861753 0.285985 0.000000
0.890623 0.306889 0.000000
0.917235 0.327916 0.000000
0.941894 0.349126 0.000000
0.965301 0.370153 0.000000
0.987854 0.391028 0.000000
1.000000 0.411505 0.000000
1.000000 0.431189 0.000000
1.000000 0.449958 0.000000
0.078309 0.197818 0.137575
0.079530 0.197787 0.137575
0.087037 0.197452 0.138064
0.095216 0.196994 0.139010
0.106508 0.196170 0.140658
0.118166 0.198123 0.140749
0.132570 0.204318 0.137942
0.154940 0.212161 0.134340
0.186679 0.221561 0.129152
0.229618 0.232975 0.121736
0.274693 0.238224 0.117983
0.319799 0.239017 0.116548
0.369116 0.238285 0.114778
0.422156 0.235569 0.112673
0.476661 0.232059 0.110323
0.526940 0.234867 0.106447
0.577752 0.238132 0.101045
0.629114 0.243137 0.094270
0.678614 0.250004 0.083742
0.723354 0.259464 0.063386
0.763607 0.271214 0.038270
0.799680 0.285100 0.014221
0.832670 0.300725 0.000000
0.863035 0.318303 0.000000
0.891112 0.336828 0.000000
0.917144 0.355383 0.000000
0.941497 0.374426 0.000000
0.964660 0.393256 0.000000
0.987060 0.412116 0.000000
1.000000 0.430488 0.000000
1.000000 0.448310 0.000000
1.000000 0.465431 0.000000
0.051392 0.224674 0.145113
0.053407 0.224643 0.145113
0.066133 0.224247 0.145602
0.086275 0.223819 0.146700
0.100649 0.222843 0.148074
0.115785 0.221714 0.150057
0.129946 0.227420 0.147829
0.149935 0.235599 0.144259
0.177920 0.245365 0.139467
0.215305 0.256962 0.132845
0.263859 0.269871 0.123140
0.318395 0.280461 0.115358
0.369177 0.282444 0.112245
0.423285 0.282689 0.108736
0.480171 0.281285 0.104799
0.538079 0.277745 0.100404
0.594049 0.278355 0.094514
0.643915 0.284428 0.084077
0.690425 0.291844 0.063905
0.732418 0.300938 0.039155
0.770077 0.311864 0.015686
0.803861 0.323674 0.000000
0.834958 0.337072 0.000000
0.863798 0.351873 0.000000
0.890776 0.367651 0.000000
0.916136 0.383856 0.000000
0.940063 0.400549 0.000000
0.963104 0.417395 0.000000
0.985534 0.434211 0.000000
1.000000 0.450721 0.000000
1.000000 0.466865 0.000000
1.000000 0.482399 0.000000
0.002564 0.255467 0.152499
0.006226 0.255436 0.152712
0.018555 0.255222 0.152926
0.048280 0.254704 0.153994
0.087251 0.253849 0.155459
0.108003 0.252811 0.157687
0.126070 0.254368 0.158419
0.145022 0.262760 0.154818
0.171145 0.272801 0.150057
0.205997 0.285039 0.143526
0.249912 0.299077 0.134310
0.305150 0.314549 0.121950
0.369604 0.329503 0.107301
0.425635 0.332708 0.101106
0.484443 0.334691 0.094728
0.543420 0.335088 0.087098
0.601404 0.333532 0.074281
0.656428 0.330968 0.056184
0.701534 0.335668 0.034546
0.740749 0.343969 0.011017
0.776059 0.353246 0.000000
0.808011 0.363561 0.000000
0.837827 0.375097 0.000000
0.865690 0.387793 0.000000
0.891936 0.401434 0.000000
0.916686 0.415503 0.000000
0.940246 0.429877 0.000000
0.963012 0.444373 0.000000
0.985290 0.458961 0.000000
1.000000 0.473518 0.000000
1.000000 0.487770 0.000000
1.000000 0.501579 0.025635
0.000000 0.291508 0.160189
0.000000 0.291447 0.160372
0.000000 0.291142 0.160800
0.000000 0.290623 0.161807
0.028962 0.289769 0.163394
0.089479 0.288853 0.165469
0.117922 0.287449 0.168276
0.139498 0.293919 0.166262
0.165072 0.304448 0.161593
0.198154 0.316808 0.155337
0.240085 0.331151 0.146639
0.292424 0.348302 0.134279
0.366796 0.376898 0.114809
0.444556 0.398291 0.083680
0.505211 0.402350 0.057923
0.564691 0.404456 0.032624
0.621454 0.404944 0.008362
0.673854 0.403998 0.000000
0.720912 0.402594 0.000000
0.763058 0.400580 0.000000
0.794949 0.408148 0.000000
0.824063 0.416266 0.000000
0.851408 0.425299 0.000000
0.877287 0.435248 0.000000
0.901732 0.445930 0.000000
0.925048 0.456825 0.000000
0.947387 0.467994 0.000000
0.969146 0.479255 0.000000
0.990478 0.490761 0.000000
1.000000 0.502373 0.000000
1.000000 0.514000 0.035401
1.000000 0.525689 0.094362
0.000000 0.335485 0.169131
0.000000 0.335454 0.169131
0.000000 0.335058 0.169741
0.000000 0.334295 0.170565
0.000000 0.333257 0.172152
0.012329 0.331853 0.174258
0.098390 0.330205 0.177310
0.132143 0.331456 0.179019
0.159365 0.342687 0.174502
0.193912 0.356146 0.168521
0.236362 0.372198 0.159915
0.288304 0.390204 0.148714
0.350500 0.410010 0.132113
0.422095 0.430945 0.106294
0.503899 0.454414 0.029114
0.564782 0.459052 0.000000
0.620233 0.460517 0.000000
0.670436 0.460426 0.000000
0.715724 0.459449 0.000000
0.756649 0.457496 0.000000
0.793515 0.454994 0.000000
0.825772 0.454994 0.000000
0.852232 0.462196 0.000000
0.877440 0.470130 0.000000
0.901488 0.478553 0.000000
0.924559 0.487465 0.000000
0.946777 0.496742 0.000000
0.968383 0.506279 0.000000
0.989776 0.516014 0.000000
1.000000 0.526055 0.034394
1.000000 0.536156 0.089143
1.000000 0.546197 0.117372
0.000000 0.381262 0.177768
0.000000 0.381109 0.177798
0.000000 0.380468 0.178317
0.000000 0.379736 0.179446
0.000000 0.378729 0.180972
0.000000 0.377264 0.183139
0.027802 0.375647 0.186038
0.117556 0.373785 0.189792
0.152987 0.380377 0.188205
0.188083 0.393469 0.182284
0.230472 0.408637 0.174716
0.280735 0.425879 0.164340
0.339422 0.444831 0.150332
0.406073 0.464607 0.130159
0.479591 0.484565 0.097963
0.559380 0.506188 0.000000
0.618647 0.512200 0.000000
0.667048 0.512352 0.000000
0.710964 0.511437 0.000000
0.750759 0.509483 0.000000
0.786770 0.507012 0.000000
0.820401 0.504448 0.000000
0.851896 0.502281 0.000000
0.878904 0.505028 0.000000
0.902464 0.511711 0.000000
0.925170 0.518730 0.000000
0.947112 0.526146 0.000000
0.968566 0.533928 0.006806
0.989776 0.542107 0.050782
1.000000 0.550500 0.093538
1.000000 0.559014 0.117067
1.000000 0.567590 0.141054
0.000000 0.428687 0.187442
0.000000 0.428565 0.187472
0.000000 0.427955 0.187961
0.000000 0.427039 0.188998
0.000000 0.425544 0.190616
0.000000 0.423865 0.192630
0.000000 0.421912 0.195651
0.091646 0.419867 0.199283
0.146975 0.419013 0.202823
0.184634 0.431159 0.197543
0.227481 0.445411 0.190555
0.276402 0.461738 0.181704
0.332616 0.479164 0.170138
0.395056 0.497414 0.154238
0.463600 0.515709 0.132113
0.535637 0.533379 0.097780
0.609827 0.552239 0.000000
0.665248 0.559106 0.000000
0.707393 0.558190 0.000000
0.745815 0.556176 0.000000
0.781094 0.553674 0.000000
0.814145 0.551324 0.000000
0.845457 0.549157 0.000000
0.875059 0.547082 0.000000
0.903227 0.545159 0.000000
0.926207 0.549584 0.012116
0.947967 0.555474 0.043580
0.969360 0.561822 0.084932
0.990600 0.568536 0.105379
1.000000 0.575647 0.125490
1.000000 0.582849 0.146365
1.000000 0.590234 0.168704
0.000000 0.474556 0.198184
0.000000 0.474525 0.198459
0.000000 0.474098 0.198856
0.000000 0.473396 0.199893
0.000000 0.472206 0.201450
0.000000 0.470802 0.203677
0.000000 0.469276 0.206790
0.032288 0.467445 0.210483
0.141085 0.465461 0.215061
0.186618 0.470619 0.214786
0.229679 0.483497 0.208896
0.277653 0.497780 0.201175
0.330663 0.513115 0.191470
0.389136 0.528923 0.179141
0.452399 0.544671 0.163149
0.518853 0.560113 0.142123
0.586175 0.575250 0.111421
0.652552 0.591638 0.026642
0.704341 0.599390 0.000000
0.741451 0.597498 0.000000
0.776211 0.595392 0.000000
0.808865 0.593256 0.000000
0.839841 0.591272 0.000122
0.869291 0.589380 0.028290
0.897307 0.587549 0.061982
0.924315 0.585718 0.091005
0.949828 0.584863 0.107698
0.971038 0.589776 0.123018
0.992065 0.594995 0.139071
1.000000 0.600580 0.156161
1.000000 0.606287 0.174838
1.000000 0.612207 0.195407
0.000000 0.518212 0.211307
0.000000 0.518120 0.211337
0.000000 0.517815 0.211917
0.000000 0.517174 0.212589
0.000000 0.516197 0.214359
0.000000 0.514885 0.216526
0.000000 0.513329 0.219547
0.008698 0.511589 0.223209
0.141878 0.509545 0.227726
0.193912 0.507225 0.232975
0.236606 0.518242 0.228336
0.282841 0.530816 0.222110
0.333410 0.544335 0.214420
0.388251 0.558190 0.204990
0.447059 0.571923 0.193454
0.508476 0.585565 0.179324
0.570245 0.598901 0.160983
0.630701 0.612238 0.137545
0.690181 0.626795 0.103273
0.738888 0.635187 0.077119
0.772702 0.633326 0.081605
0.804746 0.631434 0.089876
0.835203 0.629572 0.098878
0.864317 0.627710 0.108400
0.892180 0.625849 0.119173
0.919005 0.624018 0.131472
0.945129 0.622248 0.144411
0.970520 0.620478 0.157412
0.993835 0.620996 0.172274
1.000000 0.625269 0.188113
1.000000 0.629725 0.205234
1.000000 0.634485 0.224674
0.000000 0.559533 0.227817
0.000000 0.559564 0.228031
0.000000 0.568017 0.232822
0.000000 0.567407 0.233860
0.000000 0.566522 0.235386
0.000000 0.565270 0.237430
0.000000 0.563592 0.240299
0.106081 0.561669 0.243626
0.172061 0.559564 0.247929
0.220676 0.557183 0.253239
0.262181 0.559594 0.254795
0.305730 0.570306 0.250095
0.352667 0.581384 0.244236
0.403265 0.592798 0.237186
0.456580 0.604242 0.228946
0.511986 0.615656 0.219089
0.567559 0.626856 0.207065
0.621973 0.638087 0.192721
0.674891 0.649317 0.175784
0.727871 0.661860 0.153597
0.774136 0.671015 0.143221
0.804898 0.668971 0.146365
0.834257 0.666896 0.151095
0.862425 0.664759 0.157626
0.889464 0.662501 0.165347
0.915709 0.660212 0.174105
0.941192 0.657923 0.183444
0.966247 0.655665 0.194400
0.990814 0.653468 0.207126
1.000000 0.651240 0.221012
1.000000 0.652827 0.236973
1.000000 0.656428 0.255100
0.000000 0.599115 0.249577
0.000000 0.599817 0.250126
0.000000 0.600305 0.251072
0.000000 0.600549 0.252232
0.000000 0.600244 0.254154
0.000000 0.599268 0.256168
0.076509 0.597864 0.258762
0.153872 0.596063 0.262058
0.202945 0.594049 0.265843
0.244663 0.591821 0.270512
0.283146 0.589197 0.276066
0.321996 0.596460 0.274113
0.364935 0.606104 0.269688
0.410742 0.616083 0.264500
0.459266 0.626276 0.258610
0.509850 0.636500 0.251469
0.560143 0.646693 0.243320
0.610254 0.656977 0.233982
0.659663 0.667292 0.223178
0.707912 0.677638 0.210788
0.754818 0.687892 0.196506
0.800626 0.698848 0.190738
0.831022 0.698268 0.193698
0.858701 0.696315 0.198978
0.885344 0.694209 0.205142
0.911284 0.691890 0.212375
0.936522 0.689662 0.220768
0.961425 0.687282 0.230838
0.985870 0.684962 0.241947
1.000000 0.682582 0.254673
1.000000 0.680262 0.269413
1.000000 0.677882 0.285527
0.000000 0.631403 0.271733
0.000000 0.632074 0.272496
0.000000 0.632563 0.273472
0.000000 0.632837 0.274907
0.020966 0.632593 0.276677
0.120912 0.631830 0.278691
0.167849 0.630518 0.280888
0.207523 0.628901 0.283879
0.243809 0.627008 0.287602
0.278996 0.624903 0.291844
0.312505 0.622492 0.296757
0.346075 0.622766 0.300145
0.384466 0.631098 0.297154
0.425696 0.639826 0.293553
0.469184 0.648798 0.289311
0.514061 0.657832 0.284489
0.559472 0.667018 0.278874
0.604974 0.676265 0.272526
0.650141 0.685603 0.265354
0.694881 0.695094 0.257359
0.738705 0.704616 0.248722
0.782071 0.714229 0.238743
0.825071 0.724697 0.236423
0.855650 0.725734 0.239963
0.881865 0.723751 0.245304
0.907439 0.721584 0.251652
0.932464 0.719326 0.258762
0.957092 0.716915 0.267582
0.981262 0.714534 0.278172
1.000000 0.712062 0.290227
1.000000 0.709621 0.303960
1.000000 0.707149 0.319341
0.129213 0.661707 0.297551
0.132753 0.662257 0.298253
0.144533 0.662593 0.299138
0.161593 0.662776 0.300603
0.182986 0.662593 0.302007
0.207095 0.661799 0.303990
0.233463 0.660731 0.306126
0.260990 0.659297 0.308812
0.289769 0.657588 0.312169
0.318486 0.655604 0.316106
0.347875 0.653407 0.320745
0.376623 0.650965 0.325963
0.408972 0.655360 0.326116
0.445411 0.662928 0.323735
0.483589 0.670741 0.321111
0.523308 0.678920 0.317937
0.563989 0.687343 0.314458
0.605097 0.695979 0.310613
0.646540 0.704799 0.306554
0.687953 0.713802 0.302007
0.729061 0.723018 0.297063
0.769711 0.732265 0.291722
0.809903 0.741451 0.285466
0.850645 0.751797 0.286046
0.881559 0.754360 0.291112
0.906920 0.752407 0.297398
0.931670 0.750240 0.304417
0.956023 0.747890 0.312840
0.979767 0.745449 0.323003
1.000000 0.742885 0.334569
1.000000 0.740291 0.347784
1.000000 0.737575 0.362707
0.240635 0.693080 0.330297
0.242405 0.693263 0.330663
0.246586 0.693233 0.331243
0.254368 0.693019 0.332006
0.266270 0.692409 0.333165
0.280766 0.691585 0.334600
0.298589 0.690455 0.336431
0.319158 0.689082 0.338811
0.341161 0.687556 0.341802
0.365301 0.685817 0.345556
0.390051 0.683894 0.349798
0.414954 0.681697 0.354589
0.440558 0.680476 0.359075
0.471595 0.687068 0.357610
0.504570 0.693996 0.356054
0.538933 0.701167 0.354101
0.574273 0.708614 0.351965
0.610803 0.716304 0.349645
0.647669 0.724178 0.346960
0.684962 0.732265 0.343969
0.722164 0.740505 0.340764
0.759396 0.748867 0.337285
0.796536 0.757290 0.333227
0.833677 0.765713 0.328527
0.872251 0.775723 0.329900
0.903441 0.779385 0.335851
0.927916 0.777371 0.342565
0.951904 0.775143 0.350561
0.975341 0.772671 0.359960
0.998016 0.770108 0.370947
1.000000 0.767422 0.383368
1.000000 0.764645 0.397467
0.312383 0.718776 0.361364
0.313420 0.718929 0.361791
0.316594 0.718898 0.362310
0.322240 0.718685 0.363012
0.330541 0.718196 0.364019
0.341527 0.717464 0.365423
0.355230 0.716487 0.367010
0.371160 0.715267 0.369238
0.389105 0.713924 0.371984
0.409003 0.712398 0.375525
0.429572 0.710689 0.379370
0.450965 0.708766 0.383948
0.472663 0.706630 0.388739
0.497414 0.709102 0.390784
0.525628 0.715328 0.389960
0.555474 0.721828 0.389166
0.586633 0.728695 0.388098
0.618769 0.735744 0.386999
0.651728 0.743038 0.385534
0.685267 0.750546 0.383978
0.719081 0.758236 0.382391
0.753109 0.766140 0.380560
0.787259 0.774136 0.378363
0.821683 0.782223 0.375799
0.855039 0.788754 0.369268
0.892027 0.798672 0.371038
0.923552 0.803403 0.378424
0.947112 0.801297 0.385931
0.970153 0.798917 0.394720
0.992462 0.796323 0.405127
1.000000 0.793668 0.417060
1.000000 0.790951 0.430457
0.378912 0.744961 0.397223
0.380194 0.745174 0.397711
0.382544 0.745205 0.398138
0.386328 0.744839 0.398657
0.392035 0.744259 0.399298
0.399908 0.743374 0.400122
0.409644 0.742275 0.401282
0.421576 0.740963 0.402808
0.435462 0.739498 0.404913
0.451148 0.737881 0.407630
0.467811 0.736141 0.410742
0.485847 0.734188 0.414527
0.504356 0.732174 0.418799
0.523278 0.730007 0.423407
0.546838 0.735317 0.422705
0.572290 0.741054 0.422034
0.599115 0.747066 0.421393
0.627222 0.753445 0.420813
0.656428 0.760189 0.420233
0.686488 0.767239 0.419745
0.717159 0.774594 0.419226
0.748135 0.782071 0.418433
0.779446 0.789670 0.417212
0.811032 0.797330 0.415656
0.843076 0.804898 0.413367
0.875822 0.812467 0.410681
0.911437 0.822141 0.412207
0.942443 0.827451 0.420752
0.964904 0.825010 0.428504
0.986694 0.822385 0.438056
1.000000 0.819608 0.449073
1.000000 0.816831 0.461830
0.429786 0.767483 0.429541
0.430762 0.767727 0.429969
0.432807 0.767758 0.430549
0.435950 0.767544 0.431128
0.440955 0.767086 0.431861
0.447364 0.766537 0.432898
0.455818 0.765743 0.434302
0.466072 0.764797 0.436072
0.478004 0.763760 0.438300
0.491371 0.762539 0.441047
0.505882 0.761135 0.444251
0.521324 0.759609 0.447852
0.537469 0.757870 0.451728
0.554070 0.755947 0.456123
0.572442 0.757015 0.458503
0.593927 0.762173 0.458289
0.616999 0.767666 0.458015
0.641199 0.773495 0.457893
0.666682 0.779751 0.457771
0.693141 0.786343 0.457832
0.720424 0.793240 0.457801
0.748226 0.800412 0.457710
0.776608 0.807706 0.457496
0.805478 0.815122 0.456794
0.834897 0.822538 0.455818
0.865110 0.829953 0.454383
0.896300 0.837247 0.452583
0.930541 0.846647 0.454414
0.959503 0.851255 0.464149
0.981842 0.849516 0.473182
1.000000 0.846616 0.483528
1.000000 0.843565 0.495155
0.478828 0.791226 0.464881
0.479347 0.791318 0.465156
0.480751 0.791257 0.465492
0.483314 0.791043 0.465949
0.487160 0.790646 0.466560
0.492317 0.790097 0.467445
0.499184 0.789395 0.468605
0.507622 0.788571 0.470222
0.517418 0.787594 0.472206
0.528649 0.786526 0.474617
0.540948 0.785336 0.477394
0.554376 0.783963 0.480568
0.568444 0.782528 0.484260
0.583032 0.780880 0.488167
0.597955 0.779049 0.492439
0.615900 0.783017 0.492927
0.635462 0.788113 0.492958
0.656336 0.793545 0.492958
0.678553 0.799405 0.493172
0.701717 0.805661 0.493507
0.725734 0.812222 0.493935
0.750515 0.819059 0.494240
0.775937 0.826017 0.494331
0.801999 0.833066 0.494179
0.828702 0.840177 0.493751
0.856321 0.847074 0.492958
0.884916 0.853880 0.491951
0.914488 0.860441 0.490639
0.947295 0.869322 0.492103
0.974212 0.872984 0.502861
0.995880 0.871702 0.513054
1.000000 0.868559 0.524163
0.521538 0.814603 0.499062
0.522026 0.814664 0.499306
0.523247 0.814664 0.499611
0.525353 0.814511 0.500053
0.528710 0.814298 0.500877
0.533440 0.814023 0.501915
0.539879 0.813718 0.503593
0.547601 0.813413 0.505730
0.556786 0.813046 0.508263
0.567193 0.812650 0.511315
0.578759 0.812161 0.514794
0.590906 0.811521 0.518517
0.603876 0.810727 0.522515
0.617212 0.809689 0.526726
0.630732 0.808438 0.531029
0.645014 0.808957 0.534081
0.661433 0.813809 0.534478
0.678981 0.819059 0.534844
0.697688 0.824613 0.535302
0.717433 0.830533 0.535882
0.738094 0.836759 0.536522
0.759640 0.843229 0.537072
0.781918 0.849699 0.537469
0.805051 0.856229 0.537652
0.829038 0.862638 0.537621
0.853910 0.868894 0.537346
0.879759 0.874968 0.536980
0.906554 0.880766 0.536400
0.934142 0.886290 0.535546
0.964538 0.893675 0.536828
0.989288 0.896391 0.547997
1.000000 0.895048 0.559289
0.567071 0.842405 0.539147
0.567315 0.842405 0.539208
0.568170 0.842313 0.539391
0.569726 0.842100 0.539605
0.572351 0.841825 0.540154
0.576013 0.841459 0.540887
0.580804 0.841001 0.541985
0.586847 0.840482 0.543359
0.594049 0.839933 0.545251
0.602380 0.839292 0.547417
0.611719 0.838590 0.549981
0.621790 0.837858 0.552880
0.632837 0.836973 0.556146
0.644282 0.835966 0.559625
0.656275 0.834836 0.563378
0.668574 0.833646 0.567407
0.682124 0.836820 0.568750
0.697017 0.841764 0.569207
0.712978 0.847044 0.569757
0.729976 0.852567 0.570367
0.747890 0.858305 0.571069
0.766720 0.864164 0.571710
0.786465 0.870085 0.572198
