YOYO-Client/Yoyo/Assets.xcassets/Horizon.dataset/Horizon.cube
TITLE "Generated by Resolve"
LUT_3D_SIZE 33
0 0 0
0 0 0
0.00367742 0 0
0.00747692 0 0
0.0191196 0 0
0.0340734 0.00392157 0
0.0534371 0.0071107 0
0.0758526 0.00784314 0
0.105882 0.00784314 0
0.13959 0.00109865 0
0.18088 0 0
0.227207 0 0
0.275975 0 0
0.330022 0 0
0.38407 0 0
0.438117 0 0
0.488243 0 0
0.536522 0 0
0.582849 0 0
0.627573 0 0
0.666178 0 0
0.704784 0 0
0.742153 0 0
0.778058 0 0
0.816663 0 0
0.854414 0 0
0.889952 0 0
0.924636 0 0
0.959319 0 0
0.992889 0 0
1 0 0
1 0 0
1 0 0
0 0 0
0 0.00367742 0
0.00367742 0.0037995 0
0.00747692 0.00390631 0
0.0186465 0.00772107 0
0.0340734 0.0116426 0
0.0565194 0.0117494 0
0.0788281 0.0155642 0
0.105882 0.0116732 0
0.14342 0.00881972 0
0.184802 0.0011902 0
0.231083 0 0
0.27982 0 0
0.333822 0 0
0.387869 0 0
0.439887 0 0
0.490196 0 0
0.540383 0 0
0.584985 0 0
0.627573 0 0
0.6701 0 0
0.704784 0 0
0.743389 0 0
0.778058 0 0
0.816663 0 0
0.854414 0 0
0.889952 0 0
0.924636 0 0
0.959319 0 0
0.992889 0 0
1 0 0
1 0 0
1 0 0
0 0.00759899 0
0 0.00759899 0
0 0.0112764 0
0.00747692 0.014847 0
0.0186313 0.0186618 0
0.037171 0.0193637 0
0.056611 0.0193637 0
0.0797284 0.0193637 0
0.109804 0.0193637 0
0.147433 0.0126192 0
0.189868 0.00238041 0
0.234958 0 0
0.287495 0 0
0.339361 0 0
0.391775 0 0
0.443763 0 0
0.493996 0 0
0.540444 0 0
0.58677 0 0
0.631342 0 0
0.6701 0 0
0.708614 0 0
0.743389 0 0
0.781918 0 0
0.816663 0 0
0.855268 0 0
0.889952 0 0
0.924636 0 0
0.959319 0 0
0.992889 0 0
1 0 0
1 0 0
1 0 0
0 0.0188754 0
0 0.0188754 0
0 0.0225681 0
0.00714122 0.0263828 0
0.0186313 0.0306401 0
0.0379339 0.0339513 0
0.0601663 0.0345617 0
0.0863966 0.0317845 0
0.117281 0.0306401 0
0.154894 0.0238956 0
0.197421 0.0123751 0
0.244862 0.00122072 0
0.295216 0 0
0.34905 0 0
0.39939 0 0
0.451347 0 0
0.499809 0 0
0.547921 0 0
0.590692 0 0
0.632944 0 0
0.673655 0 0
0.708705 0 0
0.746929 0 0
0.781979 0 0
0.820493 0 0
0.855268 0 0
0.892836 0 0
0.927947 0 0
0.959319 0 0
0.992889 0 0
1 0 0
1 0 0
1 0 0
0 0.0377508 0
0 0.0377508 0
0 0.0377508 0
0.000442512 0.0417945 0
0.015198 0.049012 0
0.0408789 0.0528878 0
0.0667582 0.0534371 0
0.0975509 0.0534371 0
0.130999 0.0495155 0
0.169833 0.042771 0
0.21471 0.0287633 0
0.264454 0.0134737 0
0.313726 0 0
0.36524 0 0
0.415473 0 0
0.464088 0 0
0.512261 0 0
0.558572 0 0
0.601251 0 0
0.642283 0 0
0.680888 0 0
0.715892 0 0
0.750729 0 0
0.787884 0 0
0.824018 0 0
0.858701 0 0
0.896178 0 0
0.930953 0 0
0.962676 0 0
0.99556 0 0
1 0 0
1 0 0
1 0 0
0 0.0569924 0
0 0.0569924 0
0 0.0569924 0
0 0.0575418 0
0.00457771 0.0649577 0
0.0301518 0.0754559 0
0.0670329 0.0832074 0
0.105043 0.0833448 0
0.145983 0.0794385 0
0.187793 0.0725567 0
0.233951 0.0621347 0
0.280888 0.0466926 0
0.329656 0.0281834 0
0.377813 0.00537118 0
0.427695 0 0
0.474632 0 0
0.520958 0 0
0.565438 0 0
0.607965 0 0
0.647181 0 0
0.685176 0 0
0.720256 0 0
0.754955 0 0
0.789822 0 0
0.826993 0 0
0.862974 0 0
0.897673 0 0
0.931868 0 0
0.966125 0 0
0.996445 0 0
1 0 0
1 0 0
1 0 0
0 0.0801404 0
0 0.0801404 0
0 0.0801404 0
0 0.0801404 0
0 0.084062 0
0.00527962 0.0952163 0
0.0475776 0.109453 0
0.107179 0.120378 0
0.158083 0.12108 0
0.20618 0.114336 0
0.253193 0.106615 0
0.299504 0.0955825 0
0.346563 0.0801404 0
0.394781 0.0616465 0
0.443137 0.0373388 0
0.489464 0.0106508 0
0.532601 0 0
0.576699 0 0
0.615686 0 0
0.654292 0 0
0.691691 0 0
0.726223 0 0
0.761028 0 0
0.796033 0 0
0.830823 0 0
0.865599 0 0
0.900389 0 0
0.935164 0 0
0.966674 0 0
0.996445 0 0
1 0 0
1 0.00776684 0
1 0.0977951 0
0 0.109438 0
0 0.110292 0
0 0.110292 0
0 0.110292 0
0 0.114107 0
0 0.122164 0
0.0075227 0.136278 0
0.0806439 0.154299 0
0.156191 0.166629 0
0.217395 0.166537 0
0.269368 0.15993 0
0.31931 0.14934 0
0.365927 0.137255 0
0.412253 0.121813 0
0.458579 0.105898 0
0.504906 0.087541 0
0.545769 0.0657511 0
0.587869 0.0406653 0
0.627329 0.016083 0
0.664332 0 0
0.699138 0 0
0.733944 0 0
0.766049 0 0
0.800732 0 0
0.836057 0 0
0.8701 0 0
0.904204 0 0
0.93579 0 0
0.967056 0 0
0.996445 0.0142672 0
1 0.0567788 0
1 0.108995 0
1 0.161761 0
0 0.152941 0
0 0.153918 0
0 0.153918 0
0 0.153918 0
0 0.154772 0
0 0.161151 0
0 0.173037 0
0.0282139 0.189242 0
0.128679 0.207843 0
0.215869 0.221607 0
0.285603 0.219852 0
0.339925 0.213138 0
0.390066 0.201953 0
0.437507 0.190036 0
0.480323 0.174441 0
0.524147 0.158572 0
0.563729 0.143145 0
0.602335 0.12723 0
0.640925 0.110842 0
0.676188 0.0956436 0
0.709804 0.0800183 0
0.742031 0.0675822 0
0.775494 0.0565499 0
0.808179 0.0521096 0
0.842161 0.0529335 0
0.876188 0.0542306 0
0.907835 0.0632334 0
0.939178 0.0799573 0
0.972549 0.0996262 0
0.999115 0.124727 0
1 0.149813 0
1 0.177935 0
1 0.211765 0
0 0.19057 0
0 0.197223 0
0 0.197299 0
0 0.198306 0
0 0.197299 0
0 0.198413 0
0 0.206409 0
0 0.221317 0
0.0697337 0.239979 0
0.179721 0.260044 0
0.272526 0.27451 0
0.346075 0.274876 0
0.404288 0.267155 0
0.453758 0.256001 0
0.499016 0.241184 0
0.541543 0.229038 0
0.580148 0.213596 0
0.618753 0.198169 0
0.654047 0.184436 0
0.687617 0.172793 0
0.719554 0.162921 0
0.75259 0.154406 0
0.784192 0.149752 0
0.815381 0.14583 0
0.849882 0.146807 0
0.880766 0.150607 0
0.912749 0.158328 0
0.943633 0.16733 0
0.974517 0.179431 0
1 0.195834 0
1 0.212619 0
1 0.235813 0
1 0.263966 0
0 0.233082 0
0 0.239628 0
0 0.239704 0
0 0.239704 0
0 0.239704 0
0 0.240742 0
0 0.244114 0
0 0.254902 0
0.00735485 0.27126 0
0.121157 0.290929 0
0.233722 0.312154 0
0.329519 0.327626 0
0.406836 0.331365 0
0.462623 0.323903 0
0.513283 0.312261 0
0.556985 0.298528 0
0.59559 0.283085 0
0.632929 0.267643 0
0.667155 0.256123 0
0.69926 0.242283 0
0.730144 0.23064 0
0.761028 0.223331 0
0.791913 0.219501 0
0.822797 0.216419 0
0.855573 0.216724 0
0.888487 0.218509 0
0.919356 0.222309 0
0.947555 0.230213 0
0.978439 0.241825 0
1 0.253422 0
1 0.266499 0
1 0.285939 0
1 0.310292 0
0 0.275608 0
0 0.281987 0
0 0.282109 0
0 0.282109 0
0 0.282109 0
0 0.282109 0
0 0.283207 0
0 0.29044 0
0 0.302449 0
0.0462043 0.321431 0
0.178485 0.343877 0
0.287724 0.366155 0
0.384329 0.381628 0
0.462074 0.38584 0
0.520562 0.379171 0
0.568017 0.368017 0
0.608454 0.353857 0
0.644511 0.341054 0
0.678676 0.325612 0
0.710903 0.311772 0
0.741787 0.30013 0
0.772213 0.291524 0
0.802213 0.2851 0
0.833082 0.279408 0
0.863325 0.279408 0
0.892287 0.279713 0
0.923156 0.283589 0
0.953643 0.289219 0
0.980682 0.296941 0
1 0.305028 0
1 0.317891 0
1 0.333455 0
1 0.35404 0
0 0.32549 0
0 0.326909 0
0 0.328344 0
0 0.328435 0
0 0.326955 0
0 0.324514 0
0 0.324514 0
0 0.331502 0
0 0.340322 0
0 0.355154 0
0.107912 0.374762 0
0.233722 0.39791 0
0.342641 0.418082 0
0.438346 0.435645 0
0.515251 0.439857 0
0.570672 0.433204 0
0.616175 0.423285 0
0.654093 0.410544 0
0.690196 0.397543 0
0.72108 0.383703 0
0.751965 0.371145 0
0.782849 0.360418 0
0.812955 0.351934 0
0.841749 0.346441 0
0.870954 0.341176 0
0.899992 0.341176 0
0.928954 0.341634 0
0.95761 0.345708 0
0.984619 0.352941 0
1 0.358938 0
1 0.368872 0
1 0.380636 0
1 0.396078 0
0 0.364584 0
0 0.370764 0
0 0.372427 0
0 0.372427 0
0 0.371038 0
0 0.368505 0
0 0.368505 0
0 0.368505 0
0 0.375372 0
0 0.387503 0
0.0267033 0.402945 0
0.174685 0.422553 0
0.288609 0.445716 0
0.394369 0.467933 0
0.487129 0.483421 0
0.561776 0.488487 0
0.615686 0.486091 0
0.660166 0.476844 0
0.698085 0.4663 0
0.731868 0.453071 0
0.765072 0.44155 0
0.792035 0.43003 0
0.822919 0.41973 0
0.849882 0.412009 0
0.879774 0.405875 0
0.90721 0.402945 0
0.934676 0.401053 0
0.962982 0.403189 0
0.9897 0.408453 0
1 0.412741 0
1 0.420462 0
1 0.429908 0
1 0.44535 0
0 0.403189 0
0 0.41091 0
0 0.411032 0
0 0.411032 0
0 0.411032 0
0 0.407721 0
0 0.407111 0
0 0.407111 0
0 0.410483 0
0 0.418997 0
0 0.429908 0
0.0965133 0.448508 0
0.233738 0.468879 0
0.342641 0.492027 0
0.443641 0.514229 0
0.53254 0.529732 0
0.604288 0.537621 0
0.658091 0.536202 0
0.701946 0.529656 0
0.738689 0.520348 0
0.770596 0.508583 0
0.799756 0.496941 0
0.83064 0.486473 0
0.857603 0.477577 0
0.884565 0.470283 0
0.912856 0.464698 0
0.939879 0.460792 0
0.966888 0.460792 0
0.991638 0.462501 0
1 0.462867 0
1 0.468376 0
1 0.476097 0
1 0.487739 0
0 0.441794 0
0 0.449516 0
0 0.449638 0
0 0.449638 0
0 0.449638 0
0 0.445991 0
0 0.445716 0
0 0.445716 0
0 0.447089 0
0 0.452445 0
0 0.461433 0
0.0217136 0.476219 0
0.176013 0.493507 0
0.291432 0.51519 0
0.394491 0.537179 0
0.490929 0.557595 0
0.574945 0.573953 0
0.645701 0.584802 0
0.698405 0.587137 0
0.739223 0.580865 0
0.775296 0.572061 0
0.807477 0.560418 0
0.837705 0.552117 0
0.865324 0.54255 0
0.892287 0.533333 0
0.918791 0.528099 0
0.945464 0.522164 0
0.970459 0.518303 0
0.993133 0.516548 0
1 0.516548 0
1 0.516655 0
1 0.522423 0
1 0.531991 0
0 0.480385 0
0 0.482353 0
0 0.484306 0
0 0.484306 0
0 0.482597 0
0 0.482353 0
0 0.482353 0
0 0.482353 0
0 0.482353 0
0 0.485725 0
0 0.492897 0
0 0.503182 0
0.10515 0.51667 0
0.239643 0.536034 0
0.346319 0.557595 0
0.443687 0.580758 0
0.53431 0.6 0
0.616419 0.619364 0
0.68542 0.631983 0
0.736217 0.633341 0
0.775982 0.629908 0
0.811276 0.622187 0
0.842161 0.614466 0
0.870527 0.604776 0
0.899016 0.597055 0
0.923033 0.589334 0
0.949264 0.581979 0
0.972427 0.578119 0
0.996567 0.572549 0
1 0.570581 0
1 0.570581 0
1 0.572549 0
1 0.576471 0
0 0.515068 0
0 0.518944 0
0 0.52108 0
0 0.52108 0
0 0.519249 0
0 0.51899 0
0 0.517494 0
0 0.517159 0
0 0.517159 0
0 0.517159 0
0 0.522515 0
0 0.529656 0
0.0378424 0.54052 0
0.18909 0.556512 0
0.298283 0.575799 0
0.396445 0.598169 0
0.490929 0.621317 0
0.577813 0.643503 0
0.657237 0.663844 0
0.722194 0.675608 0
0.771695 0.679774 0
0.810666 0.676982 0
0.844114 0.670466 0
0.874418 0.662745 0
0.901442 0.655024 0
0.928069 0.647303 0
0.953063 0.64181 0
0.978302 0.635782 0
1 0.631983 0
1 0.628183 0
1 0.624521 0
1 0.622797 0
1 0.626719 0
0 0.548043 0
0 0.553628 0
0 0.555886 0
0 0.555886 0
0 0.552178 0
0 0.551965 0
0 0.551965 0
0 0.549752 0
0 0.549752 0
0 0.549752 0
0 0.551965 0
0 0.55845 0
0 0.566171 0
0.134707 0.579126 0
0.25539 0.596078 0
0.353674 0.616358 0
0.446326 0.638483 0
0.536217 0.663844 0
0.619379 0.68481 0
0.692729 0.702449 0
0.754803 0.716243 0
0.803891 0.722301 0
0.842405 0.720104 0
0.874998 0.715068 0
0.901961 0.709072 0
0.930266 0.70135 0
0.955154 0.696162 0
0.978302 0.68983 0
1 0.684321 0
1 0.678523 0
1 0.673045 0
1 0.669123 0
1 0.671321 0
0 0.582849 0
0 0.588312 0
0 0.588357 0
0 0.588357 0
0 0.586969 0
0 0.58677 0
0 0.584436 0
0 0.584436 0
0 0.584436 0
0 0.582849 0
0 0.584436 0
0 0.587808 0
0 0.594598 0
0.0707256 0.606165 0
0.215976 0.619944 0
0.31667 0.637629 0
0.408515 0.657725 0
0.494606 0.679286 0
0.579538 0.702449 0
0.658 0.724666 0
0.727565 0.741054 0
0.788174 0.754345 0
0.834806 0.759808 0
0.871077 0.76025 0
0.901961 0.756405 0
0.931991 0.750729 0
0.955154 0.746075 0
0.978302 0.738354 0
1 0.730922 0
1 0.726833 0
1 0.719265 0
1 0.715434 0
1 0.715434 0
0 0.61912 0
0 0.621576 0
0 0.623865 0
0 0.621576 0
0 0.621576 0
0 0.621576 0
0 0.621576 0
0 0.61912 0
0 0.61912 0
0 0.61912 0
0 0.61912 0
0 0.621698 0
0 0.625498 0
0.0302739 0.634668 0
0.180972 0.646235 0
0.284108 0.661036 0
0.374762 0.679164 0
0.461723 0.700908 0
0.543877 0.720836 0
0.623285 0.743999 0
0.696574 0.762676 0
0.763745 0.779782 0
0.820554 0.791424 0
0.866102 0.79559 0
0.899504 0.79559 0
0.929534 0.792813 0
0.956619 0.788479 0
0.979782 0.782223 0
1 0.777142 0
1 0.770718 0
1 0.76553 0
1 0.759319 0
1 0.759319 0
0 0.657725 0
0 0.661524 0
0 0.661646 0
0 0.661646 0
0 0.660456 0
0 0.657725 0
0 0.657725 0
0 0.657725 0
0 0.657725 0
0 0.656748 0
0 0.656367 0
0 0.657252 0
0 0.659327 0
0 0.666545 0
0.14406 0.675715 0
0.257618 0.687984 0
0.349508 0.704723 0
0.433234 0.722652 0
0.513726 0.741939 0
0.590936 0.76434 0
0.666667 0.783581 0
0.736156 0.801465 0
0.79968 0.813916 0
0.852827 0.82475 0
0.895674 0.828916 0
0.928634 0.828916 0
0.955886 0.828183 0
0.982223 0.824384 0
1 0.818341 0
1 0.813001 0
1 0.806653 0
1 0.802777 0
1 0.798901 0
0 0.69633 0
0 0.69633 0
0 0.699016 0
0 0.696574 0
0 0.69633 0
0 0.69633 0
0 0.69633 0
0 0.695094 0
0 0.692409 0
0 0.692409 0
0 0.692409 0
0 0.692409 0
0 0.694087 0
0 0.69865 0
0.101976 0.70515 0
0.23125 0.716213 0
0.323781 0.729168 0
0.40621 0.74461 0
0.484062 0.761227 0
0.560784 0.780514 0
0.635782 0.799023 0
0.705272 0.816907 0
0.772686 0.832349 0
0.831495 0.843122 0
0.880644 0.851713 0
0.920714 0.855512 0
0.954147 0.855879 0
0.981003 0.854231 0
1 0.851469 0
1 0.846555 0
1 0.839948 0
1 0.836149 0
1 0.832349 0
0 0.730999 0
0 0.73489 0
0 0.73492 0
0 0.73492 0
0 0.733959 0
0 0.731441 0
0 0.730999 0
0 0.730999 0
0 0.730999 0
0 0.730999 0
0 0.730999 0
0 0.730999 0
0 0.730999 0
0 0.732677 0
0.0636912 0.738369 0
0.212009 0.745251 0
0.30312 0.754833 0
0.383703 0.767773 0
0.460426 0.783215 0
0.533745 0.798657 0
0.607065 0.816907 0
0.678309 0.832349 0
0.744625 0.847791 0
0.805508 0.859312 0
0.861677 0.869856 0
0.907973 0.876951 0
0.946044 0.880644 0
0.977203 0.881132 0
1 0.87747 0
1 0.87364 0
1 0.869734 0
1 0.863203 0
1 0.859312 0
0 0.770596 0
0 0.770596 0
0 0.773526 0
0 0.770871 0
0 0.770596 0
0 0.770596 0
0 0.770596 0
0 0.767651 0
0 0.766659 0
0 0.766659 0
0 0.766659 0
0 0.766659 0
0 0.766659 0
0 0.767254 0
0.0507362 0.770596 0
0.194461 0.776593 0
0.288228 0.784314 0
0.36701 0.793408 0
0.439948 0.804959 0
0.513359 0.819852 0
0.582849 0.834318 0
0.653284 0.849424 0
0.71986 0.86128 0
0.783215 0.874907 0
0.841184 0.886275 0
0.89044 0.893996 0
0.933089 0.897795 0
0.970611 0.900984 0
0.997421 0.900618 0
1 0.897948 0
1 0.894118 0
1 0.890196 0
1 0.886275 0
0 0.811276 0
0 0.812131 0
0 0.812131 0
0 0.812131 0
0 0.811276 0
0 0.811276 0
0 0.808209 0
0 0.808209 0
0 0.807355 0
0 0.807355 0
0 0.807355 0
0 0.807355 0
0 0.807355 0
0 0.807355 0
0.0529488 0.809934 0
0.197787 0.813352 0
0.289342 0.818692 0
0.365103 0.826307 0
0.437736 0.83566 0
0.506737 0.847303 0
0.572839 0.858412 0
0.640436 0.870024 0
0.705272 0.882322 0
0.76704 0.893019 0
0.823896 0.903792 0
0.877089 0.911513 0
0.922835 0.916182 0
0.961654 0.919982 0
0.995071 0.923278 0
1 0.920134 0
1 0.919173 0
1 0.915343 0
1 0.912383 0
0 0.846082 0
0 0.846082 0
0 0.846082 0
0 0.846082 0
0 0.84329 0
0 0.842161 0
0 0.842161 0
0 0.842161 0
0 0.842161 0
0 0.842161 0
0 0.842161 0
0 0.842161 0
0 0.842161 0
0 0.842161 0
0.0585946 0.842161 0
0.200717 0.844236 0
0.288609 0.848035 0
0.361639 0.853529 0
0.430808 0.859236 0
0.495949 0.867842 0
0.560052 0.877729 0
0.624994 0.887007 0
0.686763 0.896819 0
0.747433 0.908461 0
0.805386 0.916182 0
0.858 0.923903 0
0.904906 0.930282 0
0.946685 0.934798 0
0.984802 0.938079 0
1 0.93872 0
1 0.934798 0
1 0.934707 0
1 0.930877 0
0 0.876967 0
0 0.876967 0
0 0.876967 0
0 0.876967 0
0 0.876967 0
0 0.874174 0
0 0.873152 0
0 0.873045 0
0 0.873045 0
