YOYO-Client/Yoyo/Assets.xcassets/Horizon.dataset/Horizon.cube
TITLE "Generated by Resolve"
LUT_3D_SIZE 5
0 0 0
0.105882 0.00784314 0
0.488243 0 0
0.816663 0 0
1 0 0
0 0.152941 0
0.128679 0.207843 0
0.563729 0.143145 0
0.842161 0.0529335 0
1 0.211765 0
0 0.480385 0
0 0.482353 0
0.53431 0.6 0
0.899016 0.597055 0
1 0.576471 0
0 0.770596 0
0 0.766659 0
0.288228 0.784314 0
0.841184 0.886275 0
1 0.886275 0
0.164706 1 0.411765
0.309804 1 0.411765
0.531365 1 0.396078
0.789212 1 0.331365
1 1 0
0 0 0.181369
0.158083 0 0.178439
0.512749 0 0.151476
0.818875 0 0.1402
1 0 0.114702
0 0.199023 0.209812
0.175372 0.21796 0.221256
0.552941 0.181735 0.186404
0.835294 0.145098 0.152392
1 0.234318 0.0911727
0 0.531868 0.216663
0 0.522911 0.221073
0.558083 0.605631 0.139467
0.887861 0.587747 0.0290379
1 0.574517 0
0 0.793133 0.23946
0 0.789944 0.236088
0.331868 0.788235 0.191913
0.841184 0.886275 0.0657511
1 0.886275 0
0.206867 1 0.502937
0.33431 1 0.503914
0.537255 1 0.488228
0.784314 1 0.449271
1 1 0.288243
0 0 0.580392
0.0735332 0 0.613733
0.603922 0 0.598032
0.853437 0 0.535302
1 0 0.515694
0 0.105882 0.572549
0.0121309 0.111894 0.603922
0.616175 0.170092 0.612741
0.855879 0.161151 0.556374
1 0.188724 0.513726
0 0.574502 0.604898
0 0.588724 0.615686
0.579416 0.623529 0.647547
0.845838 0.580392 0.581369
1 0.565682 0.507851
0 0.855879 0.582849
0 0.851835 0.585779
0.427451 0.827207 0.576715
0.831983 0.889464 0.604044
1 0.873533 0.544121
0.276463 1 0.684306
0.383825 1 0.688243
0.564706 1 0.688243
0.772549 1 0.672053
1 1 0.637263
0 0 0.870588
0.177935 0 0.880644
0.693141 0 0.903426
0.941176 0 0.88922
1 0 0.854902
0 0 0.862745
0.00183108 0 0.874327
0.68333 0 0.901473
0.932357 0.176837 0.888975
1 0.222797 0.856123
0 0.399023 0.844602
0 0.399023 0.850126
0.53431 0.439216 0.883574
0.890196 0.597299 0.89044
1 0.581369 0.852934
0 0.863722 0.862745
0 0.867643 0.866667
0.418265 0.87451 0.877455
0.840192 0.896208 0.899931
1 0.856611 0.851225
0.0843214 1 0.864698
0.35465 1 0.868635
0.626474 1 0.877455
0.806867 1 0.881376
0.996078 1 0.892149
0.501961 0 1
0.601968 0 1
0.796078 0 1
1 0 1
1 0.258824 1
0.322545 0 1
0.452934 0 1
0.774517 0 1
1 0 1
1 0.401968 1
0 0.217639 1
0.0117647 0.179904 1
0.658824 0.12549 1
0.965682 0.463233 1
1 0.666667 1
0 0.750973 1
0 0.737011 1
0 0.700984 1
0.8103 0.761761 1
1 0.88922 1
0 1 1
0 1 1
0.460792 1 1
0.800977 1 1
1 1 1
