YOYO-Client/Yoyo/Assets.xcassets/Horizon.dataset/Horizon.cube
TITLE "Generated by Resolve"
LUT_3D_SIZE 9
0 0 0
0.0191196 0 0
0.105882 0.00784314 0
0.275975 0 0
0.488243 0 0
0.666178 0 0
0.816663 0 0
0.959319 0 0
1 0 0
0 0.0377508 0
0.015198 0.049012 0
0.130999 0.0495155 0
0.313726 0 0
0.512261 0 0
0.680888 0 0
0.824018 0 0
0.962676 0 0
1 0 0
0 0.152941 0
0 0.154772 0
0.128679 0.207843 0
0.390066 0.201953 0
0.563729 0.143145 0
0.709804 0.0800183 0
0.842161 0.0529335 0
0.972549 0.0996262 0
1 0.211765 0
0 0.32549 0
0 0.326955 0
0 0.340322 0
0.342641 0.418082 0
0.616175 0.423285 0
0.751965 0.371145 0
0.870954 0.341176 0
0.984619 0.352941 0
1 0.396078 0
0 0.480385 0
0 0.482597 0
0 0.482353 0
0.10515 0.51667 0
0.53431 0.6 0
0.775982 0.629908 0
0.899016 0.597055 0
0.996567 0.572549 0
1 0.576471 0
0 0.61912 0
0 0.621576 0
0 0.61912 0
0 0.625498 0
0.374762 0.679164 0
0.696574 0.762676 0
0.899504 0.79559 0
1 0.777142 0
1 0.759319 0
0 0.770596 0
0 0.770596 0
0 0.766659 0
0 0.766659 0
0.288228 0.784314 0
0.582849 0.834318 0
0.841184 0.886275 0
0.997421 0.900618 0
1 0.886275 0
0 0.909316 0.0308843
0 0.908827 0.0205234
0 0.905394 0.0148318
0 0.904906 0.0106661
0.319112 0.904906 0.000488289
0.555703 0.919799 0
0.776349 0.943633 0
0.958389 0.962676 0
1 0.962249 0
0.164706 1 0.411765
0.223041 1 0.415686
0.309804 1 0.411765
0.417639 1 0.407843
0.531365 1 0.396078
0.654414 1 0.375006
0.789212 1 0.331365
0.923537 1 0.244602
1 1 0
0 0 0.0416724
0.030396 0 0.0377508
0.116304 0 0.0343175
0.291173 0 0.0343175
0.491905 0 0.0264744
0.662257 0 0.010605
0.812741 0 0
0.955398 0 0
1 0 0
0 0.049012 0.0412451
0.018204 0.0521401 0.0443427
0.135286 0.05037 0.0412451
0.320974 0.00573739 0.0355993
0.512474 0 0.0225528
0.675669 0 0.00556954
0.820096 0 0
0.961761 0 0
1 0 0
0 0.179904 0.0416724
0 0.177066 0.0451057
0.149416 0.211765 0.00729381
0.388235 0.194965 0
0.559808 0.146258 0
0.703655 0.103731 0
0.838239 0.0813458 0
0.968627 0.119997 0
1 0.217151 0
0 0.346746 0.0137179
0 0.347555 0.0150149
0 0.347799 0
0.357046 0.420096 0
0.61471 0.417487 0
0.748043 0.367224 0
0.867109 0.344839 0
0.982849 0.355581 0
1 0.397055 0
0 0.497551 0
0 0.498039 0
0 0.494301 0
0.15668 0.5205 0
0.542885 0.601968 0
0.77525 0.626719 0
0.895155 0.593133 0
0.994858 0.570581 0
1 0.576471 0
0 0.632166 0.00128176
0 0.634623 0.00155642
0 0.630655 0
0 0.633021 0
0.388876 0.6804 0
0.70164 0.764767 0
0.899504 0.79498 0
0.997848 0.774517 0
1 0.756863 0
0 0.778058 0.0253605
0 0.781048 0.0297398
0 0.777386 0.0100862
0 0.774502 0
0.303609 0.784314 0
0.585779 0.834318 0
0.841184 0.886275 0
0.997421 0.900618 0
1 0.886275 0
0 0.913237 0.155459
0 0.913115 0.158816
0 0.912749 0.147494
0.00360113 0.908827 0.124407
0.326711 0.908339 0.0650797
0.557839 0.92108 0.00724804
0.776303 0.943633 0
0.955398 0.962676 0
1 0.962249 0
0.187747 1 0.442649
0.246509 1 0.450492
0.322545 1 0.446082
0.423041 1 0.438422
0.533333 1 0.426719
0.654414 1 0.40589
0.788235 1 0.369726
0.9196 1 0.298589
1 1 0.0411841
0 0 0.181369
0.00355535 0 0.193988
0.158083 0 0.178439
0.322057 0 0.158816
0.512749 0 0.151476
0.673655 0 0.144121
0.818875 0 0.1402
0.958831 0 0.130022
1 0 0.114702
0 0.0348058 0.18529
0 0.0386053 0.197055
0.176379 0.0392157 0.196078
0.345586 0 0.176913
0.527443 0 0.164523
0.68101 0 0.157229
0.823774 0 0.146654
0.961761 0 0.130282
1 0 0.111772
0 0.199023 0.209812
0 0.207843 0.21471
0.175372 0.21796 0.221256
0.37818 0.205264 0.204746
0.552941 0.181735 0.186404
0.698405 0.157351 0.169787
0.835294 0.145098 0.152392
0.965682 0.161547 0.124239
1 0.234318 0.0911727
0 0.394125 0.205386
0 0.394614 0.215335
0.0737163 0.379995 0.22031
0.384802 0.424079 0.189639
0.606317 0.407904 0.165072
0.736278 0.368261 0.147845
0.859342 0.357961 0.127794
0.975814 0.368994 0.0878614
1 0.407843 0.0220645
0 0.531868 0.216663
0 0.531929 0.221576
0 0.522911 0.221073
0.236576 0.527581 0.199512
0.558083 0.605631 0.139467
0.772549 0.622065 0.0809491
0.887861 0.587747 0.0290379
0.988174 0.566674 0
1 0.574517 0
0 0.658824 0.228428
0 0.6598 0.233341
0 0.653437 0.230518
0.112673 0.647669 0.215686
0.413718 0.683085 0.169482
0.706859 0.766598 0.0723735
0.897429 0.793591 0.000823987
0.99443 0.770779 0
1 0.752941 0
0 0.793133 0.23946
0 0.795438 0.242191
0 0.789944 0.236088
0 0.78529 0.223438
0.331868 0.788235 0.191913
0.592371 0.834318 0.131212
0.841184 0.886275 0.0657511
0.993988 0.89868 0.00616464
1 0.886275 0
0 0.9196 0.286397
0 0.920104 0.289448
0 0.916548 0.282475
0.00833143 0.912673 0.270466
0.339284 0.908827 0.249027
0.557351 0.919799 0.217639
0.774731 0.943633 0.193408
0.954467 0.962676 0.152514
1 0.962249 0.00918593
0.206867 1 0.502937
0.262135 1 0.507851
0.33431 1 0.503914
0.430518 1 0.497185
0.537255 1 0.488228
0.652949 1 0.474388
0.784314 1 0.449271
0.915679 1 0.399023
1 1 0.288243
0 0 0.3897
0 0 0.404898
0.174762 0 0.424628
0.392157 0 0.404471
0.547555 0 0.358816
0.698528 0 0.334798
0.834195 0 0.322423
0.966674 0 0.316487
1 0 0.31667
0 0.0183261 0.392645
0 0.016022 0.408225
0.179294 0 0.434806
0.406867 0 0.415259
0.556619 0 0.371237
0.701961 0 0.345281
0.835645 0 0.331823
0.965682 0 0.323033
1 0 0.318624
0 0.146929 0.402945
0 0.151797 0.409751
0.12343 0.167803 0.433234
0.419867 0.19939 0.432959
0.570153 0.182727 0.397543
0.706401 0.174884 0.369574
0.839307 0.169879 0.353185
0.96524 0.178347 0.334051
1 0.237629 0.319112
0 0.399084 0.427451
0 0.406744 0.434134
0 0.416922 0.440681
0.402869 0.430549 0.453986
0.573495 0.413718 0.427482
0.714565 0.397543 0.401526
0.845594 0.387854 0.371572
0.967453 0.387427 0.34168
1 0.412741 0.314702
0 0.58407 0.412009
0 0.586023 0.42092
0.0303349 0.579904 0.431861
0.345129 0.563729 0.437995
0.569238 0.612619 0.430762
0.754406 0.611032 0.4103
0.869612 0.5785 0.373526
0.975647 0.564706 0.332845
1 0.574517 0.296071
0 0.704845 0.417639
0 0.705013 0.422553
0 0.6972 0.424018
0.260227 0.685237 0.421973
0.445808 0.691691 0.406867
0.710231 0.77171 0.407843
0.884932 0.789242 0.399512
0.983337 0.761288 0.339712
1 0.742092 0.272541
0 0.81912 0.4103
0 0.819486 0.415076
0 0.815198 0.412406
0.0997787 0.805508 0.40531
0.367956 0.799878 0.389395
0.592416 0.833951 0.380392
0.837934 0.886732 0.396292
0.983993 0.898039 0.392279
1 0.882353 0.326467
0 0.927947 0.427146
0 0.930083 0.430396
0 0.926162 0.424903
0.028397 0.920104 0.415488
0.353368 0.916182 0.401801
0.553063 0.9196 0.387747
0.765103 0.943511 0.393988
0.947051 0.962249 0.407752
1 0.961761 0.386954
0.237751 1 0.587747
0.287739 1 0.591669
0.352453 1 0.588357
0.442649 1 0.584741
0.546319 1 0.579904
0.654475 1 0.571511
0.776837 1 0.554284
0.907835 1 0.526772
1 1 0.463233
0 0 0.580392
0 0 0.593622
0.0735332 0 0.613733
0.435294 0 0.624262
0.603922 0 0.598032
0.723033 0 0.553429
0.853437 0 0.535302
0.974517 0 0.521324
1 0 0.515694
0 0 0.58088
0 0 0.5897
0.0698558 0 0.612253
0.442161 0 0.626871
0.611276 0 0.603433
0.726772 0 0.560784
0.856306 0 0.542092
0.973526 0 0.525521
1 0 0.515435
0 0.105882 0.572549
0 0.109621 0.581003
0.0121309 0.111894 0.603922
0.439216 0.134493 0.630579
0.616175 0.170092 0.612741
0.729961 0.156985 0.576715
0.855879 0.161151 0.556374
0.972366 0.154589 0.530632
1 0.188724 0.513726
0 0.314702 0.580636
0 0.319951 0.586023
0 0.329961 0.592157
0.37258 0.362493 0.622095
0.606867 0.416419 0.627939
0.728191 0.407843 0.598077
0.851164 0.392096 0.569055
0.966262 0.376806 0.536278
1 0.3897 0.511757
0 0.574502 0.604898
0 0.581247 0.609812
0 0.588724 0.615686
0.314336 0.603189 0.629282
0.579416 0.623529 0.647547
0.720958 0.6038 0.61912
0.845838 0.580392 0.581369
0.958694 0.561639 0.53959
1 0.565682 0.507851
0 0.751965 0.599023
0 0.754406 0.603922
0 0.752453 0.605386
0.318685 0.747616 0.612955
0.509926 0.728801 0.613733
0.712322 0.778988 0.623529
0.865568 0.776715 0.606744
0.965682 0.7402 0.54902
1 0.72549 0.503426
0 0.855879 0.582849
0 0.856855 0.587259
0 0.851835 0.585779
0.235233 0.840436 0.582345
0.427451 0.827207 0.576715
0.595407 0.834867 0.568811
0.831983 0.889464 0.604044
0.969116 0.894789 0.605081
1 0.873533 0.544121
0 0.943389 0.58088
0 0.944854 0.584314
0 0.939223 0.58088
0.173526 0.933425 0.575891
0.394491 0.925734 0.568017
0.556619 0.92221 0.55613
0.75172 0.939712 0.567407
0.935286 0.961822 0.602182
1 0.961761 0.607599
0.276463 1 0.684306
0.322545 1 0.688243
0.383825 1 0.688243
0.4701 1 0.688243
0.564706 1 0.688243
0.663966 1 0.682353
0.772549 1 0.672053
0.896086 1 0.660533
1 1 0.637263
0 0 0.732845
0 0 0.740688
0 0 0.756008
0.432898 0 0.773587
0.662257 0 0.779904
0.78529 0 0.760296
0.88101 0 0.729412
0.987564 0 0.713237
1 0 0.706859
0 0 0.731868
0 0 0.740032
0 0 0.753796
0.433448 0 0.773327
0.66421 0 0.782193
0.787442 0 0.762921
0.880293 0 0.732799
0.986313 0 0.715602
1 0 0.70753
0 0.0514687 0.723659
0 0.0424048 0.731731
0 0.0124971 0.745892
0.423407 0 0.772198
0.663661 0.0756695 0.785657
0.786313 0.155947 0.767773
0.877943 0.149996 0.738537
0.981979 0.164752 0.720409
1 0.179294 0.703929
0 0.245655 0.714214
0 0.249516 0.719493
0 0.260258 0.731838
0.352941 0.284657 0.7579
0.638727 0.355886 0.786267
0.775982 0.407263 0.776959
0.869841 0.4 0.748531
0.972732 0.383825 0.723033
1 0.375067 0.698528
0 0.489708 0.726711
0 0.493629 0.73048
0 0.497368 0.734554
0.16817 0.503151 0.744549
0.546929 0.540932 0.776104
0.750484 0.609339 0.78674
0.852079 0.596017 0.759319
0.954406 0.565194 0.722057
1 0.553674 0.693141
0 0.731868 0.749996
0 0.737316 0.753918
0 0.741924 0.758999
0.112367 0.750957 0.76701
0.499016 0.766018 0.780392
0.720516 0.788098 0.800107
0.829236 0.763317 0.769863
0.932174 0.735363 0.728923
1 0.724025 0.698039
0 0.88481 0.746563
0 0.887739 0.749508
0 0.88397 0.749508
0.236439 0.88101 0.753429
0.509743 0.873777 0.760296
0.655451 0.857252 0.760067
0.82797 0.891752 0.780606
0.946075 0.885664 0.766812
1 0.86041 0.717769
0 0.962432 0.733333
0 0.962249 0.736767
0 0.958511 0.736767
0.282551 0.952071 0.738048
0.481865 0.943389 0.737652
0.606806 0.931868 0.729793
0.743282 0.935332 0.726452
0.925673 0.961761 0.769162
1 0.958328 0.779599
0.258335 1 0.78088
0.31519 1 0.784802
0.400977 1 0.784802
0.5084 1 0.789639
0.603433 1 0.794125
0.690684 1 0.793561
0.77586 1 0.784802
0.888243 1 0.782361
1 1 0.786267
0 0 0.870588
0 0 0.870588
0.177935 0 0.880644
0.45539 0 0.893751
0.693141 0 0.903426
0.852811 0 0.905516
0.941176 0 0.88922
1 0 0.867155
1 0 0.854902
0 0 0.866667
0 0 0.870588
0.0712291 0 0.878431
0.454459 0 0.89218
0.692897 0 0.903426
0.850721 0 0.905303
0.937621 0 0.888731
1 0 0.866667
1 0 0.854414
0 0 0.862745
0 0 0.866667
0.00183108 0 0.874327
0.436942 0 0.888548
0.68333 0 0.901473
0.845808 0.0576333 0.905364
0.932357 0.176837 0.888975
0.999359 0.184558 0.868467
1 0.222797 0.856123
0 0.177447 0.85098
0 0.175006 0.855268
0 0.172549 0.863844
0.365316 0.172961 0.878889
0.646021 0.23003 0.897246
0.826474 0.354437 0.904906
0.916182 0.405921 0.890929
0.988373 0.402594 0.868635
1 0.409796 0.853437
0 0.399023 0.844602
0 0.400488 0.846571
0 0.399023 0.850126
0.0410468 0.403861 0.860044
0.53431 0.439216 0.883574
0.782223 0.541176 0.900984
0.890196 0.597299 0.89044
0.964706 0.589151 0.868132
1 0.581369 0.852934
0 0.65098 0.849012
0 0.651957 0.851469
0 0.651347 0.853925
0 0.647425 0.857847
0.345647 0.648035 0.863966
0.685359 0.700801 0.8851
0.854902 0.770611 0.891508
0.9337 0.756115 0.87071
1 0.732479 0.845228
0 0.863722 0.862745
0 0.866667 0.86569
0 0.867643 0.866667
0 0.870588 0.870069
0.418265 0.87451 0.877455
0.664927 0.882719 0.885573
0.840192 0.896208 0.899931
0.916426 0.874449 0.874998
1 0.856611 0.851225
0 0.977935 0.863111
0 0.977615 0.863111
0 0.974884 0.863111
0.266316 0.970733 0.86569
0.518624 0.964401 0.86685
0.68368 0.954894 0.87042
0.785412 0.939681 0.866667
0.923491 0.961334 0.889265
1 0.956985 0.886152
0.0843214 1 0.864698
0.219608 1 0.86569
0.35465 1 0.868635
0.495094 1 0.872541
0.626474 1 0.877455
0.732723 1 0.884321
0.806867 1 0.881376
0.888243 1 0.877821
0.996078 1 0.892149
0.241169 0 0.977935
0.308827 0 0.981369
0.430396 0 0.981857
0.546441 0 0.989212
0.736034 0 0.993133
0.896574 0 0.993133
0.997421 0 0.989212
1 0 0.97702
1 0 0.962249
0.147921 0 0.977935
0.244663 0 0.977935
0.358968 0 0.981857
0.528435 0 0.987655
0.733333 0 0.992706
0.893706 0 0.992981
0.994171 0 0.988022
1 0 0.974014
1 0.097612 0.962188
0 0 0.97438
0 0 0.977935
0.251255 0 0.981094
0.507866 0 0.985733
0.719799 0 0.990997
0.883818 0 0.992279
0.986114 0.136004 0.985656
1 0.25127 0.973739
1 0.287129 0.961273
0 0.0361486 0.970092
0 0.0217136 0.971572
0.0381018 0 0.974014
0.443809 0 0.980087
0.678828 0 0.985687
0.857542 0.191012 0.988739
0.967285 0.371069 0.983474
1 0.429908 0.970077
1 0.450675 0.958144
0 0.312505 0.958831
0 0.31078 0.962249
0 0.304845 0.964401
0.192493 0.295918 0.969451
0.569726 0.313359 0.976715
0.799512 0.406867 0.981857
0.934798 0.554528 0.977813
1 0.605951 0.96611
1 0.614466 0.952209
0 0.562249 0.950668
0 0.561364 0.953124
0 0.552941 0.954406
0 0.537057 0.954406
0.271077 0.527291 0.958328
0.677516 0.584436 0.967468
0.88481 0.712398 0.969604
0.965194 0.764218 0.961334
1 0.764401 0.946563
0 0.806867 0.943633
0 0.806867 0.946563
0 0.802945 0.946563
0 0.794873 0.946563
0 0.783886 0.946563
0.49369 0.776471 0.946563
0.797177 0.826078 0.955184
0.93872 0.882353 0.957839
1 0.874998 0.946197
0 0.966171 0.946563
0 0.966171 0.94699
0 0.965743 0.94699
0 0.962249 0.949996
0.361578 0.958328 0.949996
0.618692 0.954406 0.950423
0.804471 0.954406 0.953918
0.937118 0.964019 0.964828
0.992645 0.949996 0.950423
0 1 0.942641
0 1 0.946075
0.201831 1 0.942641
0.421073 1 0.942641
0.588724 1 0.944366
0.730877 1 0.946075
0.842283 1 0.949996
0.915679 1 0.953918
0.996078 1 0.961273
0.501961 0 1
0.532845 0 1
0.601968 0 1
0.701473 0 1
0.796078 0 1
0.935302 0 1
1 0 1
1 0.0436255 1
1 0.258824 1
0.470588 0 1
0.504967 0 1
0.577447 0 1
0.684321 0 1
0.785779 0 1
0.932662 0 1
1 0 1
1 0.172244 1
1 0.308339 1
0.322545 0 1
0.354284 0 1
0.452934 0 1
0.606256 0 1
0.774517 0 1
0.923522 0 1
1 0 1
1 0.313726 1
1 0.401968 1
0 0 1
0.176165 0 1
0.368139 0 1
0.561273 0 1
0.742641 0 1
0.898466 0 1
1 0.274388 1
1 0.462745 1
1 0.530388 1
0 0.217639 1
0 0.208087 1
0.0117647 0.179904 1
0.420829 0.135546 1
0.658824 0.12549 1
0.842649 0.244602 1
0.965682 0.463233 1
1 0.615198 1
1 0.666667 1
0 0.486763 1
0 0.482841 1
0 0.471443 1
0 0.452934 1
0.442405 0.443626 1
0.733822 0.489708 1
0.91017 0.620096 1
0.995285 0.754894 1
1 0.791669 1
0 0.750973 1
0 0.747066 1
0 0.737011 1
0 0.721691 1
0 0.700984 1
0.504417 0.697551 1
0.8103 0.761761 1
0.961273 0.858824 1
1 0.88922 1
0 0.939712 1
0 0.939712 1
0 0.93579 1
0 0.929717 1
0 0.920592 1
0.405814 0.910964 1
0.694606 0.903548 1
0.911772 0.927443 1
1 0.957839 1
0 1 1
0 1 1
0 1 1
0.1402 1 1
0.460792 1 1
0.651957 1 1
0.800977 1 1
0.919112 1 1
1 1 1
