YOYO-Client/Yoyo/Assets.xcassets/Dawn.dataset/Fuji-Sensia-100.cube
TITLE "Generated by Resolve"
LUT_3D_SIZE 5
0.0156863 0.0156863 0.0156863
0.187259 0.00881972 0.0156863
0.515679 0 0.0196078
0.803922 0 0.0284276
1 0 0.054902
0 0.204898 0.0196078
0.218387 0.212985 0.000244144
0.596567 0.195102 0
0.852201 0.135286 0
1 0.199023 0
0 0.537255 0.0372625
0.191669 0.539223 0.0259861
0.547051 0.546075 0
0.867155 0.552941 0
1 0.560784 0
0.234318 0.800977 0.215686
0.354894 0.800977 0.216419
0.567651 0.800977 0.199512
0.821317 0.80882 0.112016
1 0.827451 0
0.611765 0.988235 0.466667
0.649012 0.988235 0.470588
0.745098 0.984314 0.470588
0.876478 0.984314 0.462745
1 0.988235 0.443137
0 0.0117647 0.206867
0.226474 0 0.217899
0.520592 0 0.203922
0.780392 0 0.215686
1 0 0.236271
0 0.217639 0.213733
0.247547 0.225498 0.223285
0.554284 0.20502 0.218631
0.811765 0.188968 0.219608
1 0.237263 0.228672
0.0210727 0.54461 0.25539
0.277943 0.545098 0.260792
0.562249 0.548531 0.234318
0.865568 0.556863 0.181003
1 0.566659 0.171572
0.297307 0.804898 0.337255
0.397055 0.805447 0.340444
0.58677 0.803922 0.333333
0.824506 0.811765 0.294118
1 0.831373 0.209064
0.619608 0.988235 0.51667
0.657847 0.988235 0.520592
0.74902 0.984314 0.520592
0.877455 0.984314 0.515694
1 0.992157 0.500008
0 0.00392157 0.494118
0.174014 0 0.512749
0.598032 0 0.526467
0.830396 0 0.480385
1 0 0.478431
0 0.200488 0.485298
0.2038 0.201953 0.500618
0.608331 0.196078 0.522301
0.820584 0.221073 0.481376
1 0.254902 0.474998
0 0.53431 0.4804
0.261769 0.541909 0.486275
0.59118 0.560296 0.506371
0.824994 0.541909 0.485786
1 0.539223 0.466667
0.330388 0.80882 0.517647
0.438849 0.811765 0.52549
0.625986 0.811765 0.534066
0.832349 0.815686 0.519234
1 0.831373 0.481376
0.631373 0.992157 0.629404
0.669612 0.992157 0.632837
0.763729 0.988235 0.639216
0.880385 0.984314 0.639216
1 0.992157 0.627451
0 0 0.72549
0.0762188 0 0.733333
0.5897 0 0.758328
0.902937 0 0.764706
1 0 0.738231
0 0.178439 0.717647
0.162493 0.167468 0.725307
0.601099 0.151354 0.752453
0.900435 0.197848 0.76054
1 0.260533 0.736278
0 0.497063 0.698039
0.0705882 0.495094 0.701839
0.548531 0.501717 0.725246
0.876478 0.554894 0.752453
1 0.542153 0.722057
0 0.789212 0.694118
0.242527 0.792889 0.698772
0.558816 0.800366 0.71017
0.845228 0.823224 0.742153
1 0.803922 0.711513
0.561761 0.996078 0.767651
0.619608 0.996078 0.771572
0.753429 0.992157 0.786282
0.887251 0.991424 0.802945
1 0.996078 0.799023
0 0 0.984314
0.126467 0 0.988235
0.596078 0 0.992157
0.926467 0 1
1 0 0.996078
0 0.104906 0.983337
0.187259 0.0460822 0.984314
0.603922 0 0.988235
0.921569 0.0610361 0.996078
1 0.269612 0.995102
0 0.462745 0.978439
0 0.45098 0.980392
0.531365 0.433341 0.984314
0.884306 0.494118 0.992157
1 0.572549 0.990188
0 0.798047 0.969604
0 0.79411 0.973526
0.26421 0.769116 0.976471
0.786023 0.762753 0.982101
1 0.830396 0.988235
0.113725 1 0.980392
0.299016 1 0.980392
0.552941 1 0.984314
0.79118 1 0.992157
1 1 1
