YOYO-Client/Yoyo/Assets.xcassets/Dawn.dataset/Fuji-Sensia-100.cube
TITLE "Generated by Resolve"
LUT_3D_SIZE 9
0.0156863 0.0156863 0.0156863
0.0769665 0.0156863 0.0156863
0.187259 0.00881972 0.0156863
0.3402 0 0.0156863
0.515679 0 0.0196078
0.672557 0 0.0210727
0.803922 0 0.0284276
0.931868 0 0.0392157
1 0 0.054902
0.0161746 0.0769665 0.0196078
0.0808881 0.0803845 0.0156863
0.217777 0.0813764 0.00440986
0.379416 0.0470588 0.00440986
0.546075 0 0.00440986
0.691356 0 0.00588998
0.81912 0 0.012253
0.942641 0 0.0200961
1 0 0.0348058
0 0.204898 0.0196078
0.0696117 0.20589 0.0158083
0.218387 0.212985 0.000244144
0.410422 0.220951 0
0.596567 0.195102 0
0.737255 0.158328 0
0.852201 0.135286 0
0.96434 0.147555 0
1 0.199023 0
0 0.376471 0.0117647
0 0.379416 0.00784314
0.198047 0.379416 0
0.388174 0.387259 0
0.585779 0.393133 0
0.748531 0.380392 0
0.881987 0.369116 0
0.988235 0.366476 0
1 0.385779 0
0 0.537255 0.0372625
0 0.541176 0.0392157
0.191669 0.539223 0.0259861
0.367651 0.541176 0
0.547051 0.546075 0
0.719112 0.550973 0
0.867155 0.552941 0
0.9897 0.552941 0
1 0.560784 0
0 0.674022 0.122057
0.100191 0.676478 0.124514
0.251469 0.676478 0.122057
0.391669 0.676478 0.10631
0.536767 0.677943 0.0561227
0.689708 0.685786 0
0.839216 0.69424 0
0.966476 0.701656 0
1 0.709316 0
0.234318 0.800977 0.215686
0.275486 0.803922 0.218631
0.354894 0.800977 0.216419
0.454414 0.800977 0.213855
0.567651 0.800977 0.199512
0.692287 0.803922 0.168627
0.821317 0.80882 0.112016
0.942763 0.819608 0.00428779
1 0.827451 0
0.412741 0.907835 0.32108
0.435294 0.907835 0.32108
0.480385 0.907835 0.323659
0.552941 0.905211 0.324514
0.635782 0.903929 0.320836
0.731868 0.903929 0.309316
0.835294 0.903929 0.292287
0.935286 0.908278 0.262257
1 0.91519 0.216663
0.611765 0.988235 0.466667
0.623041 0.988235 0.470588
0.649012 0.988235 0.470588
0.691173 0.988235 0.470588
0.745098 0.984314 0.470588
0.806867 0.984314 0.469123
0.876478 0.984314 0.462745
0.949996 0.984314 0.45098
1 0.988235 0.443137
0.0117647 0.0156863 0.0808881
0.088304 0.0117647 0.0808881
0.192035 0.00526436 0.0808881
0.339895 0 0.0887312
0.504173 0 0.0926528
0.657053 0 0.100191
0.789578 0 0.107973
0.923537 0 0.116182
1 0 0.127947
0.00833143 0.0843214 0.0808881
0.0921645 0.0843824 0.0847486
0.211215 0.0808423 0.0848096
0.366522 0.0553597 0.0885634
0.530388 0 0.0921645
0.676143 0 0.0962692
0.804669 0 0.101671
0.931304 0 0.108705
1 0 0.119615
0 0.212375 0.0995041
0.096025 0.213352 0.0995041
0.229694 0.218204 0.0892805
0.417655 0.218753 0.0663005
0.591302 0.194125 0.057847
0.722011 0.165057 0.0659495
0.838605 0.151476 0.0767224
0.954131 0.163729 0.0848096
1 0.21323 0.094728
0 0.381674 0.11078
0.0354162 0.383337 0.114214
0.218143 0.383337 0.106142
0.395895 0.388174 0.0730449
0.588876 0.394369 0.00236515
0.748531 0.38088 0
0.876646 0.370092 0
0.982864 0.370398 0
1 0.392157 0
0 0.540932 0.13579
0.00900282 0.542885 0.139467
0.221378 0.541176 0.135286
0.380545 0.543038 0.115587
0.551965 0.547066 0.0618906
0.719768 0.55172 0
0.866728 0.552941 0
0.988205 0.554681 0
1 0.562753 0
0.0467536 0.677943 0.1897
0.157626 0.6804 0.190188
0.278431 0.677943 0.1897
0.404715 0.677943 0.18088
0.543145 0.677943 0.155154
0.693629 0.685786 0.103502
0.839826 0.696452 0
0.966171 0.703243 0
1 0.710781 0
0.258335 0.803922 0.257847
0.297826 0.803922 0.260792
0.371115 0.803922 0.261769
0.466056 0.803922 0.258946
0.57525 0.800977 0.248524
0.695079 0.803922 0.225483
0.824506 0.809552 0.18677
0.942763 0.819608 0.111254
1 0.828428 0.00857557
0.424445 0.907835 0.348043
0.446616 0.907835 0.351476
0.491661 0.907835 0.351476
0.560403 0.907347 0.351476
0.641199 0.903929 0.349264
0.735286 0.903929 0.339544
0.836149 0.904784 0.322713
0.935286 0.908278 0.296513
1 0.91519 0.258335
0.615686 0.988235 0.482353
0.627451 0.988235 0.485786
0.653925 0.988235 0.485786
0.692653 0.988235 0.486275
0.745098 0.984314 0.485786
0.808148 0.984314 0.485786
0.876478 0.984314 0.478309
0.949996 0.984314 0.4701
1 0.991669 0.462257
0 0.0117647 0.206867
0.0770886 0.00440986 0.211643
0.226474 0 0.217899
0.37145 0 0.208331
0.520592 0 0.203922
0.656855 0 0.207843
0.780392 0 0.215686
0.908827 0 0.223529
1 0 0.236271
0 0.0848096 0.207355
0.0700999 0.0805676 0.213901
0.236973 0.070161 0.222065
0.380377 0.0509804 0.212604
0.526467 0.0111543 0.211276
0.660655 0 0.211765
0.785809 0 0.21915
0.91519 0 0.223636
1 0.0488899 0.23444
0 0.217639 0.213733
0.0761883 0.222309 0.217868
0.247547 0.225498 0.223285
0.403189 0.218387 0.221561
0.554284 0.20502 0.218631
0.687251 0.193042 0.218631
0.811765 0.188968 0.219608
0.934218 0.198505 0.22182
1 0.237263 0.228672
0 0.389334 0.230518
0.105715 0.39118 0.235157
0.259129 0.39057 0.240681
0.413718 0.394186 0.226474
0.594675 0.396017 0.206195
0.741665 0.38555 0.202106
0.857969 0.377935 0.203586
0.964355 0.381857 0.206256
1 0.401099 0.209308
0.0210727 0.54461 0.25539
0.148226 0.546563 0.260792
0.277943 0.545098 0.260792
0.408087 0.54313 0.255146
0.562249 0.548531 0.234318
0.723033 0.55491 0.202457
0.865568 0.556863 0.181003
0.982544 0.560784 0.172549
1 0.566659 0.171572
0.172427 0.681254 0.290196
0.231495 0.681865 0.293751
0.323812 0.681498 0.295857
0.435294 0.679774 0.293141
0.557534 0.681865 0.279408
0.698238 0.686702 0.253559
0.840101 0.698161 0.215442
0.962737 0.705577 0.174868
1 0.714702 0.142519
0.297307 0.804898 0.337255
0.331777 0.807843 0.3402
0.397055 0.805447 0.340444
0.485542 0.804898 0.341176
0.58677 0.803922 0.333333
0.701961 0.804746 0.317983
0.824506 0.811765 0.294118
0.942641 0.81973 0.255024
1 0.831373 0.209064
0.442649 0.907835 0.404898
0.464836 0.911269 0.408331
0.506584 0.907835 0.408331
0.571969 0.907835 0.408331
0.650736 0.903929 0.407904
0.739208 0.903929 0.400168
0.838819 0.907347 0.387106
0.935286 0.911269 0.365515
1 0.915679 0.334798
0.619608 0.988235 0.51667
0.634806 0.988235 0.519738
0.657847 0.988235 0.520592
0.699016 0.988235 0.520592
0.74902 0.984314 0.520592
0.810788 0.984314 0.520226
0.877455 0.984314 0.515694
0.949996 0.984314 0.507851
1 0.992157 0.500008
0 0.0117647 0.354894
0 0.000183108 0.361273
0.222065 0 0.379904
0.41471 0 0.383337
0.566415 0 0.361761
0.684382 0 0.340749
0.794614 0 0.337743
0.911772 0 0.343145
1 0 0.354894
0 0.0805829 0.356863
0 0.0764935 0.364233
0.226963 0.0552987 0.379461
0.424201 0 0.383627
0.56994 0 0.362402
0.68278 0 0.344289
0.794308 0 0.342641
0.911269 0.0234226 0.346563
1 0.103243 0.353918
0 0.213733 0.361395
0 0.214099 0.362371
0.229908 0.213733 0.372427
0.436561 0.212879 0.383368
0.569604 0.208515 0.363058
0.680995 0.217029 0.350973
0.795712 0.221576 0.349996
0.913893 0.228077 0.349996
1 0.254902 0.352941
0 0.385779 0.359808
0 0.388724 0.361822
0.244343 0.395102 0.366674
0.433402 0.402594 0.376959
0.57319 0.394827 0.368658
0.695521 0.387823 0.362539
0.815686 0.383337 0.357351
0.933516 0.385962 0.352438
1 0.401465 0.349508
0.0272068 0.54583 0.36936
0.168566 0.54902 0.374014
0.317159 0.550973 0.381857
0.448585 0.550973 0.389731
0.574517 0.553552 0.37966
0.727733 0.560052 0.362768
0.861524 0.560784 0.357351
0.968872 0.558816 0.35108
1 0.562753 0.342397
0.230884 0.68278 0.397971
0.281865 0.685786 0.400977
0.370321 0.685786 0.404898
0.47068 0.685786 0.407904
0.576745 0.684779 0.40267
0.705974 0.690623 0.388663
0.843137 0.701854 0.365087
0.962737 0.709316 0.345418
1 0.714702 0.332845
0.333455 0.808454 0.428916
0.366613 0.8103 0.431861
0.427695 0.808454 0.432837
0.510918 0.807843 0.43566
0.603983 0.804898 0.433646
0.709667 0.807843 0.424964
0.828428 0.812375 0.408118
0.942641 0.823529 0.381247
1 0.831373 0.352819
0.462562 0.911574 0.477455
0.483513 0.911269 0.480888
0.525048 0.911269 0.481376
0.587259 0.907835 0.483818
0.662257 0.907347 0.483818
0.747051 0.907347 0.479789
0.839216 0.907347 0.471443
0.935256 0.911269 0.45594
1 0.919112 0.432044
0.627451 0.992157 0.567163
0.641367 0.992157 0.569604
0.66569 0.988235 0.569604
0.704417 0.988235 0.57261
0.756863 0.987503 0.573526
0.81471 0.984314 0.573526
0.879286 0.984314 0.569604
0.946563 0.988235 0.561761
1 0.992157 0.557839
0 0.00392157 0.494118
0 0 0.498039
0.174014 0 0.512749
0.411276 0 0.529412
0.598032 0 0.526467
0.728679 0 0.502449
0.830396 0 0.480385
0.928923 0 0.470588
1 0 0.478431
0 0.076463 0.489708
0 0.0686503 0.497337
0.185718 0.0436255 0.509071
0.418631 0 0.526558
0.602579 0 0.524514
0.728679 0 0.502449
0.828183 0 0.480262
0.926711 0.0150149 0.472023
1 0.102693 0.477455
0 0.200488 0.485298
0 0.200977 0.490196
0.2038 0.201953 0.500618
0.426474 0.201465 0.518868
0.608331 0.196078 0.522301
0.724758 0.197116 0.500008
0.820584 0.221073 0.481376
0.924025 0.236271 0.473533
1 0.254902 0.474998
0 0.368139 0.486763
0 0.370687 0.488243
0.213535 0.373526 0.489464
0.417151 0.381369 0.501686
0.601953 0.397543 0.514702
0.710567 0.395102 0.496086
0.812741 0.392462 0.48217
0.91986 0.387259 0.473045
1 0.390448 0.469123
0 0.53431 0.4804
0.0180209 0.538964 0.482353
0.261769 0.541909 0.486275
0.433829 0.549264 0.493751
0.59118 0.560296 0.506371
0.711391 0.551598 0.49633
0.824994 0.541909 0.485786
0.934188 0.533333 0.473411
1 0.539223 0.466667
0.188968 0.679408 0.491173
0.253193 0.681865 0.49427
0.358267 0.685786 0.499931
0.484382 0.689708 0.508858
0.602213 0.692897 0.517159
0.716426 0.696071 0.508583
0.85098 0.705394 0.494606
0.963882 0.706859 0.484474
1 0.705638 0.473533
0.330388 0.80882 0.517647
0.368017 0.811765 0.521569
0.438849 0.811765 0.52549
0.531868 0.811765 0.529412
0.625986 0.811765 0.534066
0.722118 0.811765 0.531182
0.832349 0.815686 0.519234
0.94313 0.823651 0.498772
1 0.831373 0.481376
0.468879 0.911772 0.556619
0.493141 0.913695 0.560265
0.53695 0.911772 0.562249
0.600977 0.91136 0.565682
0.677333 0.90956 0.568139
0.757839 0.907347 0.568139
0.843076 0.907347 0.563241
0.934798 0.911269 0.548989
1 0.919112 0.531121
0.631373 0.992157 0.629404
0.646571 0.992157 0.631373
0.669612 0.992157 0.632837
0.711513 0.988235 0.635294
0.763729 0.988235 0.639216
0.818631 0.987503 0.641184
0.880385 0.984314 0.639216
0.946075 0.988235 0.633341
1 0.992157 0.627451
0 0 0.609812
0 0 0.613718
0.122545 0 0.623407
0.383398 0 0.638239
0.6 0 0.652201
0.75938 0 0.649027
0.874998 0 0.630518
0.965011 0 0.611276
1 0 0.603433
0 0.0647135 0.605386
0 0.055848 0.609812
0.148089 0.0241398 0.619486
0.392584 0 0.634867
0.606714 0 0.650248
0.760296 0 0.648035
0.872358 0 0.629725
0.963241 0 0.610788
1 0.0851148 0.602762
0 0.19118 0.600977
0 0.19118 0.603571
0.181613 0.18909 0.611643
0.406867 0.184421 0.627024
0.611765 0.18584 0.644541
0.760296 0.188235 0.644862
0.867002 0.199908 0.628092
0.95523 0.230091 0.610117
1 0.25098 0.600977
0 0.347494 0.59173
0 0.348837 0.594049
0.190692 0.350484 0.598047
0.402396 0.360037 0.613169
0.604837 0.381369 0.634836
0.75491 0.395102 0.638178
0.85539 0.395102 0.622034
0.943206 0.39118 0.603128
1 0.3897 0.592645
0 0.520104 0.590692
0 0.521477 0.592645
0.210117 0.524025 0.594858
0.389425 0.524025 0.599268
0.570092 0.533822 0.616175
0.742947 0.558816 0.63241
0.839704 0.548409 0.614221
0.930541 0.530694 0.594522
1 0.52549 0.584314
0 0.667094 0.586282
0.116609 0.6701 0.589273
0.277684 0.67216 0.592676
0.424369 0.677943 0.598611
0.578424 0.687007 0.608606
0.729885 0.70277 0.624567
0.833707 0.690654 0.611276
0.933272 0.677745 0.596399
1 0.675486 0.587747
0.243015 0.801587 0.601343
0.294957 0.803433 0.602457
0.386023 0.804898 0.606378
0.504494 0.80882 0.615366
0.631312 0.815137 0.626719
0.74081 0.816785 0.637552
0.838758 0.819608 0.631006
0.946563 0.827451 0.615686
1 0.828428 0.610788
0.429419 0.911772 0.635782
0.459159 0.911772 0.637263
0.513405 0.911772 0.641184
0.596567 0.911772 0.648234
0.689708 0.911604 0.657603
0.771206 0.911269 0.66421
0.847944 0.911269 0.6607
0.934646 0.91519 0.650309
1 0.920409 0.637263
0.618143 0.993622 0.697063
0.633341 0.993622 0.698344
0.66421 0.992157 0.700984
0.713787 0.992157 0.707897
0.768627 0.990936 0.713481
0.826474 0.988235 0.718135
0.881498 0.988235 0.718135
0.942641 0.988235 0.714214
1 0.992157 0.710292
0 0 0.72549
0 0 0.72549
0.0762188 0 0.733333
0.369726 0 0.744732
0.5897 0 0.758328
0.775982 0 0.769726
0.902937 0 0.764706
0.997421 0 0.752453
1 0 0.738231
0 0.0387274 0.721569
0 0.023209 0.72549
0.117739 0 0.731624
0.381048 0 0.743008
0.595346 0 0.757656
0.775982 0 0.768551
0.902449 0 0.764218
0.996246 0 0.749722
1 0.0677653 0.737743
0 0.178439 0.717647
0 0.174762 0.718593
0.162493 0.167468 0.725307
0.396841 0.15668 0.73698
0.601099 0.151354 0.752453
0.777813 0.176806 0.764706
0.900435 0.197848 0.76054
0.990188 0.219242 0.747982
1 0.260533 0.736278
0 0.328435 0.705882
0 0.328923 0.709728
0.162783 0.329381 0.714549
0.39057 0.334371 0.725948
0.590631 0.349569 0.742641
0.768139 0.381964 0.760037
0.890196 0.397086 0.757046
0.978927 0.399023 0.743725
1 0.405753 0.730022
0 0.497063 0.698039
0 0.497063 0.698039
0.0705882 0.495094 0.701839
0.345098 0.491173 0.708766
0.548531 0.501717 0.725246
0.744854 0.536339 0.749508
0.876478 0.554894 0.752453
0.963241 0.549935 0.737499
1 0.542153 0.722057
0 0.655512 0.695216
0 0.657359 0.698039
0.0995346 0.657359 0.698863
0.334462 0.654902 0.702647
0.512749 0.654231 0.708827
0.700496 0.669154 0.727428
0.859098 0.699016 0.746563
0.943221 0.686275 0.727764
1 0.6701 0.707973
0 0.789212 0.694118
0.0317388 0.792157 0.697032
0.242527 0.792889 0.698772
0.40441 0.796078 0.702693
0.558816 0.800366 0.71017
0.706127 0.808118 0.721569
0.845228 0.823224 0.742153
0.930602 0.810208 0.726711
1 0.803922 0.711513
0.312871 0.907835 0.714092
0.354574 0.907835 0.717632
0.428428 0.907835 0.720592
0.534081 0.910414 0.725444
0.650065 0.911269 0.736095
0.765072 0.914336 0.750042
0.857481 0.91519 0.761639
0.934371 0.915618 0.75761
1 0.923033 0.749508
0.561761 0.996078 0.767651
0.58088 0.996078 0.770581
0.619608 0.996078 0.771572
0.681376 0.996078 0.778439
0.753429 0.992157 0.786282
0.825864 0.992157 0.798032
0.887251 0.991424 0.802945
0.942153 0.992157 0.802945
1 0.996078 0.799023
0 0 0.849027
0 0 0.849027
0.0711986 0 0.852934
0.374319 0 0.860792
0.586526 0 0.868635
0.773526 0 0.880079
0.921569 0 0.884321
1 0 0.879896
1 0 0.872541
0 0 0.845594
0 0 0.849027
0.118013 0 0.852934
0.38529 0 0.859007
0.591669 0 0.868345
0.775494 0 0.877562
0.921141 0 0.883818
1 0 0.879469
1 0.0587625 0.869062
0 0.15404 0.841672
0 0.147448 0.84509
0.160784 0.131746 0.849027
0.39791 0.101595 0.85539
0.597543 0.0670939 0.864637
0.775326 0.100832 0.875257
0.917433 0.178775 0.880385
1 0.220584 0.876478
1 0.266789 0.867765
0 0.310109 0.837247
0 0.30985 0.837446
0.131746 0.305959 0.841321
0.384802 0.301839 0.848219
0.584314 0.307347 0.85687
0.763912 0.335302 0.869322
0.905882 0.379904 0.877012
1 0.402945 0.874693
1 0.41912 0.865019
0 0.476219 0.825986
0 0.475975 0.827695
0 0.468879 0.829847
0.309468 0.46421 0.836606
0.531365 0.466178 0.845228
0.730144 0.49247 0.859556
0.886275 0.53817 0.872541
0.985779 0.558602 0.872084
1 0.56495 0.861036
0 0.640192 0.818143
0 0.63888 0.821408
0 0.634821 0.821576
0.159731 0.624201 0.822065
0.447059 0.616175 0.827695
0.671382 0.631678 0.842649
0.85803 0.678203 0.864332
0.964599 0.701473 0.868315
1 0.698039 0.85687
0 0.789212 0.815076
0 0.789578 0.817639
0 0.789212 0.817746
0.207568 0.78529 0.818998
0.439765 0.781003 0.822126
0.620111 0.773877 0.826474
0.809064 0.789364 0.842802
0.94522 0.823529 0.86482
1 0.812253 0.849515
0 0.907408 0.818143
0.00943008 0.907408 0.818143
0.209277 0.907347 0.81857
0.381109 0.904356 0.822065
0.533822 0.903929 0.825986
0.678523 0.903929 0.83006
0.815793 0.907027 0.841413
0.933516 0.921813 0.867872
1 0.911696 0.853376
0.432349 1 0.848524
0.459312 1 0.852445
0.511894 0.996567 0.852445
0.5897 0.996078 0.856367
0.684565 0.996078 0.860288
0.779904 0.996078 0.869429
0.872541 0.996078 0.883452
0.945586 0.992645 0.899077
1 0.996078 0.895582
0 0 0.984314
0 0 0.984314
0.126467 0 0.988235
0.393622 0 0.988235
0.596078 0 0.992157
0.775982 0 0.996078
0.926467 0 1
1 0 1
1 0 0.996078
0 0 0.983825
0 0 0.984314
0.158694 0 0.984314
0.40441 0 0.988052
0.599512 0 0.991669
0.779416 0 0.99559
0.92549 0 0.999512
1 0 0.999512
1 0.0789197 0.99559
0 0.104906 0.983337
0 0.0897078 0.984314
0.187259 0.0460822 0.984314
0.413718 0 0.987259
0.603922 0 0.988235
0.777081 0 0.992157
0.921569 0.0610361 0.996078
1 0.206378 0.996078
1 0.269612 0.995102
0 0.291661 0.982849
0 0.287739 0.982849
0.13431 0.276967 0.982849
0.395102 0.261219 0.984314
0.5897 0.25098 0.988235
0.764218 0.268132 0.992157
0.909804 0.325612 0.99498
1 0.390204 0.996078
1 0.423529 0.992157
0 0.462745 0.978439
0 0.459068 0.980392
0 0.45098 0.980392
0.291905 0.439948 0.982361
0.531365 0.433341 0.984314
0.725734 0.448524 0.988235
0.884306 0.494118 0.992157
0.993133 0.547799 0.992157
1 0.572549 0.990188
0 0.637751 0.974014
0 0.633829 0.974014
0 0.625986 0.976471
0 0.6103 0.977935
0.417899 0.597055 0.980392
0.661341 0.603983 0.984314
0.846571 0.64007 0.988235
0.968627 0.690196 0.9897
1 0.709316 0.988235
0 0.798047 0.969604
0 0.798047 0.972549
0 0.79411 0.973526
0 0.782727 0.973526
0.26421 0.769116 0.976471
0.558831 0.753796 0.978561
0.786023 0.762753 0.982101
0.937865 0.808331 0.988235
1 0.830396 0.988235
0 0.927443 0.969116
0 0.926955 0.972122
0 0.923537 0.973037
0.00581369 0.9196 0.973037
0.353674 0.91397 0.976959
0.560113 0.906554 0.980575
0.731365 0.895216 0.984314
0.899504 0.896513 0.988235
1 0.923033 0.992157
0.113725 1 0.980392
0.18677 1 0.980392
0.299016 1 0.980392
0.425498 1 0.984314
0.552941 1 0.984314
0.676478 1 0.988235
0.79118 1 0.992157
0.896086 1 0.996078
1 1 1
