YOYO-Client/Yoyo/Assets.xcassets/Dawn.dataset/Fuji-Sensia-100.cube
TITLE "Generated by Resolve"
LUT_3D_SIZE 33
0.0156863 0.0156863 0.0156863
0.0234073 0.0156863 0.0156863
0.0387274 0.0156863 0.0156863
0.0541695 0.0156863 0.0156863
0.0769665 0.0156863 0.0156863
0.10013 0.0156863 0.0156863
0.126467 0.0156863 0.0156863
0.153429 0.0126192 0.0156863
0.187259 0.00881972 0.0156863
0.221942 0.00109865 0.0156863
0.260533 0 0.0156863
0.299138 0 0.0156863
0.3402 0 0.0156863
0.382605 0 0.0196078
0.428916 0 0.0196078
0.471321 0 0.0196078
0.515679 0 0.0196078
0.558206 0 0.0196078
0.596811 0 0.0196078
0.635416 0 0.0196078
0.672557 0 0.0210727
0.704784 0 0.0235294
0.738231 0 0.0247501
0.770214 0 0.027451
0.803922 0 0.0284276
0.838727 0 0.0313726
0.869612 0 0.032105
0.900496 0 0.0352941
0.931868 0 0.0392157
0.962249 0 0.0395819
0.992645 0 0.0433814
1 0 0.0471809
1 0 0.054902
0.0156863 0.0272068 0.0156863
0.0272068 0.0273289 0.0156863
0.0424048 0.0272068 0.0156863
0.0580911 0.0273289 0.0118868
0.0807813 0.0273289 0.0118868
0.103914 0.0273289 0.0118868
0.130999 0.0272221 0.0149691
0.161151 0.0234073 0.0156863
0.192035 0.0165408 0.0156863
0.226932 0.0126192 0.0156863
0.264332 0.0011902 0.0156863
0.303029 0 0.0156863
0.345464 0 0.0156863
0.388067 0 0.0156863
0.432715 0 0.0156863
0.477028 0 0.0156863
0.519539 0 0.0157473
0.562005 0 0.0158083
0.600671 0 0.0174716
0.639216 0 0.0196078
0.673976 0 0.0196078
0.707347 0 0.0210422
0.739422 0 0.0235294
0.773037 0 0.0247196
0.804868 0 0.027451
0.838727 0 0.0284123
0.870314 0 0.0313726
0.904418 0 0.0320897
0.935286 0 0.0353094
0.966171 0 0.0392157
0.996216 0 0.0395819
1 0 0.0433814
1 0 0.0511025
0.0156863 0.0387274 0.0156863
0.0273136 0.0387274 0.0156863
0.0387274 0.0389563 0.0156863
0.0580911 0.042298 0.0154574
0.0840925 0.042649 0.0117647
0.107973 0.042649 0.0117647
0.137987 0.0394598 0.0117647
0.168872 0.038529 0.0117647
0.199756 0.0318608 0.0117647
0.234562 0.0241398 0.0117647
0.272053 0.0137331 0.0119326
0.310658 0.002533 0.0120089
0.35172 0 0.014313
0.395712 0 0.0156863
0.440436 0 0.0156863
0.482841 0 0.0156863
0.525246 0 0.0156863
0.565805 0 0.0156863
0.60441 0 0.0156863
0.643015 0 0.0156863
0.677852 0 0.0159304
0.711116 0 0.0196078
0.742153 0 0.019852
0.776791 0 0.0235294
0.807843 0 0.0235904
0.842405 0 0.0245823
0.873533 0 0.0274968
0.904418 0 0.028275
0.935286 0 0.0316167
0.966171 0 0.0352941
0.996323 0 0.0357671
1 0 0.0395819
1 0 0.047303
0.0192416 0.0541695 0.0192416
0.0273289 0.0541695 0.0192416
0.042298 0.0541695 0.0159152
0.0580911 0.0577249 0.0156863
0.0812085 0.0580911 0.0153658
0.111269 0.0616465 0.0117647
0.141787 0.0616465 0.0117647
0.175814 0.0585794 0.00820935
0.207477 0.0547799 0.00820935
0.244831 0.0470588 0.00820935
0.280888 0.0390784 0.00820935
0.321935 0.0251164 0.00820935
0.363134 0.00976577 0.00820935
0.405753 0 0.00965896
0.448157 0 0.00820935
0.492226 0 0.00820935
0.532967 0 0.0117647
0.573526 0 0.0117647
0.612131 0 0.0117647
0.647028 0 0.0119173
0.68394 0 0.0121309
0.71519 0 0.0156863
0.747189 0 0.0160525
0.780514 0 0.0170596
0.811765 0 0.0199741
0.846204 0 0.0207523
0.877089 0 0.0235904
0.907973 0 0.0238956
0.938842 0 0.0274968
0.966171 0 0.0281529
0.996323 0 0.0317388
1 0 0.0357824
1 0 0.0435035
0.0161746 0.0769665 0.0196078
0.0273289 0.0769665 0.0196078
0.0389715 0.0769665 0.0196078
0.0580911 0.0769665 0.0160067
0.0808881 0.0803845 0.0156863
0.111269 0.0808881 0.0123751
0.144945 0.0848096 0.00857557
0.179538 0.0844282 0.00784314
0.217777 0.0813764 0.00440986
0.256245 0.0775769 0.00440986
0.29485 0.0698558 0.00440986
0.337209 0.0616465 0.00440986
0.379416 0.0470588 0.00440986
0.421942 0.0253605 0.00440986
0.464454 0.00450141 0.00440986
0.505379 0 0.00440986
0.546075 0 0.00440986
0.58468 0 0.00440986
0.623285 0 0.00440986
0.657969 0 0.00440986
0.691356 0 0.00588998
0.725978 0 0.00833143
0.756863 0 0.00939956
0.787884 0 0.012253
0.81912 0 0.012253
0.850004 0 0.0157931
0.880888 0 0.0161746
0.911772 0 0.0167849
0.942641 0 0.0200961
0.973159 0 0.0204166
0.999542 0 0.0240177
1 0 0.0275731
1 0 0.0348058
0.0123751 0.10013 0.0196078
0.0240024 0.10013 0.0196078
0.0387274 0.10013 0.0196078
0.0577859 0.10013 0.0196078
0.0808881 0.103426 0.0160983
0.107973 0.104051 0.0156863
0.142153 0.107973 0.0117647
0.180026 0.111269 0.00784314
0.218631 0.111269 0.00392157
0.263355 0.110826 0.000167849
0.30576 0.106935 0
0.349294 0.100252 0
0.39411 0.0894636 0
0.43653 0.0759899 0
0.478676 0.0576181 0
0.51899 0.0335393 0
0.558206 0.00993362 0
0.596811 0 0
0.634806 0 0
0.668498 0 0
0.702693 0 0
0.734188 0 0.000610361
0.764462 0 0.000610361
0.795956 0 0.00122072
0.826841 0 0.00453193
0.857725 0 0.00466926
0.887984 0 0.00576791
0.916182 0 0.0084535
0.946441 0 0.00906386
0.97702 0 0.0123751
1 0 0.0131991
1 0 0.0170138
1 0 0.0241398
0.004654 0.130388 0.0196078
0.0200961 0.130388 0.0196078
0.0346075 0.130388 0.0196078
0.0545357 0.130388 0.0196078
0.0804913 0.130388 0.0196078
0.107347 0.1337 0.0156863
0.141421 0.134905 0.0117647
0.179324 0.138811 0.00784314
0.221576 0.142153 0.000976577
0.263966 0.145342 0
0.310292 0.142641 0
0.356619 0.138842 0
0.402487 0.131121 0
0.448524 0.122667 0
0.492332 0.112016 0
0.534432 0.0965744 0
0.573037 0.0800183 0
0.611643 0.0605631 0
0.646738 0.037232 0
0.679713 0.0152285 0
0.711025 0 0
0.741909 0 0
0.772793 0 0
0.803677 0 0
0.834562 0 0
0.864576 0 0
0.892409 0 0
0.923278 0 0
0.950896 0 0.000732433
0.980835 0 0.000732433
1 0.000793469 0.00146487
1 0.0326085 0.00158694
1 0.0821088 0.009308
0 0.161273 0.0196078
0.00549325 0.164248 0.0196078
0.024506 0.16434 0.0196078
0.05037 0.16434 0.0196078
0.076585 0.16434 0.0196078
0.107347 0.165194 0.0156863
0.138231 0.168261 0.0117647
0.176104 0.171511 0.00544747
0.217868 0.175982 0.000976577
0.263966 0.179156 0
0.310292 0.180026 0
0.36025 0.180026 0
0.408774 0.17557 0
0.456245 0.168994 0
0.502571 0.161273 0
0.54641 0.152697 0
0.585412 0.140627 0
0.623621 0.126711 0
0.660044 0.114336 0
0.691783 0.101961 0
0.722667 0.0892653 0
0.753552 0.076051 0
0.783581 0.0640726 0
0.813596 0.0555123 0
0.842283 0.048249 0
0.872297 0.0459602 0
0.90013 0.0465248 0
0.930388 0.0526894 0
0.95758 0.0617685 0
0.984634 0.0754559 0
1 0.096376 0
1 0.121233 0
1 0.149996 0
0 0.204898 0.0196078
0 0.204898 0.0196078
0.00650034 0.205814 0.0196078
0.0357824 0.20589 0.0196078
0.0696117 0.20589 0.0158083
0.103426 0.20589 0.0131991
0.138231 0.206683 0.00936904
0.176104 0.209796 0.00477607
0.218387 0.212985 0.000244144
0.262989 0.216815 0
0.312322 0.220645 0
0.360204 0.221576 0
0.410422 0.220951 0
0.460044 0.21706 0
0.508034 0.210544 0
0.55407 0.202823 0
0.596567 0.195102 0
0.635203 0.186404 0
0.671565 0.178241 0
0.706371 0.167041 0
0.737255 0.158328 0
0.764858 0.150607 0
0.795102 0.143816 0
0.822766 0.138384 0
0.852201 0.135286 0
0.880674 0.135286 0
0.907835 0.135851 0
0.937285 0.139834 0
0.96434 0.147555 0
0.991119 0.155367 0
1 0.166979 0
1 0.179782 0
1 0.199023 0
0 0.24155 0.0167849
0 0.245472 0.0167849
0 0.248112 0.0157626
0.0148623 0.24828 0.0156863
0.0582284 0.24828 0.0156863
0.0962539 0.24828 0.0119326
0.134676 0.24828 0.00857557
0.173281 0.249393 0.00172427
0.214832 0.252323 0
0.260044 0.253315 0
0.307134 0.257237 0
0.357336 0.261158 0
0.407553 0.262913 0
0.457755 0.262303 0
0.507347 0.259434 0
0.553674 0.254047 0
0.6 0.249149 0
0.640558 0.241428 0
0.678691 0.233707 0
0.715068 0.225986 0
0.745953 0.219318 0
0.776837 0.213352 0
0.805737 0.206867 0
0.834379 0.202945 0
0.861646 0.199847 0
0.888609 0.199023 0
0.918746 0.200656 0
0.94583 0.203555 0
0.970443 0.208453 0
0.995453 0.216175 0
1 0.223972 0
1 0.23566 0
1 0.252201 0
0 0.284062 0.0156863
0 0.287953 0.0156863
0 0.290517 0.0156863
0 0.290684 0.0129854
0.0352026 0.290684 0.0119173
0.0850538 0.290684 0.00949111
0.126955 0.290684 0.00564584
0.167666 0.290684 0.000854505
0.210117 0.291905 0
0.253437 0.295491 0
0.30161 0.297688 0
0.351766 0.299748 0
0.402701 0.30367 0
0.45391 0.306371 0
0.504128 0.306371 0
0.552407 0.302449 0
0.597299 0.29987 0
0.640558 0.294026 0
0.6804 0.287739 0
0.717769 0.28394 0
0.751995 0.276219 0
0.784558 0.271199 0
0.814221 0.265553 0
0.842405 0.261662 0
0.871382 0.258091 0
0.899382 0.258091 0
0.926467 0.258091 0
0.953552 0.260975 0
0.976867 0.262501 0
1 0.267521 0
1 0.275242 0
1 0.285695 0
1 0.298528 0
0 0.326589 0.0117647
0 0.332967 0.0117647
0 0.333089 0.0117647
0 0.333089 0.0117647
0.00471504 0.333089 0.00918593
0.0660258 0.333089 0.00784314
0.115938 0.333089 0.00418097
0.160906 0.333089 0
0.203311 0.334432 0
0.248661 0.337011 0
0.295949 0.340124 0
0.344854 0.341817 0
0.39498 0.345693 0
0.446693 0.347723 0
0.496941 0.349538 0
0.547189 0.348775 0
0.5935 0.346807 0
0.637278 0.344228 0
0.6766 0.339223 0
0.71519 0.334615 0
0.752453 0.330266 0
0.786664 0.324788 0
0.819242 0.319982 0
0.850126 0.317906 0
0.877089 0.315709 0
0.907103 0.312139 0
0.932097 0.312139 0
0.957565 0.313878 0
0.984436 0.316228 0
1 0.320104 0
1 0.32549 0
1 0.333211 0
1 0.344854 0
0 0.376471 0.0117647
0 0.377935 0.009308
0 0.379324 0.00793469
0 0.379416 0.00784314
0 0.379416 0.00784314
0.0389715 0.379416 0.00453193
0.102022 0.379416 0.000732433
0.153185 0.379416 0
0.198047 0.379416 0
0.244358 0.379416 0
0.290684 0.383337 0
0.337972 0.384298 0
0.388174 0.387259 0
0.438972 0.388724 0
0.489219 0.392004 0
0.539467 0.392645 0
0.585779 0.393133 0
0.631418 0.39118 0
0.672801 0.388632 0
0.711391 0.384787 0
0.748531 0.380392 0
0.785779 0.377096 0
0.820584 0.374014 0
0.851469 0.370092 0
0.881987 0.369116 0
0.911223 0.366171 0
0.937987 0.366171 0
0.965072 0.366171 0
0.988235 0.366476 0
1 0.370092 0
1 0.374014 0
1 0.378058 0
1 0.385779 0
0 0.417899 0.00784314
0 0.421744 0.0101778
0 0.423407 0.0101778
0 0.423407 0.00784314
0 0.423407 0.00784314
0.0100252 0.423407 0.00453193
0.087068 0.42182 0.00262455
0.14461 0.42182 0
0.191791 0.423011 0
0.238117 0.423407 0
0.284443 0.423407 0
0.330755 0.42678 0
0.381003 0.427329 0
0.430304 0.43061 0
0.480476 0.43125 0
0.528664 0.434424 0
0.578058 0.435172 0
0.621317 0.435172 0
0.66508 0.433585 0
0.70367 0.43061 0
0.74374 0.428183 0
0.78088 0.425742 0
0.815564 0.42182 0
0.84979 0.420706 0
0.882353 0.417899 0
0.913237 0.417899 0
0.9402 0.417594 0
0.969116 0.416541 0
0.993133 0.417899 0
1 0.418265 0
1 0.422065 0
1 0.425864 0
1 0.433585 0
0 0.458091 0.0139773
0 0.462013 0.0139773
0 0.465934 0.0139773
0 0.465934 0.0139773
0 0.465934 0.010544
0 0.46421 0.0100557
0.0737774 0.462425 0.00645457
0.136889 0.462013 0.00257877
0.187564 0.462013 0
0.234318 0.4636 0
0.280644 0.4654 0
0.326955 0.465934 0
0.373281 0.465934 0
0.422827 0.469856 0
0.470817 0.469856 0
0.520104 0.47274 0
0.566415 0.473777 0
0.612741 0.473777 0
0.655146 0.473777 0
0.695949 0.473777 0
0.735637 0.472053 0
0.773159 0.469856 0
0.811231 0.468132 0
0.84535 0.467521 0
0.878859 0.46421 0
0.911025 0.46421 0
0.9402 0.46421 0
0.970459 0.46421 0
0.993133 0.46421 0
1 0.464576 0
1 0.468132 0
1 0.472114 0
1 0.477699 0
0 0.496696 0.0216983
0 0.502388 0.0237125
0 0.50454 0.0237736
0 0.50454 0.0237736
0 0.50454 0.0216983
0 0.50454 0.019852
0.0688792 0.50454 0.0162814
0.135164 0.50454 0.0124056
0.186267 0.50454 0.00514229
0.232593 0.50454 0.000579843
0.27892 0.50454 0
0.325246 0.50454 0
0.37026 0.50454 0
0.415808 0.507607 0
0.462135 0.508461 0
0.510292 0.508461 0
0.556619 0.510292 0
0.601099 0.511269 0
0.644541 0.512383 0
0.686992 0.512383 0
0.726833 0.512383 0
0.765438 0.512383 0
0.804044 0.511803 0
0.838727 0.510536 0
0.872953 0.510536 0
0.907225 0.510079 0
0.937774 0.508461 0
0.966827 0.510536 0
0.993133 0.510536 0
1 0.510536 0
1 0.512383 0
1 0.514519 0
1 0.520226 0
0 0.537255 0.0372625
0 0.539223 0.0392157
0 0.541176 0.0392157
0 0.541176 0.0392157
0 0.541176 0.0392157
0 0.539528 0.0372625
0.0758526 0.539223 0.0337072
0.140627 0.539223 0.0302739
0.191669 0.539223 0.0259861
0.237064 0.539223 0.0187533
0.280888 0.539223 0.0071107
0.325246 0.541176 0.000671397
0.367651 0.541176 0
0.412802 0.542336 0
0.457237 0.54313 0
0.502693 0.544182 0
0.547051 0.546075 0
0.592462 0.547066 0
0.635782 0.547066 0
0.677394 0.550973 0
0.719112 0.550973 0
0.757717 0.551659 0
0.796323 0.552941 0
0.83241 0.552941 0
0.867155 0.552941 0
0.901473 0.552941 0
0.932357 0.552941 0
0.962936 0.552941 0
0.9897 0.552941 0
1 0.552941 0
1 0.555032 0
1 0.556924 0
1 0.560784 0
0 0.572061 0.0604105
0 0.573846 0.0604105
0 0.575982 0.0623636
0 0.575982 0.0604105
0 0.575982 0.0604105
0.0126192 0.575982 0.0604105
0.0965438 0.573892 0.0572366
0.153094 0.573892 0.0548714
0.199878 0.573892 0.0510109
0.243381 0.573892 0.0437476
0.285908 0.573892 0.0345922
0.325872 0.573892 0.0218204
0.368338 0.575982 0.00767529
0.410056 0.575982 0.000747692
0.453361 0.575982 0
0.496941 0.577813 0
0.540261 0.579904 0
0.583825 0.580758 0
0.627253 0.58265 0
0.669718 0.584573 0
0.711391 0.587747 0
0.749996 0.588373 0
0.788602 0.589578 0
0.826108 0.590173 0
0.860914 0.592126 0
0.895705 0.5935 0
0.926589 0.5935 0
0.957473 0.5935 0
0.986038 0.5935 0
1 0.595544 0
1 0.597421 0
1 0.597543 0
1 0.601343 0
0 0.604654 0.0796521
0 0.60853 0.0835279
0 0.610788 0.0835737
0 0.610788 0.0835737
0 0.608576 0.0835737
0.0563211 0.608576 0.0818647
0.121157 0.608576 0.0796521
0.170352 0.608576 0.0783093
0.213657 0.608576 0.0757305
0.252811 0.606867 0.071809
0.293629 0.606867 0.0652018
0.332235 0.608576 0.0560311
0.372213 0.608576 0.0428931
0.412665 0.608576 0.0261387
0.453208 0.610788 0.00836194
0.493935 0.610788 0
0.5364 0.612497 0
0.576913 0.61471 0
0.619379 0.615457 0
0.661158 0.618631 0
0.702602 0.619272 0
0.742275 0.622553 0
0.78088 0.624949 0
0.818387 0.626947 0
0.853193 0.628183 0
0.887984 0.628672 0
0.918868 0.632105 0
0.949752 0.632105 0
0.980148 0.632105 0
1 0.632319 0
1 0.634424 0
1 0.636103 0
1 0.639948 0
0 0.639338 0.101228
0 0.643214 0.102815
0 0.643259 0.104997
0 0.643259 0.102815
0.0379644 0.643259 0.102815
0.101595 0.643259 0.102815
0.149248 0.641962 0.102815
0.192142 0.641672 0.0994125
0.23125 0.641672 0.0988937
0.268254 0.641672 0.0949722
0.306859 0.641672 0.0915541
0.342351 0.641672 0.0856031
0.379156 0.641672 0.0784314
0.417151 0.643259 0.0654002
0.455756 0.643259 0.0493019
0.494362 0.645594 0.0284276
0.535286 0.645594 0.00717174
0.573892 0.646342 0
0.614832 0.649516 0
0.654078 0.649516 0
0.695949 0.653437 0
0.734554 0.65478 0
0.773159 0.657359 0
0.810666 0.66128 0
0.845869 0.661677 0
0.880262 0.665202 0
0.911452 0.666789 0
0.942031 0.667155 0
0.972915 0.669123 0
0.99855 0.669123 0
1 0.67071 0
1 0.670787 0
1 0.674632 0
0 0.674022 0.122057
0 0.676478 0.124514
0.00973526 0.676478 0.124514
0.0537118 0.676478 0.124514
0.100191 0.676478 0.124514
0.141543 0.676478 0.124514
0.178958 0.676478 0.122515
0.216129 0.676478 0.122057
0.251469 0.676478 0.122057
0.286275 0.676478 0.120302
0.320623 0.676478 0.116457
0.356985 0.676478 0.112612
0.391669 0.676478 0.10631
0.426352 0.676478 0.0991379
0.462104 0.677943 0.0892195
0.498161 0.677943 0.0752422
0.536767 0.677943 0.0561227
0.575372 0.679088 0.0312505
0.613321 0.681865 0.0100252
0.651102 0.681865 0
0.689708 0.685786 0
0.728313 0.686625 0
0.766918 0.689708 0
0.80441 0.692576 0
0.839216 0.69424 0
0.874022 0.697551 0
0.904906 0.700282 0
0.93579 0.701473 0
0.966476 0.701656 0
0.992889 0.705394 0
1 0.705394 0
1 0.706935 0
1 0.709316 0
0.0359045 0.707347 0.14522
0.0731212 0.711192 0.14902
0.0975052 0.711269 0.149142
0.125734 0.711269 0.149142
0.1514 0.711269 0.149142
0.180972 0.711269 0.149142
0.213733 0.711269 0.145708
0.243748 0.70927 0.14522
0.274632 0.708705 0.14522
0.307362 0.708705 0.14522
0.338964 0.708705 0.141299
0.369848 0.708705 0.13872
0.404654 0.708705 0.13492
0.437064 0.710231 0.128557
0.471794 0.711269 0.120836
0.505882 0.711269 0.113115
0.541848 0.711269 0.100862
0.577813 0.711269 0.0867628
0.61471 0.71519 0.0670329
0.651102 0.71519 0.0415961
0.689204 0.71667 0.0122988
0.72607 0.719112 0.000885023
0.76257 0.720348 0
0.799527 0.723033 0
0.834287 0.726955 0
0.868757 0.729824 0
0.899626 0.731365 0
0.93051 0.734798 0
0.961074 0.737545 0
0.987991 0.73872 0
1 0.738964 0
1 0.742641 0
1 0.74522 0
0.127459 0.742153 0.168383
0.142885 0.742153 0.170993
0.157107 0.742153 0.172305
0.17525 0.742153 0.172305
0.196963 0.742153 0.171237
0.219974 0.742153 0.168383
0.245335 0.742153 0.168383
0.272053 0.742153 0.168383
0.299687 0.742153 0.168383
0.328679 0.742153 0.168383
0.358709 0.742153 0.166522
0.389212 0.742153 0.164462
0.420096 0.742153 0.160998
0.45098 0.742153 0.157122
0.481865 0.742153 0.15172
0.515435 0.742153 0.143999
0.548287 0.742153 0.136278
0.582391 0.742153 0.127291
0.617105 0.743343 0.113039
0.651835 0.746075 0.0982834
0.688243 0.746075 0.0791333
0.723964 0.749203 0.0521859
0.758679 0.749996 0.0189517
0.793408 0.753048 0.00263981
0.828122 0.754589 0
0.861295 0.757839 0
0.895827 0.760769 0
0.926299 0.764462 0
0.953674 0.765682 0
0.980392 0.76849 0
1 0.769604 0
1 0.772335 0
1 0.773526 0
0.183093 0.771939 0.191546
0.195804 0.773037 0.191546
0.206378 0.773037 0.195468
0.220569 0.773037 0.195468
0.235904 0.773037 0.191546
0.2551 0.773037 0.191546
0.276722 0.773037 0.191546
0.29987 0.773037 0.191546
0.325856 0.773037 0.191546
0.352148 0.773037 0.191546
0.380026 0.773037 0.191546
0.406729 0.773037 0.1897
0.43595 0.773037 0.187625
0.466423 0.773037 0.184802
0.493385 0.773037 0.18088
0.524269 0.773037 0.174884
0.557961 0.773037 0.169116
0.588846 0.773037 0.16054
0.620966 0.773037 0.15172
0.654536 0.773037 0.13959
0.688243 0.77586 0.128069
0.723033 0.776959 0.112749
0.757839 0.777844 0.0942397
0.791852 0.780087 0.0677806
0.824231 0.781582 0.0314336
0.857466 0.785428 0.00823987
0.88922 0.787823 0
0.91899 0.791547 0
0.946914 0.792996 0
0.973922 0.795468 0
0.998962 0.796567 0
1 0.79939 0
1 0.800488 0
0.234318 0.800977 0.215686
0.244877 0.80383 0.21854
0.252689 0.803922 0.218631
0.263966 0.803922 0.218631
0.275486 0.803922 0.218631
0.290929 0.800977 0.215686
0.310292 0.800977 0.215686
0.331746 0.800977 0.215686
0.354894 0.800977 0.216419
0.378058 0.800977 0.215961
0.404166 0.800977 0.215686
0.429908 0.800977 0.215686
0.454414 0.800977 0.213855
0.483238 0.800977 0.212741
0.510231 0.800977 0.20882
0.538598 0.800977 0.204898
0.567651 0.800977 0.199512
0.598535 0.800977 0.192279
0.629419 0.800977 0.185534
0.660288 0.800977 0.177813
0.692287 0.803922 0.168627
0.725002 0.804257 0.157443
0.756802 0.805814 0.145892
0.7897 0.807843 0.130297
0.821317 0.80882 0.112016
0.854414 0.811765 0.0869764
0.885298 0.812497 0.0526894
0.915709 0.815686 0.0167239
0.942763 0.819608 0.00428779
0.969726 0.819974 0
0.992645 0.823529 0
1 0.827451 0
1 0.827451 0
0.286641 0.833951 0.242649
0.294362 0.833951 0.245716
0.299214 0.833951 0.245716
0.309514 0.833951 0.245716
0.320211 0.833951 0.245716
0.332479 0.831357 0.245716
0.347753 0.830884 0.245716
0.366415 0.830884 0.245716
0.385565 0.830884 0.245716
0.407355 0.830884 0.245716
0.430274 0.830884 0.245716
0.453437 0.830884 0.243702
0.479652 0.830884 0.242649
0.50367 0.830884 0.241794
0.530388 0.830884 0.24007
0.556985 0.830884 0.23827
0.585595 0.830884 0.234379
0.612985 0.830884 0.229038
0.643015 0.830884 0.225238
0.672648 0.83212 0.217517
0.700862 0.833951 0.210666
0.731746 0.833951 0.20264
0.762615 0.833951 0.191302
0.7935 0.83566 0.182712
0.823529 0.837873 0.168872
0.854414 0.837873 0.156374
0.885298 0.841794 0.138567
0.914839 0.841794 0.11841
0.941894 0.845716 0.0894484
0.966094 0.846082 0.0486
0.991836 0.849638 0.0124971
1 0.85272 0.000823987
1 0.853559 0
0.329168 0.857847 0.268879
0.333806 0.861036 0.268879
0.340688 0.861036 0.268879
0.348409 0.858137 0.268879
0.35613 0.857847 0.268879
0.367163 0.857221 0.268879
0.381857 0.857114 0.268879
0.397299 0.857114 0.268879
0.415686 0.857114 0.268879
0.434928 0.857114 0.268879
0.455161 0.857114 0.268879
0.477333 0.857114 0.268879
0.499748 0.857114 0.268879
0.524804 0.857114 0.268879
0.549676 0.857114 0.267079
0.574853 0.857114 0.26569
0.599512 0.857114 0.263355
0.626596 0.857114 0.259541
0.653681 0.857114 0.256123
0.682048 0.857114 0.250004
0.709041 0.857114 0.244602
0.739467 0.857114 0.23714
0.766415 0.857343 0.229908
0.797101 0.861036 0.222187
0.827451 0.861036 0.213672
0.854994 0.861036 0.203387
0.884565 0.864958 0.191318
0.911635 0.864958 0.179156
0.93872 0.868223 0.161028
0.962188 0.868879 0.141741
0.988235 0.872099 0.11548
1 0.872892 0.0866865
1 0.876722 0.0541695
0.368383 0.884184 0.292653
0.375494 0.884184 0.295857
0.379324 0.884184 0.295949
0.387015 0.884184 0.292653
0.394247 0.884184 0.292653
0.402457 0.884184 0.292653
0.416785 0.884184 0.292653
0.428794 0.884184 0.292653
0.447547 0.884184 0.292653
