YOYO-Client/Yoyo/Assets.xcassets/Frost.dataset/Fuji-T64.cube
TITLE "Fuji-T64"
LUT_3D_SIZE 9
0 0.0117647 0.027451
0.0500038 0.0196078 0.0431373
0.126467 0.027451 0.0656901
0.241184 0.0171511 0.0926528
0.386282 0 0.123537
0.54461 0 0.154406
0.702937 0 0.181369
0.86128 0 0.212253
1 0 0.247059
0 0.0887312 0.0392157
0.049073 0.0887312 0.042649
0.156863 0.0887312 0.045716
0.279408 0.0745098 0.0735332
0.420829 0.0372473 0.108339
0.573709 0 0.142641
0.725978 0 0.170092
0.876036 0 0.200977
1 0 0.239216
0 0.218631 0.054902
0 0.222553 0.054902
0.147311 0.215686 0.0588235
0.308217 0.207233 0.054902
0.48481 0.192157 0.054902
0.639216 0.149142 0.090074
0.778439 0.100008 0.128679
0.91078 0.0514687 0.167163
1 0.079408 0.20589
0 0.39118 0.0264744
0 0.39118 0.0264744
0.0518349 0.391546 0.0240177
0.319677 0.37641 0.030396
0.500496 0.35465 0.0127413
0.674937 0.342641 0
0.831983 0.322057 0.000732433
0.957168 0.299016 0.0483406
1 0.299504 0.117159
0 0.576471 0
0 0.576471 0
0 0.576471 0
0.312993 0.570092 0
0.518624 0.542153 0
0.681865 0.513726 0
0.835782 0.505394 0
0.970581 0.499748 0
1 0.494118 0
0 0.740688 0
0 0.740688 0
0 0.740688 0
0.304417 0.737682 0
0.529412 0.725002 0
0.695094 0.697002 0
0.834195 0.66949 0
0.960967 0.662257 0
1 0.666178 0
0 0.869612 0
0 0.869612 0
0.00808728 0.869612 0
0.353429 0.86569 0
0.549996 0.860288 0
0.712139 0.845594 0
0.84387 0.822797 0
0.954772 0.803555 0
1 0.8 0
0.0137331 0.957839 0
0.156558 0.957839 0
0.311894 0.954406 0
0.46128 0.953918 0
0.607111 0.948287 0
0.743633 0.940871 0
0.863233 0.9299 0
0.962737 0.91519 0
1 0.903426 0
0.4 1 0.101961
0.426963 1 0.101961
0.491173 1 0.105882
0.579904 1 0.105882
0.6804 1 0.109804
0.786267 1 0.100496
0.885298 1 0.0568704
0.974014 0.996078 0
1 0.988235 0
0 0.015198 0.13579
0.0308843 0.0156863 0.13579
0.137377 0.0235294 0.140078
0.236759 0.0509804 0.166171
0.375006 0.032105 0.188724
0.533333 0 0.208148
0.691661 0 0.227451
0.853437 0 0.250492
1 0 0.285298
0 0.0887312 0.143572
0.0116426 0.0925917 0.146258
0.129625 0.0965744 0.15404
0.256947 0.0962997 0.167269
0.405386 0.0784314 0.183093
0.55996 0.0201114 0.200595
0.714214 0 0.220081
0.865629 0 0.243137
1 0 0.277455
0 0.218631 0.147555
0 0.222553 0.147555
0.14081 0.219364 0.147463
0.312673 0.210788 0.143404
0.482353 0.189212 0.146807
0.628824 0.156985 0.168276
0.768017 0.118105 0.192737
0.902235 0.0882124 0.219287
1 0.114092 0.25098
0 0.39118 0.136767
0 0.39118 0.136767
0.0432441 0.395102 0.136767
0.321935 0.378302 0.132845
0.505058 0.357259 0.123186
0.679347 0.343999 0.113237
0.829984 0.319692 0.117082
0.951858 0.299199 0.146181
1 0.302266 0.184802
0 0.576471 0.0931411
0 0.576471 0.0914168
0 0.576471 0.0909285
0.314794 0.572396 0.0870069
0.521447 0.543999 0.0832074
0.685786 0.516823 0.0615244
0.836271 0.507347 0.030457
0.970581 0.499748 0
1 0.494118 0.00343328
0 0.740688 0.00643931
0 0.740688 0.00643931
0 0.740688 0.00428778
0.308339 0.737682 0
0.532113 0.726802 0
0.696635 0.697551 0
0.835294 0.6701 0
0.962554 0.662257 0
1 0.666178 0
0 0.869612 0
0 0.869612 0
0.0137942 0.866667 0
0.357351 0.86569 0
0.551781 0.860288 0
0.713848 0.845594 0
0.84387 0.822797 0
0.954772 0.803876 0
1 0.8 0
0.0221256 0.957839 0.0760967
0.17174 0.957839 0.0765393
0.31928 0.954086 0.0800031
0.465202 0.951782 0.0804608
0.60882 0.948287 0.0785229
0.743633 0.940871 0.0458686
0.863233 0.9299 0.000320439
0.962676 0.91519 0
1 0.903426 0
0.403922 1 0.186267
0.430884 1 0.18677
0.492164 1 0.18677
0.579904 1 0.190204
0.682353 1 0.190692
0.786267 1 0.186587
0.885298 1 0.161761
0.974014 0.996078 0.122057
1 0.988235 0.0421607
0 0.0156863 0.254902
0 0.0165408 0.254902
0.118624 0.0156863 0.254902
0.27892 0 0.254902
0.420584 0 0.262745
0.545098 0.0197299 0.287617
0.685542 0.00221256 0.307836
0.838605 0 0.327825
0.98529 0 0.357839
0 0.0848096 0.259678
0 0.0887312 0.262257
0.128069 0.0887312 0.262257
0.290074 0.0753338 0.258824
0.415381 0.10454 0.274205
0.547372 0.115816 0.294789
0.694636 0.0868544 0.307836
0.849149 0.0238956 0.326955
0.993011 0.04448 0.353918
0 0.21471 0.268879
0 0.218631 0.270588
0.123217 0.225742 0.272236
0.289738 0.223377 0.27451
0.443137 0.215076 0.281621
0.59115 0.199481 0.289738
0.737987 0.17818 0.299199
0.880674 0.16173 0.314183
1 0.181369 0.339208
0 0.39118 0.267765
0 0.39118 0.267765
0.0312505 0.395102 0.266941
0.327413 0.384802 0.262135
0.515557 0.365927 0.254108
0.683894 0.346563 0.248325
0.817639 0.322789 0.257847
0.936233 0.308171 0.273899
1 0.317769 0.297063
0 0.576471 0.251957
0 0.576471 0.251957
0 0.576471 0.251957
0.318563 0.57586 0.248035
0.527947 0.549508 0.239216
0.692836 0.522301 0.226963
0.841306 0.511635 0.216052
0.970581 0.501472 0.202945
1 0.494118 0.212253
0 0.739208 0.232227
0 0.739208 0.232227
0 0.739208 0.232227
0.318105 0.736996 0.23003
0.536645 0.72752 0.223285
0.700038 0.700694 0.207645
0.837659 0.673777 0.184802
0.962554 0.666178 0.16434
1 0.666178 0.131868
0 0.866667 0.229664
0 0.866667 0.229664
0.0688182 0.86569 0.230396
0.36939 0.86302 0.229938
0.556252 0.858824 0.226474
0.714214 0.846693 0.209308
0.84387 0.824262 0.180087
0.954406 0.803922 0.136736
1 0.8 0.0931411
0.107973 0.954406 0.258335
0.202518 0.954406 0.258701
0.334646 0.953918 0.258824
0.474144 0.950179 0.261402
0.612924 0.946319 0.261402
0.743999 0.940871 0.250477
0.863111 0.930755 0.225498
0.962249 0.91519 0.183169
1 0.903426 0.122179
0.415686 1 0.309804
0.442527 1 0.309804
0.502205 1 0.309804
0.587747 1 0.312749
0.685786 1 0.313726
0.786267 1 0.311635
0.885298 1 0.296086
0.970092 0.996078 0.266178
1 0.988235 0.230396
0 0.0156863 0.378439
0 0.0156863 0.378439
0.0493935 0.00784314 0.378439
0.263233 0 0.378439
0.447791 0 0.377691
0.618631 0 0.370596
0.740078 0 0.384802
0.857847 0 0.41323
0.982849 0.101961 0.448035
0 0.0808881 0.386084
0 0.0808881 0.386084
0.0593881 0.0806592 0.386084
0.278431 0.0619516 0.386084
0.462348 0 0.381613
0.622553 0 0.37499
0.736904 0.0205692 0.39353
0.857572 0.108659 0.419303
0.982849 0.172244 0.450492
0 0.206867 0.397055
0 0.208331 0.397665
0.0600137 0.210788 0.398047
0.303914 0.208103 0.397665
0.48867 0.188785 0.390005
0.615228 0.209155 0.393072
0.730388 0.236332 0.410544
0.858839 0.24448 0.425681
0.989334 0.263233 0.446571
0 0.379416 0.40441
0 0.38088 0.405814
0.00344854 0.387945 0.408331
0.333196 0.393606 0.412253
0.494972 0.383795 0.409796
0.635447 0.370443 0.408881
0.771084 0.356573 0.40911
0.896086 0.348043 0.413916
1 0.361273 0.430884
0 0.56936 0.403189
0 0.572396 0.40441
0 0.573281 0.40441
0.328405 0.576471 0.40441
0.537499 0.55845 0.394614
0.701473 0.53579 0.382574
0.845838 0.520043 0.372
0.958083 0.500832 0.370336
1 0.496086 0.380148
0 0.736767 0.396017
0 0.736767 0.396567
0 0.736767 0.396567
0.335729 0.735851 0.396567
0.542092 0.730877 0.393866
0.704479 0.70518 0.374228
0.839216 0.679774 0.354437
0.961761 0.671443 0.339818
1 0.666178 0.320592
0 0.86569 0.396567
0 0.864073 0.396567
0.145464 0.862745 0.397452
0.388724 0.861769 0.39939
0.56434 0.85803 0.39939
0.716442 0.84889 0.385
0.843412 0.826474 0.35671
0.953552 0.807355 0.327398
1 0.802945 0.308217
0.175677 0.953918 0.416175
0.244602 0.953918 0.416632
0.358099 0.950484 0.416663
0.488426 0.949996 0.416663
0.620584 0.946075 0.416663
0.747555 0.93872 0.41294
0.860197 0.930755 0.390875
0.958328 0.918196 0.353918
1 0.903929 0.317342
0.431373 1 0.447547
0.45687 1 0.447547
0.513603 1 0.447547
0.59559 1 0.449027
0.689464 1 0.451469
0.788724 1 0.451469
0.880766 1 0.439094
0.966171 0.996078 0.415686
1 0.988235 0.38088
0 0.00981155 0.505882
0 0.00613413 0.505882
0 0 0.505882
0.234806 0 0.505882
0.434318 0 0.505882
0.619852 0 0.501961
0.78529 0 0.495583
0.917403 0 0.494362
1 0 0.521569
0 0.0730449 0.513481
0 0.0730449 0.513481
0 0.0654459 0.513237
0.246174 0.0377508 0.511513
0.447669 0 0.510658
0.629511 0 0.50695
0.793133 0 0.497551
0.915465 0 0.499565
1 0.00686656 0.527199
0 0.193622 0.524514
0 0.193622 0.524514
0 0.193256 0.524514
0.272297 0.188907 0.524514
0.475242 0.172549 0.521569
0.653437 0.134127 0.516426
0.805508 0.0551461 0.503059
0.908522 0.144732 0.511086
1 0.248524 0.5402
0 0.359808 0.537255
0 0.361761 0.537255
0 0.365499 0.539712
0.302449 0.365682 0.539986
0.510292 0.361761 0.539712
0.6804 0.345373 0.527947
0.794614 0.353918 0.522057
0.88922 0.38294 0.533913
0.992889 0.413733 0.55491
0 0.550973 0.545098
0 0.551843 0.546929
0 0.556374 0.54902
0.324758 0.562753 0.554528
0.547555 0.570596 0.561273
0.676478 0.553918 0.550607
0.794858 0.534798 0.541909
0.907591 0.52047 0.535286
1 0.524514 0.541176
0 0.728923 0.547066
0 0.728923 0.54902
0 0.730144 0.550973
0.351965 0.730907 0.55491
0.552331 0.731365 0.558831
0.708125 0.713726 0.540444
0.839216 0.692409 0.522301
0.95848 0.677943 0.504906
1 0.666178 0.496574
0 0.861769 0.550973
0 0.861769 0.550973
0.191058 0.858824 0.553429
0.407355 0.857847 0.555215
0.574014 0.854902 0.558831
0.719982 0.850614 0.553613
0.839948 0.830396 0.522545
0.948287 0.809125 0.493874
1 0.806867 0.478431
0.215198 0.949996 0.562997
0.275029 0.949996 0.563241
0.378988 0.948714 0.56495
0.501564 0.946075 0.566918
0.628428 0.942153 0.568872
0.747555 0.938231 0.56994
0.855268 0.930755 0.553124
0.950484 0.918624 0.516121
1 0.907347 0.484565
0.447059 1 0.584314
0.471809 1 0.584314
0.52549 1 0.586282
0.603433 1 0.588235
0.692164 1 0.589212
0.784802 1 0.590188
0.873533 1 0.585779
0.957839 0.996078 0.566171
1 0.988235 0.53138
0 0 0.641169
0 0 0.641169
0 0 0.638727
0.193133 0 0.637812
0.416907 0 0.637263
0.60827 0 0.636332
0.778058 0 0.633326
0.93138 0 0.629099
1 0 0.621576
0 0.0558785 0.645106
0 0.0521248 0.644785
0 0.036759 0.644785
0.205524 0.000808728 0.641657
0.426474 0 0.641169
0.61648 0 0.640864
0.78529 0 0.637263
0.935134 0 0.630701
1 0 0.621576
0 0.178302 0.652949
0 0.176333 0.652949
0 0.174014 0.652949
0.230457 0.163729 0.651957
0.448524 0.141848 0.649027
0.63682 0.0979019 0.649027
0.800458 0.00854505 0.644022
0.942809 0 0.633021
1 0 0.625498
0 0.33872 0.664714
0 0.33872 0.664714
0 0.33872 0.664714
0.259464 0.334798 0.664714
0.477455 0.329412 0.663233
0.662272 0.321218 0.661738
0.817823 0.302449 0.653407
0.95079 0.253239 0.634623
1 0.286702 0.635782
0 0.524025 0.676478
0 0.524025 0.676478
0 0.527199 0.677699
0.290135 0.527947 0.679652
0.508217 0.528435 0.679652
0.686275 0.526741 0.678157
0.830823 0.508095 0.662806
0.927352 0.504326 0.649516
1 0.539956 0.663722
0 0.70631 0.684306
0 0.707851 0.684306
0 0.709316 0.684306
0.326955 0.711757 0.688243
0.541176 0.718379 0.694118
0.713268 0.725612 0.702083
0.813169 0.705562 0.686702
0.908278 0.685298 0.671443
0.999084 0.677943 0.668635
0 0.853437 0.688243
0 0.853437 0.688243
0.172183 0.852811 0.691691
0.403723 0.852811 0.692775
0.576104 0.85098 0.698528
0.721691 0.850004 0.701473
0.838239 0.834318 0.681865
0.93872 0.818402 0.661234
1 0.811765 0.646571
0.219303 0.946563 0.696071
0.277028 0.94638 0.696071
0.382925 0.946075 0.698177
0.505882 0.942275 0.70042
0.632349 0.93872 0.704173
0.74786 0.936141 0.707851
0.850492 0.930877 0.703197
0.938994 0.918624 0.6701
1 0.907347 0.646571
0.456367 1 0.710292
0.481559 1 0.711757
0.53431 1 0.711757
0.609751 1 0.715129
0.696086 1 0.715694
0.784802 1 0.7196
0.868635 0.997909 0.7196
0.94638 0.996078 0.703914
1 0.992157 0.676478
0 0 0.773526
0 0 0.773526
0 0 0.772549
0.148531 0 0.772549
0.40589 0 0.768627
0.600977 0 0.768627
0.773526 0 0.764706
0.923537 0 0.764706
1 0 0.764706
0 0.0158083 0.776471
0 0.00556954 0.776471
0 0 0.776471
0.159945 0 0.772869
0.413733 0 0.772549
0.60705 0 0.768627
0.777447 0 0.768627
0.927443 0 0.764706
1 0 0.764706
0 0.154894 0.780392
0 0.15108 0.780392
0 0.143145 0.780392
0.185779 0.123033 0.779416
0.428794 0.0762188 0.776471
0.620066 0 0.772549
0.788418 0 0.772549
0.933791 0 0.768627
1 0 0.765682
0 0.311772 0.787869
0 0.309316 0.787869
0 0.305852 0.786145
0.211398 0.298009 0.784314
0.448707 0.285298 0.783948
0.635676 0.269184 0.780392
0.80061 0.258244 0.779599
0.942229 0.237705 0.772549
1 0.158831 0.765682
0 0.493141 0.793622
0 0.492653 0.793622
0 0.489219 0.793622
0.227207 0.484993 0.792157
0.46421 0.477699 0.79118
0.650248 0.470588 0.787747
0.811765 0.470588 0.785779
0.944427 0.456367 0.776471
1 0.417655 0.761761
0 0.676966 0.799023
0 0.676966 0.799023
0 0.676966 0.799023
0.269047 0.678065 0.799023
0.496635 0.678126 0.799023
0.669841 0.677455 0.796567
0.818631 0.677455 0.795102
0.935241 0.658198 0.780392
1 0.65098 0.769116
0 0.834562 0.799268
0 0.834562 0.8
0.0382391 0.834562 0.802396
0.360296 0.834562 0.802945
0.547555 0.834562 0.80502
0.706004 0.838239 0.81033
0.840314 0.844785 0.817716
0.911635 0.824079 0.800519
0.992157 0.811765 0.790448
0.169238 0.942519 0.806867
0.241184 0.942153 0.806867
0.359014 0.939376 0.806867
0.491844 0.938369 0.809491
0.624445 0.934798 0.810788
0.747234 0.93431 0.814847
0.850004 0.930846 0.818631
0.930434 0.922225 0.802258
1 0.911269 0.784314
0.453925 1 0.81471
0.477943 1 0.81471
0.531365 1 0.81471
0.60882 1 0.81471
0.699504 1 0.818631
0.787259 1 0.821576
0.86569 0.996078 0.822553
0.938231 0.996078 0.818631
1 0.992157 0.799023
0 0 0.895582
0 0 0.895582
0 0 0.895582
0.162737 0 0.893446
0.422553 0 0.892149
0.615686 0 0.888243
0.781857 0 0.887739
0.931868 0 0.884321
1 0 0.884321
0 0 0.895582
0 0 0.895582
0 0 0.895582
0.169833 0 0.895582
0.4262 0 0.892149
0.617151 0 0.891508
0.785779 0 0.887739
0.932296 0 0.884321
1 0 0.884321
0 0.114702 0.896086
0 0.106859 0.896086
0 0.0859998 0.895994
0.186328 0.025742 0.895582
0.435294 0 0.895155
0.624949 0 0.891661
0.790356 0 0.888243
0.936217 0 0.887739
1 0 0.887739
0 0.280888 0.899504
0 0.276967 0.899504
0 0.269123 0.898543
0.19791 0.253132 0.895964
0.443626 0.225986 0.895582
0.631876 0.189151 0.892149
0.797055 0.15404 0.891661
0.940139 0.144671 0.887739
1 0.141787 0.887739
0 0.458335 0.899504
0 0.458335 0.899504
0 0.450919 0.899504
0.181125 0.441276 0.895582
0.441428 0.425742 0.895582
0.632349 0.40882 0.892058
0.797543 0.398779 0.891661
0.939467 0.404654 0.887739
1 0.405386 0.884321
0 0.644114 0.895582
0 0.643626 0.895582
0 0.643626 0.895582
0.190997 0.639521 0.895399
0.452201 0.631708 0.891661
0.636088 0.621271 0.891478
0.794751 0.61323 0.887739
0.9299 0.617456 0.883818
1 0.612741 0.880201
0 0.812741 0.891173
0 0.812619 0.891173
0 0.812253 0.890532
0.289403 0.811399 0.890318
0.49601 0.808331 0.887739
0.661418 0.80441 0.887617
0.800397 0.799359 0.884474
0.918685 0.796567 0.88333
1 0.783948 0.875975
0.0143435 0.930877 0.887251
0.140505 0.930877 0.887251
0.299687 0.930495 0.887251
0.446876 0.926955 0.887251
0.587503 0.926467 0.887251
0.720104 0.923033 0.887251
0.835615 0.922652 0.891173
0.933455 0.929107 0.895094
0.988724 0.911696 0.883818
0.434806 1 0.891173
0.461769 1 0.891173
0.515557 1 0.891173
0.596872 1 0.891173
0.688243 1 0.891173
0.78088 0.99823 0.891173
0.865568 0.996078 0.895094
0.938231 0.992157 0.895094
1 0.992157 0.887251
0 0 0.984314
0 0 0.984314
0 0 0.984314
0.291661 0 0.984314
0.494118 0 0.984314
0.667643 0 0.984314
0.827451 0 0.980392
0.966674 0 0.980392
1 0 0.976471
0 0 0.984314
0 0 0.984314
0 0 0.984314
0.291478 0 0.984314
0.494118 0 0.984314
0.6701 0 0.984314
0.828428 0 0.980392
0.966674 0 0.980392
1 0 0.976471
0 0.0147097 0.984314
0 0 0.984314
0 0 0.984314
0.297429 0 0.984314
0.498039 0 0.984314
0.671565 0 0.984314
0.83064 0 0.980392
0.970581 0 0.980392
1 0 0.976471
0 0.246082 0.984314
0 0.238544 0.984314
0 0.225986 0.984314
0.298589 0.197543 0.984314
0.498039 0.145342 0.984314
0.672496 0.0361486 0.984314
0.831739 0 0.980392
0.970581 0 0.979904
1 0 0.976471
0 0.431373 0.980392
0 0.429664 0.980392
0 0.422065 0.980392
0.271809 0.406622 0.980392
0.488228 0.384314 0.980392
0.666911 0.359319 0.980392
0.825986 0.332845 0.977935
0.962737 0.327947 0.976471
1 0.356863 0.972549
0 0.624506 0.972549
0 0.624506 0.972549
0 0.620584 0.972549
0.243565 0.613291 0.972549
0.475731 0.602457 0.972549
0.655329 0.58677 0.972549
0.812375 0.571084 0.972183
0.945586 0.567163 0.968627
1 0.582849 0.967163
0 0.800977 0.963729
0 0.800977 0.963729
0 0.797055 0.963729
0.273533 0.793133 0.963729
0.484321 0.789212 0.963729
0.651102 0.78027 0.960784
0.796078 0.766415 0.960784
0.922179 0.757839 0.960784
1 0.765682 0.956863
0 0.926955 0.956374
0.0167849 0.926955 0.956374
0.254047 0.923033 0.956374
0.41471 0.920897 0.952941
0.558572 0.917403 0.952941
0.690806 0.911574 0.952941
0.808331 0.907347 0.952941
0.911269 0.899077 0.952941
1 0.895582 0.952941
0.411765 1 0.94902
0.438727 1 0.94902
0.495094 1 0.94902
0.573526 1 0.94902
0.664714 1 0.94902
0.761273 0.996078 0.94902
0.846082 0.996078 0.94902
0.926955 0.992157 0.94902
1 0.992157 0.94902
