YOYO-Client/Yoyo/Assets.xcassets/Frost.dataset/Fuji-T64.cube
TITLE "Fuji-T64"
LUT_3D_SIZE 33
0 0.0117647 0.027451
0.0116426 0.0155642 0.0313725
0.0230411 0.0156863 0.03505
0.0349279 0.0156863 0.0388495
0.0500038 0.0196078 0.0431373
0.0654459 0.0235294 0.05037
0.084062 0.0235294 0.054902
0.103304 0.027451 0.0618906
0.126467 0.027451 0.0656901
0.152453 0.0246281 0.0734112
0.179416 0.0235294 0.0772106
0.2103 0.0209506 0.0849317
0.241184 0.0171511 0.0926528
0.275975 0.00943008 0.100374
0.31078 0.00170901 0.108095
0.347677 0 0.115816
0.386282 0 0.123537
0.424872 0 0.131243
0.463478 0 0.138964
0.506004 0 0.146685
0.54461 0 0.154406
0.583215 0 0.160784
0.62182 0 0.165927
0.66041 0 0.173648
0.702937 0 0.181369
0.741543 0 0.18909
0.78407 0 0.196811
0.822675 0 0.204532
0.86128 0 0.212253
0.895949 0 0.219974
0.934554 0 0.227695
0.969238 0 0.235538
1 0 0.247059
0 0.0310063 0.0313725
0.0115206 0.0310063 0.0313725
0.0269627 0.0310063 0.0313725
0.0424048 0.0311131 0.0314794
0.0577249 0.0311284 0.0349279
0.073167 0.0312505 0.042649
0.091783 0.0343328 0.0464637
0.111894 0.035172 0.0541695
0.134188 0.035172 0.061799
0.160174 0.0350805 0.0694896
0.187137 0.0312505 0.0772106
0.218021 0.0286717 0.0849317
0.24889 0.0248722 0.0926528
0.282109 0.0171511 0.100374
0.316838 0.00943008 0.108095
0.355398 0.00178531 0.115816
0.393988 0 0.123537
0.432593 0 0.131243
0.471199 0 0.137316
0.509804 0 0.142885
0.548455 0 0.150561
0.587137 0 0.158206
0.625742 0 0.165927
0.664332 0 0.173648
0.706737 0 0.181369
0.745464 0 0.188266
0.784787 0 0.193011
0.825879 0 0.20061
0.86128 0 0.208347
0.89987 0 0.216175
0.934554 0 0.227695
0.972915 0 0.235416
1 0 0.247059
0 0.0465705 0.03505
0.00759899 0.0465705 0.0349279
0.0230411 0.0465705 0.03505
0.0384833 0.0465705 0.03505
0.0573892 0.0465705 0.0352636
0.0772106 0.0465705 0.0355077
0.0995041 0.0465705 0.0394598
0.119615 0.0465705 0.0464485
0.141909 0.0465705 0.0541695
0.168933 0.0439307 0.0618906
0.194858 0.0427253 0.0696117
0.225742 0.040238 0.0810101
0.256611 0.0362707 0.0887312
0.28983 0.0287938 0.0964523
0.324514 0.0208286 0.104173
0.362982 0.009308 0.111894
0.397787 0 0.119615
0.436393 0 0.127321
0.475105 0 0.135042
0.515343 0 0.142763
0.55613 0 0.150484
0.594736 0 0.158206
0.633341 0 0.164782
0.671931 0 0.16997
0.710536 0 0.177447
0.749386 0 0.185168
0.787991 0 0.192889
0.826596 0 0.20061
0.865202 0 0.208331
0.903212 0 0.216052
0.93846 0 0.223789
0.973159 0 0.235416
1 0 0.243381
0 0.065568 0.0352941
0.00415045 0.065568 0.0352941
0.0155642 0.065568 0.0352941
0.034226 0.065568 0.0388495
0.0538033 0.065568 0.0388495
0.0766003 0.065568 0.0388495
0.0997482 0.065568 0.0391546
0.126467 0.065568 0.0395056
0.152575 0.065568 0.0464485
0.179263 0.061738 0.0541695
0.206241 0.059205 0.0645762
0.237003 0.057847 0.0735332
0.267887 0.0517128 0.0812543
0.301259 0.0475471 0.0910811
0.335943 0.0378271 0.100252
0.37084 0.0262913 0.107973
0.40943 0.0110323 0.11606
0.447669 0 0.123781
0.486275 0 0.131334
0.525246 0 0.138842
0.563851 0 0.146563
0.602457 0 0.154284
0.637125 0 0.162005
0.675731 0 0.169726
0.715587 0 0.173892
0.756863 0 0.181613
0.795468 0 0.189334
0.833509 0 0.196689
0.869078 0 0.204456
0.907027 0 0.212497
0.941817 0 0.220447
0.976959 0 0.23151
1 0 0.243137
0 0.0887312 0.0392157
0 0.0887312 0.0392157
0.00462348 0.0887312 0.0424353
0.0229648 0.0887312 0.042649
0.049073 0.0887312 0.042649
0.073167 0.0887312 0.042649
0.0991073 0.0887312 0.042649
0.126085 0.0887312 0.0431373
0.156863 0.0887312 0.045716
0.187259 0.0882277 0.0474098
0.217639 0.0844739 0.0541695
0.248524 0.0805676 0.0646372
0.279408 0.0745098 0.0735332
0.314214 0.0705119 0.0815442
0.34902 0.0627146 0.0928969
0.385901 0.0510872 0.100618
0.420829 0.0372473 0.108339
0.45919 0.0202029 0.11606
0.497795 0.00386053 0.123781
0.5364 0 0.132891
0.573709 0 0.142641
0.610178 0 0.150362
0.648768 0 0.157015
0.686885 0 0.162371
0.725978 0 0.170092
0.764584 0 0.177813
0.802457 0 0.185534
0.837873 0 0.193256
0.876036 0 0.200977
0.911147 0 0.208698
0.94583 0 0.216632
0.980407 0 0.227588
1 0 0.239216
0 0.115816 0.0431373
0 0.115816 0.0464485
0 0.118914 0.0464485
0.00527962 0.119112 0.0464485
0.0345617 0.119112 0.0470588
0.0649271 0.11632 0.0498512
0.0957046 0.11519 0.0476844
0.125978 0.11519 0.0470588
0.156863 0.11519 0.049546
0.187747 0.11519 0.05037
0.222553 0.112505 0.0509804
0.258915 0.108705 0.0552987
0.293614 0.104906 0.0622721
0.328313 0.0971847 0.070222
0.364462 0.0894636 0.0812543
0.401343 0.0817426 0.0895857
0.43769 0.0717479 0.0989548
0.474632 0.0563363 0.108339
0.513237 0.0384985 0.11606
0.55024 0.0161898 0.124025
0.586526 0 0.135424
0.623987 0 0.14313
0.6598 0 0.150851
0.698405 0 0.158572
0.7337 0 0.166293
0.772305 0 0.173404
0.810788 0 0.181125
0.845594 0 0.188846
0.883696 0 0.196567
0.918502 0 0.204898
0.95021 0 0.212619
0.984802 0 0.223667
1 0 0.231983
0 0.146075 0.050248
0 0.149172 0.050248
0 0.14995 0.050248
0 0.149996 0.050248
0.00961318 0.149996 0.0509804
0.0501259 0.149386 0.053666
0.0879835 0.14667 0.0541695
0.121355 0.14551 0.0541695
0.15349 0.142153 0.0517739
0.187747 0.142153 0.0532692
0.225238 0.142153 0.0541695
0.2636 0.142153 0.054902
0.301717 0.137774 0.0553597
0.342214 0.131991 0.0618906
0.379904 0.127443 0.0664225
0.416785 0.116548 0.0777142
0.45539 0.108095 0.0857862
0.493263 0.0961013 0.0950027
0.528679 0.0827649 0.10515
0.566979 0.0666056 0.114168
0.601953 0.0485237 0.123781
0.639216 0.0247807 0.131746
0.675242 0.00437934 0.139956
0.709926 0 0.147677
0.748531 0 0.155398
0.78378 0 0.163119
0.82121 0 0.171435
0.856001 0 0.181735
0.891417 0 0.189456
0.926223 0 0.197177
0.957153 0 0.204898
0.991684 0 0.216541
1 0 0.227451
0 0.18088 0.0540475
0 0.183856 0.0540475
0 0.183948 0.0540475
0 0.183948 0.0540475
0 0.183948 0.0547951
0.0232853 0.183948 0.054902
0.0751659 0.183948 0.054902
0.114397 0.180209 0.057969
0.152178 0.177722 0.057969
0.187747 0.176104 0.054902
0.225238 0.173999 0.054902
0.263844 0.173037 0.054902
0.30605 0.172503 0.054902
0.348547 0.169848 0.0554055
0.39057 0.16434 0.0562448
0.432227 0.157885 0.062623
0.470832 0.148226 0.0703441
0.509438 0.138567 0.0784619
0.548043 0.126955 0.0897078
0.584543 0.113237 0.0990158
0.620996 0.100862 0.109071
0.656001 0.0851148 0.118135
0.690684 0.0679942 0.128435
0.725368 0.0466926 0.136156
0.762997 0.0252689 0.143877
0.797986 0.007187 0.15465
0.832761 0 0.162371
0.867536 0 0.170092
0.899519 0 0.17792
0.933944 0 0.186679
0.964828 0 0.197177
0.996201 0 0.205859
1 0 0.216541
0 0.218631 0.054902
0 0.218631 0.054902
0 0.218631 0.054902
0 0.222187 0.054902
0 0.222553 0.054902
0 0.222553 0.054902
0.0455329 0.222553 0.0580911
0.102052 0.218631 0.0588235
0.147311 0.215686 0.0588235
0.186648 0.211887 0.0588235
0.225238 0.210788 0.0558175
0.26743 0.207843 0.054902
0.308217 0.207233 0.054902
0.351232 0.205112 0.054902
0.394919 0.202945 0.054902
0.439948 0.196933 0.051957
0.48481 0.192157 0.054902
0.52488 0.181033 0.059678
0.563485 0.172793 0.0686961
0.60209 0.161151 0.0790417
0.639216 0.149142 0.090074
0.674022 0.13753 0.0994125
0.708827 0.125246 0.110048
0.743633 0.113329 0.120714
0.778439 0.100008 0.128679
0.81323 0.0865187 0.140078
0.844297 0.0738384 0.147799
0.87892 0.0610056 0.15552
0.91078 0.0514687 0.167163
0.941665 0.0480354 0.174884
0.972549 0.0492714 0.185595
1 0.0610666 0.194339
1 0.079408 0.20589
0 0.260044 0.054902
0 0.260044 0.054902
0 0.260044 0.054902
0 0.261158 0.054902
0 0.261158 0.054902
0 0.261158 0.054902
0.00537118 0.261158 0.054902
0.0814832 0.261158 0.0557565
0.136797 0.257939 0.0581216
0.18352 0.254108 0.0588235
0.225238 0.250263 0.0561227
0.267765 0.245472 0.054902
0.312062 0.243702 0.052079
0.354498 0.24155 0.0514229
0.398779 0.239963 0.0509804
0.44387 0.237629 0.0481575
0.489647 0.233143 0.0476081
0.535424 0.226841 0.0447547
0.57734 0.21912 0.0481575
0.617517 0.210956 0.0558785
0.656123 0.199344 0.0647135
0.690806 0.18996 0.0756237
0.72549 0.179294 0.0872358
0.760174 0.167651 0.0985275
0.793866 0.159655 0.11017
0.828672 0.15111 0.118502
0.859556 0.140887 0.129534
0.890608 0.134737 0.140078
0.922423 0.128298 0.148898
0.953307 0.127321 0.159442
0.984192 0.128603 0.171084
1 0.1364 0.178927
1 0.14522 0.190448
0 0.302449 0.0509804
0 0.302449 0.0508888
0 0.302449 0.0509804
0 0.302449 0.0509804
0 0.303517 0.0509804
0 0.30367 0.0509804
0 0.30367 0.0504768
0.0405127 0.302724 0.0519417
0.119738 0.302449 0.0522011
0.177813 0.298878 0.0522011
0.224399 0.294606 0.0522011
0.269535 0.288106 0.0514076
0.312749 0.283299 0.0493019
0.358343 0.28014 0.0454566
0.401465 0.277943 0.044358
0.44715 0.276219 0.0410163
0.492897 0.273655 0.0390936
0.537957 0.26981 0.0365148
0.582849 0.265446 0.0325933
0.627939 0.257725 0.030396
0.668879 0.250004 0.0338293
0.706249 0.241047 0.0437018
0.740932 0.232486 0.0556344
0.775616 0.221698 0.0690929
0.809308 0.213977 0.0803998
0.840467 0.206256 0.0926223
0.872297 0.198535 0.104189
0.903181 0.193698 0.11574
0.934066 0.189853 0.126223
0.964843 0.187503 0.137743
0.991501 0.187671 0.149187
1 0.191546 0.160739
1 0.199268 0.172305
0 0.344854 0.0405585
0 0.344854 0.0405585
0 0.344854 0.0405585
0 0.346197 0.0405585
0 0.348455 0.0405585
0 0.348775 0.0405585
0 0.348775 0.0405585
0.00210575 0.348775 0.0405585
0.0936294 0.34583 0.0419165
0.166415 0.344854 0.0419165
0.223209 0.340932 0.04448
0.270344 0.334432 0.04448
0.315831 0.329168 0.0420386
0.360113 0.322911 0.0382391
0.405386 0.318746 0.0351873
0.450996 0.31603 0.0313573
0.496696 0.314153 0.027512
0.540444 0.310903 0.0236667
0.586175 0.306401 0.0205844
0.630701 0.30251 0.0159915
0.674022 0.297292 0.0121462
0.71519 0.291173 0.00978103
0.753384 0.283452 0.0158083
0.788098 0.275731 0.0252537
0.822828 0.268009 0.0385138
0.855634 0.260288 0.0529335
0.886519 0.253315 0.0681315
0.917006 0.248768 0.082475
0.945708 0.244968 0.0965744
0.975006 0.24155 0.109316
1 0.24155 0.123445
1 0.245502 0.135042
1 0.249393 0.149142
0 0.39118 0.0264744
0 0.39118 0.0264744
0 0.39118 0.0264744
0 0.39118 0.0264744
0 0.39118 0.0264744
0 0.392416 0.0264744
0 0.395102 0.0264744
0 0.395102 0.0240177
0.0518349 0.391546 0.0240177
0.148501 0.39118 0.0264744
0.215198 0.387259 0.0274815
0.269505 0.382376 0.0295567
0.319677 0.37641 0.030396
0.363989 0.369238 0.0274662
0.409308 0.362341 0.023621
0.454856 0.358495 0.0165408
0.500496 0.35465 0.0127413
0.544366 0.352743 0.00894179
0.588144 0.348867 0.00376898
0.632486 0.345586 0.00146487
0.674937 0.342641 0
0.716548 0.338842 0
0.759075 0.334035 0
0.796201 0.328023 0
0.831983 0.322057 0.000732433
0.864713 0.314336 0.00653086
0.895582 0.307347 0.0132296
0.926467 0.302815 0.0305333
0.957168 0.299016 0.0483406
0.984314 0.295583 0.0683757
1 0.295583 0.0839704
1 0.295628 0.101717
1 0.299504 0.117159
0 0.437507 0.0071107
0 0.437507 0.00485237
0 0.437507 0.00477607
0 0.437507 0.00477607
0 0.437507 0.00477607
0 0.437507 0.00477607
0 0.440681 0.00477607
0 0.441428 0.00477607
0.00717174 0.438087 0.00477607
0.123568 0.437507 0.00477607
0.203922 0.434806 0.00477607
0.266667 0.431006 0.00582895
0.320592 0.424735 0.00869764
0.369238 0.417899 0.00869764
0.413352 0.410178 0.00579843
0.457969 0.404044 0.00233463
0.50312 0.397116 0.000793469
0.548287 0.393271 0
0.591989 0.391333 0
0.63447 0.388113 0
0.676951 0.385641 0
0.717891 0.382605 0
0.759075 0.379767 0
0.797665 0.377569 0
0.836271 0.37258 0
0.872419 0.366567 0
0.903304 0.360967 0
0.934188 0.356863 0
0.965072 0.353063 0.000396735
0.991455 0.349416 0.00840772
1 0.345708 0.0205844
1 0.345754 0.0438239
1 0.347311 0.0676432
0 0.483818 0
0 0.483818 0
0 0.483818 0
0 0.483818 0
0 0.483818 0
0 0.483818 0
0 0.485222 0
0 0.487739 0
0 0.486458 0
0.0897841 0.483818 0
0.190494 0.482643 0
0.260761 0.478782 0
0.319112 0.473533 0
0.372137 0.468009 0
0.419364 0.460288 0
0.4636 0.451408 0
0.506981 0.442649 0
0.5514 0.438849 0
0.594614 0.433814 0
0.637003 0.43064 0
0.677943 0.428092 0
0.72047 0.426123 0
0.759075 0.424308 0
0.797665 0.421073 0
0.836271 0.418448 0
0.872297 0.416297 0
0.908827 0.412497 0
0.939712 0.407248 0
0.970367 0.403677 0
0.998444 0.399756 0
1 0.397543 0
1 0.397543 0
1 0.397543 0.00343328
0 0.530144 0
0 0.530144 0
0 0.530144 0
0 0.530144 0
0 0.530144 0
0 0.530144 0
0 0.530144 0
0 0.533608 0
0 0.534066 0
0.0530251 0.530144 0
0.173861 0.530144 0
0.252445 0.526223 0
0.317647 0.523079 0
0.373159 0.51606 0
0.423163 0.508339 0
0.46949 0.500618 0
0.511894 0.492897 0
0.553307 0.485176 0
0.596811 0.477455 0
0.639338 0.474403 0
0.68072 0.470542 0
0.72047 0.468605 0
0.759075 0.466758 0
0.797665 0.464805 0
0.836271 0.463478 0
0.870954 0.46099 0
0.905638 0.459556 0
0.939712 0.455634 0
0.970581 0.453544 0
1 0.451545 0
1 0.447791 0
1 0.447791 0
1 0.447791 0
0 0.576471 0
0 0.576471 0
0 0.576471 0
0 0.576471 0
0 0.576471 0
0 0.576471 0
0 0.576471 0
0 0.576471 0
0 0.576471 0
0.0126802 0.576471 0
0.154772 0.576471 0
0.243381 0.573892 0
0.312993 0.570092 0
0.373159 0.565499 0
0.426108 0.558572 0
0.474205 0.550851 0
0.518624 0.542153 0
0.560174 0.533455 0
0.599634 0.523781 0
0.640925 0.517647 0
0.681865 0.513726 0
0.721141 0.511086 0
0.760418 0.509194 0
0.797665 0.507286 0
0.835782 0.505394 0
0.870954 0.503914 0
0.904906 0.501961 0
0.939712 0.501961 0
0.970581 0.499748 0
1 0.498039 0
1 0.498039 0
1 0.49601 0
1 0.494118 0
0 0.620951 0
0 0.620951 0
0 0.620951 0
0 0.620951 0
0 0.620951 0
0 0.620951 0
0 0.622797 0
0 0.622797 0
0 0.622797 0
0 0.622797 0
0.137621 0.620951 0
0.23566 0.618875 0
0.309117 0.615732 0
0.371572 0.611872 0
0.427207 0.604898 0
0.478187 0.599023 0
0.5234 0.591302 0
0.56495 0.581735 0
0.604654 0.574014 0
0.643259 0.566293 0
0.682551 0.558572 0
0.724392 0.553567 0
0.762997 0.550362 0
0.797665 0.548287 0
0.835294 0.546441 0
0.8701 0.546441 0
0.904906 0.544366 0
0.93579 0.544366 0
0.96849 0.542519 0
0.996445 0.542519 0
1 0.542519 0
1 0.542519 0
1 0.540444 0
0 0.663478 0
0 0.663478 0
0 0.663478 0
0 0.663478 0
0 0.663478 0
0 0.663478 0
0 0.663478 0
0 0.663478 0
0 0.663478 0
0 0.663478 0
0.121721 0.663478 0
0.229755 0.662028 0
0.304417 0.659556 0
0.369848 0.656336 0
0.427207 0.651225 0
0.479164 0.645716 0
0.526345 0.639704 0
0.570779 0.631983 0
0.6103 0.621302 0
0.64889 0.612619 0
0.685786 0.604898 0
0.724392 0.59794 0
0.762997 0.594079 0
0.797665 0.590204 0
0.835294 0.588418 0
0.8701 0.585046 0
0.901396 0.585046 0
0.93579 0.585046 0
0.966445 0.585046 0
0.994888 0.585046 0
1 0.585046 0
1 0.585046 0
1 0.58677 0
0 0.702083 0
0 0.702083 0
0 0.702083 0
0 0.702083 0
0 0.702083 0
0 0.702083 0
0 0.702083 0
0 0.702083 0
0 0.702083 0
0 0.702083 0
0.112993 0.702083 0
0.226963 0.702083 0
0.304417 0.699626 0
0.367651 0.698161 0
0.427207 0.692927 0
0.480018 0.689082 0
0.529412 0.682109 0
0.573892 0.676722 0
0.615106 0.667979 0
0.654078 0.658946 0
0.6907 0.651225 0
0.725429 0.643503 0
0.762997 0.636515 0
0.797665 0.631495 0
0.835294 0.627573 0
0.868849 0.62707 0
0.900984 0.623652 0
0.931868 0.623652 0
0.962737 0.623652 0
0.992889 0.623652 0
1 0.623652 0
1 0.627573 0
1 0.627573 0
0 0.740688 0
0 0.740688 0
0 0.740688 0
0 0.740688 0
0 0.740688 0
0 0.740688 0
0 0.740688 0
0 0.740688 0
0 0.740688 0
0 0.740688 0
0.115373 0.740688 0
0.227466 0.740688 0
0.304417 0.737682 0
0.369116 0.736767 0
0.427207 0.732845 0
0.481254 0.728923 0
0.529412 0.725002 0
0.575738 0.719234 0
0.618967 0.711513 0
0.658946 0.705272 0
0.695094 0.697002 0
0.729274 0.688365 0
0.764004 0.680644 0
0.797665 0.673335 0
0.834195 0.66949 0
0.866712 0.666178 0
0.900984 0.662257 0
0.931868 0.662257 0
0.960967 0.662257 0
0.989334 0.662257 0
1 0.662257 0
1 0.664759 0
1 0.666178 0
0 0.777935 0
0 0.777935 0
0 0.777935 0
0 0.777935 0
0 0.777935 0
0 0.777935 0
0 0.777935 0
0 0.777935 0
0 0.776013 0
0 0.775372 0
0.131975 0.775372 0
0.234928 0.775372 0
0.309682 0.774014 0
0.372915 0.772488 0
0.431128 0.770687 0
0.483803 0.767529 0
0.533333 0.762936 0
0.578454 0.757839 0
0.620935 0.75404 0
0.662867 0.746319 0
0.698894 0.738598 0
0.735271 0.730877 0
0.76704 0.723156 0
0.800488 0.715816 0
0.832349 0.709712 0
0.866178 0.704784 0
0.897536 0.700862 0
0.930114 0.700648 0
0.958831 0.699504 0
0.985779 0.699504 0
1 0.699504 0
1 0.700862 0
1 0.700862 0
0 0.810056 0
0 0.810056 0
0 0.810056 0
0 0.810056 0
0 0.80882 0
0 0.80882 0
0 0.80882 0
0 0.80882 0
0 0.80882 0
0.00704967 0.80882 0
0.157382 0.80882 0
0.250782 0.80882 0
0.320104 0.80882 0
0.38114 0.805402 0
0.436271 0.804898 0
0.487663 0.801556 0
0.535912 0.799023 0
0.58088 0.795224 0
0.624796 0.789899 0
0.665187 0.784924 0
0.702693 0.777203 0
0.739147 0.770413 0
0.771679 0.765682 0
0.80441 0.757961 0
0.835294 0.75024 0
0.866178 0.743389 0
0.897063 0.739223 0
0.927947 0.735546 0
0.958328 0.735393 0
0.985412 0.73431 0
1 0.73431 0
1 0.734356 0
1 0.735546 0
0 0.842527 0
0 0.842527 0
0 0.839704 0
0 0.839704 0
0 0.839704 0
0 0.839704 0
0 0.839704 0
0 0.839704 0
0 0.839704 0
0.0641337 0.839704 0
0.189166 0.839704 0
0.269612 0.839704 0
0.335546 0.838605 0
0.391058 0.835782 0
0.44448 0.835782 0
0.494636 0.833188 0
0.542275 0.831312 0
0.58677 0.827939 0
0.629282 0.824018 0
0.669032 0.818509 0
0.706493 0.81471 0
0.743023 0.80737 0
0.777447 0.801251 0
0.809125 0.795468 0
0.839216 0.788846 0
0.867033 0.78175 0
0.897063 0.777325 0
0.927764 0.772595 0
0.954894 0.769116 0
0.981857 0.769116 0
1 0.769116 0
1 0.769116 0
1 0.769116 0
0 0.869612 0
0 0.869612 0
0 0.869612 0
0 0.869612 0
0 0.869612 0
0 0.869612 0
0 0.869612 0
0 0.869612 0
0.00808728 0.869612 0
0.135286 0.866667 0
0.227939 0.866667 0
0.295094 0.866026 0
0.353429 0.86569 0
0.406897 0.86569 0
0.458335 0.862745 0
0.504662 0.861769 0
0.549996 0.860288 0
0.59292 0.856458 0
0.634806 0.854475 0
0.675608 0.849393 0
0.712139 0.845594 0
0.747555 0.841794 0
0.781674 0.834379 0
0.81323 0.830274 0
0.84387 0.822797 0
0.871077 0.818753 0
0.897856 0.811215 0
0.927321 0.807385 0
0.954772 0.803555 0
0.981491 0.8 0
1 0.8 0
1 0.8 0
1 0.8 0
0 0.896696 0
0 0.896696 0
0 0.896696 0
0 0.893919 0
0 0.893629 0
0 0.892775 0
0 0.892775 0
0.00268559 0.892775 0
0.0987106 0.892775 0
0.198276 0.892775 0
0.26804 0.892775 0
0.323705 0.892775 0
0.376913 0.890852 0
0.4262 0.888853 0
0.473777 0.888853 0
0.518013 0.887221 0
0.56054 0.884932 0
0.602609 0.883497 0
0.643 0.88101 0
0.681743 0.877089 0
0.718013 0.873701 0
0.752697 0.86981 0
0.786145 0.864958 0
0.817029 0.860533 0
0.847913 0.8542 0
0.877272 0.849638 0
0.904173 0.845136 0
0.928664 0.838727 0
0.954406 0.834806 0
0.981491 0.830884 0
1 0.83003 0
1 0.826963 0
1 0.826963 0
0 0.919112 0
0 0.919112 0
0 0.919112 0
0 0.916228 0
0 0.915938 0
0 0.915938 0
0.0107576 0.915938 0
0.104509 0.915938 0
0.190127 0.915938 0
0.252323 0.915938 0
0.308827 0.915938 0
0.356374 0.91519 0
0.405142 0.912016 0
0.447852 0.912016 0
0.491661 0.912016 0
0.533455 0.909575 0
0.575982 0.908095 0
0.614588 0.907744 0
0.652445 0.904173 0
0.689754 0.902144 0
0.725734 0.898772 0
0.759075 0.894972 0
0.793866 0.891402 0
0.82475 0.887373 0
0.854109 0.883574 0
0.881743 0.877287 0
0.908232 0.873396 0
0.931991 0.869001 0
0.958328 0.865202 0
0.981491 0.861402 0
1 0.857801 0
1 0.857008 0
1 0.853925 0
0 0.939086 0
0 0.938476 0
0 0.938476 0
0 0.938476 0
0.0106508 0.938476 0
0.0603799 0.938476 0
0.145556 0.938476 0
0.204181 0.938476 0
0.256397 0.936004 0
