YOYO-Client/Yoyo/Assets.xcassets/Frost.dataset/Fuji-T64.cube
TITLE "Fuji-T64"
LUT_3D_SIZE 5
0 0.0117647 0.027451
0.126467 0.027451 0.0656901
0.386282 0 0.123537
0.702937 0 0.181369
1 0 0.247059
0 0.218631 0.054902
0.147311 0.215686 0.0588235
0.48481 0.192157 0.054902
0.778439 0.100008 0.128679
1 0.079408 0.20589
0 0.576471 0
0 0.576471 0
0.518624 0.542153 0
0.835782 0.505394 0
1 0.494118 0
0 0.869612 0
0.00808728 0.869612 0
0.549996 0.860288 0
0.84387 0.822797 0
1 0.8 0
0.4 1 0.101961
0.491173 1 0.105882
0.6804 1 0.109804
0.885298 1 0.0568704
1 0.988235 0
0 0.0156863 0.254902
0.118624 0.0156863 0.254902
0.420584 0 0.262745
0.685542 0.00221256 0.307836
0.98529 0 0.357839
0 0.21471 0.268879
0.123217 0.225742 0.272236
0.443137 0.215076 0.281621
0.737987 0.17818 0.299199
1 0.181369 0.339208
0 0.576471 0.251957
0 0.576471 0.251957
0.527947 0.549508 0.239216
0.841306 0.511635 0.216052
1 0.494118 0.212253
0 0.866667 0.229664
0.0688182 0.86569 0.230396
0.556252 0.858824 0.226474
0.84387 0.824262 0.180087
1 0.8 0.0931411
0.415686 1 0.309804
0.502205 1 0.309804
0.685786 1 0.313726
0.885298 1 0.296086
1 0.988235 0.230396
0 0.00981155 0.505882
0 0 0.505882
0.434318 0 0.505882
0.78529 0 0.495583
1 0 0.521569
0 0.193622 0.524514
0 0.193256 0.524514
0.475242 0.172549 0.521569
0.805508 0.0551461 0.503059
1 0.248524 0.5402
0 0.550973 0.545098
0 0.556374 0.54902
0.547555 0.570596 0.561273
0.794858 0.534798 0.541909
1 0.524514 0.541176
0 0.861769 0.550973
0.191058 0.858824 0.553429
0.574014 0.854902 0.558831
0.839948 0.830396 0.522545
1 0.806867 0.478431
0.447059 1 0.584314
0.52549 1 0.586282
0.692164 1 0.589212
0.873533 1 0.585779
1 0.988235 0.53138
0 0 0.773526
0 0 0.772549
0.40589 0 0.768627
0.773526 0 0.764706
1 0 0.764706
0 0.154894 0.780392
0 0.143145 0.780392
0.428794 0.0762188 0.776471
0.788418 0 0.772549
1 0 0.765682
0 0.493141 0.793622
0 0.489219 0.793622
0.46421 0.477699 0.79118
0.811765 0.470588 0.785779
1 0.417655 0.761761
0 0.834562 0.799268
0.0382391 0.834562 0.802396
0.547555 0.834562 0.80502
0.840314 0.844785 0.817716
0.992157 0.811765 0.790448
0.453925 1 0.81471
0.531365 1 0.81471
0.699504 1 0.818631
0.86569 0.996078 0.822553
1 0.992157 0.799023
0 0 0.984314
0 0 0.984314
0.494118 0 0.984314
0.827451 0 0.980392
1 0 0.976471
0 0.0147097 0.984314
0 0 0.984314
0.498039 0 0.984314
0.83064 0 0.980392
1 0 0.976471
0 0.431373 0.980392
0 0.422065 0.980392
0.488228 0.384314 0.980392
0.825986 0.332845 0.977935
1 0.356863 0.972549
0 0.800977 0.963729
0 0.797055 0.963729
0.484321 0.789212 0.963729
0.796078 0.766415 0.960784
1 0.765682 0.956863
0.411765 1 0.94902
0.495094 1 0.94902
0.664714 1 0.94902
0.846082 0.996078 0.94902
1 0.992157 0.94902
