YOYO-Client/Yoyo/Assets.xcassets/Yosemite.dataset/Yosemite.cube
TITLE "Yosemite"
LUT_3D_SIZE 25
0.000000 0.011765 0.023529
0.007843 0.011765 0.019608
0.027451 0.011765 0.015686
0.054902 0.015686 0.011765
0.082353 0.027451 0.015686
0.117647 0.039216 0.011765
0.156863 0.039216 0.007843
0.192157 0.043137 0.007843
0.254902 0.043137 0.003922
0.305882 0.039216 0.003922
0.368627 0.027451 0.000000
0.423529 0.011765 0.000000
0.486275 0.000000 0.000000
0.541176 0.000000 0.000000
0.600000 0.003922 0.000000
0.643137 0.000000 0.000000
0.686275 0.000000 0.003922
0.737255 0.000000 0.000000
0.768627 0.003922 0.000000
0.807843 0.000000 0.000000
0.847059 0.027451 0.000000
0.886275 0.078431 0.000000
0.925490 0.109804 0.007843
0.956863 0.141176 0.000000
0.996078 0.188235 0.000000
0.000000 0.031373 0.011765
0.000000 0.031373 0.011765
0.027451 0.027451 0.019608
0.054902 0.043137 0.007843
0.078431 0.047059 0.003922
0.121569 0.050980 0.011765
0.160784 0.050980 0.003922
0.200000 0.050980 0.000000
0.250980 0.058824 0.000000
0.317647 0.058824 0.000000
0.372549 0.050980 0.003922
0.431373 0.035294 0.000000
0.486275 0.019608 0.003922
0.541176 0.000000 0.000000
0.600000 0.003922 0.000000
0.643137 0.000000 0.000000
0.686275 0.000000 0.000000
0.737255 0.000000 0.000000
0.772549 0.003922 0.007843
0.807843 0.027451 0.000000
0.847059 0.062745 0.000000
0.882353 0.090196 0.000000
0.921569 0.117647 0.003922
0.956863 0.149020 0.000000
1.000000 0.200000 0.003922
0.007843 0.050980 0.019608
0.015686 0.054902 0.011765
0.035294 0.047059 0.011765
0.050980 0.050980 0.011765
0.074510 0.062745 0.000000
0.117647 0.066667 0.003922
0.156863 0.066667 0.000000
0.196078 0.074510 0.000000
0.254902 0.078431 0.003922
0.313725 0.074510 0.000000
0.372549 0.070588 0.000000
0.427451 0.062745 0.000000
0.490196 0.050980 0.003922
0.537255 0.031373 0.007843
0.600000 0.015686 0.000000
0.639216 0.015686 0.000000
0.690196 0.007843 0.003922
0.737255 0.015686 0.015686
0.776471 0.039216 0.003922
0.811765 0.062745 0.000000
0.847059 0.082353 0.000000
0.886275 0.109804 0.003922
0.913725 0.137255 0.000000
0.949020 0.168627 0.003922
0.996078 0.207843 0.000000
0.019608 0.086275 0.015686
0.039216 0.082353 0.015686
0.050980 0.086275 0.011765
0.058824 0.074510 0.007843
0.094118 0.082353 0.007843
0.117647 0.086275 0.003922
0.156863 0.090196 0.011765
0.203922 0.094118 0.007843
0.254902 0.098039 0.000000
0.313725 0.094118 0.000000
0.372549 0.098039 0.000000
0.435294 0.090196 0.000000
0.494118 0.082353 0.000000
0.541176 0.074510 0.000000
0.592157 0.070588 0.000000
0.643137 0.066667 0.000000
0.694118 0.066667 0.003922
0.733333 0.078431 0.007843
0.768627 0.094118 0.000000
0.811765 0.109804 0.000000
0.854902 0.117647 0.003922
0.878431 0.133333 0.000000
0.921569 0.164706 0.003922
0.956863 0.188235 0.000000
0.996078 0.211765 0.007843
0.043137 0.137255 0.011765
0.066667 0.133333 0.000000
0.086275 0.121569 0.007843
0.090196 0.125490 0.003922
0.098039 0.109804 0.000000
0.133333 0.109804 0.007843
0.164706 0.109804 0.003922
0.200000 0.117647 0.003922
0.254902 0.125490 0.003922
0.309804 0.129412 0.000000
0.376471 0.121569 0.000000
0.431373 0.121569 0.003922
0.494118 0.121569 0.000000
0.545098 0.117647 0.000000
0.596078 0.109804 0.000000
0.643137 0.121569 0.000000
0.690196 0.125490 0.000000
0.733333 0.129412 0.000000
0.772549 0.137255 0.000000
0.811765 0.152941 0.007843
0.843137 0.164706 0.000000
0.878431 0.176471 0.007843
0.917647 0.196078 0.000000
0.945098 0.215686 0.000000
1.000000 0.235294 0.015686
0.074510 0.176471 0.000000
0.086275 0.176471 0.000000
0.109804 0.168627 0.000000
0.133333 0.164706 0.011765
0.145098 0.152941 0.007843
0.156863 0.141176 0.000000
0.184314 0.133333 0.000000
0.215686 0.145098 0.003922
0.258824 0.149020 0.000000
0.305882 0.152941 0.000000
0.372549 0.156863 0.003922
0.431373 0.160784 0.000000
0.494118 0.160784 0.000000
0.552941 0.164706 0.000000
0.603922 0.168627 0.000000
0.650980 0.168627 0.003922
0.690196 0.180392 0.000000
0.741176 0.180392 0.007843
0.772549 0.180392 0.011765
0.815686 0.188235 0.000000
0.854902 0.207843 0.000000
0.882353 0.219608 0.000000
0.917647 0.235294 0.000000
0.949020 0.250980 0.000000
1.000000 0.278431 0.003922
0.062745 0.223529 0.000000
0.121569 0.235294 0.007843
0.141176 0.231373 0.011765
0.156863 0.227451 0.000000
0.188235 0.223529 0.007843
0.200000 0.200000 0.000000
0.196078 0.188235 0.000000
0.219608 0.168627 0.003922
0.266667 0.176471 0.003922
0.313725 0.180392 0.000000
0.356863 0.184314 0.000000
0.423529 0.196078 0.000000
0.482353 0.200000 0.003922
0.545098 0.200000 0.003922
0.603922 0.215686 0.000000
0.647059 0.215686 0.007843
0.690196 0.223529 0.003922
0.737255 0.231373 0.003922
0.768627 0.235294 0.000000
0.807843 0.243137 0.000000
0.843137 0.247059 0.000000
0.878431 0.262745 0.000000
0.913725 0.278431 0.000000
0.949020 0.290196 0.011765
0.988235 0.313725 0.000000
0.011765 0.294118 0.000000
0.121569 0.313725 0.003922
0.156863 0.309804 0.000000
0.192157 0.301961 0.007843
0.235294 0.298039 0.003922
0.239216 0.278431 0.000000
0.254902 0.254902 0.003922
0.262745 0.227451 0.000000
0.278431 0.211765 0.000000
0.317647 0.211765 0.000000
0.364706 0.219608 0.003922
0.423529 0.223529 0.000000
0.490196 0.231373 0.000000
0.537255 0.239216 0.000000
0.596078 0.250980 0.003922
0.643137 0.258824 0.003922
0.690196 0.262745 0.000000
0.729412 0.270588 0.000000
0.756863 0.278431 0.000000
0.800000 0.286275 0.003922
0.843137 0.290196 0.007843
0.878431 0.301961 0.000000
0.917647 0.305882 0.003922
0.949020 0.321569 0.015686
1.000000 0.337255 0.000000
0.000000 0.388235 0.000000
0.149020 0.403922 0.000000
0.176471 0.392157 0.000000
0.223529 0.400000 0.003922
0.262745 0.388235 0.007843
0.294118 0.372549 0.000000
0.313725 0.352941 0.003922
0.317647 0.325490 0.000000
0.321569 0.290196 0.003922
0.341176 0.266667 0.000000
0.368627 0.258824 0.003922
0.423529 0.270588 0.000000
0.474510 0.278431 0.007843
0.533333 0.282353 0.000000
0.580392 0.294118 0.000000
0.631373 0.305882 0.000000
0.678431 0.305882 0.000000
0.725490 0.313725 0.000000
0.760784 0.317647 0.003922
0.800000 0.325490 0.015686
0.843137 0.333333 0.000000
0.874510 0.341176 0.000000
0.901961 0.356863 0.000000
0.949020 0.356863 0.000000
1.000000 0.372549 0.000000
0.000000 0.478431 0.003922
0.184314 0.482353 0.000000
0.223529 0.482353 0.000000
0.254902 0.470588 0.003922
0.294118 0.474510 0.000000
0.341176 0.474510 0.003922
0.364706 0.454902 0.000000
0.380392 0.427451 0.003922
0.384314 0.392157 0.003922
0.380392 0.360784 0.003922
0.392157 0.329412 0.000000
0.419608 0.313725 0.003922
0.482353 0.321569 0.000000
0.517647 0.325490 0.015686
0.568627 0.333333 0.000000
0.619608 0.337255 0.003922
0.670588 0.341176 0.003922
0.709804 0.352941 0.003922
0.752941 0.356863 0.000000
0.796078 0.368627 0.003922
0.835294 0.372549 0.000000
0.866667 0.380392 0.003922
0.913725 0.388235 0.007843
0.941176 0.400000 0.003922
0.988235 0.415686 0.000000
0.223529 0.545098 0.007843
0.235294 0.552941 0.000000
0.266667 0.552941 0.000000
0.301961 0.556863 0.000000
0.341176 0.549020 0.000000
0.376471 0.541176 0.007843
0.407843 0.525490 0.000000
0.431373 0.513725 0.000000
0.447059 0.478431 0.000000
0.447059 0.447059 0.000000
0.431373 0.411765 0.003922
0.431373 0.372549 0.000000
0.466667 0.360784 0.003922
0.513725 0.372549 0.003922
0.560784 0.372549 0.000000
0.607843 0.380392 0.000000
0.654902 0.380392 0.000000
0.705882 0.396078 0.000000
0.737255 0.400000 0.003922
0.780392 0.403922 0.003922
0.823529 0.407843 0.007843
0.854902 0.419608 0.000000
0.905882 0.431373 0.000000
0.937255 0.435294 0.003922
1.000000 0.431373 0.000000
0.062745 0.627451 0.000000
0.298039 0.615686 0.000000
0.333333 0.607843 0.000000
0.372549 0.615686 0.000000
0.388235 0.603922 0.000000
0.427451 0.603922 0.003922
0.466667 0.603922 0.000000
0.486275 0.588235 0.000000
0.498039 0.568627 0.000000
0.498039 0.541176 0.000000
0.494118 0.501961 0.003922
0.494118 0.470588 0.000000
0.498039 0.427451 0.000000
0.517647 0.411765 0.000000
0.560784 0.415686 0.000000
0.596078 0.423529 0.000000
0.635294 0.423529 0.000000
0.678431 0.427451 0.003922
0.725490 0.439216 0.003922
0.776471 0.439216 0.000000
0.819608 0.443137 0.003922
0.862745 0.447059 0.007843
0.898039 0.466667 0.000000
0.937255 0.470588 0.007843
1.000000 0.466667 0.007843
0.211765 0.674510 0.007843
0.388235 0.650980 0.000000
0.380392 0.658824 0.000000
0.407843 0.666667 0.007843
0.447059 0.647059 0.000000
0.478431 0.654902 0.015686
0.501961 0.643137 0.007843
0.533333 0.643137 0.003922
0.552941 0.631373 0.003922
0.552941 0.611765 0.003922
0.552941 0.584314 0.003922
0.556863 0.552941 0.003922
0.545098 0.509804 0.000000
0.529412 0.486275 0.000000
0.545098 0.458824 0.000000
0.580392 0.450980 0.000000
0.639216 0.462745 0.003922
0.682353 0.466667 0.000000
0.713725 0.470588 0.000000
0.764706 0.474510 0.000000
0.811765 0.482353 0.003922
0.847059 0.482353 0.007843
0.890196 0.482353 0.000000
0.929412 0.501961 0.000000
1.000000 0.498039 0.000000
0.298039 0.705882 0.000000
0.427451 0.690196 0.000000
0.450980 0.686275 0.000000
0.470588 0.682353 0.007843
0.486275 0.694118 0.000000
0.517647 0.686275 0.000000
0.541176 0.686275 0.000000
0.568627 0.678431 0.000000
0.592157 0.670588 0.000000
0.603922 0.654902 0.000000
0.611765 0.643137 0.003922
0.596078 0.615686 0.011765
0.588235 0.580392 0.003922
0.584314 0.549020 0.003922
0.580392 0.509804 0.015686
0.580392 0.486275 0.000000
0.623529 0.490196 0.003922
0.670588 0.498039 0.007843
0.709804 0.494118 0.000000
0.752941 0.498039 0.000000
0.796078 0.509804 0.000000
0.839216 0.513725 0.003922
0.886275 0.513725 0.003922
0.925490 0.533333 0.000000
0.996078 0.525490 0.000000
0.376471 0.737255 0.003922
0.501961 0.721569 0.003922
0.505882 0.717647 0.003922
0.525490 0.721569 0.003922
0.552941 0.713725 0.000000
0.560784 0.709804 0.000000
0.580392 0.713725 0.000000
0.615686 0.717647 0.000000
0.631373 0.701961 0.000000
0.647059 0.698039 0.000000
0.658824 0.690196 0.007843
0.658824 0.674510 0.000000
0.639216 0.643137 0.000000
0.635294 0.619608 0.000000
0.627451 0.584314 0.000000
0.623529 0.549020 0.003922
0.631373 0.529412 0.000000
0.654902 0.525490 0.011765
0.698039 0.525490 0.003922
0.752941 0.525490 0.000000
0.803922 0.537255 0.015686
0.831373 0.549020 0.000000
0.874510 0.549020 0.007843
0.913725 0.556863 0.003922
0.960784 0.572549 0.000000
0.545098 0.745098 0.000000
0.549020 0.749020 0.000000
0.556863 0.752941 0.000000
0.580392 0.749020 0.000000
0.588235 0.741176 0.000000
0.615686 0.741176 0.007843
0.627451 0.741176 0.003922
0.643137 0.741176 0.003922
0.666667 0.741176 0.003922
0.686275 0.733333 0.003922
0.694118 0.729412 0.000000
0.698039 0.713725 0.000000
0.705882 0.694118 0.000000
0.701961 0.670588 0.007843
0.678431 0.643137 0.003922
0.674510 0.619608 0.000000
0.666667 0.580392 0.000000
0.682353 0.552941 0.000000
0.705882 0.552941 0.003922
0.749020 0.560784 0.000000
0.792157 0.564706 0.000000
0.827451 0.576471 0.000000
0.874510 0.576471 0.003922
0.913725 0.584314 0.000000
0.988235 0.572549 0.007843
0.549020 0.796078 0.007843
0.615686 0.780392 0.011765
0.615686 0.788235 0.007843
0.627451 0.776471 0.000000
0.650980 0.784314 0.000000
0.650980 0.784314 0.007843
0.674510 0.780392 0.000000
0.694118 0.780392 0.007843
0.713725 0.780392 0.000000
0.729412 0.772549 0.000000
0.741176 0.764706 0.000000
0.756863 0.756863 0.000000
0.756863 0.745098 0.003922
0.749020 0.725490 0.011765
0.749020 0.709804 0.000000
0.733333 0.682353 0.000000
0.733333 0.650980 0.000000
0.721569 0.619608 0.003922
0.717647 0.596078 0.000000
0.752941 0.592157 0.003922
0.796078 0.596078 0.000000
0.835294 0.603922 0.000000
0.870588 0.611765 0.000000
0.917647 0.615686 0.003922
0.976471 0.607843 0.000000
0.615686 0.827451 0.105882
0.682353 0.819608 0.019608
0.682353 0.815686 0.027451
0.682353 0.815686 0.031373
0.705882 0.823529 0.062745
0.709804 0.815686 0.066667
0.729412 0.815686 0.082353
0.741176 0.811765 0.090196
0.760784 0.815686 0.105882
0.776471 0.811765 0.109804
0.784314 0.807843 0.086275
0.796078 0.800000 0.054902
0.811765 0.788235 0.019608
0.807843 0.780392 0.000000
0.815686 0.760784 0.003922
0.796078 0.737255 0.003922
0.784314 0.709804 0.003922
0.772549 0.682353 0.000000
0.772549 0.658824 0.007843
0.780392 0.631373 0.000000
0.807843 0.631373 0.000000
0.827451 0.631373 0.007843
0.882353 0.643137 0.000000
0.917647 0.647059 0.007843
0.984314 0.643137 0.000000
0.682353 0.870588 0.188235
0.729412 0.847059 0.133333
0.729412 0.850980 0.137255
0.741176 0.850980 0.145098
0.749020 0.847059 0.145098
0.756863 0.847059 0.149020
0.768627 0.847059 0.152941
0.776471 0.847059 0.164706
0.796078 0.850980 0.180392
0.823529 0.847059 0.180392
0.835294 0.843137 0.172549
0.843137 0.839216 0.149020
0.847059 0.827451 0.129412
0.850980 0.815686 0.066667
0.850980 0.811765 0.000000
0.854902 0.796078 0.000000
0.847059 0.768627 0.011765
0.835294 0.737255 0.000000
0.831373 0.717647 0.003922
0.823529 0.698039 0.000000
0.827451 0.666667 0.000000
0.847059 0.666667 0.000000
0.878431 0.674510 0.000000
0.929412 0.682353 0.003922
0.988235 0.666667 0.000000
0.749020 0.890196 0.254902
0.776471 0.886275 0.211765
0.772549 0.882353 0.207843
0.780392 0.886275 0.207843
0.792157 0.882353 0.223529
0.807843 0.882353 0.227451
0.815686 0.882353 0.223529
0.823529 0.882353 0.235294
0.847059 0.878431 0.239216
0.854902 0.878431 0.243137
0.858824 0.878431 0.235294
0.870588 0.874510 0.231373
0.898039 0.870588 0.219608
0.898039 0.854902 0.188235
0.894118 0.847059 0.125490
0.898039 0.831373 0.031373
0.901961 0.819608 0.000000
0.898039 0.800000 0.000000
0.886275 0.788235 0.000000
0.882353 0.764706 0.003922
0.870588 0.737255 0.007843
0.882353 0.725490 0.003922
0.909804 0.709804 0.007843
0.933333 0.713725 0.000000
0.984314 0.725490 0.003922
0.901961 0.921569 0.356863
0.901961 0.921569 0.349020
0.901961 0.921569 0.349020
0.901961 0.921569 0.349020
0.901961 0.921569 0.356863
0.905882 0.925490 0.360784
0.909804 0.921569 0.360784
0.917647 0.925490 0.364706
0.917647 0.921569 0.372549
0.925490 0.921569 0.364706
0.925490 0.921569 0.372549
0.929412 0.917647 0.372549
0.941176 0.913725 0.364706
0.941176 0.909804 0.341176
0.949020 0.905882 0.301961
0.956863 0.894118 0.274510
0.956863 0.890196 0.192157
0.949020 0.890196 0.007843
0.945098 0.878431 0.000000
0.952941 0.862745 0.015686
0.945098 0.850980 0.000000
0.937255 0.839216 0.000000
0.945098 0.823529 0.000000
0.956863 0.815686 0.000000
0.996078 0.807843 0.000000
0.878431 0.956863 0.443137
0.909804 0.945098 0.384314
0.909804 0.941176 0.403922
0.913725 0.945098 0.415686
0.913725 0.945098 0.407843
0.909804 0.941176 0.411765
0.913725 0.945098 0.415686
0.917647 0.941176 0.415686
0.929412 0.941176 0.419608
0.929412 0.941176 0.427451
0.933333 0.937255 0.427451
0.937255 0.937255 0.411765
0.949020 0.941176 0.411765
0.960784 0.937255 0.396078
0.968627 0.925490 0.372549
0.980392 0.925490 0.341176
0.988235 0.917647 0.298039
0.988235 0.905882 0.203922
0.972549 0.905882 0.082353
0.984314 0.894118 0.000000
0.988235 0.878431 0.000000
0.984314 0.866667 0.011765
0.988235 0.862745 0.000000
0.984314 0.850980 0.000000
0.996078 0.843137 0.000000
0.901961 0.960784 0.494118
0.909804 0.960784 0.443137
0.917647 0.960784 0.450980
0.913725 0.964706 0.447059
0.917647 0.968627 0.454902
0.921569 0.964706 0.450980
0.925490 0.960784 0.454902
0.925490 0.960784 0.462745
0.937255 0.960784 0.466667
0.941176 0.960784 0.466667
0.945098 0.964706 0.462745
0.952941 0.960784 0.462745
0.960784 0.956863 0.458824
0.972549 0.952941 0.450980
0.972549 0.945098 0.427451
0.980392 0.945098 0.392157
0.992157 0.949020 0.360784
0.996078 0.933333 0.313725
1.000000 0.929412 0.223529
0.996078 0.921569 0.074510
0.996078 0.917647 0.000000
0.992157 0.905882 0.000000
1.000000 0.894118 0.003922
1.000000 0.878431 0.000000
1.000000 0.874510 0.000000
0.901961 0.984314 0.525490
0.921569 0.980392 0.482353
0.917647 0.984314 0.482353
0.921569 0.984314 0.466667
0.913725 0.992157 0.478431
0.921569 0.984314 0.494118
0.925490 0.984314 0.486275
0.933333 0.980392 0.486275
0.941176 0.980392 0.490196
0.945098 0.980392 0.490196
0.949020 0.984314 0.494118
0.956863 0.980392 0.486275
0.972549 0.980392 0.482353
0.972549 0.976471 0.478431
0.996078 0.968627 0.458824
1.000000 0.968627 0.443137
1.000000 0.964706 0.411765
1.000000 0.956863 0.360784
1.000000 0.952941 0.309804
1.000000 0.941176 0.207843
1.000000 0.937255 0.011765
1.000000 0.925490 0.003922
1.000000 0.921569 0.003922
0.984314 0.913725 0.000000
1.000000 0.909804 0.007843
0.909804 1.000000 0.545098
0.917647 1.000000 0.501961
0.933333 0.996078 0.505882
0.925490 1.000000 0.490196
0.925490 1.000000 0.498039
0.933333 1.000000 0.498039
0.925490 1.000000 0.498039
0.929412 1.000000 0.509804
0.941176 0.996078 0.513725
0.956863 0.996078 0.513725
0.960784 1.000000 0.509804
0.968627 1.000000 0.505882
0.976471 1.000000 0.498039
0.988235 0.992157 0.494118
0.992157 0.992157 0.482353
0.996078 0.984314 0.462745
1.000000 0.988235 0.435294
1.000000 0.984314 0.403922
0.996078 0.972549 0.345098
0.996078 0.968627 0.274510
1.000000 0.960784 0.145098
0.996078 0.964706 0.000000
1.000000 0.952941 0.000000
0.996078 0.949020 0.000000
1.000000 0.941176 0.000000
0.000000 0.015686 0.031373
0.003922 0.019608 0.031373
0.015686 0.015686 0.023529
0.050980 0.015686 0.027451
0.082353 0.019608 0.023529
0.125490 0.031373 0.031373
0.152941 0.031373 0.019608
0.184314 0.039216 0.015686
0.203922 0.047059 0.007843
0.254902 0.050980 0.007843
0.309804 0.050980 0.003922
0.364706 0.043137 0.000000
0.419608 0.011765 0.000000
0.466667 0.000000 0.000000
0.525490 0.000000 0.000000
0.572549 0.000000 0.000000
0.623529 0.000000 0.000000
0.678431 0.003922 0.003922
0.717647 0.003922 0.000000
0.768627 0.000000 0.003922
0.823529 0.000000 0.003922
0.858824 0.000000 0.003922
0.909804 0.000000 0.007843
0.941176 0.000000 0.000000
0.996078 0.000000 0.000000
0.007843 0.031373 0.031373
0.007843 0.031373 0.031373
0.027451 0.035294 0.031373
0.043137 0.039216 0.031373
0.078431 0.035294 0.019608
0.125490 0.050980 0.023529
0.156863 0.050980 0.023529
0.172549 0.058824 0.003922
0.211765 0.066667 0.003922
0.254902 0.070588 0.007843
0.298039 0.066667 0.000000
0.356863 0.054902 0.000000
0.411765 0.023529 0.000000
0.466667 0.003922 0.003922
0.525490 0.000000 0.003922
0.568627 0.000000 0.000000
0.611765 0.003922 0.000000
0.666667 0.007843 0.003922
0.709804 0.003922 0.007843
0.760784 0.000000 0.000000
0.815686 0.000000 0.007843
0.858824 0.000000 0.003922
0.894118 0.000000 0.000000
0.941176 0.000000 0.003922
0.996078 0.000000 0.000000
0.000000 0.047059 0.031373
0.015686 0.066667 0.031373
0.027451 0.050980 0.043137
0.050980 0.054902 0.031373
0.086275 0.062745 0.015686
0.117647 0.066667 0.031373
0.156863 0.070588 0.019608
0.172549 0.082353 0.011765
0.207843 0.086275 0.003922
0.247059 0.082353 0.000000
0.301961 0.074510 0.000000
0.356863 0.058824 0.000000
0.419608 0.035294 0.000000
0.454902 0.007843 0.003922
0.525490 0.000000 0.000000
0.564706 0.000000 0.000000
0.611765 0.003922 0.000000
0.662745 0.000000 0.000000
0.705882 0.000000 0.011765
0.760784 0.000000 0.003922
0.815686 0.000000 0.000000
0.858824 0.003922 0.000000
0.898039 0.003922 0.000000
0.933333 0.000000 0.000000
1.000000 0.003922 0.011765
0.003922 0.094118 0.023529
0.019608 0.082353 0.031373
0.039216 0.094118 0.027451
0.058824 0.082353 0.027451
0.090196 0.082353 0.023529
0.129412 0.086275 0.015686
0.152941 0.094118 0.019608
0.168627 0.098039 0.011765
0.196078 0.101961 0.007843
0.239216 0.098039 0.000000
0.298039 0.094118 0.000000
0.364706 0.066667 0.003922
0.411765 0.043137 0.003922
0.470588 0.007843 0.000000
0.513725 0.003922 0.000000
0.560784 0.003922 0.000000
0.607843 0.003922 0.003922
0.650980 0.000000 0.007843
0.698039 0.000000 0.007843
0.756863 0.000000 0.000000
0.807843 0.000000 0.007843
0.839216 0.000000 0.000000
0.894118 0.000000 0.007843
0.929412 0.007843 0.000000
0.996078 0.000000 0.000000
0.019608 0.121569 0.023529
0.054902 0.125490 0.031373
0.070588 0.117647 0.031373
0.105882 0.109804 0.039216
0.105882 0.113725 0.027451
0.129412 0.105882 0.019608
0.149020 0.105882 0.019608
0.164706 0.117647 0.015686
0.196078 0.121569 0.003922
0.239216 0.117647 0.003922
0.305882 0.101961 0.007843
0.349020 0.082353 0.007843
0.419608 0.054902 0.000000
0.466667 0.023529 0.007843
0.521569 0.000000 0.003922
0.560784 0.003922 0.000000
0.603922 0.000000 0.007843
0.647059 0.000000 0.003922
0.701961 0.000000 0.000000
0.752941 0.000000 0.000000
0.800000 0.000000 0.003922
0.835294 0.000000 0.000000
0.894118 0.000000 0.003922
0.933333 0.000000 0.000000
0.976471 0.000000 0.000000
0.047059 0.164706 0.015686
0.066667 0.168627 0.015686
0.101961 0.172549 0.023529
0.129412 0.168627 0.023529
0.141176 0.156863 0.019608
0.152941 0.141176 0.011765
0.172549 0.137255 0.007843
0.203922 0.145098 0.023529
0.258824 0.149020 0.000000
0.313725 0.149020 0.000000
0.368627 0.152941 0.000000
0.435294 0.152941 0.003922
0.494118 0.149020 0.000000
0.552941 0.152941 0.000000
0.603922 0.160784 0.003922
0.647059 0.164706 0.003922
0.694118 0.160784 0.003922
0.741176 0.168627 0.015686
0.768627 0.176471 0.000000
0.803922 0.184314 0.000000
0.847059 0.196078 0.000000
0.874510 0.211765 0.000000
0.917647 0.227451 0.000000
0.949020 0.243137 0.000000
1.000000 0.270588 0.000000
0.047059 0.223529 0.000000
0.101961 0.235294 0.000000
0.125490 0.235294 0.007843
0.156863 0.231373 0.011765
0.188235 0.219608 0.000000
0.211765 0.203922 0.015686
0.196078 0.184314 0.007843
0.219608 0.176471 0.000000
0.262745 0.172549 0.000000
0.313725 0.180392 0.000000
0.372549 0.184314 0.000000
0.435294 0.192157 0.000000
0.494118 0.196078 0.003922
0.549020 0.196078 0.000000
0.603922 0.207843 0.000000
0.650980 0.203922 0.000000
0.698039 0.215686 0.000000
0.741176 0.219608 0.000000
0.772549 0.219608 0.000000
0.811765 0.231373 0.000000
0.850980 0.239216 0.000000
0.886275 0.250980 0.000000
0.921569 0.266667 0.000000
0.956863 0.278431 0.007843
1.000000 0.298039 0.007843
0.000000 0.298039 0.003922
0.101961 0.301961 0.000000
0.141176 0.305882 0.015686
0.180392 0.301961 0.000000
0.215686 0.301961 0.007843
0.239216 0.278431 0.007843
0.250980 0.250980 0.000000
0.262745 0.227451 0.000000
0.278431 0.211765 0.000000
0.321569 0.215686 0.000000
0.368627 0.223529 0.007843
0.423529 0.231373 0.003922
0.490196 0.239216 0.000000
0.533333 0.243137 0.000000
0.596078 0.250980 0.000000
0.635294 0.250980 0.000000
0.690196 0.250980 0.000000
0.737255 0.262745 0.000000
0.768627 0.270588 0.000000
0.803922 0.278431 0.000000
0.843137 0.278431 0.003922
0.886275 0.290196 0.003922
0.913725 0.294118 0.003922
0.945098 0.321569 0.000000
0.996078 0.329412 0.000000
0.000000 0.392157 0.003922
0.121569 0.400000 0.000000
0.160784 0.400000 0.000000
0.227451 0.388235 0.019608
0.258824 0.384314 0.000000
0.286275 0.380392 0.003922
0.305882 0.356863 0.003922
0.317647 0.325490 0.000000
0.329412 0.294118 0.000000
0.341176 0.266667 0.000000
0.372549 0.266667 0.003922
0.427451 0.278431 0.000000
0.474510 0.278431 0.000000
0.521569 0.286275 0.000000
0.576471 0.294118 0.000000
0.631373 0.305882 0.000000
0.682353 0.309804 0.000000
0.725490 0.305882 0.000000
0.760784 0.305882 0.003922
0.800000 0.321569 0.000000
0.839216 0.329412 0.000000
0.870588 0.337255 0.000000
0.917647 0.349020 0.000000
0.949020 0.360784 0.000000
1.000000 0.360784 0.007843
0.000000 0.486275 0.000000
0.172549 0.478431 0.000000
0.200000 0.490196 0.000000
0.243137 0.478431 0.000000
0.298039 0.478431 0.000000
0.333333 0.470588 0.007843
0.360784 0.450980 0.000000
0.376471 0.423529 0.000000
0.384314 0.392157 0.003922
0.384314 0.356863 0.000000
0.392157 0.329412 0.000000
0.415686 0.317647 0.000000
0.470588 0.325490 0.007843
0.513725 0.325490 0.000000
0.564706 0.337255 0.007843
0.619608 0.345098 0.000000
0.666667 0.349020 0.000000
0.709804 0.352941 0.000000
0.752941 0.364706 0.000000
0.784314 0.364706 0.000000
0.835294 0.372549 0.000000
0.866667 0.380392 0.003922
0.909804 0.384314 0.003922
0.937255 0.400000 0.000000
0.984314 0.407843 0.000000
0.192157 0.549020 0.000000
0.219608 0.549020 0.000000
0.258824 0.552941 0.000000
0.298039 0.549020 0.000000
0.333333 0.545098 0.003922
0.372549 0.545098 0.007843
0.407843 0.525490 0.000000
0.431373 0.517647 0.000000
0.439216 0.486275 0.000000
0.447059 0.447059 0.000000
0.443137 0.407843 0.000000
0.435294 0.372549 0.000000
