YOYO-Client/Yoyo/Assets.xcassets/Yosemite.dataset/Yosemite.cube
TITLE "Yosemite"
LUT_3D_SIZE 5
0.000000 0.011765 0.023529
0.156863 0.039216 0.007843
0.486275 0.000000 0.000000
0.768627 0.003922 0.000000
0.996078 0.188235 0.000000
0.062745 0.223529 0.000000
0.196078 0.188235 0.000000
0.482353 0.200000 0.003922
0.768627 0.235294 0.000000
0.988235 0.313725 0.000000
0.211765 0.674510 0.007843
0.501961 0.643137 0.007843
0.545098 0.509804 0.000000
0.713725 0.470588 0.000000
1.000000 0.498039 0.000000
0.682353 0.870588 0.188235
0.768627 0.847059 0.152941
0.847059 0.827451 0.129412
0.831373 0.717647 0.003922
0.988235 0.666667 0.000000
0.909804 1.000000 0.545098
0.925490 1.000000 0.498039
0.976471 1.000000 0.498039
0.996078 0.972549 0.345098
1.000000 0.941176 0.000000
0.003922 0.047059 0.156863
0.133333 0.062745 0.156863
0.407843 0.007843 0.160784
0.713725 0.000000 0.098039
0.996078 0.003922 0.011765
0.000000 0.192157 0.196078
0.168627 0.203922 0.192157
0.513725 0.207843 0.156863
0.764706 0.231373 0.066667
0.996078 0.270588 0.007843
0.000000 0.643137 0.168627
0.427451 0.635294 0.180392
0.517647 0.521569 0.121569
0.721569 0.494118 0.000000
0.996078 0.517647 0.000000
0.623529 0.858824 0.372549
0.737255 0.850980 0.356863
0.835294 0.835294 0.356863
0.819608 0.721569 0.023529
0.996078 0.682353 0.003922
0.882353 1.000000 0.623529
0.925490 0.996078 0.564706
0.964706 1.000000 0.580392
1.000000 0.976471 0.490196
1.000000 0.941176 0.000000
0.000000 0.121569 0.400000
0.007843 0.129412 0.392157
0.400000 0.109804 0.403922
0.643137 0.180392 0.415686
1.000000 0.149020 0.415686
0.007843 0.258824 0.439216
0.109804 0.274510 0.431373
0.462745 0.325490 0.443137
0.686275 0.380392 0.443137
1.000000 0.349020 0.388235
0.000000 0.509804 0.454902
0.094118 0.533333 0.447059
0.450980 0.549020 0.474510
0.733333 0.549020 0.431373
0.992157 0.576471 0.349020
0.000000 0.827451 0.564706
0.435294 0.827451 0.541176
0.749020 0.835294 0.580392
0.784314 0.737255 0.454902
0.992157 0.725490 0.227451
0.811765 1.000000 0.709804
0.850980 0.996078 0.694118
0.917647 1.000000 0.705882
1.000000 0.984314 0.694118
1.000000 0.949020 0.364706
0.003922 0.207843 0.635294
0.000000 0.227451 0.635294
0.466667 0.270588 0.650980
0.654902 0.321569 0.647059
0.925490 0.419608 0.674510
0.007843 0.333333 0.639216
0.015686 0.372549 0.658824
0.494118 0.419608 0.670588
0.686275 0.474510 0.666667
0.949020 0.537255 0.694118
0.000000 0.564706 0.654902
0.000000 0.576471 0.647059
0.419608 0.564706 0.666667
0.709804 0.611765 0.694118
0.964706 0.631373 0.721569
0.000000 0.721569 0.658824
0.176471 0.717647 0.666667
0.423529 0.725490 0.686275
0.717647 0.745098 0.713725
1.000000 0.760784 0.678431
0.541176 1.000000 0.823529
0.658824 0.996078 0.811765
0.780392 0.996078 0.831373
0.945098 1.000000 0.870588
1.000000 0.964706 0.725490
0.113725 0.474510 0.964706
0.321569 0.470588 0.952941
0.600000 0.478431 0.949020
0.839216 0.537255 0.937255
0.988235 0.580392 0.921569
0.000000 0.560784 0.956863
0.270588 0.568627 0.945098
0.564706 0.576471 0.949020
0.819608 0.607843 0.937255
0.972549 0.647059 0.929412
0.000000 0.705882 0.952941
0.003922 0.686275 0.956863
0.470588 0.650980 0.952941
0.800000 0.670588 0.949020
0.980392 0.713725 0.945098
0.007843 0.878431 0.968627
0.000000 0.862745 0.968627
0.000000 0.847059 0.976471
0.698039 0.784314 0.968627
0.980392 0.835294 0.964706
0.003922 1.000000 0.980392
0.192157 0.992157 0.980392
0.450980 1.000000 0.988235
0.705882 1.000000 0.988235
0.988235 0.996078 0.992157
