YOYO-Client/Yoyo/Assets.xcassets/Yosemite.dataset/Yosemite.cube
TITLE "Yosemite"
LUT_3D_SIZE 9
0.000000 0.011765 0.023529
0.054902 0.015686 0.011765
0.156863 0.039216 0.007843
0.305882 0.039216 0.003922
0.486275 0.000000 0.000000
0.643137 0.000000 0.000000
0.768627 0.003922 0.000000
0.886275 0.078431 0.000000
0.996078 0.188235 0.000000
0.019608 0.086275 0.015686
0.058824 0.074510 0.007843
0.156863 0.090196 0.011765
0.313725 0.094118 0.000000
0.494118 0.082353 0.000000
0.643137 0.066667 0.000000
0.768627 0.094118 0.000000
0.878431 0.133333 0.000000
0.996078 0.211765 0.007843
0.062745 0.223529 0.000000
0.156863 0.227451 0.000000
0.196078 0.188235 0.000000
0.313725 0.180392 0.000000
0.482353 0.200000 0.003922
0.647059 0.215686 0.007843
0.768627 0.235294 0.000000
0.878431 0.262745 0.000000
0.988235 0.313725 0.000000
0.000000 0.478431 0.003922
0.254902 0.470588 0.003922
0.364706 0.454902 0.000000
0.380392 0.360784 0.003922
0.482353 0.321569 0.000000
0.619608 0.337255 0.003922
0.752941 0.356863 0.000000
0.866667 0.380392 0.003922
0.988235 0.415686 0.000000
0.211765 0.674510 0.007843
0.407843 0.666667 0.007843
0.501961 0.643137 0.007843
0.552941 0.611765 0.003922
0.545098 0.509804 0.000000
0.580392 0.450980 0.000000
0.713725 0.470588 0.000000
0.847059 0.482353 0.007843
1.000000 0.498039 0.000000
0.545098 0.745098 0.000000
0.580392 0.749020 0.000000
0.627451 0.741176 0.003922
0.686275 0.733333 0.003922
0.705882 0.694118 0.000000
0.674510 0.619608 0.000000
0.705882 0.552941 0.003922
0.827451 0.576471 0.000000
0.988235 0.572549 0.007843
0.682353 0.870588 0.188235
0.741176 0.850980 0.145098
0.768627 0.847059 0.152941
0.823529 0.847059 0.180392
0.847059 0.827451 0.129412
0.854902 0.796078 0.000000
0.831373 0.717647 0.003922
0.847059 0.666667 0.000000
0.988235 0.666667 0.000000
0.878431 0.956863 0.443137
0.913725 0.945098 0.415686
0.913725 0.945098 0.415686
0.929412 0.941176 0.427451
0.949020 0.941176 0.411765
0.980392 0.925490 0.341176
0.972549 0.905882 0.082353
0.984314 0.866667 0.011765
0.996078 0.843137 0.000000
0.909804 1.000000 0.545098
0.925490 1.000000 0.490196
0.925490 1.000000 0.498039
0.956863 0.996078 0.513725
0.976471 1.000000 0.498039
0.996078 0.984314 0.462745
0.996078 0.972549 0.345098
0.996078 0.964706 0.000000
1.000000 0.941176 0.000000
0.000000 0.031373 0.082353
0.035294 0.027451 0.070588
0.152941 0.035294 0.074510
0.262745 0.031373 0.054902
0.419608 0.000000 0.023529
0.580392 0.000000 0.000000
0.725490 0.003922 0.003922
0.870588 0.000000 0.000000
0.996078 0.000000 0.007843
0.003922 0.082353 0.078431
0.039216 0.098039 0.086275
0.152941 0.094118 0.074510
0.250980 0.094118 0.054902
0.423529 0.031373 0.031373
0.564706 0.000000 0.000000
0.705882 0.000000 0.003922
0.847059 0.003922 0.000000
1.000000 0.000000 0.015686
0.007843 0.211765 0.062745
0.121569 0.231373 0.082353
0.196078 0.192157 0.070588
0.321569 0.180392 0.039216
0.490196 0.203922 0.003922
0.654902 0.200000 0.000000
0.772549 0.207843 0.003922
0.890196 0.219608 0.000000
1.000000 0.270588 0.000000
0.003922 0.470588 0.000000
0.203922 0.478431 0.000000
0.349020 0.454902 0.000000
0.376471 0.360784 0.003922
0.482353 0.333333 0.000000
0.615686 0.352941 0.003922
0.756863 0.368627 0.003922
0.870588 0.372549 0.000000
0.996078 0.400000 0.003922
0.129412 0.662745 0.000000
0.388235 0.650980 0.000000
0.494118 0.635294 0.000000
0.552941 0.611765 0.003922
0.545098 0.517647 0.000000
0.584314 0.462745 0.003922
0.713725 0.478431 0.007843
0.839216 0.494118 0.000000
1.000000 0.486275 0.000000
0.525490 0.749020 0.003922
0.552941 0.745098 0.000000
0.623529 0.741176 0.062745
0.682353 0.733333 0.074510
0.701961 0.694118 0.000000
0.674510 0.619608 0.000000
0.698039 0.560784 0.003922
0.827451 0.576471 0.000000
0.992157 0.584314 0.007843
0.678431 0.858824 0.270588
0.721569 0.847059 0.223529
0.752941 0.847059 0.235294
0.807843 0.843137 0.250980
0.839216 0.827451 0.227451
0.847059 0.796078 0.043137
0.831373 0.721569 0.000000
0.850980 0.662745 0.000000
0.984314 0.682353 0.000000
0.886275 0.945098 0.486275
0.905882 0.945098 0.431373
0.905882 0.941176 0.435294
0.925490 0.941176 0.466667
0.941176 0.933333 0.450980
0.964706 0.925490 0.407843
0.980392 0.898039 0.203922
0.980392 0.870588 0.000000
1.000000 0.839216 0.007843
0.909804 0.996078 0.568627
0.905882 1.000000 0.529412
0.937255 1.000000 0.521569
0.952941 0.996078 0.525490
0.964706 1.000000 0.533333
0.996078 0.992157 0.494118
1.000000 0.976471 0.396078
1.000000 0.964706 0.074510
1.000000 0.945098 0.000000
0.003922 0.047059 0.156863
0.035294 0.050980 0.164706
0.133333 0.062745 0.156863
0.219608 0.086275 0.152941
0.407843 0.007843 0.160784
0.580392 0.000000 0.141176
0.713725 0.000000 0.098039
0.866667 0.003922 0.050980
0.996078 0.003922 0.011765
0.000000 0.117647 0.176471
0.011765 0.117647 0.160784
0.137255 0.105882 0.156863
0.219608 0.109804 0.164706
0.415686 0.023529 0.156863
0.568627 0.000000 0.141176
0.686275 0.003922 0.109804
0.839216 0.000000 0.047059
0.996078 0.000000 0.000000
0.000000 0.192157 0.196078
0.000000 0.200000 0.180392
0.168627 0.203922 0.192157
0.341176 0.215686 0.172549
0.513725 0.207843 0.156863
0.650980 0.227451 0.117647
0.764706 0.231373 0.066667
0.878431 0.254902 0.000000
0.996078 0.270588 0.007843
0.000000 0.419608 0.192157
0.000000 0.435294 0.164706
0.278431 0.447059 0.176471
0.352941 0.380392 0.176471
0.474510 0.364706 0.109804
0.619608 0.376471 0.074510
0.749020 0.388235 0.000000
0.862745 0.403922 0.000000
0.996078 0.419608 0.003922
0.000000 0.643137 0.168627
0.250980 0.627451 0.145098
0.427451 0.635294 0.180392
0.525490 0.611765 0.188235
0.517647 0.521569 0.121569
0.572549 0.486275 0.050980
0.721569 0.494118 0.000000
0.839216 0.521569 0.000000
0.996078 0.517647 0.000000
0.478431 0.741176 0.227451
0.513725 0.733333 0.235294
0.568627 0.741176 0.258824
0.654902 0.729412 0.274510
0.686275 0.701961 0.231373
0.654902 0.615686 0.098039
0.694118 0.568627 0.007843
0.831373 0.592157 0.000000
0.992157 0.603922 0.000000
0.623529 0.858824 0.372549
0.690196 0.847059 0.329412
0.737255 0.850980 0.356863
0.784314 0.839216 0.356863
0.835294 0.835294 0.356863
0.835294 0.796078 0.278431
0.819608 0.721569 0.023529
0.847059 0.682353 0.000000
0.996078 0.682353 0.003922
0.862745 0.952941 0.537255
0.886275 0.937255 0.513725
0.890196 0.945098 0.509804
0.913725 0.941176 0.525490
0.937255 0.941176 0.533333
0.949020 0.925490 0.478431
0.976471 0.901961 0.356863
0.972549 0.870588 0.003922
0.996078 0.843137 0.000000
0.882353 1.000000 0.623529
0.905882 1.000000 0.568627
0.925490 0.996078 0.564706
0.937255 0.996078 0.584314
0.964706 1.000000 0.580392
0.992157 0.988235 0.572549
1.000000 0.976471 0.490196
1.000000 0.956863 0.301961
1.000000 0.941176 0.000000
0.000000 0.090196 0.262745
0.000000 0.086275 0.274510
0.121569 0.098039 0.270588
0.239216 0.098039 0.270588
0.368627 0.078431 0.270588
0.509804 0.039216 0.282353
0.690196 0.000000 0.282353
0.854902 0.000000 0.247059
1.000000 0.000000 0.180392
0.000000 0.125490 0.278431
0.000000 0.125490 0.274510
0.121569 0.121569 0.270588
0.239216 0.113725 0.274510
0.360784 0.090196 0.266667
0.525490 0.086275 0.282353
0.674510 0.007843 0.254902
0.835294 0.000000 0.250980
0.996078 0.003922 0.188235
0.000000 0.243137 0.333333
0.007843 0.247059 0.321569
0.164706 0.235294 0.321569
0.325490 0.254902 0.317647
0.466667 0.282353 0.321569
0.631373 0.262745 0.317647
0.756863 0.274510 0.282353
0.878431 0.298039 0.250980
1.000000 0.325490 0.168627
0.000000 0.364706 0.325490
0.007843 0.372549 0.329412
0.105882 0.380392 0.337255
0.317647 0.400000 0.333333
0.490196 0.403922 0.309804
0.631373 0.407843 0.290196
0.745098 0.423529 0.274510
0.866667 0.435294 0.227451
0.992157 0.454902 0.149020
0.000000 0.580392 0.364706
0.000000 0.580392 0.337255
0.125490 0.592157 0.325490
0.443137 0.600000 0.356863
0.490196 0.529412 0.321569
0.576471 0.513725 0.278431
0.721569 0.533333 0.243137
0.854902 0.541176 0.192157
1.000000 0.552941 0.035294
0.211765 0.717647 0.364706
0.294118 0.721569 0.364706
0.450980 0.725490 0.380392
0.588235 0.717647 0.407843
0.662745 0.705882 0.407843
0.631373 0.627451 0.313725
0.686275 0.592157 0.247059
0.819608 0.611765 0.164706
0.992157 0.623529 0.003922
0.494118 0.850980 0.478431
0.611765 0.839216 0.435294
0.666667 0.847059 0.458824
0.745098 0.843137 0.474510
0.823529 0.835294 0.494118
0.839216 0.803922 0.439216
0.800000 0.729412 0.290196
0.831373 0.682353 0.184314
0.992157 0.705882 0.000000
0.815686 0.945098 0.596078
0.850980 0.945098 0.568627
0.862745 0.949020 0.564706
0.890196 0.949020 0.592157
0.917647 0.941176 0.603922
0.945098 0.925490 0.596078
0.956863 0.905882 0.505882
0.972549 0.870588 0.286275
0.996078 0.843137 0.000000
0.850980 1.000000 0.658824
0.882353 1.000000 0.615686
0.894118 1.000000 0.619608
0.909804 1.000000 0.627451
0.941176 1.000000 0.643137
0.980392 1.000000 0.631373
0.996078 0.984314 0.580392
1.000000 0.968627 0.447059
1.000000 0.949020 0.011765
0.000000 0.121569 0.400000
0.000000 0.117647 0.392157
0.007843 0.129412 0.392157
0.270588 0.109804 0.415686
0.400000 0.109804 0.403922
0.501961 0.109804 0.396078
0.643137 0.180392 0.415686
0.803922 0.207843 0.431373
1.000000 0.149020 0.415686
0.000000 0.129412 0.392157
0.000000 0.141176 0.388235
0.019608 0.141176 0.396078
0.266667 0.145098 0.411765
0.392157 0.152941 0.415686
0.501961 0.149020 0.388235
0.607843 0.207843 0.396078
0.784314 0.219608 0.427451
0.992157 0.129412 0.403922
0.007843 0.258824 0.439216
0.000000 0.270588 0.435294
0.109804 0.274510 0.431373
0.341176 0.294118 0.450980
0.462745 0.325490 0.443137
0.568627 0.341176 0.439216
0.686275 0.380392 0.443137
0.835294 0.368627 0.443137
1.000000 0.349020 0.388235
0.000000 0.415686 0.454902
0.000000 0.423529 0.450980
0.000000 0.427451 0.431373
0.317647 0.411765 0.458824
0.462745 0.443137 0.458824
0.560784 0.466667 0.458824
0.713725 0.462745 0.462745
0.858824 0.447059 0.431373
1.000000 0.443137 0.388235
0.000000 0.509804 0.454902
0.003922 0.521569 0.439216
0.094118 0.533333 0.447059
0.305882 0.529412 0.454902
0.450980 0.549020 0.474510
0.584314 0.541176 0.454902
0.733333 0.549020 0.431373
0.862745 0.556863 0.403922
0.992157 0.576471 0.349020
0.000000 0.662745 0.486275
0.027451 0.666667 0.490196
0.219608 0.674510 0.498039
0.376471 0.678431 0.498039
0.592157 0.694118 0.517647
0.603922 0.631373 0.458824
0.694118 0.615686 0.407843
0.835294 0.639216 0.368627
0.996078 0.662745 0.305882
0.000000 0.827451 0.564706
0.325490 0.823529 0.521569
0.435294 0.827451 0.541176
0.603922 0.831373 0.541176
0.749020 0.835294 0.580392
0.819608 0.819608 0.568627
0.784314 0.737255 0.454902
0.835294 0.701961 0.360784
0.992157 0.725490 0.227451
0.682353 0.941176 0.650980
0.768627 0.941176 0.631373
0.807843 0.941176 0.639216
0.843137 0.945098 0.654902
0.890196 0.937255 0.678431
0.929412 0.937255 0.690196
0.949020 0.917647 0.635294
0.960784 0.870588 0.454902
1.000000 0.850980 0.274510
0.811765 1.000000 0.709804
0.835294 1.000000 0.678431
0.850980 0.996078 0.694118
0.878431 1.000000 0.694118
0.917647 1.000000 0.705882
0.956863 0.996078 0.725490
1.000000 0.984314 0.694118
0.996078 0.972549 0.596078
1.000000 0.949020 0.364706
0.003922 0.145098 0.513725
0.000000 0.149020 0.521569
0.007843 0.145098 0.513725
0.266667 0.160784 0.525490
0.443137 0.200000 0.533333
0.529412 0.207843 0.529412
0.623529 0.223529 0.513725
0.749020 0.294118 0.541176
0.968627 0.368627 0.580392
0.003922 0.141176 0.494118
0.000000 0.164706 0.501961
0.000000 0.168627 0.509804
0.254902 0.184314 0.521569
0.411765 0.223529 0.521569
0.517647 0.227451 0.521569
0.603922 0.239216 0.513725
0.741176 0.294118 0.525490
0.956863 0.356863 0.580392
0.000000 0.290196 0.529412
0.003922 0.301961 0.529412
0.074510 0.313725 0.537255
0.313725 0.337255 0.541176
0.494118 0.380392 0.568627
0.580392 0.400000 0.545098
0.666667 0.403922 0.541176
0.776471 0.450980 0.568627
0.980392 0.482353 0.588235
0.000000 0.423529 0.537255
0.000000 0.443137 0.545098
0.000000 0.431373 0.541176
0.298039 0.435294 0.545098
0.486275 0.470588 0.560784
0.584314 0.494118 0.564706
0.650980 0.501961 0.545098
0.788235 0.529412 0.584314
0.949020 0.505882 0.576471
0.003922 0.545098 0.556863
0.000000 0.564706 0.533333
0.000000 0.568627 0.545098
0.250980 0.560784 0.549020
0.450980 0.549020 0.564706
0.568627 0.576471 0.572549
0.670588 0.588235 0.584314
0.835294 0.576471 0.592157
0.996078 0.556863 0.541176
0.000000 0.619608 0.541176
0.000000 0.627451 0.545098
0.196078 0.623529 0.549020
0.325490 0.627451 0.556863
0.427451 0.635294 0.572549
0.564706 0.647059 0.580392
0.717647 0.647059 0.568627
0.866667 0.647059 0.549020
0.996078 0.662745 0.509804
0.000000 0.764706 0.635294
0.184314 0.764706 0.623529
0.278431 0.772549 0.627451
0.380392 0.780392 0.627451
0.537255 0.796078 0.647059
0.760784 0.815686 0.674510
0.756863 0.737255 0.572549
0.831373 0.725490 0.517647
0.992157 0.745098 0.435294
0.439216 0.941176 0.717647
0.588235 0.933333 0.694118
0.627451 0.933333 0.698039
0.701961 0.933333 0.705882
0.811765 0.937255 0.741176
0.890196 0.941176 0.768627
0.933333 0.929412 0.756863
0.941176 0.874510 0.600000
0.992157 0.854902 0.447059
0.717647 1.000000 0.749020
0.768627 1.000000 0.733333
0.784314 1.000000 0.737255
0.815686 1.000000 0.768627
0.866667 1.000000 0.792157
0.925490 0.996078 0.792157
0.968627 0.996078 0.796078
1.000000 0.968627 0.737255
1.000000 0.952941 0.545098
0.003922 0.207843 0.635294
0.000000 0.215686 0.643137
0.000000 0.227451 0.635294
0.294118 0.231373 0.650980
0.466667 0.270588 0.650980
0.584314 0.317647 0.658824
0.654902 0.321569 0.647059
0.756863 0.349020 0.650980
0.925490 0.419608 0.674510
0.000000 0.207843 0.623529
0.000000 0.223529 0.635294
0.000000 0.239216 0.631373
0.266667 0.247059 0.647059
0.447059 0.278431 0.639216
0.560784 0.317647 0.650980
0.647059 0.329412 0.631373
0.741176 0.333333 0.627451
0.933333 0.407843 0.686275
0.007843 0.333333 0.639216
0.000000 0.360784 0.647059
0.015686 0.372549 0.658824
0.309804 0.380392 0.662745
0.494118 0.419608 0.670588
0.615686 0.462745 0.670588
0.686275 0.474510 0.666667
0.772549 0.486275 0.666667
0.949020 0.537255 0.694118
0.007843 0.447059 0.643137
0.000000 0.466667 0.650980
0.000000 0.466667 0.650980
0.282353 0.470588 0.662745
0.470588 0.498039 0.670588
0.611765 0.533333 0.678431
0.694118 0.549020 0.678431
0.780392 0.549020 0.674510
0.898039 0.560784 0.698039
0.000000 0.564706 0.654902
0.000000 0.584314 0.650980
0.000000 0.576471 0.647059
0.192157 0.564706 0.674510
0.419608 0.564706 0.666667
0.600000 0.592157 0.678431
0.709804 0.611765 0.694118
0.784314 0.611765 0.678431
0.964706 0.631373 0.721569
0.000000 0.662745 0.650980
0.000000 0.670588 0.654902
0.000000 0.670588 0.647059
0.219608 0.658824 0.662745
0.364706 0.654902 0.666667
0.545098 0.639216 0.686275
0.709804 0.670588 0.705882
0.815686 0.686275 0.721569
0.992157 0.678431 0.729412
0.000000 0.721569 0.658824
0.000000 0.705882 0.662745
0.176471 0.717647 0.666667
0.301961 0.725490 0.674510
0.423529 0.725490 0.686275
0.552941 0.737255 0.698039
0.717647 0.745098 0.713725
0.882353 0.756863 0.705882
1.000000 0.760784 0.678431
0.094118 0.898039 0.776471
0.427451 0.901961 0.780392
0.462745 0.898039 0.772549
0.517647 0.909804 0.776471
0.619608 0.913725 0.792157
0.752941 0.921569 0.811765
0.882353 0.929412 0.843137
0.913725 0.882353 0.741176
0.996078 0.870588 0.631373
0.541176 1.000000 0.823529
0.639216 0.984314 0.819608
0.658824 0.996078 0.811765
0.713725 0.996078 0.815686
0.780392 0.996078 0.831373
0.862745 0.996078 0.850980
0.945098 1.000000 0.870588
0.992157 0.992157 0.858824
1.000000 0.964706 0.725490
0.000000 0.321569 0.784314
0.007843 0.325490 0.788235
0.070588 0.325490 0.780392
0.325490 0.337255 0.796078
0.494118 0.368627 0.803922
0.647059 0.403922 0.800000
0.752941 0.435294 0.796078
0.827451 0.435294 0.788235
0.941176 0.474510 0.796078
0.000000 0.305882 0.792157
0.000000 0.325490 0.784314
0.000000 0.333333 0.788235
0.305882 0.337255 0.772549
0.470588 0.360784 0.792157
0.627451 0.388235 0.792157
0.745098 0.415686 0.792157
0.819608 0.423529 0.800000
0.945098 0.458824 0.803922
0.003922 0.431373 0.788235
0.000000 0.443137 0.807843
0.050980 0.450980 0.784314
0.325490 0.462745 0.792157
0.498039 0.478431 0.800000
0.643137 0.509804 0.800000
0.756863 0.541176 0.803922
0.827451 0.545098 0.803922
0.941176 0.568627 0.796078
0.007843 0.509804 0.796078
0.000000 0.525490 0.784314
0.000000 0.517647 0.796078
0.278431 0.525490 0.796078
0.482353 0.533333 0.800000
0.635294 0.556863 0.803922
0.756863 0.588235 0.800000
0.827451 0.592157 0.803922
0.905882 0.600000 0.803922
0.000000 0.607843 0.780392
0.000000 0.619608 0.796078
0.000000 0.607843 0.780392
0.137255 0.588235 0.803922
0.431373 0.592157 0.811765
0.603922 0.603922 0.815686
0.760784 0.635294 0.819608
0.835294 0.643137 0.819608
0.952941 0.643137 0.827451
0.000000 0.705882 0.796078
0.000000 0.713725 0.796078
0.003922 0.705882 0.796078
0.000000 0.690196 0.792157
0.266667 0.670588 0.807843
0.533333 0.662745 0.823529
0.752941 0.690196 0.835294
0.843137 0.713725 0.835294
0.960784 0.713725 0.835294
0.000000 0.780392 0.800000
0.000000 0.772549 0.796078
0.000000 0.772549 0.803922
0.000000 0.776471 0.788235
0.258824 0.772549 0.803922
0.435294 0.760784 0.815686
0.666667 0.749020 0.831373
0.858824 0.788235 0.850980
0.960784 0.800000 0.862745
0.000000 0.882353 0.811765
0.184314 0.878431 0.815686
0.258824 0.878431 0.819608
0.341176 0.874510 0.819608
0.439216 0.878431 0.815686
0.556863 0.878431 0.823529
0.713725 0.874510 0.850980
0.878431 0.886275 0.874510
1.000000 0.886275 0.854902
0.247059 0.988235 0.878431
0.450980 0.988235 0.886275
0.501961 0.988235 0.894118
0.556863 0.980392 0.886275
0.658824 0.984314 0.905882
0.741176 0.992157 0.898039
0.854902 0.992157 0.905882
0.968627 0.992157 0.945098
1.000000 0.976471 0.874510
0.113725 0.474510 0.964706
0.196078 0.470588 0.945098
0.321569 0.470588 0.952941
0.450980 0.470588 0.941176
0.600000 0.478431 0.949020
0.725490 0.505882 0.941176
0.839216 0.537255 0.937255
0.905882 0.564706 0.937255
0.988235 0.580392 0.921569
0.000000 0.462745 0.956863
0.152941 0.466667 0.949020
0.290196 0.470588 0.941176
0.454902 0.470588 0.952941
0.588235 0.478431 0.952941
0.721569 0.490196 0.945098
0.847059 0.525490 0.949020
0.921569 0.552941 0.933333
0.980392 0.572549 0.921569
0.000000 0.560784 0.956863
0.090196 0.568627 0.964706
0.270588 0.568627 0.945098
0.415686 0.564706 0.945098
0.564706 0.576471 0.949020
0.690196 0.588235 0.945098
0.819608 0.607843 0.937255
0.905882 0.627451 0.941176
0.972549 0.647059 0.929412
0.007843 0.619608 0.960784
0.000000 0.623529 0.941176
0.184314 0.623529 0.952941
0.368627 0.607843 0.956863
0.545098 0.607843 0.952941
0.674510 0.615686 0.941176
0.811765 0.639216 0.949020
0.901961 0.658824 0.945098
0.964706 0.662745 0.937255
0.000000 0.705882 0.952941
0.000000 0.694118 0.960784
0.003922 0.686275 0.956863
0.250980 0.666667 0.956863
0.470588 0.650980 0.952941
0.647059 0.658824 0.960784
0.800000 0.670588 0.949020
0.905882 0.701961 0.952941
0.980392 0.713725 0.945098
0.007843 0.784314 0.968627
0.000000 0.788235 0.968627
0.003922 0.780392 0.972549
0.000000 0.760784 0.964706
0.317647 0.725490 0.972549
0.584314 0.705882 0.960784
0.768627 0.721569 0.964706
0.901961 0.756863 0.960784
0.988235 0.768627 0.952941
0.007843 0.878431 0.968627
0.003922 0.862745 0.972549
0.000000 0.862745 0.968627
0.000000 0.854902 0.964706
0.000000 0.847059 0.976471
0.415686 0.800000 0.984314
0.698039 0.784314 0.968627
0.894118 0.823529 0.972549
0.980392 0.835294 0.964706
0.007843 0.945098 0.972549
0.000000 0.937255 0.964706
0.000000 0.929412 0.968627
0.000000 0.933333 0.960784
0.301961 0.929412 0.976471
0.474510 0.917647 0.988235
0.627451 0.905882 0.984314
0.847059 0.890196 0.976471
0.980392 0.909804 0.972549
0.003922 1.000000 0.980392
0.000000 1.000000 0.976471
0.192157 0.992157 0.980392
0.317647 1.000000 0.976471
0.450980 1.000000 0.988235
0.584314 0.992157 0.988235
0.705882 1.000000 0.988235
0.850980 0.992157 0.992157
0.988235 0.996078 0.992157
