YOYO-Client/Yoyo/Assets.xcassets/Patagonia.dataset/Patagonia.cube
TITLE "Generated by Resolve"
LUT_3D_SIZE 33
0.00294499 0.00648508 0.00909438
0.01149 0.00724804 0.0105135
0.0277562 0.00741588 0.0109407
0.0439918 0.00781262 0.0113832
0.0613107 0.00839246 0.0122072
0.0787671 0.00956741 0.0130312
0.103578 0.0101015 0.0143435
0.131441 0.00991836 0.0162661
0.164141 0.0101167 0.0174716
0.197696 0.010132 0.0188907
0.232059 0.00988785 0.0206149
0.268132 0.00949111 0.022446
0.306371 0.0087129 0.0242924
0.345068 0.00770581 0.0263371
0.386618 0.0059968 0.0282139
0.431601 0.00357061 0.0298161
0.477104 0.000961318 0.03299
0.524392 0 0.0370489
0.575387 0 0.0403449
0.62649 0 0.0436103
0.677333 0 0.0502327
0.729152 0 0.0579843
0.781003 0 0.0658885
0.831647 0 0.073991
0.880812 0 0.083238
0.926863 0 0.0951705
0.970291 0 0.108156
1 0 0.122103
1 0 0.13695
1 0 0.153307
1 0 0.171115
1 0 0.189563
1 0 0.208713
0.00218204 0.0178988 0.0105592
0.0161746 0.0189822 0.0109407
0.0332494 0.0201267 0.0114443
0.0494087 0.0214389 0.0120241
0.0655375 0.0231937 0.012665
0.0872053 0.0243839 0.0138705
0.112139 0.0252995 0.0154574
0.144579 0.0253452 0.0165255
0.178302 0.0250553 0.0177005
0.213245 0.0247196 0.0192874
0.248814 0.0241855 0.0208896
0.285649 0.023209 0.0226444
0.324392 0.0218814 0.0245518
0.363729 0.0202945 0.026566
0.406851 0.0174411 0.0281682
0.451316 0.013962 0.0298314
0.496269 0.0115969 0.0333104
0.544182 0.00872816 0.0364843
0.594461 0.00517281 0.0394293
0.644663 0.00178531 0.0429236
0.694514 0 0.0506294
0.745739 0 0.0576486
0.796201 0 0.0653391
0.845426 0 0.0737011
0.893156 0 0.0837568
0.937499 0 0.0960861
0.979965 0 0.10956
1 0 0.123949
1 0 0.13901
1 0.000549325 0.155764
1 0.00601205 0.173678
1 0.0139162 0.192218
1 0.024506 0.211521
0.00117494 0.0332189 0.0111238
0.0184939 0.0342718 0.0116732
0.0353246 0.0358587 0.0121614
0.0518959 0.0377508 0.0124971
0.0692912 0.039353 0.0141909
0.0944839 0.0404822 0.0155184
0.122591 0.0411841 0.0166171
0.156588 0.0409857 0.0174258
0.191638 0.0405585 0.0188449
0.227405 0.0398718 0.0203861
0.263478 0.03888 0.0219425
0.301747 0.0374456 0.0234989
0.340795 0.0357214 0.0251774
0.380606 0.0343481 0.0267033
0.424353 0.0327764 0.027512
0.468391 0.0307317 0.0296788
0.512749 0.028275 0.0330816
0.561105 0.0242924 0.0360723
0.61062 0.0197299 0.0390784
0.659861 0.0178073 0.0433356
0.708659 0.0158999 0.05066
0.759213 0.0135195 0.0578317
0.80882 0.0114595 0.065568
0.85716 0.00982681 0.073991
0.904067 0.00877394 0.0846723
0.947478 0.00959792 0.0975357
0.98883 0.0112001 0.11133
1 0.0138094 0.125917
1 0.0176089 0.141192
1 0.0242924 0.158282
1 0.0331121 0.176303
1 0.0443427 0.195087
1 0.0576333 0.214603
0.00393683 0.0480812 0.0124361
0.0210269 0.049958 0.0127108
0.0375982 0.0519875 0.0137026
0.0533761 0.0538338 0.0151369
0.0766308 0.0551919 0.0162814
0.10164 0.0562753 0.0173953
0.134127 0.0564736 0.0180362
0.168566 0.0561685 0.0192416
0.203784 0.0556497 0.0205692
0.24007 0.0548257 0.0219272
0.277241 0.0546883 0.0230411
0.315541 0.0547799 0.0242618
0.354391 0.0546883 0.0254215
0.395041 0.0540475 0.0263828
0.43888 0.0522927 0.0270848
0.48307 0.0499123 0.0299382
0.527459 0.0474098 0.033051
0.576349 0.0455177 0.0350347
0.625162 0.0438087 0.037171
0.673594 0.0417487 0.0428779
0.722011 0.0395819 0.0502327
0.771618 0.0370184 0.0576333
0.820188 0.0348516 0.0656901
0.867842 0.0337377 0.0746471
0.913771 0.0337072 0.0863661
0.956085 0.0354467 0.0995651
0.996658 0.0381781 0.113344
1 0.0419928 0.128038
1 0.0472114 0.143496
1 0.0554818 0.160891
1 0.0655222 0.179187
1 0.076463 0.198138
1 0.087953 0.217731
0.00743114 0.0642252 0.014313
0.0242618 0.0662089 0.015671
0.0402838 0.0683452 0.0169528
0.0601053 0.0702525 0.0178683
0.0841993 0.0718853 0.018616
0.112245 0.0733654 0.0194858
0.145525 0.074052 0.0203403
0.180041 0.0745403 0.021149
0.216587 0.0751965 0.0217594
0.25272 0.0755016 0.0226902
0.290379 0.0758068 0.0236973
0.329351 0.0759747 0.0245212
0.368811 0.0760052 0.0253452
0.410361 0.0751354 0.0260777
0.453681 0.0754711 0.0276493
0.497368 0.0757 0.0298619
0.542443 0.075639 0.0320439
0.591333 0.0744335 0.0336309
0.640024 0.0731365 0.0364843
0.688045 0.071519 0.0427253
0.73611 0.0696117 0.0501106
0.785122 0.0679179 0.0576944
0.833173 0.0668803 0.0659648
0.879789 0.0664683 0.0759136
0.924163 0.0670481 0.0879988
0.965286 0.0691539 0.101427
1 0.0722057 0.115618
1 0.0762493 0.130571
1 0.0817273 0.14638
1 0.0901198 0.164355
1 0.0991989 0.182773
1 0.108919 0.20177
1 0.119173 0.221439
0.00796521 0.0852369 0.0176242
0.0235599 0.0880446 0.0185245
0.0421149 0.0902724 0.0193332
0.0662394 0.0920424 0.0199893
0.0899672 0.0937209 0.021149
0.123186 0.0946822 0.0217441
0.157488 0.095552 0.0221866
0.192264 0.0962539 0.0228275
0.228519 0.09691 0.0233768
0.265476 0.0985122 0.023743
0.304006 0.100145 0.0239872
0.342763 0.101717 0.0242771
0.381872 0.10341 0.0244144
0.425315 0.104189 0.024979
0.469169 0.104814 0.026688
0.512367 0.105272 0.0289616
0.558267 0.105089 0.0309758
0.606577 0.104189 0.032517
0.654688 0.103136 0.0374914
0.702617 0.102525 0.0437018
0.751446 0.101671 0.0507515
0.800122 0.100877 0.0581826
0.847013 0.100298 0.0666819
0.892317 0.100328 0.0777905
0.935012 0.101381 0.0902876
0.974914 0.103563 0.103929
1 0.106615 0.118334
1 0.111284 0.133623
1 0.117311 0.150072
1 0.125307 0.168032
1 0.133745 0.186679
1 0.142626 0.205966
1 0.151934 0.225849
0.00576791 0.109941 0.0203861
0.0231022 0.112963 0.0214084
0.0460212 0.115328 0.0221561
0.0690166 0.117418 0.0228885
0.100954 0.119265 0.0229496
0.13341 0.120745 0.02327
0.167437 0.122316 0.0233616
0.203906 0.124422 0.0231174
0.239796 0.126284 0.0233768
0.277104 0.128161 0.0234989
0.316304 0.130114 0.0232853
0.356008 0.131945 0.0229191
0.396384 0.133272 0.0237278
0.43975 0.134035 0.0250858
0.483406 0.134829 0.026566
0.527489 0.136049 0.0281529
0.575616 0.136217 0.0292668
0.623575 0.135866 0.0329137
0.671122 0.135485 0.0386358
0.71809 0.135271 0.0453346
0.766598 0.134569 0.05243
0.814206 0.134127 0.0600137
0.860441 0.134157 0.0692454
0.905043 0.134752 0.0804608
0.946059 0.136416 0.09337
0.984802 0.13933 0.107362
1 0.143008 0.122087
1 0.147478 0.13756
1 0.15346 0.154467
1 0.16083 0.172534
1 0.168856 0.191073
1 0.177234 0.210285
1 0.185748 0.230396
0.00268559 0.139269 0.0234226
0.0234226 0.142092 0.0239109
0.0470436 0.144503 0.024506
0.0774548 0.146334 0.024506
0.109682 0.148119 0.0243229
0.14345 0.149935 0.0242771
0.177996 0.152102 0.024155
0.213993 0.15433 0.0237583
0.251362 0.156619 0.0232395
0.289845 0.158923 0.0227207
0.328969 0.161181 0.0221714
0.368551 0.163455 0.0230564
0.411765 0.165103 0.0239719
0.455589 0.166308 0.0250553
0.499229 0.167529 0.0263066
0.543832 0.168627 0.0275578
0.592325 0.168643 0.0298924
0.640467 0.168582 0.0344396
0.687861 0.168566 0.0399786
0.734447 0.168444 0.0469978
0.782025 0.168063 0.0543679
0.828473 0.168246 0.0626078
0.873533 0.169177 0.0733501
0.917037 0.170611 0.0848096
0.956802 0.173114 0.0978408
0.994614 0.176272 0.111742
1 0.179889 0.12665
1 0.184268 0.142336
1 0.190173 0.159655
1 0.197024 0.177798
1 0.204471 0.196384
1 0.212604 0.215442
1 0.222217 0.235309
0.00349432 0.170138 0.0258946
0.0264439 0.172885 0.0260624
0.060029 0.175326 0.0257572
0.0893873 0.177279 0.025742
0.120531 0.179309 0.0256657
0.154864 0.181811 0.0249943
0.190341 0.184298 0.0243381
0.226062 0.186679 0.0236973
0.264057 0.189227 0.0226596
0.303868 0.191867 0.0219272
0.342916 0.194247 0.0227207
0.383062 0.196399 0.0237125
0.42681 0.198032 0.0244297
0.470954 0.199634 0.0252537
0.515129 0.201083 0.0261234
0.561135 0.201678 0.0286107
0.609003 0.201724 0.0325933
0.656535 0.202014 0.0373083
0.703517 0.202625 0.0428779
0.750988 0.203174 0.0493629
0.798062 0.203601 0.0565805
0.843244 0.204379 0.0665904
0.886915 0.205585 0.077821
0.928481 0.207401 0.090074
0.966735 0.210071 0.103563
1 0.21326 0.117525
1 0.217121 0.132204
1 0.221653 0.148043
1 0.22739 0.165667
1 0.234592 0.183764
1 0.242954 0.202106
1 0.251865 0.220966
1 0.26099 0.240742
0.00813306 0.202823 0.0280461
0.0395819 0.205447 0.0275731
0.0743725 0.207797 0.026978
0.102937 0.209674 0.0267643
0.133791 0.212161 0.0261082
0.167193 0.214786 0.0252842
0.203021 0.217411 0.024155
0.239338 0.219913 0.0238041
0.277241 0.222599 0.0238651
0.316381 0.225269 0.0239261
0.356542 0.227985 0.0240177
0.39913 0.230121 0.0242924
0.442557 0.232029 0.0247501
0.486336 0.233951 0.02533
0.530129 0.235813 0.0284123
0.578805 0.236576 0.0317998
0.626307 0.237049 0.0359808
0.673121 0.237644 0.0408942
0.719203 0.238392 0.0469215
0.766537 0.238941 0.0532387
0.812787 0.239796 0.0617227
0.857542 0.241062 0.0717021
0.899947 0.242435 0.0830701
0.939544 0.244465 0.0957046
0.976425 0.247196 0.109468
1 0.250492 0.123949
1 0.255268 0.138994
1 0.261234 0.15462
1 0.268254 0.171939
1 0.275502 0.18999
1 0.28333 0.208347
1 0.291585 0.227237
1 0.300008 0.247013
0.0209964 0.236988 0.0291447
0.056733 0.239445 0.0284733
0.0900282 0.241993 0.027451
0.11899 0.244388 0.0264897
0.148867 0.24683 0.0262303
0.181369 0.249454 0.0262303
0.216358 0.252262 0.0261387
0.254459 0.255314 0.0256657
0.292027 0.258091 0.0256046
0.330739 0.260929 0.0254368
0.371756 0.263569 0.0251926
0.415625 0.265858 0.0247654
0.459083 0.267903 0.0256962
0.502144 0.269749 0.0288701
0.547585 0.271153 0.0323033
0.595499 0.272038 0.0359808
0.64303 0.272969 0.0403754
0.689525 0.273777 0.0455634
0.735286 0.274525 0.0516976
0.781643 0.275257 0.0595254
0.826642 0.276295 0.0687419
0.87013 0.277684 0.0788128
0.911818 0.280125 0.0895705
0.949554 0.283482 0.102007
0.984848 0.287236 0.115633
1 0.291585 0.130007
1 0.296712 0.145251
1 0.302678 0.161608
1 0.309514 0.179171
1 0.316686 0.196933
1 0.32398 0.21532
1 0.331609 0.234257
1 0.339437 0.253895
0.0395666 0.272786 0.0304875
0.0758984 0.275608 0.0300603
0.10753 0.278202 0.0295109
0.136233 0.280583 0.0289769
0.165133 0.282902 0.0288853
0.19704 0.285512 0.0287022
0.232059 0.288457 0.0282902
0.269139 0.291524 0.0278019
0.307729 0.294484 0.0272374
0.346105 0.29723 0.0269322
0.388388 0.299519 0.026978
0.431418 0.301747 0.0287633
0.475013 0.303944 0.0308995
0.518105 0.305974 0.0339361
0.565316 0.306905 0.037232
0.61239 0.307851 0.0411688
0.658946 0.309102 0.0457465
0.704707 0.310811 0.0511788
0.750805 0.312581 0.0586404
0.795712 0.314168 0.066865
0.839261 0.316091 0.0759289
0.881239 0.318395 0.0858625
0.921172 0.321218 0.096788
0.957519 0.324819 0.109194
0.992081 0.328908 0.122408
1 0.333318 0.137026
1 0.338262 0.152316
1 0.344091 0.168994
1 0.350561 0.186526
1 0.357488 0.204547
1 0.364752 0.223041
1 0.371771 0.242023
1 0.379065 0.261463
0.0624704 0.309987 0.033875
0.0962081 0.312566 0.0333104
0.126177 0.314977 0.0326543
0.153857 0.317311 0.0319371
0.183047 0.319875 0.031342
0.214572 0.322667 0.030808
0.248569 0.325658 0.0301823
0.284688 0.328801 0.0294804
0.322423 0.332006 0.0302281
0.363546 0.334676 0.0313878
0.404822 0.337179 0.0328832
0.446952 0.339696 0.0346838
0.489616 0.342275 0.0368658
0.535195 0.344427 0.0391546
0.582086 0.346059 0.0420691
0.628046 0.347555 0.046067
0.673442 0.349218 0.051545
0.718303 0.35108 0.0586709
0.764202 0.352941 0.0661936
0.808759 0.355077 0.0745098
0.850996 0.357137 0.0838331
0.891646 0.359503 0.0938582
0.929412 0.362463 0.105165
0.964477 0.366018 0.117586
0.997711 0.370245 0.130953
1 0.374975 0.145052
1 0.379797 0.160281
1 0.385458 0.177249
1 0.391546 0.194705
1 0.398672 0.212467
1 0.40679 0.230518
1 0.414816 0.24918
1 0.422782 0.268482
0.0847791 0.350698 0.035462
0.116381 0.353155 0.0347295
0.145006 0.355673 0.0337835
0.17174 0.358144 0.0327916
0.200702 0.360769 0.0325475
0.231174 0.363394 0.0332341
0.264134 0.366217 0.0340734
0.299214 0.369207 0.03505
0.338506 0.37203 0.0361181
0.37969 0.374868 0.0373388
0.420874 0.377401 0.0388952
0.462135 0.379904 0.0408637
0.504936 0.382284 0.0431067
0.551446 0.384115 0.0453651
0.59794 0.385992 0.0483101
0.643397 0.387854 0.0536507
0.687587 0.389609 0.0601663
0.732448 0.391394 0.0671702
0.777066 0.393301 0.074815
0.820356 0.395483 0.083299
0.862058 0.397986 0.092546
0.901396 0.40058 0.102892
0.93695 0.403616 0.114549
0.970596 0.407279 0.127169
1 0.411597 0.140444
1 0.417136 0.154147
1 0.423301 0.168902
1 0.42977 0.185351
1 0.43653 0.202411
1 0.443702 0.219944
1 0.451225 0.237949
1 0.458793 0.256352
1 0.4663 0.275486
0.107637 0.392111 0.0394598
0.137331 0.394629 0.0394751
0.164508 0.397024 0.0394446
0.190051 0.399283 0.0394141
0.218341 0.401816 0.0393988
0.248264 0.404364 0.0399939
0.280369 0.407019 0.0408942
0.317098 0.409598 0.041886
0.355718 0.412268 0.0430457
0.395865 0.415015 0.044419
0.437232 0.417807 0.0460212
0.477729 0.420264 0.0483558
0.522683 0.422065 0.0504463
0.567895 0.423972 0.0542916
0.613077 0.425925 0.0587015
0.657893 0.427985 0.0637522
0.701976 0.429953 0.0697948
0.746365 0.431662 0.0767529
0.789395 0.434104 0.0842451
0.831022 0.436957 0.0925154
0.871107 0.440146 0.101625
0.908568 0.443931 0.111727
0.942382 0.448188 0.123491
0.974365 0.452613 0.136019
1 0.457435 0.149035
1 0.46273 0.162737
1 0.468681 0.177859
1 0.47512 0.193851
1 0.481544 0.210727
1 0.488228 0.228153
1 0.495094 0.246052
1 0.502052 0.264393
1 0.5093 0.283162
0.13109 0.434058 0.0476081
0.158938 0.436439 0.0475929
0.18471 0.438712 0.0475471
0.209064 0.440909 0.0475013
0.236179 0.443366 0.0474708
0.266987 0.44593 0.0476387
0.300175 0.448356 0.0484474
0.335637 0.450965 0.0494087
0.372992 0.453712 0.0505379
0.411872 0.456565 0.0518807
0.451789 0.459602 0.0542153
0.495506 0.462226 0.057023
0.539086 0.464378 0.0603037
0.582879 0.466621 0.0640726
0.626566 0.468971 0.0684062
0.669871 0.471458 0.0733501
0.714336 0.474067 0.0785992
0.757839 0.476631 0.0848707
0.799435 0.479149 0.0924849
0.839643 0.481941 0.100908
0.878233 0.485176 0.110323
0.913298 0.489082 0.121126
0.946288 0.493492 0.13254
0.977264 0.498024 0.145006
1 0.502693 0.158495
1 0.507713 0.17229
1 0.513375 0.187671
1 0.519387 0.20354
1 0.52578 0.219883
1 0.532052 0.237034
1 0.538231 0.254932
1 0.544594 0.273198
1 0.551217 0.291844
0.150774 0.480278 0.0536812
0.177249 0.482475 0.053666
0.201953 0.484565 0.0536507
0.226459 0.486534 0.0536049
0.254353 0.488701 0.0535592
0.285451 0.491127 0.0534981
0.317922 0.493492 0.0543221
0.352117 0.495995 0.0562295
0.388159 0.498665 0.0584421
0.425727 0.501457 0.0609903
0.46746 0.50399 0.0635691
0.511009 0.506462 0.0664073
0.55433 0.508873 0.0697795
0.596826 0.51104 0.0737163
0.6392 0.513313 0.0782025
0.68217 0.515694 0.0831159
0.725734 0.518212 0.088426
0.768277 0.520928 0.0944839
0.809018 0.523705 0.101793
0.847654 0.526574 0.110597
0.884001 0.529824 0.120394
0.917388 0.533608 0.13135
0.949187 0.537758 0.142977
0.979248 0.542351 0.155047
1 0.547021 0.16817
1 0.551904 0.182803
1 0.557198 0.198367
1 0.562783 0.214084
1 0.568734 0.230137
1 0.574975 0.246784
1 0.580896 0.26453
1 0.58706 0.282628
1 0.593469 0.301076
0.171801 0.526314 0.0605631
0.198444 0.528252 0.0610361
0.223423 0.530114 0.0615091
0.247211 0.531899 0.0620127
0.273838 0.533913 0.0626078
0.303609 0.536202 0.0633402
0.335698 0.538613 0.0644541
0.368734 0.540932 0.0664683
0.403632 0.543404 0.0688029
0.44332 0.545617 0.0711223
0.484642 0.54786 0.0737316
0.526802 0.550195 0.0767376
0.569436 0.552605 0.0801862
0.610971 0.554925 0.0843366
0.652293 0.557076 0.0889296
0.695064 0.559319 0.0937514
0.737041 0.561746 0.0993057
0.77792 0.564492 0.105745
0.817548 0.567468 0.112947
0.855207 0.570459 0.121401
0.88893 0.573693 0.131579
0.920974 0.577264 0.142565
0.951507 0.58117 0.154253
0.980285 0.585718 0.166323
1 0.590738 0.178912
1 0.59588 0.193622
1 0.601129 0.209033
1 0.606699 0.224765
1 0.612558 0.240726
1 0.618372 0.257267
1 0.623941 0.274647
1 0.629496 0.292638
1 0.635264 0.310979
0.197024 0.571878 0.0714885
0.222156 0.573602 0.0720531
0.245869 0.575265 0.0726024
0.268544 0.576867 0.0731823
0.293996 0.578698 0.0738842
0.322545 0.580758 0.0747387
0.353796 0.583047 0.0757916
0.386999 0.585184 0.0775616
0.424063 0.58706 0.0796674
0.462699 0.589029 0.0820783
0.50251 0.591089 0.0848554
0.543145 0.593225 0.0880293
0.584207 0.595621 0.0915999
0.625208 0.598184 0.0955215
0.666789 0.600565 0.100145
0.707713 0.602991 0.105348
0.747921 0.6056 0.111147
0.787106 0.608408 0.117647
0.825055 0.611475 0.124895
0.860502 0.614893 0.133257
0.892912 0.618433 0.143114
0.923522 0.622049 0.154025
0.952651 0.625971 0.165621
0.980209 0.630228 0.177829
1 0.634897 0.190906
1 0.639872 0.205066
1 0.644816 0.22005
1 0.649882 0.23566
1 0.655238 0.251759
1 0.660288 0.268681
1 0.665476 0.285725
1 0.670512 0.303532
1 0.675532 0.321798
0.222263 0.618402 0.0823835
0.24596 0.619974 0.0829938
0.268421 0.621485 0.0836194
0.289982 0.622965 0.0842603
0.31426 0.624643 0.0850385
0.341604 0.626551 0.0859846
0.374319 0.628397 0.0869612
0.409308 0.63035 0.0881971
0.444816 0.63212 0.0903944
0.481849 0.633997 0.0929274
0.520058 0.635966 0.0958114
0.55906 0.638071 0.0991531
0.598459 0.64036 0.103059
0.639826 0.642725 0.107088
0.680827 0.645335 0.111284
0.719951 0.647639 0.116976
0.758328 0.65008 0.123232
0.795819 0.652674 0.129931
0.8318 0.655543 0.137453
0.864607 0.658793 0.146242
0.896071 0.662318 0.155749
0.925582 0.665812 0.166445
0.953399 0.669398 0.178058
0.979736 0.673289 0.190326
1 0.677546 0.203723
1 0.682078 0.217655
1 0.686885 0.23209
1 0.691493 0.247517
1 0.696117 0.263584
1 0.700572 0.280369
1 0.705226 0.297627
1 0.709941 0.315328
1 0.714183 0.333501
0.248157 0.664668 0.093843
0.270466 0.666041 0.0945449
0.291722 0.667369 0.0952621
0.313329 0.668559 0.0959335
0.338537 0.669825 0.0967117
0.366903 0.671275 0.0976577
0.398047 0.672892 0.0988022
0.431525 0.674647 0.10016
0.466224 0.676448 0.10219
0.501579 0.678157 0.104982
0.538079 0.679973 0.108171
0.575372 0.681895 0.111788
0.614939 0.683909 0.115511
0.654704 0.686046 0.119738
0.694041 0.688365 0.124346
0.732464 0.690822 0.129473
0.768963 0.693049 0.136065
0.804517 0.695476 0.143343
0.837278 0.698192 0.151492
0.868589 0.701152 0.160357
0.898619 0.704372 0.169909
0.92726 0.707835 0.180148
0.953887 0.711177 0.191501
0.977295 0.714702 0.204059
0.997833 0.718517 0.217472
1 0.722591 0.231235
1 0.726894 0.245487
1 0.731365 0.260349
1 0.73521 0.276402
1 0.739147 0.292973
1 0.743099 0.310124
1 0.747097 0.327779
1 0.750347 0.346319
0.277226 0.709316 0.106432
0.300008 0.710353 0.107179
0.321736 0.71136 0.107942
0.342718 0.712337 0.108721
0.366415 0.713451 0.109667
0.393179 0.714733 0.110796
0.422614 0.716152 0.112169
0.454353 0.717708 0.113771
0.487999 0.719387 0.115663
0.522011 0.720943 0.118441
0.557015 0.722515 0.121752
0.594385 0.724163 0.1252
0.632166 0.725933 0.129122
0.670008 0.72781 0.133577
0.707546 0.729824 0.138552
0.744228 0.732067 0.143771
0.779767 0.734356 0.149905
0.812192 0.736599 0.157687
0.842924 0.739086 0.166323
0.872572 0.741787 0.17557
0.901137 0.744656 0.185077
0.928359 0.747738 0.195193
0.953948 0.750927 0.206149
0.974701 0.753902 0.21915
0.99443 0.757076 0.232578
1 0.760494 0.246265
1 0.764126 0.260441
1 0.767773 0.275257
1 0.770977 0.291081
1 0.774166 0.307546
1 0.777508 0.324514
1 0.780713 0.34197
1 0.783581 0.360052
0.312215 0.75198 0.1205
0.333394 0.752804 0.121355
0.353674 0.753613 0.12221
0.373312 0.754406 0.12311
0.395575 0.755322 0.124163
0.420768 0.756344 0.12546
0.448569 0.757504 0.127001
0.478584 0.758785 0.128817
0.51046 0.760159 0.130938
0.544671 0.761608 0.133272
0.579324 0.76286 0.136522
0.61474 0.764202 0.140215
0.650553 0.765637 0.144396
0.686442 0.767163 0.149111
0.722087 0.768826 0.154406
0.756924 0.770687 0.159945
0.789776 0.772747 0.166445
0.820294 0.774838 0.174212
0.849454 0.776898 0.182818
0.877577 0.779141 0.192004
0.904555 0.781567 0.201831
0.930343 0.784207 0.212207
0.952468 0.786954 0.223728
0.972641 0.789822 0.236133
0.991485 0.792584 0.249393
1 0.79559 0.262821
1 0.798779 0.276753
1 0.801648 0.291539
1 0.804578 0.306844
1 0.80734 0.323003
1 0.810147 0.339635
1 0.812634 0.356863
1 0.815152 0.374563
0.350896 0.791348 0.136843
0.370398 0.79202 0.137774
0.389151 0.79266 0.13872
0.407355 0.793301 0.139696
0.428061 0.794018 0.140856
0.451575 0.794858 0.142275
0.477546 0.795804 0.143938
0.506142 0.796826 0.145846
0.537362 0.797925 0.147936
0.570047 0.7991 0.150378
0.603555 0.800305 0.153323
0.636805 0.801389 0.157198
0.670451 0.802563 0.161547
0.704189 0.803845 0.166445
0.737713 0.805234 0.171893
0.769482 0.806836 0.177935
0.799359 0.808621 0.184649
0.828489 0.810544 0.191974
0.856306 0.812451 0.200259
0.882856 0.814374 0.2094
0.908324 0.81648 0.21915
0.931197 0.818738 0.229953
0.951278 0.821118 0.24184
0.970474 0.823651 0.254231
0.988708 0.82623 0.267002
1 0.828824 0.280171
1 0.831373 0.293996
1 0.833738 0.308537
1 0.836225 0.323537
1 0.838666 0.339101
1 0.840848 0.35552
1 0.842863 0.372473
1 0.844953 0.389899
0.389929 0.828672 0.154284
0.407843 0.82919 0.155306
0.425116 0.829679 0.156329
0.441947 0.830182 0.157382
0.461128 0.830747 0.158633
0.483742 0.831373 0.160052
0.508965 0.832074 0.1617
0.536278 0.832853 0.163653
0.565362 0.833707 0.165927
0.595834 0.834638 0.168551
0.627375 0.835645 0.171572
0.65919 0.836652 0.175219
0.690654 0.837583 0.179675
0.72224 0.83859 0.184588
0.752377 0.83975 0.190326
0.781079 0.841077 0.196674
0.809171 0.842573 0.203418
0.836576 0.844205 0.210758
0.863142 0.845991 0.218692
0.888304 0.8477 0.227604
0.911604 0.84947 0.237461
0.931456 0.851347 0.2486
0.95053 0.853361 0.260258
0.968765 0.855528 0.272419
0.98613 0.857832 0.2851
1 0.860166 0.298146
1 0.862013 0.312001
1 0.863951 0.326177
1 0.86598 0.340795
1 0.86807 0.355947
1 0.869352 0.372274
1 0.870634 0.388998
1 0.871977 0.406317
0.429068 0.863844 0.172778
0.446021 0.86421 0.1738
0.462577 0.864546 0.174807
0.478721 0.864897 0.175845
0.497139 0.865278 0.177081
0.51812 0.865736 0.178592
0.54139 0.866255 0.180377
0.566659 0.866835 0.182467
0.593622 0.86746 0.184817
0.621927 0.868147 0.187533
0.651255 0.868894 0.190631
0.681254 0.869734 0.194156
0.711162 0.870558 0.198367
0.738857 0.871382 0.203754
0.766079 0.872312 0.209751
0.792935 0.873381 0.216144
0.819226 0.874586 0.222919
0.844907 0.875929 0.230243
0.869902 0.877241 0.238239
0.893874 0.87866 0.24686
0.913466 0.879896 0.257313
0.932326 0.881224 0.268345
0.950469 0.882658 0.279866
0.967834 0.884215 0.291905
0.984405 0.885908 0.304433
0.999344 0.887465 0.317342
1 0.888685 0.330953
1 0.889982 0.345083
1 0.891371 0.359686
1 0.892699 0.374716
1 0.893751 0.390585
1 0.894743 0.406912
1 0.89575 0.424216
0.473198 0.895247 0.192035
0.488746 0.895445 0.193149
0.503807 0.895628 0.194263
0.518532 0.895827 0.195407
0.535363 0.89604 0.19678
0.554559 0.8963 0.198413
0.575906 0.89659 0.200366
0.599145 0.89691 0.202609
0.624002 0.897276 0.205127
0.650156 0.897673 0.208011
0.677256 0.898131 0.211292
0.704463 0.89865 0.215137
0.730266 0.89926 0.219867
0.756024 0.89987 0.225223
0.781369 0.90045 0.231296
0.806409 0.901137 0.237751
0.830961 0.901961 0.244556
0.854948 0.902876 0.251896
0.878248 0.903914 0.2598
0.897704 0.904982 0.269154
0.916442 0.906142 0.279042
0.934249 0.90721 0.289738
0.95137 0.90837 0.300954
0.967773 0.909636 0.312657
0.983047 0.910826 0.324834
0.996887 0.911894 0.337331
1 0.913024 0.350347
1 0.914046 0.364111
1 0.915129 0.378363
1 0.915969 0.393439
1 0.916854 0.409033
1 0.917556 0.425147
1 0.918227 0.442634
0.518608 0.923018 0.212329
0.532723 0.923125 0.213458
0.546319 0.923217 0.214633
0.55964 0.923308 0.215824
0.574899 0.92343 0.217243
0.592325 0.923552 0.218967
0.611734 0.92372 0.220996
0.632883 0.923903 0.223362
0.655497 0.924102 0.226078
