YOYO-Client/Yoyo/Assets.xcassets/Patagonia.dataset/Patagonia.cube
TITLE "Generated by Resolve"
LUT_3D_SIZE 5
0.00294499 0.00648508 0.00909438
0.164141 0.0101167 0.0174716
0.477104 0.000961318 0.03299
0.880812 0 0.083238
1 0 0.208713
0.00349432 0.170138 0.0258946
0.264057 0.189227 0.0226596
0.609003 0.201724 0.0325933
0.966735 0.210071 0.103563
1 0.26099 0.240742
0.150774 0.480278 0.0536812
0.388159 0.498665 0.0584421
0.725734 0.518212 0.088426
1 0.547021 0.16817
1 0.593469 0.301076
0.389929 0.828672 0.154284
0.565362 0.833707 0.165927
0.809171 0.842573 0.203418
0.98613 0.857832 0.2851
1 0.871977 0.406317
0.709682 1 0.316106
0.78526 1 0.331563
0.888838 1 0.371893
0.979492 1 0.440818
1 1 0.553979
0 0.0364996 0.15111
0.122377 0.0242924 0.223987
0.455802 0 0.292821
0.857389 0 0.347768
1 0.0224765 0.429358
0 0.207126 0.219593
0.176791 0.218555 0.275044
0.546487 0.232227 0.316899
0.928954 0.237217 0.366201
1 0.287083 0.448981
0 0.514015 0.308873
0.285924 0.530968 0.323171
0.657786 0.547234 0.349248
0.966827 0.56994 0.395605
1 0.611337 0.47982
0.306722 0.841917 0.370001
0.501289 0.845029 0.379065
0.767834 0.850324 0.403555
0.9608 0.861219 0.456886
1 0.871321 0.544915
0.683268 1 0.464881
0.762463 1 0.476081
0.872023 1 0.505623
0.968002 1 0.558083
1 1 0.64976
0 0.131518 0.422095
0.0437781 0.142214 0.482734
0.406409 0.125124 0.565408
0.834775 0.0537423 0.638224
1 0.122103 0.69337
0 0.277928 0.47805
0.109194 0.297719 0.522591
0.469093 0.305043 0.595575
0.878111 0.297963 0.649439
1 0.350149 0.699763
0.0162661 0.569894 0.548257
0.26389 0.578622 0.575494
0.570947 0.59234 0.628199
0.906264 0.612558 0.657557
1 0.648096 0.70631
0.204501 0.863203 0.603861
0.415656 0.860609 0.629984
0.707088 0.860197 0.651469
0.920928 0.865568 0.682399
1 0.87361 0.733303
0.639628 1 0.675288
0.726284 1 0.681514
0.843854 1 0.698375
0.949126 1 0.72958
1 1 0.787533
0 0.283757 0.700298
0.00411994 0.313695 0.735348
0.314672 0.316609 0.80116
0.748638 0.330434 0.839536
1 0.300069 0.895399
0 0.402014 0.728084
0.0617685 0.429511 0.755154
0.386374 0.467964 0.806073
0.785885 0.469612 0.844999
1 0.470741 0.890349
0.00421149 0.635859 0.770016
0.23122 0.650629 0.78526
0.52253 0.680491 0.81445
0.831052 0.694209 0.849958
1 0.708507 0.881865
0.391775 0.878676 0.80502
0.522881 0.877241 0.813657
0.714763 0.87689 0.831525
0.879683 0.880842 0.863294
1 0.88751 0.885863
0.614389 1 0.831998
0.697063 1 0.84062
0.815488 1 0.863645
0.930236 1 0.87866
1 0.999512 0.909102
0 0.474891 0.913619
0 0.509941 0.924834
0.29192 0.588678 0.942519
0.516609 0.577417 0.978637
0.899458 0.60766 0.983078
0 0.550408 0.920989
0.00141909 0.582254 0.930083
0.34873 0.64979 0.945052
0.601205 0.677867 0.972137
0.91342 0.687327 0.981933
0 0.697704 0.933669
0.202014 0.7178 0.939696
0.481895 0.761318 0.949874
0.749645 0.821149 0.962692
0.938323 0.811643 0.981979
0.376852 0.856931 0.947417
0.484489 0.864134 0.950927
0.658015 0.881758 0.958679
0.833234 0.910689 0.970977
0.969451 0.922789 0.986709
0.657969 1 0.983551
0.714412 1 0.983795
0.812802 1 0.985183
0.916152 0.999924 0.989761
1 1 1
