YOYO-Client/Yoyo/Assets.xcassets/Patagonia.dataset/Patagonia.cube
TITLE "Generated by Resolve"
LUT_3D_SIZE 9
0.00294499 0.00648508 0.00909438
0.0613107 0.00839246 0.0122072
0.164141 0.0101167 0.0174716
0.306371 0.0087129 0.0242924
0.477104 0.000961318 0.03299
0.677333 0 0.0502327
0.880812 0 0.083238
1 0 0.13695
1 0 0.208713
0.00743114 0.0642252 0.014313
0.0841993 0.0718853 0.018616
0.216587 0.0751965 0.0217594
0.368811 0.0760052 0.0253452
0.542443 0.075639 0.0320439
0.73611 0.0696117 0.0501106
0.924163 0.0670481 0.0879988
1 0.0817273 0.14638
1 0.119173 0.221439
0.00349432 0.170138 0.0258946
0.120531 0.179309 0.0256657
0.264057 0.189227 0.0226596
0.42681 0.198032 0.0244297
0.609003 0.201724 0.0325933
0.798062 0.203601 0.0565805
0.966735 0.210071 0.103563
1 0.22739 0.165667
1 0.26099 0.240742
0.0624704 0.309987 0.033875
0.183047 0.319875 0.031342
0.322423 0.332006 0.0302281
0.489616 0.342275 0.0368658
0.673442 0.349218 0.051545
0.850996 0.357137 0.0838331
0.997711 0.370245 0.130953
1 0.391546 0.194705
1 0.422782 0.268482
0.150774 0.480278 0.0536812
0.254353 0.488701 0.0535592
0.388159 0.498665 0.0584421
0.55433 0.508873 0.0697795
0.725734 0.518212 0.088426
0.884001 0.529824 0.120394
1 0.547021 0.16817
1 0.568734 0.230137
1 0.593469 0.301076
0.248157 0.664668 0.093843
0.338537 0.669825 0.0967117
0.466224 0.676448 0.10219
0.614939 0.683909 0.115511
0.768963 0.693049 0.136065
0.898619 0.704372 0.169909
0.997833 0.718517 0.217472
1 0.73521 0.276402
1 0.750347 0.346319
0.389929 0.828672 0.154284
0.461128 0.830747 0.158633
0.565362 0.833707 0.165927
0.690654 0.837583 0.179675
0.809171 0.842573 0.203418
0.911604 0.84947 0.237461
0.98613 0.857832 0.2851
1 0.86598 0.340795
1 0.871977 0.406317
0.561761 0.948882 0.233249
0.613397 0.949081 0.238025
0.684306 0.949325 0.247562
0.768185 0.950088 0.264378
0.854429 0.951629 0.288518
0.922835 0.95378 0.32314
0.980591 0.9561 0.365698
1 0.95816 0.416266
1 0.959106 0.479255
0.709682 1 0.316106
0.740215 1 0.321798
0.78526 1 0.331563
0.83621 1 0.348409
0.888838 1 0.371893
0.93753 1 0.40293
0.979492 1 0.440818
1 1 0.487907
1 1 0.553979
0 0.0178836 0.061677
0.0369573 0.0166934 0.0865492
0.144091 0.0139315 0.109743
0.292454 0.00973526 0.130175
0.465263 0.000717174 0.153063
0.665049 0 0.179553
0.869718 0 0.208911
1 0 0.251148
1 0.00610361 0.308248
0 0.0767376 0.0853132
0.043946 0.0820172 0.109483
0.185122 0.0849165 0.123049
0.342245 0.088777 0.140551
0.518868 0.0894331 0.160082
0.715862 0.0834363 0.184451
0.909651 0.0797742 0.215228
1 0.0941482 0.259236
1 0.12958 0.318349
0 0.187991 0.113924
0.0650339 0.195331 0.126787
0.222736 0.204654 0.137728
0.392584 0.21268 0.151339
0.580285 0.216419 0.170672
0.774029 0.216999 0.194537
0.949813 0.221775 0.228046
1 0.239322 0.274388
1 0.271489 0.333944
0 0.326497 0.144533
0.126787 0.335927 0.149523
0.277272 0.347539 0.159152
0.45275 0.357382 0.172137
0.643015 0.363699 0.188876
0.826947 0.370504 0.212634
0.979385 0.381842 0.24802
1 0.40267 0.295323
1 0.432776 0.353597
0.0778668 0.495415 0.17435
0.198398 0.503395 0.178393
0.344839 0.512932 0.185489
0.518044 0.522515 0.196353
0.695979 0.53109 0.213062
0.861738 0.541436 0.23682
0.990555 0.556786 0.271748
1 0.577142 0.320195
1 0.600778 0.379019
0.192081 0.676402 0.206973
0.291051 0.681254 0.21117
0.428458 0.687297 0.217288
0.583917 0.693874 0.227893
0.745434 0.701808 0.243366
0.880354 0.711543 0.269627
0.983871 0.724605 0.306813
1 0.739986 0.355871
1 0.753384 0.41442
0.355077 0.834562 0.251316
0.430762 0.83621 0.255543
0.539406 0.838544 0.262272
0.669184 0.841932 0.272938
0.791714 0.846052 0.292485
0.898604 0.852049 0.320455
0.975753 0.859419 0.359121
1 0.866423 0.406897
1 0.871687 0.464637
0.54136 0.949737 0.313024
0.595407 0.949752 0.31725
0.668315 0.949752 0.325048
0.754299 0.950149 0.338811
0.843885 0.951095 0.358907
0.914199 0.952667 0.38851
0.973587 0.954635 0.425406
1 0.95642 0.470298
1 0.957061 0.527291
0.698894 1 0.379095
0.729946 1 0.384009
0.775784 1 0.392447
0.827985 1 0.407141
0.882109 1 0.427985
0.931868 1 0.455116
0.974929 1 0.489311
1 1 0.532082
1 1 0.593225
0 0.0364996 0.15111
0.0059205 0.0311284 0.188312
0.122377 0.0242924 0.223987
0.282216 0.00404364 0.264393
0.455802 0 0.292821
0.653864 0 0.319677
0.857389 0 0.347768
1 0 0.382712
1 0.0224765 0.429358
0 0.100191 0.182971
0.00660716 0.105425 0.209354
0.144945 0.103624 0.246937
0.313924 0.0997024 0.278752
0.494835 0.102007 0.303395
0.695476 0.0986191 0.328008
0.892119 0.0969711 0.354955
1 0.112398 0.390784
1 0.146304 0.437903
0 0.207126 0.219593
0.0470741 0.211017 0.241535
0.176791 0.218555 0.275044
0.35433 0.22768 0.295888
0.546487 0.232227 0.316899
0.746014 0.232914 0.339376
0.928954 0.237217 0.366201
1 0.256565 0.401785
1 0.287083 0.448981
0 0.349096 0.257588
0.0458381 0.355001 0.28098
0.219623 0.36492 0.300557
0.407889 0.374792 0.315877
0.605585 0.381384 0.332647
0.795514 0.386831 0.353155
0.955795 0.397284 0.380179
1 0.419593 0.415915
1 0.4477 0.462745
0 0.514015 0.308873
0.11548 0.521553 0.314702
0.285924 0.530968 0.323171
0.469856 0.53959 0.334691
0.657786 0.547234 0.349248
0.832105 0.556435 0.367788
0.966827 0.56994 0.395605
1 0.589685 0.433005
1 0.611337 0.47982
0.107454 0.691081 0.335775
0.226215 0.695323 0.340337
0.37641 0.700603 0.346563
0.542367 0.706508 0.356176
0.712261 0.713146 0.369619
0.854215 0.721492 0.3897
0.964385 0.732769 0.418814
1 0.745892 0.457313
1 0.75819 0.505379
0.306722 0.841917 0.370001
0.387274 0.843229 0.37351
0.501289 0.845029 0.379065
0.638911 0.847486 0.388022
0.767834 0.850324 0.403555
0.88011 0.855207 0.425223
0.9608 0.861219 0.456886
1 0.866758 0.496178
1 0.871321 0.544915
0.512566 0.950439 0.415229
0.568719 0.950195 0.41857
0.646097 0.949767 0.42501
0.735378 0.949447 0.436667
0.828016 0.94992 0.452598
0.901228 0.950835 0.477089
0.963104 0.952407 0.507744
1 0.953704 0.546166
1 0.954177 0.594751
0.683268 1 0.464881
0.715373 1 0.469123
0.762463 1 0.476081
0.816052 1 0.488121
0.872023 1 0.505623
0.923445 1 0.528954
0.968002 1 0.558083
1 1 0.595315
1 1 0.64976
0 0.0721599 0.280156
0 0.07776 0.309209
0.0867933 0.0641794 0.353399
0.252583 0.0558022 0.393713
0.440314 0.0146181 0.43949
0.641917 0.00621042 0.468498
0.846601 0.0043183 0.494865
1 0.0163424 0.52546
1 0.0609598 0.563729
0 0.138872 0.308278
0 0.143221 0.332631
0.0984054 0.143679 0.375036
0.275547 0.142748 0.412482
0.471015 0.122393 0.454139
0.6748 0.122026 0.477943
0.873899 0.124285 0.502464
1 0.140505 0.531945
1 0.176822 0.569436
0 0.235004 0.348348
0.00819409 0.241932 0.367681
0.139864 0.251408 0.397925
0.308583 0.254658 0.437781
0.511772 0.251881 0.468467
0.717372 0.254719 0.489143
0.903761 0.262852 0.511498
1 0.281666 0.539956
1 0.311269 0.576883
0 0.374136 0.387808
0.0766003 0.379675 0.404273
0.207965 0.386679 0.429557
0.359823 0.395514 0.46424
0.562417 0.402045 0.48191
0.760082 0.408927 0.499413
0.926711 0.421836 0.520287
1 0.442603 0.547936
1 0.468956 0.584344
0 0.543618 0.419074
0.0453346 0.548424 0.434669
0.220432 0.554177 0.459525
0.414343 0.559869 0.479759
0.613901 0.566934 0.492744
0.796292 0.575509 0.507774
0.937819 0.588571 0.529107
1 0.606851 0.557565
1 0.626856 0.594827
0.00149538 0.71133 0.460288
0.143038 0.712642 0.476265
0.312306 0.716396 0.485756
0.493706 0.721416 0.494224
0.672251 0.726528 0.505302
0.823102 0.733257 0.52108
0.940002 0.742687 0.543404
1 0.754055 0.574258
1 0.765103 0.612177
0.242679 0.849989 0.500786
0.334478 0.850996 0.503838
0.456535 0.852033 0.508919
0.601663 0.853376 0.516655
0.737621 0.855558 0.528283
0.85626 0.858579 0.545632
0.941772 0.86273 0.57026
1 0.867399 0.601297
1 0.871443 0.640024
0.476921 0.950729 0.533745
0.536049 0.950149 0.536522
0.618112 0.949386 0.541405
0.710307 0.948486 0.550362
0.807279 0.948043 0.563149
0.884321 0.948425 0.582269
0.949416 0.949508 0.6065
1 0.95053 0.636881
1 0.951049 0.67599
0.662715 1 0.568338
0.696223 1 0.571481
0.744976 1 0.577111
0.800488 1 0.58703
0.858717 1 0.600916
0.9122 1 0.619501
0.958923 1 0.643397
0.996597 1 0.673411
1 1 0.717296
0 0.131518 0.422095
0 0.136919 0.445594
0.0437781 0.142214 0.482734
0.214588 0.132021 0.526345
0.406409 0.125124 0.565408
0.624323 0.0801404 0.607645
0.834775 0.0537423 0.638224
1 0.0759136 0.663279
1 0.122103 0.69337
0 0.188876 0.443702
0 0.195743 0.465187
0.0720836 0.207095 0.497322
0.230838 0.203128 0.543252
0.431144 0.200443 0.578958
0.652827 0.168719 0.61886
0.856199 0.164248 0.643839
1 0.186786 0.667369
1 0.223835 0.696544
0 0.277928 0.47805
0 0.285222 0.495567
0.109194 0.297719 0.522591
0.262058 0.303792 0.565866
0.469093 0.305043 0.595575
0.6878 0.28838 0.630915
0.878111 0.297963 0.649439
1 0.317372 0.671794
1 0.350149 0.699763
0 0.405585 0.520012
0.0256962 0.412726 0.532799
0.172778 0.423239 0.55259
0.324697 0.437125 0.580453
0.515801 0.440436 0.613108
0.72398 0.440757 0.636973
0.895476 0.453498 0.653849
1 0.47332 0.675258
1 0.498558 0.70277
0.0162661 0.569894 0.548257
0.131975 0.573419 0.55903
0.26389 0.578622 0.575494
0.412985 0.584329 0.598871
0.570947 0.59234 0.628199
0.757855 0.600397 0.641535
0.906264 0.612558 0.657557
1 0.629435 0.679072
1 0.648096 0.70631
0.00347906 0.735607 0.569177
0.13727 0.737133 0.579171
0.284962 0.739086 0.595026
0.451667 0.740276 0.618921
0.631266 0.741634 0.636851
0.790524 0.747021 0.648783
0.912963 0.755032 0.6654
0.999527 0.765286 0.688136
1 0.775448 0.715831
0.204501 0.863203 0.603861
0.296635 0.862547 0.613596
0.415656 0.860609 0.629984
0.56321 0.859449 0.642756
0.707088 0.860197 0.651469
0.830808 0.862013 0.664256
0.920928 0.865568 0.682399
0.991257 0.86981 0.704646
1 0.87361 0.733303
0.441474 0.950683 0.652934
0.502617 0.949905 0.654826
0.587137 0.948806 0.658289
0.684199 0.94757 0.664698
0.785122 0.946487 0.674205
0.865644 0.946593 0.687694
0.934005 0.947295 0.705287
0.988403 0.948257 0.727565
1 0.948989 0.757717
0.639628 1 0.675288
0.674586 1 0.677607
0.726284 1 0.681514
0.783062 1 0.68838
0.843854 1 0.698375
0.900252 1 0.712108
0.949126 1 0.72958
0.988556 1 0.752712
1 1 0.787533
0 0.201724 0.565103
0 0.209201 0.584207
0.0280766 0.224094 0.612222
0.168017 0.210224 0.660075
0.368582 0.21912 0.688151
0.583444 0.214252 0.71957
0.806958 0.181079 0.755138
0.988724 0.161242 0.784833
1 0.204273 0.805478
0 0.251484 0.581628
0 0.260319 0.598733
0.0478218 0.276265 0.62443
0.200061 0.287007 0.663478
0.386892 0.282887 0.697948
0.6056 0.279683 0.726711
0.825544 0.254414 0.760418
0.995163 0.252033 0.785977
1 0.288151 0.805982
0 0.3346 0.606439
0 0.343465 0.620981
0.0846723 0.357214 0.643442
0.244739 0.375952 0.673167
0.42266 0.372549 0.711116
0.638773 0.373999 0.735805
0.846906 0.358465 0.767071
0.997848 0.372534 0.786358
1 0.4047 0.805219
0 0.45391 0.637537
0.00639353 0.46157 0.648692
0.148928 0.473716 0.665797
0.299367 0.489967 0.689815
0.466911 0.498314 0.724575
0.675731 0.50045 0.744564
0.863142 0.494392 0.77142
0.993576 0.514229 0.785336
1 0.539864 0.803769
0 0.598749 0.670008
0.0973831 0.603876 0.677729
0.235538 0.611536 0.689464
0.384588 0.621683 0.706706
0.542626 0.634409 0.728023
0.716976 0.638483 0.752041
0.874372 0.643259 0.76997
0.984039 0.658793 0.784436
1 0.676097 0.803342
0.177966 0.752255 0.688457
0.259876 0.753048 0.695094
0.367895 0.754498 0.705287
0.500557 0.756619 0.719692
0.636759 0.759472 0.738125
0.759655 0.764874 0.760906
0.884962 0.771756 0.772427
0.976303 0.781125 0.787472
1 0.790402 0.806516
0.248219 0.873854 0.705287
0.325856 0.873487 0.71107
0.429816 0.872541 0.720455
0.556222 0.870939 0.734493
0.682063 0.86894 0.754177
0.805386 0.868315 0.769192
0.899931 0.871336 0.78117
0.974029 0.875212 0.796429
1 0.878859 0.815839
0.436133 0.957504 0.731029
0.492073 0.95581 0.73666
0.568078 0.953262 0.74638
0.661189 0.949676 0.761715
0.762417 0.946944 0.773449
0.846647 0.946731 0.782589
0.918151 0.947112 0.7944
0.975875 0.948119 0.809277
1 0.949279 0.830442
0.621118 1 0.767376
0.655299 1 0.773602
0.708003 1 0.776715
0.76643 1 0.78146
0.829541 1 0.78854
0.888121 1 0.79736
0.939315 1 0.809155
0.980789 1 0.825132
1 1 0.851698
0 0.283757 0.700298
0 0.295216 0.714458
0.00411994 0.313695 0.735348
0.170275 0.340658 0.762051
0.314672 0.316609 0.80116
0.532219 0.32755 0.818906
0.748638 0.330434 0.839536
0.943877 0.315633 0.866773
1 0.300069 0.895399
0 0.328984 0.711528
0 0.339559 0.724559
0.0204623 0.356893 0.743664
0.190265 0.383871 0.7682
0.335485 0.370108 0.807492
0.550759 0.382757 0.822843
0.764477 0.38706 0.84184
0.950652 0.375814 0.868055
1 0.372702 0.893523
0 0.402014 0.728084
0 0.412528 0.738918
0.0617685 0.429511 0.755154
0.223621 0.453666 0.776791
0.386374 0.467964 0.806073
0.580438 0.464729 0.828077
0.785885 0.469612 0.844999
0.957839 0.462272 0.869551
1 0.470741 0.890349
0 0.50808 0.748837
0 0.516396 0.757458
0.129076 0.529961 0.770336
0.285405 0.549065 0.787717
0.449256 0.573648 0.807507
0.6224 0.572061 0.833432
0.808362 0.578439 0.847288
0.958694 0.574701 0.870741
1 0.590982 0.885603
0.00421149 0.635859 0.770016
0.107836 0.641398 0.776059
0.23122 0.650629 0.78526
0.370367 0.66392 0.798444
0.52253 0.680491 0.81445
0.673716 0.691157 0.837354
0.831052 0.694209 0.849958
0.95584 0.693919 0.870542
1 0.708507 0.881865
0.187152 0.763592 0.791608
0.258549 0.766033 0.795575
0.358495 0.770092 0.801785
0.48452 0.776287 0.810712
0.617533 0.784131 0.822904
0.738369 0.794461 0.837263
0.854551 0.79826 0.854688
0.953048 0.801938 0.869169
1 0.809461 0.881407
0.391775 0.878676 0.80502
0.445136 0.87808 0.808316
0.522881 0.877241 0.813657
0.616434 0.876661 0.821363
0.714763 0.87689 0.831525
0.805249 0.877989 0.845304
0.879683 0.880842 0.863294
0.956847 0.884245 0.872847
1 0.88751 0.885863
0.466621 0.961578 0.815549
0.513085 0.960357 0.818402
0.578546 0.958633 0.823178
0.663478 0.956283 0.830686
0.752285 0.953628 0.841718
0.829252 0.951003 0.857725
0.90222 0.949798 0.86978
0.963577 0.950408 0.879454
1 0.951461 0.894301
0.614389 1 0.831998
0.648402 1 0.835111
0.697063 1 0.84062
0.752819 1 0.850065
0.815488 1 0.863645
0.875975 1 0.870954
0.930236 1 0.87866
0.974105 1 0.889616
1 0.999512 0.909102
0 0.377783 0.818235
0 0.390845 0.826902
0 0.412528 0.839719
0.148409 0.444175 0.856977
0.302846 0.466941 0.878141
0.450797 0.441276 0.904692
0.667826 0.457191 0.912154
0.861112 0.46923 0.92314
1 0.466117 0.944915
0 0.416754 0.824231
0 0.429114 0.832258
0.00015259 0.449424 0.844251
0.169116 0.478996 0.860395
0.342229 0.515297 0.877241
0.471931 0.485801 0.9066
0.685634 0.500343 0.913008
0.870069 0.513237 0.923278
1 0.511147 0.944854
0 0.478035 0.833524
0 0.489006 0.840665
0.0340734 0.507057 0.851423
0.209171 0.533852 0.865278
0.378027 0.569085 0.879698
0.511452 0.558465 0.906859
0.711513 0.568078 0.913527
0.882582 0.579644 0.923125
1 0.5776 0.944671
0 0.565835 0.84564
0 0.575433 0.851408
0.114748 0.590799 0.859892
0.272572 0.613214 0.870619
0.432197 0.641703 0.883024
0.586053 0.662989 0.899428
0.740871 0.656046 0.914397
0.893904 0.665309 0.923308
1 0.662287 0.944442
0.00650034 0.672297 0.858183
0.103243 0.678935 0.862181
0.221393 0.689845 0.868345
0.361151 0.705409 0.876707
0.509361 0.724788 0.886824
0.656641 0.747997 0.897871
0.778958 0.746838 0.915923
0.906188 0.753109 0.924712
1 0.748669 0.945235
0.214267 0.778439 0.869703
0.275639 0.782025 0.872526
0.364065 0.787991 0.876936
0.478538 0.797055 0.883284
0.602136 0.809216 0.891432
0.718944 0.822766 0.901839
0.821042 0.832685 0.91696
0.920531 0.832746 0.92813
1 0.829679 0.945205
0.40824 0.872419 0.882841
0.453391 0.87335 0.884672
0.520745 0.875074 0.887633
0.602777 0.878325 0.892546
0.696208 0.883085 0.899199
0.785855 0.889601 0.908309
0.862943 0.897551 0.920119
0.935454 0.899153 0.933837
1 0.898833 0.945693
0.565286 0.959747 0.89662
0.598825 0.958877 0.897871
0.64947 0.95758 0.899992
0.715618 0.956039 0.903487
0.778698 0.954925 0.909361
0.843366 0.954314 0.917189
0.900206 0.95433 0.927398
0.950545 0.954696 0.941039
1 0.956146 0.949584
0.607172 1 0.905226
0.641398 1 0.906233
0.685908 1 0.908431
0.742763 1 0.912261
0.806867 1 0.918029
0.865873 1 0.92639
0.920378 1 0.938384
0.967407 0.9991 0.946487
1 0.99823 0.958099
0 0.474891 0.913619
0 0.487953 0.918166
0 0.509941 0.924834
0.114717 0.544335 0.933211
0.29192 0.588678 0.942519
0.418936 0.610391 0.955795
0.516609 0.577417 0.978637
0.719951 0.589456 0.980728
0.899458 0.60766 0.983078
0 0.50312 0.91664
0 0.516121 0.920775
0 0.538048 0.926909
0.142031 0.570489 0.934691
0.313344 0.61239 0.943496
0.460349 0.64625 0.954192
0.549142 0.618494 0.97615
0.734524 0.623362 0.980163
0.904784 0.640162 0.982528
0 0.550408 0.920989
0 0.562524 0.924681
0.00141909 0.582254 0.930083
0.184939 0.611826 0.937087
0.34873 0.64979 0.945052
0.5187 0.694255 0.952331
0.601205 0.677867 0.972137
0.757214 0.673701 0.97937
0.91342 0.687327 0.981933
0 0.617685 0.92694
0 0.627878 0.929961
0.0869612 0.644724 0.934524
0.246586 0.669856 0.94052
0.405661 0.701305 0.947158
0.566827 0.73817 0.953658
0.670329 0.749523 0.967025
0.790341 0.737057 0.978668
0.925429 0.747997 0.981582
0 0.697704 0.933669
0.0839704 0.705303 0.936065
0.202014 0.7178 0.939696
0.337026 0.73666 0.944457
0.481895 0.761318 0.949874
0.621729 0.791028 0.955901
0.749645 0.821149 0.962692
0.822477 0.805356 0.979095
0.938323 0.811643 0.981979
0.191119 0.780102 0.940444
0.250034 0.785443 0.942214
0.334737 0.794293 0.944976
0.444968 0.807675 0.948775
0.569268 0.823682 0.953475
0.686732 0.843336 0.959258
0.79266 0.866514 0.96611
0.858228 0.867369 0.980758
0.954284 0.870268 0.98381
0.376852 0.856931 0.947417
0.419562 0.859602 0.948775
0.484489 0.864134 0.950927
0.565026 0.871519 0.95433
0.658015 0.881758 0.958679
0.752346 0.894759 0.964126
0.833234 0.910689 0.970977
0.904768 0.928664 0.978302
0.969451 0.922789 0.986709
0.545693 0.927611 0.955413
0.573953 0.928588 0.956436
0.618082 0.930358 0.958144
0.678752 0.933288 0.960906
0.741848 0.938109 0.965301
0.808225 0.94464 0.970443
0.871885 0.953262 0.976745
0.930877 0.963775 0.983597
0.983139 0.96669 0.991943
0.657969 1 0.983551
0.680003 1 0.983703
0.714412 1 0.983795
0.761761 1 0.984131
0.812802 1 0.985183
0.866148 1 0.987045
0.916152 0.999924 0.989761
0.95996 0.999557 0.993927
1 1 1
