YOYO-Client/Yoyo/Assets.xcassets/Paris.dataset/Fuji-400H.cube
TITLE "Generated by Resolve"
LUT_3D_SIZE 33
0 0 0
0.0154421 0 0
0.0308843 0 0
0.0573587 0.00355535 0
0.0843214 0.00735485 0
0.111269 0.0111543 0
0.145342 0.0117647 0
0.183948 0.00869764 0
0.229404 0.00195315 0
0.275731 0 0
0.325978 0 0
0.376226 0 0
0.428916 0 0
0.482963 0 0
0.534798 0 0
0.581125 0 0
0.627451 0 0
0.668009 0 0.00392157
0.704906 0 0.00392157
0.73579 0 0.00550851
0.766659 0 0.00784314
0.793622 0 0.0117647
0.819364 0 0.0156863
0.842527 0 0.0207065
0.864698 0 0.027451
0.884932 0.0194858 0.0361486
0.904173 0.0789197 0.0438697
0.926711 0.120104 0.0522011
0.942641 0.150988 0.0637217
0.961883 0.181857 0.0752422
0.981125 0.20882 0.0867628
1 0.235782 0.102205
1 0.266667 0.121569
0 0.0154421 0
0.00772107 0.0154421 0
0.0306401 0.0192416 0
0.0539101 0.0231632 0
0.0808881 0.0271916 0
0.111269 0.0310063 0
0.145342 0.0311284 0
0.183948 0.0310063 0
0.229404 0.0241398 0
0.275731 0.0125277 0
0.324758 0.0011902 0
0.376226 0 0
0.428916 0 0
0.482963 0 0
0.533089 0 0
0.581125 0 0
0.625483 0 0
0.66421 0 0
0.702693 0 0.00178531
0.73579 0 0.00392157
0.76524 0 0.00546273
0.792325 0 0.00788891
0.816754 0 0.0129854
0.841459 0 0.016907
0.861769 0.00474556 0.024506
0.884092 0.0555734 0.0322576
0.904173 0.0975509 0.0407874
0.9234 0.135546 0.051606
0.942641 0.162615 0.0599069
0.961883 0.193027 0.074876
0.981125 0.216541 0.0865339
1 0.243503 0.0985275
1 0.270588 0.117769
0 0.0345617 0.00392157
0.00404364 0.0347906 0.00367742
0.0230411 0.0382544 0.000228885
0.0497597 0.0459602 0
0.0803998 0.0497597 0
0.111269 0.0535592 0
0.145342 0.0541695 0
0.183948 0.0539712 0
0.229404 0.047303 0
0.275731 0.0393378 0
0.324758 0.0249943 0
0.376135 0.00621042 0
0.428916 0 0
0.482963 0 0
0.533089 0 0
0.581125 0 0
0.625483 0 0
0.664088 0 0
0.700984 0 0
0.732113 0 0.000244144
0.762905 0 0.00392157
0.792279 0 0.00543221
0.815442 0 0.00923171
0.838605 0.00103761 0.0131075
0.861769 0.03682 0.0208286
0.884062 0.0817884 0.0285496
0.903471 0.11986 0.0399481
0.922835 0.147051 0.0479133
0.942153 0.177447 0.0593423
0.961517 0.200855 0.070985
0.98088 0.224247 0.0826123
1 0.251102 0.0982834
1 0.278187 0.117647
0 0.0616464 0.00784314
0.0037995 0.0616312 0.00747692
0.0155642 0.0616464 0.00392157
0.038819 0.065568 0.00358587
0.0729229 0.0729229 0.000442512
0.107103 0.0772717 0
0.145342 0.0802167 0
0.183948 0.0808881 0
0.229404 0.0769665 0
0.275731 0.070222 0
0.324758 0.0594339 0
0.378424 0.0475471 0
0.428916 0.0279545 0
0.482963 0.00433356 0
0.533089 0 0
0.579232 0 0
0.623529 0 0
0.664088 0 0
0.698772 0 0
0.731868 0 0
0.76141 0 0
0.788479 0 0.000366217
0.815442 0.00555428 0.00514229
0.838605 0.0454414 0.009308
0.860883 0.0841535 0.0157778
0.88101 0.114626 0.0247501
0.900542 0.141985 0.0324712
0.919799 0.166369 0.0441138
0.93904 0.192569 0.055436
0.957961 0.215717 0.0670634
0.977203 0.23566 0.0789197
0.996551 0.25893 0.0943618
1 0.285908 0.113725
0 0.0921645 0.00784314
0 0.0916609 0.00784314
0.00462348 0.0921645 0.00738537
0.0238499 0.0921645 0.00424201
0.060853 0.0995041 0.00349432
0.099382 0.10338 0
0.14078 0.110628 0
0.186633 0.111269 0
0.232837 0.108705 0
0.281636 0.10454 0
0.331777 0.0968185 0
0.385657 0.0890974 0
0.437247 0.0805829 0
0.487785 0.0659342 0
0.537743 0.0497292 0
0.582238 0.0341039 0
0.624994 0.0188754 0
0.6636 0.0121157 0
0.700496 0.0102998 0
0.731365 0.0165103 0
0.760967 0.0313115 0
0.788357 0.0493172 0
0.811521 0.0735943 0.00015259
0.834684 0.0980545 0.00158694
0.857847 0.121691 0.009308
0.88014 0.14522 0.0170291
0.90016 0.168872 0.025391
0.919402 0.191501 0.0369268
0.938659 0.211704 0.0480354
0.957916 0.234119 0.059556
0.977172 0.254139 0.0749676
0.996201 0.276844 0.0900587
1 0.300008 0.108827
0 0.123033 0.0117647
0 0.123033 0.0117647
0 0.123033 0.0111849
0.00521859 0.123033 0.00814832
0.0381933 0.126955 0.00433356
0.0810254 0.131395 0.000518807
0.129534 0.138109 0
0.179049 0.142641 0
0.229038 0.145129 0
0.282475 0.142031 0
0.336095 0.138109 0
0.386648 0.131624 0
0.438239 0.123903 0
0.488487 0.115557 0
0.534798 0.1075 0
0.581125 0.0991836 0
0.621881 0.0928359 0
0.660777 0.0886091 0
0.697063 0.0886091 0
0.728557 0.0908064 0
0.758816 0.0987564 0
0.784649 0.112139 0
0.811521 0.124453 0
0.834684 0.141253 0
0.854536 0.159838 0.000762951
0.877089 0.176593 0.00601205
0.896819 0.196338 0.0170291
0.918868 0.215076 0.0259861
0.938231 0.234516 0.0403906
0.957595 0.253849 0.0523232
0.976959 0.273198 0.0677653
0.996201 0.293263 0.0833295
1 0.316426 0.105882
0 0.157107 0.0156863
0 0.157824 0.0156863
0 0.157153 0.0149996
0 0.157839 0.0120699
0.00952163 0.157839 0.00823987
0.0568551 0.161761 0.00442512
0.110185 0.168872 0
0.164096 0.176593 0
0.221881 0.180636 0
0.279286 0.184024 0
0.336522 0.180133 0
0.387991 0.177325 0
0.438239 0.169604 0
0.488487 0.163775 0
0.534798 0.158083 0
0.579049 0.150362 0
0.619974 0.146197 0
0.658671 0.143877 0
0.693462 0.143877 0
0.724758 0.145907 0
0.75491 0.149996 0
0.781247 0.157977 0
0.807599 0.169589 0
0.830762 0.181735 0
0.853132 0.194553 0
0.873732 0.210544 0
0.89572 0.225986 0.00221256
0.915068 0.241535 0.0111543
0.934401 0.257603 0.0259861
0.95375 0.273106 0.0413519
0.973083 0.292409 0.0568704
0.992401 0.308705 0.0755169
1 0.331868 0.0955825
0 0.195712 0.0196078
0 0.195712 0.0196078
0 0.195712 0.0187991
0 0.195712 0.0159762
0 0.195712 0.0121462
0.0205692 0.199634 0.00712596
0.0838178 0.204257 0.000579843
0.144732 0.210544 0
0.2065 0.218265 0
0.267399 0.222293 0
0.328313 0.223163 0
0.383581 0.220295 0
0.437079 0.21593 0
0.488487 0.21178 0
0.533074 0.20441 0
0.575586 0.198779 0
0.617639 0.194858 0
0.65481 0.190936 0
0.689219 0.190936 0
0.720958 0.191287 0
0.749828 0.195178 0
0.776883 0.200977 0
0.801572 0.208698 0
0.826841 0.218143 0
0.849241 0.229694 0
0.869917 0.241428 0
0.891829 0.253635 0
0.911162 0.268376 0.000274662
0.930495 0.280766 0.00662242
0.949828 0.296208 0.0192874
0.96936 0.311635 0.0385443
0.989441 0.328038 0.060914
1 0.347311 0.084062
0 0.243137 0.0235294
0 0.243137 0.0225528
0 0.244114 0.0225528
0 0.244114 0.0198825
0 0.243748 0.0160525
0 0.244114 0.0084535
0.047425 0.247486 0.000732433
0.120714 0.252079 0
0.189212 0.255879 0
0.254902 0.261494 0
0.319615 0.264698 0
0.378805 0.264698 0
0.432837 0.264088 0
0.486305 0.258061 0
0.533822 0.253681 0
0.575128 0.246479 0
0.615198 0.242161 0
0.651865 0.237247 0
0.685298 0.236271 0
0.716182 0.237247 0
0.747051 0.237629 0
0.772671 0.24152 0
0.799756 0.247303 0
0.822919 0.255024 0
0.84535 0.262989 0
0.866087 0.274388 0
0.887739 0.283818 0
0.907713 0.295338 0
0.926955 0.309438 0
0.946197 0.322301 0.00143435
0.965438 0.333822 0.0173953
0.987625 0.349264 0.04065
1 0.364706 0.0656901
0 0.283574 0.027451
0 0.287419 0.027451
0 0.287495 0.0264134
0 0.287495 0.0263523
0 0.284688 0.0224308
0 0.284688 0.015198
0.00537118 0.287861 0.00747692
0.0926375 0.288609 0
0.164218 0.293355 0
0.232593 0.297246 0
0.299382 0.301122 0
0.363973 0.304295 0
0.422232 0.304295 0
0.476677 0.303639 0
0.526833 0.29926 0
0.570459 0.293263 0
0.61091 0.288045 0
0.647669 0.283574 0
0.681849 0.279652 0
0.712917 0.279652 0
0.740322 0.280064 0
0.767285 0.280766 0
0.793011 0.285023 0
0.816175 0.290501 0
0.839338 0.297704 0
0.862257 0.306249 0
0.881743 0.314183 0
0.903365 0.32578 0
0.92401 0.33492 0
0.943282 0.346441 0
0.962615 0.357961 0.000213626
0.98468 0.373312 0.0127413
1 0.386023 0.0464485
0 0.323278 0.0340734
0 0.327077 0.0366827
0 0.327199 0.0342412
0 0.327199 0.0340734
0 0.323781 0.0301518
0 0.323278 0.0229191
0 0.323278 0.015198
0.0523537 0.326619 0.00355535
0.138964 0.32813 0
0.20943 0.332006 0
0.27538 0.335897 0
0.343679 0.339773 0
0.406378 0.342885 0
0.461891 0.342885 0
0.515236 0.342199 0
0.562753 0.338323 0
0.605142 0.332479 0
0.641794 0.328069 0
0.675929 0.324269 0
0.70724 0.320958 0
0.735042 0.319356 0
0.762127 0.319356 0
0.78613 0.321431 0
0.812375 0.325261 0
0.835233 0.331441 0
0.856886 0.337133 0
0.877943 0.344854 0
0.899458 0.352758 0
0.918776 0.361852 0
0.939467 0.373159 0
0.958831 0.381125 0
0.980758 0.392645 4.57771e-05
1 0.408087 0.0100557
0 0.357961 0.044358
0 0.363195 0.045716
0 0.365805 0.045716
0 0.363241 0.044358
0 0.361883 0.0409247
0 0.361883 0.0371252
0 0.361883 0.0262303
0.0135042 0.361883 0.0147097
0.111238 0.362905 0.00161746
0.186282 0.366781 0
0.252644 0.370657 0
0.321324 0.374533 0
0.386038 0.377447 0
0.446448 0.378927 0
0.500496 0.381491 0
0.549889 0.377569 0
0.594186 0.375616 0
0.634073 0.371099 0
0.669505 0.367254 0
0.701839 0.363409 0
0.728801 0.361379 0
0.755291 0.357961 0
0.781491 0.358389 0
0.804654 0.361883 0
0.827817 0.364218 0
0.85098 0.370031 0
0.872312 0.375738 0
0.893385 0.383047 0
0.912627 0.388602 0
0.934188 0.396323 0
0.95494 0.406699 0
0.976837 0.415808 0
1 0.427329 0
0 0.401465 0.0607919
0 0.402945 0.0598764
0 0.400488 0.0598001
0 0.400488 0.0598001
0 0.400488 0.0561837
0 0.399252 0.0523384
0 0.396567 0.0436561
0 0.396567 0.0325933
0.0876173 0.399878 0.0171511
0.16733 0.400488 0.00207523
0.23505 0.403647 0
0.299001 0.40589 0
0.363729 0.409796 0
0.426963 0.413123 0
0.485054 0.415106 0
0.536324 0.416175 0
0.581857 0.414221 0
0.622431 0.411566 0
0.66038 0.407691 0
0.694118 0.405859 0
0.722606 0.402029 0
0.749645 0.399985 0
0.776226 0.39826 0
0.79939 0.396567 0
0.822553 0.400488 0
0.845716 0.402502 0
0.866423 0.406348 0
0.888106 0.410422 0
0.908644 0.418143 0
0.930282 0.424292 0
0.949752 0.431128 0
0.972915 0.438926 0
0.996078 0.449027 0
0 0.432837 0.0752422
0 0.436713 0.0775006
0 0.438941 0.0791638
0 0.436759 0.0775769
0 0.436759 0.0752422
0 0.433204 0.0713207
0 0.432837 0.06421
0 0.432837 0.054902
0.0653544 0.432837 0.0420691
0.150118 0.432837 0.0255283
0.216907 0.432837 0.00660716
0.280262 0.436759 0
0.342031 0.439811 0
0.4038 0.443015 0
0.463355 0.444602 0
0.518486 0.44744 0
0.567895 0.448524 0
0.609552 0.447776 0
0.648371 0.444602 0
0.683116 0.443015 0
0.714351 0.440085 0
0.742885 0.4383 0
0.76997 0.435172 0
0.793133 0.435172 0
0.816297 0.435172 0
0.83946 0.436759 0
0.862318 0.437507 0
0.881865 0.441306 0
0.90483 0.446494 0
0.924269 0.450492 0
0.947326 0.458106 0
0.968994 0.462013 0
0.992157 0.471321 0
0 0.463722 0.0906844
0 0.467643 0.0945602
0 0.469261 0.0946059
0 0.467643 0.0946059
0 0.467643 0.0931106
0 0.463996 0.0892348
0 0.463722 0.0853742
0 0.463722 0.0780652
0.0483406 0.461524 0.0673991
0.139712 0.461524 0.0541695
0.203677 0.463722 0.0354925
0.265446 0.464851 0.0128634
0.325002 0.467643 0.000823987
0.383536 0.47068 0
0.442405 0.472526 0
0.498161 0.475486 0
0.55024 0.477211 0
0.594858 0.479408 0
0.635538 0.479408 0
0.670222 0.475486 0
0.703426 0.474845 0
0.732601 0.473014 0
0.760739 0.471565 0
0.785412 0.469856 0
0.812497 0.469856 0
0.833951 0.469856 0
0.854902 0.470176 0
0.877791 0.471565 0
0.897307 0.475486 0
0.920302 0.477409 0
0.941772 0.481376 0
0.962875 0.488975 0
0.988235 0.492897 0
0 0.492531 0.110048
0 0.496391 0.112139
0 0.498527 0.11397
0 0.496635 0.11397
0 0.494835 0.112139
0 0.494606 0.108492
0 0.492531 0.104631
0 0.490684 0.0987411
0.0456855 0.490684 0.0916609
0.135164 0.490684 0.0818647
0.198047 0.490684 0.0690318
0.255146 0.492531 0.0497597
0.311025 0.493828 0.0286717
0.368246 0.496452 0.00755322
0.423041 0.499565 0
0.47892 0.501472 0
0.530999 0.504295 0
0.579416 0.505272 0
0.620096 0.506371 0
0.657115 0.506371 0
0.690761 0.506371 0
0.722164 0.506371 0
0.751842 0.503883 0
0.777691 0.502449 0
0.804776 0.502449 0
0.827939 0.502449 0
0.851102 0.502449 0
0.872099 0.502449 0
0.893507 0.502449 0
0.914626 0.504479 0
0.935912 0.508217 0
0.959075 0.512261 0
0.984314 0.51606 0
0 0.521569 0.129412
0 0.523461 0.131365
0 0.523537 0.133333
0 0.523537 0.131365
0 0.521813 0.129412
0 0.5196 0.129412
0 0.5196 0.125856
0 0.5196 0.12047
0.054902 0.517647 0.11667
0.137133 0.517647 0.108949
0.196689 0.517647 0.0959487
0.251347 0.518929 0.0850538
0.302205 0.5196 0.0683757
0.35552 0.520775 0.0487068
0.408453 0.523537 0.0236515
0.461646 0.525612 0.00668345
0.511772 0.527459 0
0.560052 0.530327 0
0.605509 0.532235 0
0.644419 0.533333 0
0.678431 0.533333 0
0.711955 0.533333 0
0.7402 0.533333 0
0.76997 0.533333 0
0.79559 0.533333 0
0.820218 0.533333 0
0.843381 0.533333 0
0.866545 0.533333 0
0.887739 0.533333 0
0.910903 0.533333 0
0.933944 0.533578 0
0.957229 0.537316 0
0.980392 0.541176 0
0 0.546685 0.148775
0 0.54847 0.150607
0 0.550607 0.154421
0 0.54873 0.152697
0 0.546914 0.150607
0 0.546685 0.149065
0 0.544991 0.146685
0 0.542763 0.143633
0.0760357 0.542763 0.138842
0.146471 0.542763 0.132113
0.201099 0.542763 0.124392
0.250019 0.542763 0.113375
0.29836 0.542763 0.100496
0.346563 0.542763 0.0868849
0.396887 0.545892 0.0714427
0.447059 0.547799 0.0518349
0.495399 0.550607 0.027512
0.54461 0.552453 0.0102846
0.588174 0.554528 0.00103761
0.630655 0.55845 0
0.666423 0.55845 0
0.699748 0.562371 0
0.730632 0.562371 0
0.759441 0.562371 0
0.786404 0.562371 0
0.812497 0.562371 0
0.836011 0.562371 0
0.862425 0.562371 0
0.883818 0.562371 0
0.906813 0.562371 0
0.928313 0.562371 0
0.953307 0.564279 0
0.976471 0.566293 0
0 0.569848 0.169848
0 0.573648 0.173724
0 0.57377 0.17377
0 0.57377 0.17377
0 0.570123 0.172061
0 0.569848 0.169848
0 0.569848 0.16846
0.0229801 0.565927 0.165927
0.104356 0.565927 0.162005
0.160906 0.565927 0.155276
0.209354 0.565927 0.14873
0.255253 0.565927 0.141543
0.298772 0.565927 0.130724
0.343389 0.565927 0.11986
0.3897 0.567178 0.108339
0.434318 0.569848 0.0937972
0.482841 0.570962 0.0780652
0.529168 0.57377 0.059678
0.571572 0.57673 0.0389868
0.613977 0.578592 0.0176852
0.654078 0.581613 0.00321965
0.688243 0.584421 0
0.719112 0.585534 0
0.749386 0.586023 0
0.777691 0.587808 0
0.804776 0.589456 0
0.828351 0.589456 0
0.855024 0.589456 0
0.878187 0.589456 0
0.90135 0.589456 0
0.924514 0.589456 0
0.947723 0.589456 0
0.974762 0.59118 0
0 0.593011 0.18909
0 0.596811 0.192966
0 0.596933 0.193011
0 0.596933 0.193011
0 0.593011 0.191623
0 0.593011 0.189456
0.00517281 0.593011 0.18909
0.0751659 0.58909 0.185687
0.135576 0.58909 0.182223
0.182483 0.58909 0.178439
0.223789 0.58909 0.174136
0.264637 0.58909 0.166918
0.304051 0.58909 0.159197
0.345922 0.58909 0.150088
0.387503 0.58909 0.138521
0.431266 0.58909 0.127703
0.472923 0.592218 0.114214
0.516548 0.59411 0.101488
0.55903 0.596048 0.0868849
0.600855 0.599908 0.0720989
0.63946 0.601724 0.0543984
0.675181 0.604776 0.029099
0.709194 0.608698 0.0102541
0.73962 0.609354 0
0.76704 0.612619 0
0.793988 0.612619 0
0.820218 0.612619 0
0.847303 0.614221 0
0.870466 0.614221 0
0.893782 0.614221 0
0.918532 0.614359 0
0.943923 0.616541 0
0.970962 0.616541 0
0 0.616175 0.210788
0 0.618555 0.210788
0 0.618631 0.213077
0 0.618631 0.211017
0 0.616175 0.210788
0.00621042 0.616175 0.210788
0.0635996 0.616175 0.208789
0.121324 0.612253 0.207187
0.165682 0.612253 0.20441
0.204288 0.612253 0.201175
0.241428 0.612253 0.197024
0.279057 0.612253 0.191043
0.313787 0.609812 0.183825
0.351843 0.609812 0.176104
0.389609 0.612253 0.16701
0.42887 0.612253 0.157427
0.469368 0.612985 0.146563
0.50985 0.614878 0.13492
0.549752 0.616815 0.124758
0.588357 0.620096 0.113115
0.626413 0.622492 0.102388
0.663249 0.626337 0.0899519
0.697551 0.628397 0.0752117
0.728435 0.631861 0.0507057
0.758694 0.633951 0.0187533
0.785733 0.635782 0.00459297
0.812772 0.637263 0
0.837522 0.639704 0
0.86421 0.639704 0
0.88983 0.639841 0
0.914458 0.641169 0
0.941543 0.641169 0
0.968627 0.641169 0
0 0.639338 0.231495
0 0.639338 0.231495
0 0.639338 0.234073
0.00366217 0.639338 0.234073
0.0250553 0.639338 0.231495
0.0810254 0.639338 0.231495
0.124407 0.635904 0.230152
0.162188 0.635416 0.227573
0.19556 0.635416 0.226566
0.228931 0.635416 0.223651
0.261463 0.634073 0.218799
0.293996 0.63238 0.21323
0.32784 0.631495 0.20943
0.362005 0.631495 0.201709
0.395926 0.632944 0.193988
0.432578 0.634073 0.186267
0.468635 0.635416 0.177264
0.5066 0.636622 0.168261
0.544488 0.638575 0.159945
0.580697 0.641917 0.148898
0.617258 0.644221 0.141176
0.651987 0.646296 0.13257
0.686717 0.650172 0.122744
0.719356 0.653681 0.110796
0.749599 0.655665 0.0956741
0.777691 0.658946 0.0717479
0.804776 0.659434 0.036286
0.831861 0.662867 0.00952163
0.858946 0.662867 0
0.882475 0.666789 0
0.90927 0.666789 0
0.936324 0.666789 0
0.963363 0.668132 0
0.00857557 0.66128 0.250736
0.0194553 0.662455 0.253437
0.0501564 0.662501 0.253437
0.0801251 0.661387 0.253437
0.108736 0.658915 0.251072
0.137194 0.658579 0.250736
0.164202 0.658579 0.249744
0.193896 0.657618 0.24741
0.22359 0.655329 0.246815
0.251347 0.654658 0.243656
0.281132 0.654658 0.239811
0.31078 0.654658 0.236393
0.340902 0.654658 0.232136
0.371328 0.654658 0.224872
0.402213 0.654658 0.219898
0.435782 0.654658 0.2121
0.469245 0.654658 0.202945
0.503304 0.655924 0.195224
0.537453 0.657893 0.187503
0.572168 0.659678 0.179782
0.608576 0.661738 0.172061
0.640803 0.665614 0.16434
0.675105 0.669123 0.156619
0.707835 0.671107 0.150118
0.73872 0.674937 0.141421
0.769024 0.678782 0.127199
0.797055 0.682109 0.109071
0.82414 0.684993 0.0870069
0.851225 0.68603 0.0509499
0.874754 0.686397 0.013901
0.901717 0.689952 0
0.92987 0.689952 0
0.959564 0.693874 0
0.0973068 0.681743 0.272801
0.114458 0.681743 0.273869
0.128862 0.681743 0.273899
0.143236 0.681743 0.272801
0.161044 0.681743 0.272801
0.180316 0.680644 0.269978
0.203311 0.67834 0.269978
0.22536 0.677821 0.269108
0.250645 0.677821 0.266056
0.27451 0.677821 0.265263
0.301595 0.676722 0.262135
0.327581 0.673899 0.258213
0.35465 0.673899 0.254292
0.383413 0.673899 0.248035
0.410407 0.673899 0.244236
0.440803 0.673899 0.236515
0.471687 0.673899 0.229343
0.501472 0.676722 0.222187
0.535653 0.677195 0.214466
0.567163 0.678965 0.206744
0.600855 0.681056 0.200076
0.631739 0.684565 0.195224
0.666545 0.686549 0.187503
0.697429 0.690379 0.183703
0.728313 0.694209 0.176257
0.759197 0.698039 0.16936
0.788449 0.701869 0.160906
0.816419 0.705272 0.143572
0.843503 0.708232 0.124041
0.86804 0.709194 0.0986496
0.897673 0.712077 0.0616007
0.92488 0.713115 0.0151675
0.952941 0.717037 0
0.160784 0.704906 0.293141
0.17145 0.704906 0.293141
0.181918 0.704906 0.293141
0.189822 0.703929 0.293141
0.204898 0.700984 0.293141
0.22034 0.700984 0.293141
0.238178 0.700984 0.290745
0.257877 0.700984 0.290196
0.279408 0.700984 0.289219
0.300465 0.698039 0.287098
0.323842 0.697063 0.285603
0.347921 0.697063 0.282353
0.371084 0.697063 0.278431
0.395987 0.697063 0.27277
0.42298 0.697063 0.268376
0.449516 0.697063 0.261646
0.476478 0.697063 0.257359
0.506371 0.697063 0.250126
0.53431 0.698039 0.242405
0.564218 0.699229 0.23508
0.595102 0.70135 0.230884
0.626993 0.704906 0.223499
0.659495 0.706798 0.219364
0.689708 0.709926 0.213443
0.71986 0.713726 0.20882
0.748531 0.717525 0.204257
0.778439 0.720775 0.197299
0.80885 0.724666 0.18912
0.835904 0.728557 0.17464
0.862959 0.732357 0.159686
0.891112 0.733516 0.137499
0.918135 0.736309 0.11133
0.94902 0.7402 0.076463
0.212985 0.727199 0.316304
0.219883 0.727199 0.319265
0.227573 0.727199 0.319356
0.235294 0.724422 0.316304
0.245701 0.724147 0.316304
0.257237 0.724147 0.316304
0.272541 0.724147 0.315602
0.287984 0.723476 0.312383
0.306493 0.720989 0.312383
0.325856 0.720226 0.311513
0.347066 0.720226 0.308461
0.366598 0.720226 0.305592
0.389456 0.720226 0.302083
0.412116 0.719356 0.298283
0.434928 0.719356 0.294484
0.460166 0.719356 0.290684
0.485176 0.719799 0.284932
0.511803 0.720226 0.279164
0.5402 0.720226 0.27364
0.567163 0.721462 0.267643
0.596033 0.723613 0.260792
0.624704 0.7252 0.256123
0.655024 0.728069 0.250217
0.682597 0.731365 0.246326
0.712871 0.735256 0.242435
0.742885 0.739162 0.238544
0.770718 0.743053 0.234073
0.801465 0.746944 0.229786
0.82855 0.750835 0.219486
0.859068 0.754742 0.208621
0.886397 0.758633 0.192889
0.917189 0.759564 0.177356
0.948165 0.763363 0.158953
0.250736 0.747311 0.339467
0.25774 0.747311 0.339467
0.261769 0.747311 0.339467
0.269245 0.747311 0.339467
0.276967 0.747311 0.338811
0.288487 0.746685 0.336034
0.300114 0.743984 0.335546
0.314214 0.743389 0.335546
0.329656 0.743389 0.334981
0.347387 0.743389 0.331624
0.364462 0.743389 0.331624
0.383566 0.742901 0.327703
0.404898 0.739467 0.325704
0.42414 0.739467 0.323781
0.446891 0.739467 0.318059
0.469734 0.739467 0.314244
0.492897 0.739467 0.310048
0.51606 0.739467 0.304555
0.542397 0.742641 0.298848
0.56759 0.743389 0.292836
0.594125 0.743389 0.287282
0.621073 0.746822 0.283467
0.650233 0.748302 0.277226
0.677287 0.751232 0.273533
0.70515 0.755154 0.269612
0.735164 0.759075 0.268177
0.762997 0.762997 0.264958
0.793256 0.767407 0.261158
0.820829 0.771237 0.257359
0.851713 0.775051 0.250294
0.879362 0.778927 0.238529
0.90956 0.782727 0.226978
0.941176 0.786526 0.212253
0.28481 0.770459 0.362615
0.288731 0.770459 0.362615
0.292653 0.770459 0.362615
0.30013 0.770459 0.362615
0.307225 0.770459 0.358694
0.314946 0.766644 0.358694
0.325978 0.766537 0.358694
0.338231 0.766537 0.358694
0.352819 0.766537 0.358694
