YOYO-Client/Yoyo/Assets.xcassets/Paris.dataset/Fuji-400H.cube
TITLE "Generated by Resolve"
LUT_3D_SIZE 5
0 0 0
0.229404 0.00195315 0
0.627451 0 0
0.864698 0 0.027451
1 0.266667 0.121569
0 0.243137 0.0235294
0.189212 0.255879 0
0.615198 0.242161 0
0.84535 0.262989 0
1 0.364706 0.0656901
0 0.521569 0.129412
0.054902 0.517647 0.11667
0.511772 0.527459 0
0.79559 0.533333 0
0.980392 0.541176 0
0.160784 0.704906 0.293141
0.279408 0.700984 0.289219
0.476478 0.697063 0.257359
0.71986 0.713726 0.20882
0.94902 0.7402 0.076463
0.431373 0.913725 0.517647
0.46569 0.913725 0.517647
0.556863 0.909804 0.505882
0.700984 0.917647 0.489219
0.929412 0.952941 0.490196
0 0.0196078 0.238239
0.24976 0.0220645 0.245838
0.632837 0 0.250492
0.853925 0.15172 0.293385
1 0.324514 0.3402
0 0.285298 0.277455
0.272679 0.29099 0.279591
0.623041 0.287373 0.279652
0.838239 0.326223 0.292226
1 0.406867 0.329656
0.0147097 0.551965 0.317159
0.2636 0.538231 0.319615
0.542397 0.538964 0.28603
0.795102 0.541176 0.231373
0.976471 0.552453 0.234806
0.271809 0.712749 0.399268
0.349569 0.708827 0.399023
0.501717 0.700984 0.376593
0.723217 0.717403 0.350668
0.949996 0.741176 0.28333
0.442161 0.917647 0.555886
0.477455 0.917647 0.555886
0.564218 0.913725 0.548043
0.704906 0.921569 0.532357
0.929412 0.952941 0.536278
0.105882 0.0901961 0.54902
0.359808 0.113237 0.566171
0.631373 0.121569 0.568627
0.852934 0.0254978 0.545098
1 0.347066 0.570596
0.0950942 0.273533 0.545586
0.353063 0.300618 0.559808
0.623529 0.337499 0.57084
0.831128 0.335286 0.555886
0.988235 0.450492 0.584314
0.00392157 0.572549 0.573526
0.326467 0.573526 0.575494
0.602945 0.575494 0.580392
0.79118 0.579416 0.579416
0.974517 0.595102 0.583337
0.369116 0.752453 0.584314
0.447547 0.746075 0.587259
0.569116 0.720836 0.579416
0.733822 0.72929 0.564828
0.960784 0.741176 0.5196
0.454902 0.937255 0.647059
0.493141 0.933822 0.647059
0.579416 0.927459 0.644114
0.708827 0.927947 0.634318
0.941176 0.956863 0.635294
0.404898 0.186282 0.747051
0.509804 0.209812 0.75172
0.693141 0.296071 0.763241
0.829419 0.348043 0.759808
1 0.293141 0.751965
0.391424 0.318624 0.739223
0.494911 0.338231 0.744121
0.677943 0.406378 0.759319
0.817639 0.448707 0.758831
0.995834 0.40882 0.751965
0.287251 0.513726 0.724025
0.405386 0.5196 0.725612
0.62623 0.561761 0.742885
0.795102 0.609812 0.759808
0.984314 0.587747 0.755886
0.335286 0.752941 0.756619
0.421195 0.755154 0.759075
0.587015 0.756619 0.761761
0.779293 0.766354 0.771084
0.97818 0.766918 0.77084
0.398047 0.968627 0.775494
0.455879 0.968627 0.778439
0.590188 0.964706 0.779416
0.744121 0.948287 0.777691
0.964706 0.968627 0.774502
0.65098 0.454902 0.945098
0.685298 0.466667 0.945098
0.768627 0.505882 0.945098
0.884321 0.552941 0.945098
1 0.556863 0.937255
0.635294 0.507851 0.945098
0.669612 0.516426 0.945098
0.757351 0.547555 0.945098
0.880385 0.588235 0.945098
1 0.59411 0.937255
0.562737 0.603922 0.94313
0.608331 0.611276 0.945098
0.718624 0.630396 0.946075
0.864698 0.667643 0.94902
1 0.678431 0.94313
0.386267 0.7402 0.946075
0.447303 0.737255 0.94902
0.596078 0.736278 0.949996
0.81471 0.767651 0.956863
1 0.806867 0.953918
0.290196 0.976471 0.968627
0.362753 0.976471 0.968627
0.527459 0.980392 0.972549
0.745098 0.980392 0.976471
1 0.988235 0.980392
