YOYO-Client/Yoyo/Assets.xcassets/Paris.dataset/Fuji-400H.cube
TITLE "Generated by Resolve"
LUT_3D_SIZE 9
0 0 0
0.0843214 0.00735485 0
0.229404 0.00195315 0
0.428916 0 0
0.627451 0 0
0.766659 0 0.00784314
0.864698 0 0.027451
0.942641 0.150988 0.0637217
1 0.266667 0.121569
0 0.0921645 0.00784314
0.060853 0.0995041 0.00349432
0.232837 0.108705 0
0.437247 0.0805829 0
0.624994 0.0188754 0
0.760967 0.0313115 0
0.857847 0.121691 0.009308
0.938659 0.211704 0.0480354
1 0.300008 0.108827
0 0.243137 0.0235294
0 0.243748 0.0160525
0.189212 0.255879 0
0.432837 0.264088 0
0.615198 0.242161 0
0.747051 0.237629 0
0.84535 0.262989 0
0.926955 0.309438 0
1 0.364706 0.0656901
0 0.401465 0.0607919
0 0.400488 0.0561837
0.0876173 0.399878 0.0171511
0.363729 0.409796 0
0.581857 0.414221 0
0.722606 0.402029 0
0.822553 0.400488 0
0.908644 0.418143 0
0.996078 0.449027 0
0 0.521569 0.129412
0 0.521813 0.129412
0.054902 0.517647 0.11667
0.302205 0.5196 0.0683757
0.511772 0.527459 0
0.678431 0.533333 0
0.79559 0.533333 0
0.887739 0.533333 0
0.980392 0.541176 0
0 0.616175 0.210788
0 0.616175 0.210788
0.165682 0.612253 0.20441
0.313787 0.609812 0.183825
0.469368 0.612985 0.146563
0.626413 0.622492 0.102388
0.758694 0.633951 0.0187533
0.86421 0.639704 0
0.968627 0.641169 0
0.160784 0.704906 0.293141
0.204898 0.700984 0.293141
0.279408 0.700984 0.289219
0.371084 0.697063 0.278431
0.476478 0.697063 0.257359
0.595102 0.70135 0.230884
0.71986 0.713726 0.20882
0.835904 0.728557 0.17464
0.94902 0.7402 0.076463
0.31667 0.794125 0.38677
0.335286 0.794125 0.38677
0.376593 0.790692 0.382849
0.436454 0.790188 0.376471
0.509071 0.78677 0.363485
0.597055 0.790188 0.344121
0.697063 0.799023 0.328435
0.80589 0.817212 0.320531
0.933333 0.836759 0.305394
0.431373 0.913725 0.517647
0.443137 0.913725 0.517647
0.46569 0.913725 0.517647
0.506859 0.909804 0.513726
0.556863 0.909804 0.505882
0.622553 0.913725 0.498039
0.700984 0.917647 0.489219
0.801968 0.9299 0.482841
0.929412 0.952941 0.490196
0.0191196 0.00784314 0.0882277
0.0882277 0.0113375 0.0886702
0.238117 0 0.0925307
0.436759 0 0.106371
0.627451 0 0.117403
0.762753 0 0.127138
0.857847 0.0584573 0.142763
0.93872 0.184863 0.166232
1 0.281865 0.201968
0 0.11078 0.10251
0.0795911 0.114763 0.103426
0.247608 0.11606 0.103487
0.447242 0.103456 0.110842
0.624994 0.076936 0.11519
0.758633 0.0963149 0.123033
0.853925 0.161105 0.136156
0.934737 0.237797 0.159258
1 0.31519 0.197055
0 0.2701 0.120714
0.00300603 0.263233 0.12549
0.21973 0.269154 0.107134
0.447684 0.267735 0.0775769
0.61709 0.248951 0.0743877
0.74551 0.254536 0.0881819
0.842161 0.282109 0.108827
0.923033 0.325856 0.136263
1 0.379049 0.176959
0 0.416663 0.154406
0 0.411826 0.155886
0.154055 0.405692 0.140688
0.382849 0.415259 0.104051
0.588815 0.417243 0.0412757
0.722606 0.404349 0.00257877
0.820096 0.405737 0.0162966
0.907347 0.425757 0.0594949
0.992462 0.45687 0.115694
0 0.531121 0.200488
0 0.530907 0.202457
0.149386 0.523537 0.194247
0.327947 0.52343 0.166171
0.521447 0.531243 0.128923
0.682353 0.537255 0.0697642
0.79559 0.534615 0
0.887739 0.533547 0
0.978439 0.545098 0
0 0.621576 0.261769
0.0862287 0.622278 0.26421
0.217197 0.616175 0.257191
0.339895 0.613535 0.240192
0.480735 0.616022 0.213565
0.630213 0.624567 0.184619
0.759243 0.635782 0.144671
0.86421 0.641169 0.0573892
0.966171 0.645106 0
0.20589 0.705882 0.328801
0.242222 0.704906 0.33051
0.303426 0.701961 0.327443
0.386542 0.698039 0.316136
0.48603 0.698039 0.297551
0.599023 0.702922 0.274144
0.720592 0.713726 0.257755
0.835904 0.728557 0.231266
0.94902 0.741176 0.164218
0.328435 0.798032 0.409796
0.347112 0.79498 0.409796
0.385504 0.794125 0.40589
0.4421 0.790188 0.401389
0.512993 0.790188 0.388235
0.597528 0.790188 0.372778
0.697063 0.799023 0.358587
0.808881 0.817212 0.350927
0.933333 0.837247 0.33579
0.435294 0.917159 0.528923
0.446998 0.91722 0.529412
0.469612 0.913725 0.528923
0.508339 0.913725 0.52549
0.560784 0.909804 0.52108
0.622553 0.913725 0.509804
0.700984 0.918624 0.501839
0.805386 0.9299 0.497551
0.929412 0.952941 0.505394
0 0.0196078 0.238239
0.107851 0.0312505 0.248646
0.24976 0.0220645 0.245838
0.456367 0 0.241184
0.632837 0 0.250492
0.758816 0.00698863 0.272053
0.853925 0.15172 0.293385
0.93431 0.243503 0.313237
1 0.324514 0.3402
0 0.114702 0.24889
0.0990768 0.127169 0.253422
0.263478 0.134798 0.2598
0.463798 0.0919203 0.253391
0.630396 0.11667 0.26746
0.755444 0.164218 0.282963
0.849912 0.225498 0.297704
0.929961 0.287739 0.312749
1 0.353063 0.339208
0 0.285298 0.277455
0 0.287251 0.278676
0.272679 0.29099 0.279591
0.463966 0.288243 0.279408
0.623041 0.287373 0.279652
0.745586 0.299382 0.283848
0.838239 0.326223 0.292226
0.918746 0.363668 0.305058
1 0.406867 0.329656
0 0.452949 0.285786
0.0382849 0.447181 0.292607
0.258824 0.427329 0.295583
0.419806 0.429038 0.27686
0.602213 0.426719 0.251164
0.722057 0.417273 0.244892
0.818173 0.426596 0.255146
0.903197 0.448295 0.27219
0.990692 0.475853 0.296086
0.0147097 0.551965 0.317159
0.145098 0.549996 0.32108
0.2636 0.538231 0.319615
0.37966 0.531365 0.305638
0.542397 0.538964 0.28603
0.68867 0.54461 0.259312
0.795102 0.541176 0.231373
0.883818 0.541176 0.224323
0.976471 0.552453 0.234806
0.172915 0.632959 0.35404
0.223041 0.633707 0.358328
0.299016 0.626963 0.355062
0.388724 0.620096 0.345586
0.502449 0.620096 0.326467
0.639323 0.629404 0.309743
0.761791 0.639704 0.285084
0.86421 0.643626 0.245045
0.966171 0.645106 0.206378
0.271809 0.712749 0.399268
0.298741 0.712749 0.4
0.349569 0.708827 0.399023
0.418265 0.702785 0.391699
0.501717 0.700984 0.376593
0.606348 0.704906 0.360784
0.723217 0.717403 0.350668
0.835904 0.732357 0.328923
0.949996 0.741176 0.28333
0.354406 0.801968 0.458824
0.370459 0.801205 0.458824
0.4065 0.798032 0.455116
0.457282 0.794125 0.45098
0.522545 0.79057 0.441428
0.602823 0.794125 0.427451
0.698039 0.801968 0.417609
0.808881 0.818082 0.411749
0.9337 0.837247 0.399512
0.442161 0.917647 0.555886
0.453559 0.917647 0.555886
0.477455 0.917647 0.555886
0.514092 0.914824 0.551965
0.564218 0.913725 0.548043
0.625864 0.913725 0.5402
0.704906 0.921569 0.532357
0.805386 0.933333 0.528435
0.929412 0.952941 0.536278
0 0.0534371 0.408331
0.125307 0.0612802 0.416175
0.306371 0.0691234 0.429786
0.46421 0.0314336 0.428855
0.634806 0 0.41471
0.765194 0 0.40441
0.850004 0.150729 0.421942
0.926467 0.268132 0.445594
1 0.352941 0.472541
0 0.135103 0.411276
0.135134 0.145586 0.419577
0.317235 0.164309 0.435172
0.46981 0.159869 0.432288
0.635691 0.0536812 0.420096
0.757351 0.127825 0.413352
0.843763 0.237751 0.431006
0.919081 0.316991 0.452873
0.999695 0.384985 0.476967
0 0.264698 0.422553
0.0909743 0.273045 0.424506
0.305638 0.292775 0.43508
0.473472 0.307118 0.440192
0.629221 0.283146 0.430884
0.741665 0.318624 0.435889
0.829786 0.361486 0.451499
0.910246 0.402991 0.464088
0.995102 0.442649 0.481254
0 0.450004 0.446082
0 0.452384 0.447547
0.277943 0.452155 0.449088
0.469612 0.451698 0.450889
0.610574 0.450553 0.449088
0.719951 0.45539 0.447547
0.812024 0.467521 0.450782
0.895582 0.484627 0.455695
0.984314 0.505455 0.467155
0.0164187 0.58677 0.449012
0.179263 0.584802 0.452949
0.341604 0.573343 0.456672
0.457359 0.552209 0.455817
0.570092 0.553796 0.443015
0.696574 0.554467 0.423285
0.79173 0.54902 0.410483
0.879896 0.553521 0.411673
0.974517 0.566659 0.421317
0.268635 0.657847 0.467643
0.315129 0.656367 0.471015
0.38526 0.646693 0.4701
0.456291 0.634516 0.467643
0.534737 0.629633 0.455146
0.651133 0.638788 0.44622
0.76434 0.647547 0.425986
0.86421 0.645106 0.396765
0.964706 0.645106 0.374502
0.341176 0.726955 0.490684
0.366537 0.726345 0.491051
0.406165 0.719768 0.491386
0.462745 0.712291 0.487053
0.528923 0.706798 0.477211
0.61709 0.709743 0.46537
0.726619 0.721569 0.458671
0.837125 0.735302 0.439704
0.952941 0.741176 0.403067
0.388235 0.809796 0.524025
0.403159 0.809644 0.526162
0.433967 0.80589 0.524025
0.481498 0.80116 0.520104
0.53814 0.79559 0.513481
0.610162 0.796384 0.502831
0.700984 0.804547 0.494789
0.809796 0.821134 0.490867
0.937255 0.839399 0.477455
0.449516 0.92549 0.594614
0.460975 0.92549 0.597055
0.483818 0.924025 0.594614
0.520104 0.921569 0.594614
0.568627 0.917647 0.590692
0.62948 0.917647 0.584375
0.704906 0.922545 0.577447
0.80589 0.933822 0.573526
0.933333 0.955398 0.581369
0.105882 0.0901961 0.54902
0.207843 0.0977951 0.556619
0.359808 0.113237 0.566171
0.516915 0.132601 0.576471
0.631373 0.121569 0.568627
0.752941 0 0.558083
0.852934 0.0254978 0.545098
0.926467 0.233326 0.550988
1 0.347066 0.570596
0.122057 0.160784 0.55024
0.215412 0.169055 0.556161
0.36318 0.187259 0.565682
0.51838 0.2103 0.575982
0.630884 0.20882 0.568627
0.74902 0.13373 0.560052
0.846082 0.181186 0.548531
0.919051 0.293416 0.554406
0.999512 0.382101 0.57377
0.0950942 0.273533 0.545586
0.202029 0.282292 0.54902
0.353063 0.300618 0.559808
0.513359 0.329412 0.573281
0.623529 0.337499 0.57084
0.738964 0.302449 0.563485
0.831128 0.335286 0.555886
0.906859 0.397665 0.565866
0.988235 0.450492 0.584314
0 0.410056 0.551965
0.153613 0.414221 0.553429
0.319615 0.421576 0.553429
0.488731 0.447547 0.565652
0.611765 0.4663 0.57438
0.722332 0.453407 0.568353
0.809064 0.477943 0.572488
0.891173 0.505486 0.582345
0.980392 0.53138 0.595834
0.00392157 0.572549 0.573526
0.165805 0.574502 0.575494
0.326467 0.573526 0.575494
0.474388 0.573526 0.577447
0.602945 0.575494 0.580392
0.701473 0.575494 0.579416
0.79118 0.579416 0.579416
0.879896 0.585412 0.579416
0.974517 0.595102 0.583337
0.256855 0.683574 0.577935
0.310933 0.684153 0.579812
0.400977 0.677455 0.579904
0.504417 0.667887 0.580362
0.584314 0.648768 0.577569
0.668101 0.652232 0.569085
0.771023 0.655085 0.551049
0.86421 0.648188 0.533822
0.966171 0.650248 0.53138
0.369116 0.752453 0.584314
0.396323 0.749996 0.587259
0.447547 0.746075 0.587259
0.511696 0.73431 0.58352
0.569116 0.720836 0.579416
0.633829 0.718135 0.569116
0.733822 0.72929 0.564828
0.842466 0.7402 0.546563
0.960784 0.741176 0.5196
0.41323 0.827451 0.600977
0.430152 0.827207 0.600732
0.464637 0.822003 0.599023
0.509499 0.814466 0.597055
0.563119 0.80589 0.593011
0.623438 0.801968 0.584405
0.704906 0.808148 0.577203
0.813733 0.825055 0.57525
0.943389 0.841184 0.562005
0.454902 0.937255 0.647059
0.466667 0.937255 0.647059
0.493141 0.933822 0.647059
0.531121 0.93138 0.647059
0.579416 0.927459 0.644114
0.636271 0.92549 0.639216
0.708827 0.927947 0.634318
0.809796 0.937743 0.629419
0.941176 0.956863 0.635294
0.264714 0.130877 0.65539
0.318624 0.138415 0.659312
0.426474 0.154894 0.66508
0.553918 0.185779 0.672618
0.666178 0.228428 0.67892
0.744671 0.235782 0.671992
0.833829 0.174136 0.667155
0.925185 0.187076 0.656855
1 0.295094 0.65539
0.26894 0.191669 0.654902
0.321874 0.197208 0.65539
0.426032 0.21471 0.662974
0.552453 0.244663 0.671077
0.662257 0.28217 0.67892
0.740749 0.289219 0.671885
0.829236 0.243503 0.66685
0.919112 0.253651 0.658549
1 0.33756 0.658824
0.256992 0.290684 0.646571
0.312398 0.297734 0.650813
0.418021 0.313115 0.65539
0.54461 0.341176 0.666606
0.654414 0.376959 0.674998
0.730816 0.386343 0.671077
0.821073 0.355398 0.667002
0.91078 0.364294 0.658701
0.995102 0.421073 0.662257
0.214649 0.401953 0.639765
0.274311 0.408515 0.642161
0.383505 0.420584 0.646952
0.518624 0.44509 0.657267
0.638727 0.480354 0.672297
0.717556 0.4934 0.671077
0.806867 0.472969 0.667842
0.895582 0.482414 0.663233
0.984314 0.51667 0.671138
0.178439 0.531868 0.646815
0.246754 0.533822 0.648035
0.355459 0.534371 0.648035
0.477943 0.540169 0.650278
0.609186 0.566293 0.664088
0.704875 0.589273 0.674998
0.795102 0.577813 0.672862
0.880552 0.591028 0.674418
0.97525 0.609064 0.68333
0.257359 0.667155 0.66862
0.304417 0.66807 0.671077
0.387854 0.667155 0.671077
0.490257 0.667155 0.672557
0.594583 0.669398 0.675456
0.69427 0.673503 0.681575
0.78088 0.674311 0.679469
0.872053 0.675074 0.67892
0.972549 0.67892 0.679469
0.353918 0.772549 0.679896
0.383246 0.771939 0.679896
0.439826 0.770184 0.679896
0.518746 0.765194 0.679667
0.604105 0.756863 0.67892
0.671534 0.737377 0.672129
0.749142 0.741848 0.667155
0.85597 0.744488 0.648219
0.968627 0.7402 0.633326
0.407538 0.852628 0.682048
0.426474 0.850752 0.68333
0.4663 0.849042 0.68333
0.526955 0.842344 0.681865
0.593622 0.830488 0.679072
0.650294 0.816541 0.671565
0.715831 0.814054 0.663676
0.822858 0.829572 0.6598
0.954406 0.84509 0.648524
0.437751 0.952941 0.704906
0.452934 0.952941 0.704906
0.486763 0.950484 0.704906
0.537316 0.946563 0.708827
0.592889 0.942641 0.708827
0.651469 0.937255 0.704906
0.719982 0.934798 0.698528
0.815015 0.941665 0.693141
0.94902 0.960784 0.698528
0.404898 0.186282 0.747051
0.438239 0.193622 0.748043
0.509804 0.209812 0.75172
0.601465 0.246448 0.755886
0.693141 0.296071 0.763241
0.768627 0.341665 0.766674
0.829419 0.348043 0.759808
0.906371 0.307225 0.755886
1 0.293141 0.751965
0.403433 0.231861 0.744121
0.437491 0.240024 0.744442
0.506004 0.254902 0.748043
0.597772 0.288228 0.754986
0.689219 0.33431 0.762554
0.764706 0.37586 0.766293
0.825483 0.381308 0.759319
0.902449 0.344442 0.755886
1 0.333822 0.751965
0.391424 0.318624 0.739223
0.423804 0.323522 0.7402
0.494911 0.338231 0.744121
0.586526 0.365194 0.750301
0.677943 0.406378 0.759319
0.756863 0.443626 0.763729
0.817639 0.448707 0.758831
0.894728 0.418387 0.755886
0.995834 0.40882 0.751965
0.346929 0.41471 0.728435
0.385733 0.419974 0.73228
0.461494 0.430426 0.733822
0.560494 0.453315 0.741527
0.659312 0.488975 0.752514
0.743099 0.525368 0.761639
0.80589 0.530358 0.758328
0.886763 0.50544 0.755886
0.988235 0.496452 0.751965
0.287251 0.513726 0.724025
0.327459 0.517159 0.724514
0.405386 0.5196 0.725612
0.509194 0.532601 0.731121
0.62623 0.561761 0.742885
0.726467 0.599512 0.759503
0.795102 0.609812 0.759808
0.880079 0.589395 0.757839
0.984314 0.587747 0.755886
0.263844 0.630518 0.732845
0.303105 0.632349 0.733455
0.377447 0.628428 0.733455
0.474022 0.628428 0.733455
0.57966 0.63389 0.735668
0.694987 0.66041 0.751354
0.787259 0.687037 0.765103
0.879896 0.674998 0.761273
0.980392 0.68333 0.764828
0.335286 0.752941 0.756619
0.362905 0.755154 0.756619
0.421195 0.755154 0.759075
0.499352 0.755154 0.759808
0.587015 0.756619 0.761761
0.681865 0.759808 0.765377
0.779293 0.766354 0.771084
0.87332 0.764706 0.770184
0.97818 0.766918 0.77084
0.385168 0.868635 0.771572
0.407721 0.868635 0.771572
0.45037 0.868254 0.771572
0.516686 0.868132 0.771572
0.594308 0.865202 0.771572
0.67892 0.855879 0.767773
0.748989 0.832959 0.759167
0.841672 0.840803 0.755566
0.973526 0.848524 0.740688
0.398047 0.968627 0.775494
0.417151 0.968627 0.775494
0.455879 0.968627 0.778439
0.516548 0.965682 0.778439
0.590188 0.964706 0.779416
0.671687 0.957839 0.779416
0.744121 0.948287 0.777691
0.829038 0.949142 0.77145
0.964706 0.968627 0.774502
0.539223 0.280385 0.840681
0.557839 0.284749 0.840681
0.599512 0.302937 0.840681
0.659007 0.333822 0.844602
0.725978 0.376226 0.848524
0.791669 0.422553 0.852445
0.853315 0.453437 0.851469
0.911269 0.452445 0.844602
0.988235 0.418143 0.844602
0.534371 0.31078 0.837186
0.553918 0.318944 0.83769
0.59527 0.33344 0.840681
0.652949 0.360723 0.84303
0.722057 0.400702 0.846326
0.787747 0.444633 0.849653
0.849515 0.474784 0.851102
0.907347 0.471885 0.844602
0.988235 0.440681 0.844602
0.51667 0.375006 0.833341
0.53611 0.379904 0.834195
0.580789 0.393591 0.836759
0.641718 0.417517 0.840681
0.710353 0.45153 0.844602
0.779904 0.490684 0.848524
0.841672 0.517647 0.848524
0.903426 0.51667 0.844602
0.984314 0.488853 0.844602
0.479408 0.451469 0.828916
0.502297 0.45687 0.829099
0.549996 0.466545 0.830381
0.616724 0.4851 0.833341
0.691661 0.513542 0.840681
0.766598 0.548043 0.84686
0.833829 0.574685 0.850141
0.895582 0.57406 0.844602
0.980392 0.547372 0.844602
0.410056 0.528435 0.821073
0.434806 0.532113 0.821317
0.489281 0.537743 0.821576
0.569207 0.549661 0.825483
0.659312 0.572061 0.833082
0.746075 0.605631 0.843381
0.825986 0.634134 0.852262
0.891661 0.635782 0.848524
0.980148 0.612741 0.848524
0.324514 0.61796 0.818936
0.354742 0.620096 0.821073
0.415518 0.61796 0.821073
0.499504 0.620096 0.821073
0.598535 0.629404 0.823926
0.710124 0.657176 0.836759
0.811276 0.695583 0.852216
0.887739 0.705089 0.852445
0.981857 0.68333 0.852445
0.295949 0.72549 0.829908
0.325811 0.72549 0.829908
0.383215 0.72549 0.829908
0.462577 0.721569 0.829908
0.554589 0.72108 0.829908
0.652567 0.72108 0.829786
0.776745 0.74902 0.841672
0.884428 0.779904 0.857679
0.988235 0.767651 0.857359
0.348592 0.852445 0.852506
0.371145 0.852445 0.852934
0.416724 0.852445 0.852934
0.483146 0.852491 0.852934
0.566171 0.852934 0.853376
0.658991 0.853101 0.856367
0.764584 0.85687 0.859861
0.883085 0.867338 0.867338
0.992157 0.867704 0.867704
0.368139 0.976471 0.868132
0.38732 0.976471 0.868132
0.429419 0.976471 0.868132
0.493324 0.980392 0.868132
0.574502 0.980392 0.868132
0.668437 0.976959 0.868132
0.771572 0.973037 0.868635
0.861219 0.965133 0.864637
0.984802 0.976471 0.864698
0.65098 0.454902 0.945098
0.658824 0.458824 0.945098
0.685298 0.466667 0.945098
0.720104 0.48481 0.945098
0.768627 0.505882 0.945098
0.822553 0.530877 0.945098
0.884321 0.552941 0.945098
0.946075 0.564706 0.941176
1 0.556863 0.937255
0.646571 0.4701 0.945098
0.654902 0.474022 0.945098
0.680888 0.484443 0.945098
0.716182 0.499687 0.945098
0.764706 0.519112 0.945098
0.822553 0.542153 0.945098
0.883818 0.564218 0.945098
0.945159 0.575982 0.941176
1 0.567651 0.937255
0.635294 0.507851 0.945098
0.643137 0.511391 0.945098
0.669612 0.516426 0.945098
0.708339 0.530266 0.945098
0.757351 0.547555 0.945098
0.81471 0.569116 0.945098
0.880385 0.588235 0.945098
0.942153 0.59939 0.943755
1 0.59411 0.937255
0.609308 0.553918 0.945098
0.62089 0.557839 0.945098
0.647547 0.561761 0.945098
0.689647 0.572061 0.945098
0.743877 0.587259 0.945098
0.806867 0.606378 0.945098
0.872541 0.625498 0.945098
0.938231 0.636271 0.944915
1 0.630884 0.939712
0.562737 0.603922 0.94313
0.576226 0.607843 0.945098
0.608331 0.611276 0.945098
0.656611 0.618143 0.945098
0.718624 0.630396 0.946075
0.789212 0.648524 0.94902
0.864698 0.667643 0.94902
0.936522 0.682353 0.947066
1 0.678431 0.94313
0.487251 0.661768 0.945098
0.502449 0.661768 0.945098
0.537255 0.663233 0.945098
0.594125 0.667155 0.946563
0.670344 0.677455 0.94902
0.755886 0.694606 0.949569
0.850004 0.717647 0.952941
0.93431 0.736767 0.952636
1 0.736278 0.94902
0.386267 0.7402 0.946075
0.405386 0.7402 0.94902
0.447303 0.737255 0.94902
0.513359 0.737255 0.949996
0.596078 0.736278 0.949996
0.694118 0.74522 0.952941
0.81471 0.767651 0.956863
0.926955 0.798535 0.957839
1 0.806867 0.953918
0.302449 0.84509 0.956863
0.325002 0.84509 0.956863
0.374517 0.84509 0.956863
0.442649 0.841672 0.957351
0.527459 0.841184 0.957351
0.625299 0.837751 0.960784
0.740688 0.837247 0.961273
0.895582 0.860349 0.964767
1 0.887739 0.965194
0.290196 0.976471 0.968627
0.312749 0.976471 0.968627
0.362753 0.976471 0.968627
0.434806 0.976471 0.972549
0.527459 0.980392 0.972549
0.631861 0.980392 0.972549
0.745098 0.980392 0.976471
0.872541 0.984314 0.976471
1 0.988235 0.980392
