YOYO-Client/Yoyo/Assets.xcassets/Vienna.dataset/Vienna.cube
TITLE "Generated by Resolve"
LUT_3D_SIZE 5
0.0450752 0.0621347 0.0664378
0.243503 0.0219883 0.0636301
0.783642 0 0
1 0 0
1 0 0
0.0016022 0.181003 0.0914015
0.218235 0.229587 0.0594492
0.766201 0.330068 0
1 0.261814 0
1 0.143771 0
0 0.336156 0.107958
0.0115969 0.357794 0.0942245
0.517082 0.508843 0
0.978164 0.544839 0
1 0.435767 0
0 0.562997 0.00732433
0 0.56524 0
0.305989 0.651743 0
0.835447 0.780499 0
1 0.684733 0
0 0.946777 0.412085
0 0.947326 0.4177
0.339269 0.946273 0.429618
0.714244 0.941192 0.438407
0.97348 0.925383 0.370275
0 0.110826 0.206165
0.1691 0.0706798 0.201312
0.671077 0 0.179858
0.999039 0 0
1 0 0
0 0.238483 0.246174
0.200427 0.238911 0.250278
0.674495 0.216037 0.136934
0.995239 0.225513 0
1 0.176226 0
0 0.409125 0.248234
0 0.406409 0.205386
0.505272 0.503502 0.141207
0.972793 0.510262 0
1 0.439185 0
0 0.623575 0.14049
0 0.628809 0.12224
0.256184 0.66247 0.0626841
0.836652 0.784192 0
1 0.682795 0
0 0.946731 0.509361
0 0.947677 0.518791
0.358419 0.945891 0.505516
0.723522 0.940658 0.532921
0.968566 0.925185 0.447608
0 0.330648 0.582101
0 0.259831 0.6392
0.516274 0 0.569619
0.973846 0 0.509453
1 0 0.294362
0 0.45713 0.647456
0 0.415137 0.646891
0.520928 0.176516 0.576532
0.975998 0 0.473945
1 0 0.271504
0 0.526116 0.538125
0 0.541146 0.555154
0.493629 0.536187 0.560983
0.954482 0.450614 0.424506
1 0.329107 0.181415
0 0.692119 0.47834
0 0.707622 0.481239
0.0278325 0.69691 0.409598
0.821698 0.789624 0.484825
1 0.635493 0.0462501
0.277852 0.939605 0.698054
0.437537 0.937545 0.719097
0.491905 0.941817 0.681208
0.745174 0.938338 0.701579
0.95082 0.923751 0.682628
0 0.524727 0.87718
0 0.479912 0.873411
0 0.259281 0.87422
0.826642 0 0.860792
1 0 0.732723
0 0.57644 0.870405
0 0.548409 0.869947
0 0.388449 0.872053
0.82266 0.166552 0.857603
1 0.123568 0.731563
0 0.668009 0.845853
0 0.666712 0.85095
0.332464 0.669444 0.851438
0.810391 0.557794 0.846937
1 0.547753 0.754269
0 0.808438 0.814908
0 0.812161 0.820035
0.249622 0.808026 0.823194
0.80322 0.812085 0.838987
1 0.764019 0.779828
0 0.956054 0.794125
0.0151827 0.953048 0.807446
0.576745 0.943374 0.835554
0.780606 0.936187 0.848737
0.93225 0.922637 0.859739
0 0.658686 0.969024
0 0.66154 0.967849
0.50454 0.713573 0.960632
0.645396 0.619425 0.967437
0.959594 0.50103 0.970764
0 0.688045 0.966476
0 0.692882 0.965331
0.559121 0.750286 0.957031
0.680919 0.678325 0.962539
0.954482 0.573526 0.966094
0 0.743511 0.962814
0 0.742535 0.963043
0.544366 0.792645 0.954635
0.750957 0.785351 0.953643
0.944259 0.721935 0.956527
0 0.840848 0.954177
0 0.838117 0.954482
0.30779 0.843992 0.951644
0.799054 0.873838 0.944915
0.938506 0.852018 0.947982
0 0.968414 0.938872
0 0.967041 0.938674
0.331563 0.951614 0.937865
0.774929 0.932662 0.937514
0.925231 0.924346 0.939605
