YOYO-Client/Yoyo/Assets.xcassets/Vienna.dataset/Vienna.cube
TITLE "Generated by Resolve"
LUT_3D_SIZE 9
0.0450752 0.0621347 0.0664378
0.122087 0.0509651 0.0669413
0.243503 0.0219883 0.0636301
0.424308 0 0.0484016
0.783642 0 0
0.963577 0 0
1 0 0
1 0 0
1 0 0
0.0245823 0.10193 0.0691997
0.100374 0.111467 0.065568
0.236835 0.112184 0.0497902
0.484001 0.138048 0.00575265
0.779995 0.142504 0
0.94995 0.100465 0
1 0.0243687 0
1 0 0
1 0 0
0.0016022 0.181003 0.0914015
0.0616922 0.186969 0.0877089
0.218235 0.229587 0.0594492
0.517113 0.31371 0
0.766201 0.330068 0
0.927642 0.305058 0
1 0.261814 0
1 0.209735 0
1 0.143771 0
0 0.277775 0.107973
0 0.280491 0.105089
0.147951 0.295155 0.0915541
0.363409 0.368872 0.0105287
0.701289 0.472618 0
0.894881 0.45156 0
0.999359 0.411399 0
1 0.361944 0
1 0.3075 0
0 0.336156 0.107958
0 0.35494 0.104082
0.0115969 0.357794 0.0942245
0.247715 0.397498 0.0581674
0.517082 0.508843 0
0.813001 0.580407 0
0.978164 0.544839 0
1 0.490074 0
1 0.435767 0
0 0.409125 0.0954147
0 0.433234 0.0868238
0 0.424765 0.0800183
0.139422 0.474113 0.0295567
0.380591 0.531777 0
0.672648 0.643488 0
0.914763 0.676432 0
1 0.624186 0
1 0.551278 0
0 0.562997 0.00732433
0 0.569116 0
0 0.56524 0
0 0.59675 0
0.305989 0.651743 0
0.560739 0.702495 0
0.835447 0.780499 0
0.996979 0.757961 0
1 0.684733 0
0 0.783444 0
0 0.781506 0
0 0.781415 0
0 0.788876 0
0.146487 0.813489 0
0.505043 0.833722 0
0.731899 0.849363 0
0.942809 0.87361 0
1 0.817761 0
0 0.946777 0.412085
0 0.947906 0.42504
0 0.947326 0.4177
0 0.947311 0.418906
0.339269 0.946273 0.429618
0.550607 0.944091 0.438788
0.714244 0.941192 0.438407
0.85774 0.935286 0.440635
0.97348 0.925383 0.370275
0.0272526 0.0733654 0.110353
0.0910048 0.0570535 0.114443
0.213489 0.0423133 0.100633
0.409857 0.0269474 0.0744945
0.707393 0.0509346 0
0.89308 0.0406806 0
1 0 0
1 0 0
1 0 0
0.00999466 0.114687 0.119921
0.0911421 0.115053 0.12166
0.217395 0.11249 0.105272
0.4448 0.133471 0.0703136
0.712779 0.166629 0
0.892836 0.17583 0
0.999252 0.127382 0
1 0.0219272 0
1 0 0
0.00675975 0.204211 0.154528
0.0667124 0.206882 0.145846
0.211658 0.22887 0.131212
0.472526 0.271916 0.0357519
0.713405 0.302373 0
0.884764 0.306737 0
0.998108 0.279454 0
1 0.228092 0
1 0.158358 0
0 0.304921 0.158221
0 0.30547 0.149386
0.138415 0.299367 0.137087
0.350912 0.359625 0.0918593
0.676341 0.445426 0
0.868009 0.43154 0
0.990295 0.41387 0
1 0.367803 0
1 0.31162 0
0 0.369268 0.138705
0 0.386236 0.136645
0 0.366964 0.12752
0.242695 0.403449 0.105547
0.510124 0.504097 0
0.803403 0.567605 0
0.972992 0.533639 0
1 0.492683 0
1 0.437369 0
0 0.448768 0.117021
0 0.477623 0.110262
0 0.456718 0.103944
0.116976 0.487938 0.0754406
0.380591 0.539818 0.00428778
0.67245 0.644129 0
0.915465 0.672984 0
1 0.622721 0
1 0.551888 0
0 0.593164 0.0385443
0 0.610574 0.022385
0 0.599512 0.0123293
0 0.611017 0
0.297169 0.660487 0
0.561074 0.708064 0
0.836927 0.782437 0
0.997513 0.756481 0
1 0.685176 0
0 0.798688 0.0179141
0 0.805051 0.0157168
0 0.801785 0.00920119
0 0.799573 0
0.0924392 0.819013 0.00239567
0.500725 0.837583 0.00225834
0.731426 0.851774 0
0.942443 0.874052 0
1 0.818326 0
0 0.947753 0.452262
0 0.949706 0.476326
0 0.948837 0.464851
0 0.948058 0.455924
0.351843 0.946532 0.458579
0.557549 0.944228 0.469444
0.71783 0.941222 0.47155
0.856413 0.935637 0.445121
0.972671 0.925444 0.37258
0 0.110826 0.206165
0 0.0953536 0.207309
0.1691 0.0706798 0.201312
0.386374 0.000167849 0.230167
0.671077 0 0.179858
0.866926 0 0.0779431
0.999039 0 0
1 0 0
1 0 0
0 0.157473 0.210727
0.00816358 0.151766 0.211566
0.187167 0.12636 0.224842
0.407599 0.0655222 0.226001
0.677363 0 0.150713
0.866072 0 0.0709697
0.997909 0.0107576 0
1 0.0762798 0
1 0 0
0 0.238483 0.246174
0.00222782 0.241581 0.250401
0.200427 0.238911 0.250278
0.429923 0.218418 0.20235
0.674495 0.216037 0.136934
0.861265 0.219959 0.0296483
0.995239 0.225513 0
1 0.227466 0
1 0.176226 0
0 0.321538 0.248798
0 0.338872 0.259098
0.115297 0.325856 0.231785
0.344656 0.361456 0.2103
0.659892 0.400031 0.0922866
0.848936 0.389212 0
0.987015 0.375418 0
1 0.355917 0
1 0.317617 0
0 0.409125 0.248234
0 0.439567 0.253254
0 0.406409 0.205386
0.222965 0.415183 0.191333
0.505272 0.503502 0.141207
0.802365 0.548486 0
0.972793 0.510262 0
1 0.477577 0
1 0.439185 0
0 0.495766 0.215076
0 0.523369 0.194736
0 0.499535 0.174533
0.0276646 0.493111 0.158679
0.367697 0.5467 0.135927
0.671214 0.645411 0.0110933
0.919295 0.66537 0
1 0.607126 0
1 0.551873 0
0 0.623575 0.14049
0 0.642191 0.136645
0 0.628809 0.12224
0 0.614023 0.0976425
0.256184 0.66247 0.0626841
0.552789 0.713039 0.00686656
0.836652 0.784192 0
0.999008 0.752087 0
1 0.682795 0
0 0.809903 0.120317
0 0.817121 0.12459
0 0.812619 0.094316
0 0.80798 0.0331121
0.00737011 0.819059 0.0232853
0.482033 0.839399 0.037583
0.726101 0.853727 0.057557
0.940032 0.874327 0.0205844
1 0.817777 0
0 0.946731 0.509361
0 0.94847 0.530648
0 0.947677 0.518791
0.121645 0.94699 0.50811
0.358419 0.945891 0.505516
0.5664 0.943679 0.523857
0.723522 0.940658 0.532921
0.855222 0.935546 0.496498
0.968566 0.925185 0.447608
0 0.194949 0.356817
0 0.183246 0.353643
0.0163424 0.113954 0.36318
0.33843 0.0481422 0.385519
0.591226 0 0.402045
0.826505 0 0.352346
1 0 0.218982
1 0 0.114443
1 0 0
0 0.243366 0.369604
0 0.242908 0.392752
0.00114443 0.171832 0.415518
0.346303 0.113268 0.395422
0.601877 0 0.397269
0.833768 0 0.332189
0.997848 0 0.195727
1 0 0.109606
1 0 0
0 0.335241 0.427298
0 0.336431 0.437308
0.00047303 0.309545 0.433036
0.349996 0.221836 0.403983
0.617609 0.110307 0.370718
0.841947 0 0.268147
0.995209 0 0.190646
1 0 0.0912337
1 0.0127718 0
0 0.378058 0.388281
0 0.393347 0.404776
0 0.383963 0.396994
0.332174 0.379736 0.396902
0.619989 0.334447 0.320302
0.828611 0.307637 0.247852
0.985168 0.291951 0.171023
1 0.273411 0.0384833
1 0.255207 0
0 0.424002 0.341497
0 0.456825 0.364416
0 0.464668 0.365545
0.192676 0.459724 0.336248
0.501289 0.510704 0.322255
0.804944 0.511818 0.222553
0.969619 0.475837 0.130922
1 0.43798 0
1 0.401068 0
0 0.528557 0.344732
0 0.563638 0.36228
0 0.567178 0.353689
0 0.541497 0.285756
0.338567 0.560128 0.2748
0.671672 0.652125 0.261769
0.926299 0.651591 0.0884108
1 0.578851 0
1 0.527764 0
0 0.663142 0.346242
0 0.68426 0.354284
0 0.676356 0.30135
0 0.659297 0.240681
0.131807 0.663493 0.219181
0.535317 0.721004 0.237644
0.833356 0.78677 0.232609
1 0.744381 0.00393683
1 0.663661 0
0 0.822873 0.36173
0 0.830854 0.350439
0 0.828275 0.283772
0 0.822263 0.249348
0 0.817197 0.206958
0.446754 0.841321 0.257359
0.71696 0.855589 0.304326
0.933516 0.87454 0.288319
1 0.813184 0
0 0.943526 0.601892
0.0865187 0.945586 0.612207
0.146899 0.945251 0.59855
0.265507 0.944854 0.587152
0.394369 0.944701 0.579538
0.58117 0.942885 0.599939
0.732784 0.939681 0.614984
0.85565 0.934661 0.593439
0.960983 0.924559 0.56257
0 0.330648 0.582101
0 0.325902 0.602121
0 0.259831 0.6392
0.195117 0.118532 0.623468
0.516274 0 0.569619
0.756451 0 0.556848
0.973846 0 0.509453
1 0 0.404959
1 0 0.294362
0 0.402914 0.643717
0 0.388525 0.652216
0 0.321675 0.651484
0.154803 0.172015 0.627375
0.520165 0.00596628 0.574044
0.764889 0 0.555764
0.97499 0 0.499336
1 0 0.392599
1 0 0.288304
0 0.45713 0.647456
0 0.456046 0.65832
0 0.415137 0.646891
0.0560922 0.274434 0.624826
0.520928 0.176516 0.576532
0.775937 0 0.545205
0.975998 0 0.473945
1 0 0.365408
1 0 0.271504
0 0.49839 0.605951
0 0.508659 0.623423
0 0.488029 0.612131
0.0985733 0.454932 0.60351
0.514092 0.346777 0.573907
0.782177 0.273304 0.521004
0.97142 0.190204 0.439612
1 0.114137 0.343984
1 0.0577096 0.224964
0 0.526116 0.538125
0 0.550469 0.563378
0 0.541146 0.555154
0.0505989 0.534752 0.55227
0.493629 0.536187 0.560983
0.770321 0.496254 0.49958
0.954482 0.450614 0.424506
1 0.390768 0.321263
1 0.329107 0.181415
0 0.563882 0.470985
0 0.593027 0.493004
0 0.592676 0.488136
0 0.602136 0.495399
0.340185 0.600702 0.47715
0.669139 0.666453 0.503517
0.925597 0.636942 0.421485
1 0.563012 0.309087
1 0.493843 0.128756
0 0.692119 0.47834
0 0.707561 0.487526
0 0.707622 0.481239
0 0.711513 0.482872
0.0278325 0.69691 0.409598
0.507958 0.728206 0.430777
0.821698 0.789624 0.484825
0.999573 0.737163 0.335912
1 0.635493 0.0462501
0 0.836057 0.500404
0 0.843153 0.511864
0 0.839689 0.515389
0 0.836973 0.500786
0.000717174 0.833219 0.417426
0.388235 0.840085 0.418692
0.706432 0.855726 0.490486
0.920012 0.87454 0.513542
1 0.809461 0.252155
0.277852 0.939605 0.698054
0.384253 0.939361 0.717418
0.437537 0.937545 0.719097
0.42179 0.940566 0.690105
0.491905 0.941817 0.681208
0.598764 0.941939 0.682506
0.745174 0.938338 0.701579
0.858747 0.932692 0.693172
0.95082 0.923751 0.682628
0 0.467765 0.795209
0 0.451301 0.79588
0 0.398795 0.792752
0 0.223316 0.780789
0.372351 0.099321 0.755062
0.689357 0 0.737179
0.920974 0 0.710735
1 0 0.629374
1 0 0.546944
0 0.492576 0.796597
0 0.478828 0.798611
0 0.430335 0.792233
0 0.280842 0.780804
0.361761 0.158999 0.757702
0.691997 0 0.739864
0.921355 0 0.707485
1 0 0.624277
1 0 0.544533
0 0.530968 0.78677
0 0.527382 0.792035
0 0.4925 0.784115
0 0.405722 0.774182
0.331914 0.266606 0.757717
0.692805 0.13051 0.741238
0.92163 0 0.699901
1 0 0.614664
1 0 0.54284
0 0.572747 0.762066
0 0.575799 0.771298
0 0.559014 0.76437
0 0.528862 0.758618
0.30782 0.421317 0.752346
0.689235 0.343526 0.739345
0.91519 0.284977 0.690471
1 0.232715 0.609735
1 0.262974 0.553246
0 0.617533 0.723049
0 0.628519 0.737713
0 0.61799 0.732418
0 0.608759 0.731075
0.395987 0.604822 0.73666
0.680735 0.537408 0.733318
0.896956 0.505074 0.686168
1 0.476585 0.623423
1 0.433249 0.551598
0 0.668589 0.680201
0 0.681315 0.693309
0 0.676493 0.689586
0 0.676356 0.692195
0.347951 0.680797 0.702296
0.673518 0.698054 0.727459
0.875227 0.669429 0.687953
0.999161 0.6159 0.618814
1 0.529015 0.503304
0 0.728603 0.62739
0 0.7393 0.63537
0 0.739239 0.631556
0 0.742306 0.631693
0.264927 0.749874 0.651118
0.542062 0.749279 0.650858
0.804898 0.795071 0.696712
0.975341 0.750576 0.627924
1 0.664012 0.503929
0 0.851011 0.628428
0 0.856321 0.635279
0 0.854765 0.634806
0 0.853559 0.640696
0.271229 0.849653 0.662638
0.439857 0.844388 0.620813
0.697612 0.852613 0.65214
0.901045 0.874693 0.701015
1 0.820798 0.576638
0 0.94931 0.718242
0 0.949126 0.727749
0.155688 0.946624 0.734936
0.45861 0.941085 0.764141
0.638941 0.935637 0.798718
0.665248 0.93904 0.778012
0.756008 0.937407 0.778286
0.861585 0.930724 0.781933
0.940459 0.922988 0.784833
0 0.524727 0.87718
0 0.512718 0.87599
0 0.479912 0.873411
0 0.406546 0.872328
0 0.259281 0.87422
0.532006 0.142596 0.870848
0.826642 0 0.860792
1 0 0.81239
1 0 0.732723
0 0.541756 0.875532
0 0.531868 0.876066
0 0.5019 0.873396
0 0.444175 0.872206
0 0.298253 0.874601
0.528008 0.20032 0.870222
0.825223 0 0.859602
0.999893 0 0.809934
1 0 0.731472
0 0.57644 0.870405
0 0.572335 0.872557
0 0.548409 0.869947
0 0.509194 0.86862
0 0.388449 0.872053
0.521614 0.31165 0.867567
0.82266 0.166552 0.857603
0.999771 0.0119936 0.805829
1 0.123568 0.731563
0 0.616724 0.860426
0 0.6177 0.864836
0 0.60853 0.862501
0 0.593347 0.861295
0.216297 0.554223 0.862119
0.529992 0.465126 0.861418
0.817456 0.380682 0.853284
0.995087 0.337499 0.801678
1 0.367361 0.737392
0 0.668009 0.845853
0 0.672801 0.852598
0 0.666712 0.85095
0 0.664256 0.850965
0.332464 0.669444 0.851438
0.564294 0.615488 0.853147
0.810391 0.557794 0.846937
0.97232 0.53669 0.801114
1 0.547753 0.754269
0 0.732906 0.831067
0 0.737179 0.836255
0 0.734142 0.835706
0 0.732998 0.836851
0.300267 0.737255 0.839506
0.638758 0.748974 0.843442
0.804471 0.706722 0.841047
0.941375 0.69366 0.809537
1 0.694453 0.784573
0 0.808438 0.814908
0 0.813931 0.820539
0 0.812161 0.820035
0 0.810651 0.821103
0.249622 0.808026 0.823194
0.613443 0.805081 0.826841
0.80322 0.812085 0.838987
0.923461 0.79585 0.817731
1 0.764019 0.779828
0 0.875471 0.77377
0 0.879759 0.779126
0 0.87808 0.778378
0 0.875364 0.779706
0.242679 0.869245 0.783108
0.578744 0.860548 0.796551
0.718883 0.850767 0.790585
0.88632 0.876844 0.827497
0.992325 0.849302 0.792401
0 0.956054 0.794125
0 0.955612 0.801038
0.0151827 0.953048 0.807446
0.392447 0.948775 0.819959
0.576745 0.943374 0.835554
0.717266 0.937224 0.853269
0.780606 0.936187 0.848737
0.864088 0.929259 0.850111
0.93225 0.922637 0.859739
0 0.569375 0.933288
0 0.567575 0.932982
0 0.554269 0.933303
0 0.540612 0.932967
0 0.462654 0.935439
0.321675 0.376226 0.93576
0.657496 0.280171 0.934554
0.909758 0.114153 0.931273
1 0.025864 0.896086
0 0.587335 0.932418
0 0.583001 0.933043
0 0.571283 0.932967
0 0.560967 0.931975
0 0.501656 0.933196
0.338109 0.411353 0.933913
0.658289 0.323079 0.932982
0.908339 0.198032 0.930114
1 0.167712 0.894286
0 0.617823 0.929808
0 0.615641 0.93106
0 0.607141 0.930526
0 0.602106 0.928878
0.142443 0.582055 0.927596
0.387503 0.491264 0.929946
0.665217 0.419455 0.929625
0.905241 0.3337 0.927321
1 0.323934 0.890349
0 0.652766 0.925978
0 0.655451 0.927657
0 0.656947 0.926223
0 0.657832 0.924163
0.344945 0.665888 0.92076
0.470603 0.597787 0.923583
0.683146 0.544335 0.923934
0.89987 0.482216 0.922423
1 0.475731 0.885573
0 0.698405 0.921141
0 0.700969 0.92311
0 0.699641 0.922118
0 0.707835 0.920027
0.368292 0.72369 0.916152
0.590097 0.714717 0.914702
0.711406 0.664454 0.91696
0.893217 0.620295 0.91603
1 0.618051 0.883482
0 0.758511 0.91577
0 0.761334 0.91754
0 0.761044 0.916823
0 0.763226 0.915465
0.313405 0.770748 0.912795
0.63563 0.78912 0.90898
0.747585 0.765057 0.910582
0.887037 0.737484 0.909865
0.987381 0.736645 0.886122
0 0.828367 0.910002
0 0.831083 0.911849
0 0.830304 0.911147
0 0.829877 0.909895
0.345144 0.830442 0.907576
0.620935 0.834211 0.905196
0.788556 0.843671 0.90576
0.884337 0.823651 0.906783
0.966812 0.822858 0.893004
0 0.905089 0.904326
0 0.906523 0.906325
0 0.904387 0.905653
0 0.900557 0.904524
0.369085 0.894453 0.90251
0.614694 0.887312 0.900328
0.773693 0.882551 0.900221
0.886229 0.887541 0.907805
0.956451 0.881331 0.89897
0 0.964218 0.88394
0 0.963241 0.886076
0 0.960128 0.887236
0.297581 0.954849 0.889494
0.529244 0.948165 0.892653
0.681819 0.941665 0.896483
0.794491 0.934646 0.903593
0.874784 0.927901 0.907103
0.926665 0.923079 0.91429
0 0.658686 0.969024
0 0.657649 0.968902
0 0.66154 0.967849
0.187472 0.687205 0.964233
0.50454 0.713573 0.960632
0.526864 0.657588 0.965454
0.645396 0.619425 0.967437
0.792477 0.553613 0.970169
0.959594 0.50103 0.970764
0 0.667399 0.96817
0 0.666728 0.968124
0 0.671153 0.966964
0.207309 0.695628 0.963424
0.533272 0.729152 0.958938
0.546609 0.673884 0.963882
0.65539 0.637064 0.965896
0.79498 0.573709 0.968612
0.957992 0.521767 0.969284
0 0.688045 0.966476
0 0.688106 0.966552
0 0.692882 0.965331
0.253498 0.715373 0.961883
0.559121 0.750286 0.957031
0.599954 0.71516 0.960128
0.680919 0.678325 0.962539
0.802884 0.622309 0.965179
0.954482 0.573526 0.966094
0 0.718196 0.964187
0 0.719051 0.964294
0 0.721798 0.963394
0.267872 0.741451 0.960128
0.565164 0.771237 0.955612
0.66981 0.770367 0.954894
0.716136 0.732433 0.958022
0.815518 0.68806 0.960418
0.949615 0.645197 0.961578
0 0.743511 0.962814
0 0.744503 0.963058
0 0.742535 0.963043
0.0964981 0.762539 0.959625
0.544366 0.792645 0.954635
0.7187 0.816861 0.950637
0.750957 0.785351 0.953643
0.830091 0.754116 0.955489
0.944259 0.721935 0.956527
0 0.785946 0.959533
0 0.785962 0.959762
0 0.78233 0.960006
0 0.781186 0.959716
0.404074 0.803342 0.955413
0.695201 0.836698 0.949538
0.793393 0.839231 0.948806
0.845884 0.814252 0.95111
0.939513 0.792462 0.95198
0 0.840848 0.954177
0 0.840436 0.954208
0 0.838117 0.954482
0 0.837888 0.953948
0.30779 0.843992 0.951644
0.608392 0.853986 0.948669
0.799054 0.873838 0.944915
0.863798 0.864195 0.946746
0.938506 0.852018 0.947982
0 0.906096 0.946746
0 0.905821 0.946777
0 0.905013 0.946853
0 0.902922 0.946273
0.272023 0.900603 0.944869
0.599863 0.899321 0.943175
0.767971 0.899657 0.941802
0.881163 0.905913 0.940795
0.934005 0.899123 0.942504
0 0.968414 0.938872
0 0.968673 0.938842
0 0.967041 0.938674
0 0.960815 0.938323
0.331563 0.951614 0.937865
0.616953 0.941451 0.937484
0.774929 0.932662 0.937514
0.879973 0.926192 0.938247
0.925231 0.924346 0.939605
