YOYO-Client/Yoyo/Assets.xcassets/Vienna.dataset/Vienna.cube
TITLE "Generated by Resolve"
LUT_3D_SIZE 33
0.0450752 0.0621347 0.0664378
0.0450752 0.0621347 0.0664378
0.0624704 0.0603952 0.0667124
0.0913405 0.0566415 0.0668498
0.122087 0.0509651 0.0669413
0.1523 0.042649 0.0666972
0.181918 0.0335546 0.0662242
0.211704 0.0279545 0.0651255
0.243503 0.0219883 0.0636301
0.278264 0.0142824 0.061738
0.316899 0.00560006 0.0590066
0.360159 0 0.0555428
0.424308 0 0.0484016
0.524071 0 0.0326238
0.623987 0 0.0112917
0.711101 0 0
0.783642 0 0
0.842817 0 0
0.891386 0 0
0.931304 0 0
0.963577 0 0
0.990539 0 0
1 0 0
1 0 0
1 0 0
1 0 0
1 0 0
1 0 0
1 0 0
1 0 0
1 0 0
1 0 0
1 0 0
0.0450752 0.0621347 0.0664378
0.0492866 0.0623636 0.0666667
0.0699931 0.0626078 0.0665751
0.0957351 0.0615549 0.0661173
0.122194 0.0596323 0.0658885
0.149279 0.056672 0.0652628
0.176547 0.0532845 0.0644388
0.204837 0.0496529 0.0633402
0.235096 0.0451972 0.0619059
0.267933 0.0399176 0.0599985
0.304997 0.0331579 0.0572824
0.346624 0.0247959 0.0535897
0.418967 0.0104829 0.0450904
0.509682 0 0.0293431
0.604349 0 0.00848402
0.68986 0 0
0.763622 0 0
0.825116 0 0
0.875715 0 0
0.917571 0 0
0.951705 0 0
0.980301 0 0
1 0 0
1 0 0
1 0 0
1 0 0
1 0 0
1 0 0
1 0 0
1 0 0
1 0 0
1 0 0
1 0 0
0.039826 0.0715801 0.0683299
0.0449531 0.0730297 0.0674449
0.0642863 0.0763561 0.0662852
0.0923018 0.0751812 0.0643168
0.117571 0.0738689 0.0640574
0.143374 0.0719005 0.063447
0.170001 0.0694438 0.062623
0.197726 0.0669566 0.0615244
0.227436 0.0639811 0.0601053
0.259785 0.0608988 0.0580606
0.296483 0.0572061 0.0552529
0.344244 0.053254 0.0504311
0.41883 0.0475776 0.040238
0.505165 0.0368048 0.0238499
0.595865 0.0212558 0.00396735
0.679118 0.00366217 0
0.75108 0 0
0.812024 0 0
0.862959 0 0
0.905501 0 0
0.941039 0 0
0.971252 0 0
0.995514 0 0
1 0 0
1 0 0
1 0 0
1 0 0
1 0 0
1 0 0
1 0 0
1 0 0
1 0 0
1 0 0
0.0328985 0.0833295 0.0689403
0.0409247 0.0846265 0.0684977
0.0552224 0.0853895 0.0681468
0.07953 0.0906996 0.0660716
0.111482 0.09131 0.0615549
0.138247 0.0880751 0.0609751
0.164202 0.0865187 0.0601358
0.191714 0.0849622 0.0589456
0.221332 0.083299 0.0573434
0.253758 0.0821546 0.0551003
0.291524 0.0813001 0.0517891
0.350301 0.08336 0.0445411
0.421424 0.08542 0.0324407
0.502052 0.0864881 0.0154421
0.587091 0.0853437 0.000183108
0.66601 0.0800336 0
0.735286 0.070634 0
0.79527 0.0581064 0
0.847074 0.042237 0
0.891676 0.0224155 0
0.929427 0.00456245 0
0.962234 0 0
0.990738 0 0
1 0 0
1 0 0
1 0 0
1 0 0
1 0 0
1 0 0
1 0 0
1 0 0
1 0 0
1 0 0
0.0245823 0.10193 0.0691997
0.0350958 0.101793 0.0691386
0.0503853 0.102556 0.0688029
0.069688 0.103456 0.0682536
0.100374 0.111467 0.065568
0.139162 0.116579 0.0577096
0.174075 0.114168 0.0535286
0.204868 0.1122 0.0521553
0.236835 0.112184 0.0497902
0.275288 0.113817 0.0457313
0.334066 0.120821 0.0365301
0.404257 0.129442 0.0225528
0.484001 0.138048 0.00575265
0.568139 0.14519 0.00138857
0.647349 0.147921 0
0.718196 0.146777 0
0.779995 0.142504 0
0.833265 0.13518 0
0.878874 0.12549 0
0.917586 0.113909 0
0.94995 0.100465 0
0.977691 0.0854658 0
0.997284 0.0677806 0
1 0.0478218 0
1 0.0243687 0
1 0.00106813 0
1 0 0
1 0 0
1 0 0
1 0 0
1 0 0
1 0 0
1 0 0
0.0203098 0.113634 0.0713664
0.0293889 0.116136 0.071046
0.0432898 0.117037 0.0701915
0.0624857 0.117723 0.0684825
0.0841535 0.118608 0.0677501
0.117449 0.128634 0.063798
0.158709 0.136584 0.054078
0.198108 0.137636 0.0457008
0.241108 0.13991 0.0408179
0.289326 0.146899 0.032929
0.345846 0.156268 0.0218967
0.410819 0.166552 0.00680552
0.485161 0.177539 1.5259e-05
0.564767 0.187442 0
0.640742 0.193713 0
0.710079 0.195895 0
0.771634 0.194446 0
0.825391 0.189899 0
0.871382 0.182986 0
0.910491 0.174289 0
0.943313 0.163989 0
0.971374 0.15259 0
0.994659 0.140215 0
1 0.126375 0
1 0.111254 0
1 0.0937819 0
1 0.0725109 0
1 0.0466316 0
1 0.0168765 0
1 0 0
1 0 0
1 0 0
1 0 0
0.0169375 0.126024 0.0757
0.0242466 0.128771 0.0757763
0.0360113 0.129107 0.0752117
0.0544442 0.129641 0.0735332
0.0747692 0.130297 0.0712902
0.0980545 0.13283 0.0688945
0.137819 0.149157 0.0617533
0.188495 0.166232 0.0467384
0.239338 0.175494 0.0299229
0.293278 0.182193 0.0168307
0.349752 0.189715 0.00575265
0.411765 0.201358 0.000198367
0.483177 0.214527 0
0.560189 0.227207 0
0.633982 0.235676 0
0.701137 0.239673 0
0.760861 0.239643 0
0.813138 0.236515 0
0.858549 0.230945 0
0.898009 0.223484 0
0.931868 0.214084 0
0.961227 0.204196 0
0.987533 0.193133 0
1 0.18175 0
1 0.169574 0
1 0.155901 0
1 0.141268 0
1 0.124132 0
1 0.104219 0
1 0.0803388 0
1 0.0497597 0
1 0.0178988 0
1 0 0
0.0128023 0.138491 0.080415
0.0189975 0.142489 0.0810864
0.0281529 0.14374 0.0806439
0.0461891 0.1458 0.0796826
0.0686198 0.148989 0.0782635
0.0935531 0.152865 0.076051
0.121309 0.158328 0.0728771
0.166384 0.177981 0.0627298
0.222934 0.199115 0.0390784
0.279957 0.213382 0.0121462
0.344381 0.226658 0
0.410819 0.236759 0
0.481514 0.25005 0
0.554818 0.263859 0
0.625299 0.27364 0
0.689799 0.278843 0
0.747265 0.279728 0
0.79852 0.277562 0
0.844053 0.272938 0
0.884627 0.266346 0
0.920226 0.25832 0
0.951751 0.249317 0
0.980285 0.239582 0
1 0.228977 0
1 0.217716 0
1 0.205478 0
1 0.192096 0
1 0.177768 0
1 0.161807 0
1 0.144488 0
1 0.125231 0
1 0.103929 0
1 0.0804456 0
0.0016022 0.181003 0.0914015
0.00306706 0.182361 0.090959
0.00807202 0.182406 0.0903944
0.0292363 0.183413 0.0893111
0.0616922 0.186969 0.0877089
0.0935988 0.191165 0.0852369
0.125948 0.196262 0.0818799
0.160861 0.202991 0.0769207
0.218235 0.229587 0.0594492
0.288579 0.258259 0.0172274
0.359182 0.278889 7.62951e-05
0.438422 0.29926 0
0.517113 0.31371 0
0.589929 0.321309 0
0.654108 0.327443 0
0.712764 0.330404 0
0.766201 0.330068 0
0.814282 0.326833 0
0.857084 0.321294 0
0.894896 0.313985 0
0.927642 0.305058 0
0.95642 0.295171 0
0.98233 0.284581 0
0.998398 0.273518 0
1 0.261814 0
1 0.249805 0
1 0.237263 0
1 0.223941 0
1 0.209735 0
1 0.194583 0
1 0.178332 0
1 0.161135 0
1 0.143771 0
0 0.198337 0.0963149
0 0.215488 0.0986496
0 0.22002 0.0986343
0.00328069 0.218219 0.0974289
0.042237 0.219257 0.0951095
0.0827497 0.221408 0.0924392
0.119112 0.22472 0.0888991
0.15433 0.228626 0.0841535
0.191989 0.23537 0.0775769
0.255177 0.265339 0.0521248
0.330785 0.296773 0.00541695
0.407065 0.320607 0
0.491997 0.34403 0
0.573159 0.360067 0
0.644236 0.365957 0
0.706813 0.368109 0
0.760784 0.368933 0
0.809461 0.366659 0
0.852537 0.36173 0
0.890349 0.354604 0
0.922896 0.345602 0
0.951522 0.335637 0
0.977615 0.324895 0
0.998764 0.313954 0
1 0.302724 0
1 0.291127 0
1 0.278996 0
1 0.2663 0
1 0.252827 0
1 0.238437 0
1 0.223392 0
1 0.208591 0
1 0.194125 0
0 0.21561 0.100267
0 0.235996 0.102846
0 0.24181 0.102678
0 0.239429 0.101381
0.0144808 0.237491 0.099382
0.0618143 0.239017 0.09691
0.102449 0.241947 0.0935378
0.139391 0.245548 0.0894789
0.175692 0.250019 0.0841993
0.214954 0.258335 0.0763104
0.283955 0.293141 0.043183
0.364431 0.32842 0.00158694
0.447822 0.357427 0
0.535821 0.382864 0
0.618997 0.399741 0
0.687617 0.404669 0
0.74699 0.403555 0
0.795956 0.400854 0
0.83856 0.396231 0
0.876509 0.389548 0
0.909819 0.381109 0
0.939757 0.371603 0
0.967544 0.361501 0
0.993133 0.351156 0
1 0.340322 0
1 0.329076 0
1 0.317159 0
1 0.304677 0
1 0.291249 0
1 0.277104 0
1 0.26273 0
1 0.248768 0
1 0.235813 0
0 0.230457 0.102953
0 0.252766 0.105287
0 0.259953 0.105394
0 0.258076 0.104219
0 0.253407 0.102434
0.0317845 0.254948 0.10016
0.0812085 0.258289 0.0974289
0.122438 0.262623 0.0936599
0.160983 0.268132 0.0887312
0.199222 0.274571 0.0824445
0.243641 0.287297 0.0717021
0.318807 0.326619 0.0278782
0.407095 0.36701 0
0.494881 0.398505 0
0.580499 0.421683 0
0.659175 0.435706 0
0.723461 0.438453 0
0.777752 0.434546 0
0.823911 0.428275 0
0.862669 0.422354 0
0.89749 0.414847 0
0.929595 0.406317 0
0.959533 0.397024 0
0.987594 0.387228 0
1 0.376577 0
1 0.365362 0
1 0.353307 0
1 0.340612 0
1 0.327092 0
1 0.3131 0
1 0.298985 0
1 0.285527 0
1 0.273487 0
0 0.277775 0.107973
0 0.285893 0.108263
0 0.287755 0.107805
0 0.285237 0.1066
0 0.280491 0.105089
0.00320439 0.280705 0.102953
0.0508125 0.284611 0.100023
0.103838 0.289387 0.0963455
0.147951 0.295155 0.0915541
0.18967 0.301747 0.0850996
0.231434 0.309255 0.0767224
0.280766 0.325154 0.0612497
0.363409 0.368872 0.0105287
0.457847 0.412436 0
0.545113 0.442023 0
0.62649 0.461479 0
0.701289 0.472618 0
0.764294 0.474601 0
0.815259 0.468956 0
0.859312 0.460227 0
0.894881 0.45156 0
0.926558 0.442741 0
0.955535 0.433021 0
0.982589 0.422507 0
0.999359 0.411399 0
1 0.399741 0
1 0.387655 0
1 0.375143 0
1 0.361944 0
1 0.34818 0
1 0.334447 0
1 0.320684 0
1 0.3075 0
0 0.280842 0.108476
0 0.314214 0.109209
0 0.325841 0.108629
0 0.322927 0.107469
0 0.313588 0.106142
0 0.306691 0.104189
0.00810254 0.308003 0.101396
0.0749371 0.310597 0.0978256
0.127291 0.314611 0.0933089
0.171603 0.31986 0.0875257
0.214237 0.32668 0.0796521
0.257115 0.33463 0.069337
0.311299 0.354711 0.0461738
0.400046 0.40264 0.00421149
0.497795 0.447898 0
0.584863 0.476768 0
0.664454 0.494911 0
0.736706 0.504753 0
0.798062 0.506065 0
0.846189 0.499275 0
0.886961 0.488563 0
0.92163 0.476982 0
0.950668 0.46714 0
0.978073 0.456748 0
0.999329 0.445914 0
1 0.434653 0
1 0.422766 0
1 0.410468 0
1 0.397345 0
1 0.383566 0
1 0.369345 0
1 0.355657 0
1 0.34287 0
0 0.296117 0.108934
0 0.329839 0.108934
0 0.341756 0.107912
0 0.338949 0.107118
0 0.329519 0.105974
0 0.320073 0.104616
0 0.319692 0.102129
0.0329595 0.322499 0.0988785
0.0986801 0.326833 0.0946822
0.148318 0.332586 0.0891127
0.193286 0.340246 0.0818952
0.237583 0.349447 0.0721599
0.283116 0.360189 0.0585031
0.343526 0.385901 0.0242313
0.438941 0.438407 0
0.537285 0.482887 0
0.620661 0.508415 0
0.694728 0.522988 0
0.760678 0.529427 0
0.818006 0.529015 0
0.863615 0.521721 0
0.902815 0.510765 0
0.937789 0.498024 0
0.967727 0.487388 0
0.993851 0.477195 0
1 0.466484 0
1 0.454826 0
1 0.442481 0
1 0.429175 0
1 0.415076 0
1 0.400931 0
1 0.387488 0
1 0.374777 0
0 0.310216 0.108782
0 0.343221 0.108064
0 0.355291 0.106798
0 0.352987 0.105943
0 0.344442 0.105089
0 0.336202 0.104005
0 0.332555 0.102251
0.000350958 0.336721 0.0989395
0.0604105 0.342641 0.0947738
0.122637 0.349996 0.0892653
0.172839 0.358801 0.0819104
0.219867 0.368841 0.0722667
0.26714 0.380102 0.0586404
0.315267 0.392294 0.0385595
0.380926 0.421897 0.00549325
0.478355 0.47422 0
0.573327 0.514534 0
0.651118 0.535805 0
0.719783 0.547051 0
0.78146 0.551614 0
0.836713 0.550744 0
0.883467 0.544686 0
0.922255 0.534478 0
0.957961 0.521141 0
0.988327 0.50837 0
1 0.497704 0
1 0.486015 0
1 0.473289 0
1 0.459602 0
1 0.445396 0
1 0.431739 0
1 0.418448 0
1 0.405783 0
0 0.336156 0.107958
0 0.353063 0.106859
0 0.359701 0.105791
0 0.359014 0.105058
0 0.35494 0.104082
0 0.350362 0.102998
0 0.345953 0.101381
0 0.35053 0.0984512
0.0115969 0.357794 0.0942245
0.0888533 0.366094 0.0887617
0.147875 0.375616 0.0814221
0.198795 0.386007 0.071519
0.247715 0.397498 0.0581674
0.296788 0.41004 0.0381323
0.347097 0.423346 0.01149
0.417853 0.456641 0
0.517082 0.508843 0
0.611505 0.547875 0
0.687266 0.567452 0
0.753735 0.577234 0
0.813001 0.580407 0
0.865446 0.578347 0
0.909804 0.571206 0
0.945937 0.559869 0
0.978164 0.544839 0
0.999329 0.52845 0
1 0.515618 0
1 0.503059 0
1 0.490074 0
1 0.476463 0
1 0.462593 0
1 0.448966 0
1 0.435767 0
0 0.34493 0.106966
0 0.375341 0.104311
0 0.387442 0.102449
0 0.386191 0.101656
0 0.37908 0.101183
0 0.372015 0.100511
0 0.365469 0.0995956
0 0.363973 0.0972915
0 0.369757 0.093492
0.0402991 0.377142 0.0883192
0.115221 0.386404 0.0813306
0.172045 0.397314 0.07187
0.223636 0.409918 0.05832
0.274647 0.424063 0.0383612
0.326925 0.439582 0.0108492
0.381949 0.456779 0
0.459541 0.495109 0
0.562005 0.548074 0
0.656016 0.585473 0
0.72929 0.602609 0
0.792233 0.609781 0
0.847303 0.610407 0
0.895079 0.605768 0
0.936568 0.597269 0
0.97081 0.585199 0
0.997711 0.569467 0
1 0.550622 0
1 0.53608 0
1 0.522652 0
1 0.508431 0
1 0.494209 0
1 0.480415 0
1 0.467216 0
0 0.365332 0.104814
0 0.396078 0.100725
0 0.407797 0.0983902
0 0.405386 0.0978408
0 0.397147 0.0979477
0 0.389349 0.097673
0 0.382498 0.0968643
0 0.376883 0.095491
0 0.381872 0.0917983
0 0.389593 0.0865949
0.0717479 0.399573 0.0795453
0.142138 0.411551 0.0695354
0.198932 0.425483 0.0554055
0.25275 0.440681 0.0343633
0.306264 0.456443 0.00755322
0.360449 0.472389 0
0.416922 0.489784 0
0.495399 0.527687 0
0.594507 0.576257 0
0.683558 0.609506 0
0.751751 0.623346 0
0.811704 0.629145 0
0.864546 0.629129 0
0.911131 0.624567 0
0.952102 0.61651 0
0.986526 0.605127 0
1 0.588724 0
1 0.568963 0
1 0.550835 0
1 0.536873 0
1 0.522744 0
1 0.508721 0
1 0.495308 0
0 0.384527 0.101381
0 0.414725 0.0962234
0 0.425757 0.0932326
0 0.422904 0.0928817
0 0.414771 0.0932174
0 0.407599 0.0931716
0 0.401892 0.0924239
0 0.396735 0.0913863
0 0.399374 0.0879683
0 0.408896 0.0818952
0.0155795 0.420157 0.0739452
0.104311 0.433036 0.0623636
0.172885 0.447181 0.0463417
0.23122 0.461936 0.0239414
0.286519 0.476616 0.00248722
0.340475 0.490929 0
0.394278 0.504829 0
0.450813 0.520928 0
0.529473 0.557977 0
0.625834 0.60322 0
0.711772 0.63389 0
0.777447 0.64622 0
0.835737 0.651499 0
0.887114 0.651087 0
0.931823 0.645991 0
0.970535 0.63714 0
0.998428 0.62472 0
1 0.606638 0
1 0.585992 0
1 0.56585 0
1 0.550484 0
1 0.5364 0
1 0.522881 0
0 0.409125 0.0954147
0 0.429038 0.0907149
0 0.437003 0.0879835
0 0.436728 0.0872206
0 0.433234 0.0868238
0 0.430289 0.0858778
0 0.427649 0.0845808
0 0.425086 0.0829175
0 0.424765 0.0800183
0 0.435111 0.0726635
0 0.447227 0.0624857
0.0441291 0.460273 0.0483406
0.139422 0.474113 0.0295567
0.207584 0.488426 0.0112001
0.267506 0.502861 0.000335698
0.324544 0.517372 0
0.380591 0.531777 0
0.436652 0.546181 0
0.496162 0.563363 0
0.577752 0.601282 0
0.672648 0.643488 0
0.755291 0.670527 0
0.815732 0.678599 0
0.868833 0.680217 0
0.914763 0.676432 0
0.954559 0.668544 0
0.988403 0.657496 0
1 0.643549 0
1 0.624186 0
1 0.603098 0
1 0.581048 0
1 0.564996 0
1 0.551278 0
0 0.443702 0.0844892
0 0.466194 0.0767529
0 0.474815 0.0728313
0 0.473671 0.0721141
0 0.469017 0.0724193
0 0.465126 0.0718547
0 0.461921 0.0706798
0 0.458885 0.0689555
0 0.455619 0.0668803
0 0.462303 0.0594186
0 0.474998 0.0462959
0 0.489204 0.0280308
0.0864729 0.504753 0.00695811
0.179309 0.521385 0
0.249638 0.538643 0
0.314336 0.556573 0
0.377005 0.574594 0
0.439094 0.592081 0
0.500114 0.608164 0
0.563897 0.626215 0
0.646891 0.662226 0
0.737301 0.69778 0
0.812009 0.717174 0
0.863142 0.717693 0
0.908064 0.713237 0
0.948074 0.705333 0
0.982849 0.694438 0
1 0.681224 0
1 0.664393 0
1 0.643839 0
1 0.621866 0
1 0.599344 0
1 0.581231 0
0 0.476722 0.0693065
0 0.498604 0.0586099
0 0.506157 0.0540322
0 0.503197 0.0541238
0 0.496513 0.0555734
0 0.491157 0.0558328
0 0.487144 0.0549477
0 0.483742 0.0531624
0 0.480751 0.0509041
0 0.482078 0.044892
0 0.494621 0.0295415
0 0.509407 0.010605
0.0193332 0.525643 0
0.132998 0.542535 0
0.21738 0.559518 0
0.286992 0.576288 0
0.351278 0.592584 0
0.413108 0.608164 0
0.47335 0.622705 0
0.532753 0.636271 0
0.595178 0.652705 0
0.676478 0.687099 0
0.763363 0.719631 0
0.835325 0.737362 0
0.884062 0.736751 0
0.926894 0.731533 0
0.964965 0.723049 0
0.996414 0.711604 0
1 0.697505 0
1 0.678691 0
1 0.657526 0
1 0.635538 0
1 0.613809 0
0 0.513451 0.0445869
0 0.527947 0.0341955
0 0.533227 0.0294957
0 0.529427 0.0300908
0 0.523018 0.0321355
0 0.518257 0.0322881
0 0.515816 0.0302739
0 0.514092 0.0270848
0 0.513115 0.0226291
0 0.512551 0.0171817
0 0.523415 0.00508125
0 0.538201 0
0 0.553704 0
0.0597848 0.569406 0
0.178317 0.584695 0
0.257359 0.599435 0
0.325231 0.613504 0
0.388296 0.627207 0
0.44892 0.640497 0
0.509056 0.654215 0
0.569146 0.668086 0
0.634318 0.686534 0
0.714443 0.719524 0
0.798398 0.749111 0
0.866392 0.763912 0
0.910628 0.760235 0
0.948943 0.752239 0
0.983307 0.741665 0
1 0.72813 0
1 0.711269 0
1 0.691234 0
1 0.670268 0
1 0.64918 0
0 0.562997 0.00732433
0 0.572015 0.000122072
0 0.574411 0
0 0.572412 0
0 0.569116 0
0 0.566888 0
0 0.565667 0
0 0.565148 0
0 0.56524 0
0 0.565255 0
0 0.569711 0
0 0.582925 0
0 0.59675 0
0 0.610742 0
0.124605 0.624628 0
0.229023 0.638315 0
0.305989 0.651743 0
0.374395 0.664942 0
0.438437 0.677714 0
0.500191 0.690272 0
0.560739 0.702495 0
0.620462 0.714229 0
0.684947 0.730877 0
0.759045 0.757778 0
0.835447 0.780499 0
0.896513 0.789914 0
0.934371 0.781704 0
0.967758 0.770535 0
0.996979 0.757961 0
1 0.743587 0
1 0.725246 0
1 0.705501 0
1 0.684733 0
0 0.635431 0
0 0.64744 0
0 0.651499 0
0 0.647105 0
0 0.640848 0
0 0.636332 0
0 0.633936 0
0 0.632319 0
0 0.631479 0
0 0.631647 0
0 0.63328 0
0 0.645319 0
0 0.659831 0
0 0.674754 0
0.0486305 0.689723 0
0.201221 0.704524 0
0.297597 0.718746 0
0.376226 0.731777 0
0.446311 0.743053 0
0.511193 0.752682 0
0.57229 0.760876 0
0.630549 0.767941 0
0.686702 0.773999 0
0.746548 0.784802 0
0.811292 0.802792 0
0.879362 0.817945 0
0.933516 0.821958 0
0.966049 0.809659 0
0.993942 0.795163 0
1 0.780179 0
1 0.762341 0
1 0.742718 0
1 0.722759 0
0 0.68307 0
0 0.690684 0
0 0.69192 0
0 0.688212 0
0 0.683391 0
0 0.679835 0
0 0.677836 0
0 0.676768 0
0 0.676478 0
0 0.676707 0
0 0.677317 0
0 0.683635 0
0 0.696254 0
0 0.70901 0
0 0.721355 0
0.128313 0.733211 0
0.256443 0.744396 0
0.34313 0.754696 0
0.416663 0.764004 0
0.483482 0.772366 0
0.545785 0.779919 0
0.605127 0.786801 0
0.66215 0.793133 0
0.717647 0.799008 0
0.776852 0.809812 0
0.838163 0.825513 0
0.902571 0.838117 0
0.954009 0.840558 0
0.983246 0.826185 0
1 0.809613 0
1 0.792844 0
1 0.774075 0
1 0.754864 0
0 0.729229 0
0 0.734737 0
0 0.734859 0
0 0.731044 0
0 0.726772 0
0 0.72401 0
0 0.723232 0
0 0.723781 0
0 0.725155 0
