YOYO-Client/Yoyo/Assets.xcassets/Xihu.dataset/Xihu.cube
TITLE "Generated by Resolve"
LUT_3D_SIZE 9
0.105348 0.139773 0.147555
0.17203 0.127428 0.140826
0.377768 0.088304 0.139788
0.561761 0.00428778 0.145357
0.708186 0 0.166232
0.821515 0 0.201801
0.912978 0.0759442 0.24744
0.988403 0.154528 0.305959
1 0.243259 0.376776
0.10985 0.157626 0.140627
0.195102 0.176867 0.135439
0.363607 0.186755 0.130495
0.540322 0.174121 0.136416
0.688853 0.158419 0.15938
0.806729 0.15375 0.197223
0.902953 0.167575 0.244465
0.982208 0.204318 0.303929
1 0.269139 0.375937
0.167926 0.260334 0.165286
0.240772 0.265156 0.16405
0.36054 0.28159 0.141497
0.501778 0.293187 0.126879
0.650752 0.290929 0.144945
0.77525 0.280507 0.186831
0.8804 0.275914 0.237522
0.967941 0.285527 0.30013
1 0.321889 0.374853
0.251026 0.378607 0.226673
0.304707 0.381155 0.225986
0.404578 0.386252 0.220325
0.502373 0.383154 0.179583
0.610132 0.381628 0.158434
0.732219 0.38027 0.170626
0.84773 0.374014 0.226368
0.945937 0.373297 0.293584
1 0.389456 0.372839
0.332723 0.48246 0.296941
0.369726 0.483696 0.296788
0.447868 0.486732 0.296132
0.536812 0.48098 0.276234
0.61149 0.464271 0.229267
0.692103 0.453254 0.198642
0.809567 0.455604 0.212024
0.918944 0.454643 0.284092
0.996033 0.460395 0.369574
0.407111 0.569207 0.365515
0.433005 0.569863 0.365515
0.490806 0.571511 0.36556
0.573922 0.572427 0.367422
0.642573 0.555474 0.329442
0.705486 0.534325 0.279194
0.775097 0.520943 0.236912
0.890166 0.526314 0.271015
0.977279 0.528695 0.364981
0.482811 0.653376 0.432929
0.501778 0.65391 0.433036
0.546212 0.655238 0.433219
0.615763 0.657496 0.433494
0.693416 0.653208 0.42945
0.74786 0.628336 0.379171
0.804044 0.604974 0.327276
0.866316 0.589715 0.278645
0.95877 0.592615 0.358923
0.563073 0.740597 0.499214
0.577798 0.740887 0.499229
0.613153 0.741588 0.49955
0.670253 0.742626 0.499916
0.743664 0.742931 0.500664
0.802243 0.725719 0.48072
0.850156 0.698024 0.429145
0.898909 0.672053 0.378317
0.944121 0.652781 0.358831
0.646174 0.822629 0.572473
0.657374 0.822507 0.572671
0.684672 0.822156 0.573098
0.729686 0.821485 0.573754
0.792187 0.820172 0.574655
0.854582 0.808026 0.579873
0.897124 0.776699 0.52903
0.935866 0.746075 0.497932
0.950988 0.742214 0.513054
0.082887 0.140734 0.176562
0.128801 0.143404 0.184466
0.338064 0.135698 0.199832
0.51722 0.140932 0.183642
0.665949 0.169909 0.182712
0.786542 0.186557 0.1897
0.89041 0.190341 0.238483
0.975998 0.213184 0.299306
1 0.267826 0.372976
0.0955367 0.178836 0.196658
0.157565 0.196506 0.204639
0.331319 0.199847 0.198199
0.505501 0.209766 0.192721
0.655909 0.222721 0.188754
0.776211 0.234195 0.189044
0.882246 0.233555 0.236164
0.970733 0.246723 0.298268
1 0.289921 0.37261
0.153719 0.284794 0.258457
0.210788 0.289403 0.237568
0.338155 0.293462 0.215396
0.487098 0.299779 0.202502
0.633524 0.305791 0.202075
0.754894 0.308766 0.203204
0.863294 0.308003 0.229953
0.957992 0.310536 0.294835
1 0.336431 0.371801
0.223255 0.392966 0.288487
0.280156 0.394049 0.283345
0.38703 0.398688 0.282597
0.488655 0.391333 0.238666
0.601694 0.388098 0.218112
0.723156 0.388342 0.224063
0.835233 0.388571 0.229786
0.937758 0.387015 0.288762
1 0.398672 0.369848
0.314031 0.489174 0.337484
0.352239 0.490349 0.337224
0.43183 0.493263 0.336828
0.526024 0.489128 0.321447
0.602243 0.470222 0.272114
0.686152 0.458412 0.242481
0.803754 0.461402 0.252613
0.912337 0.462303 0.279789
0.993149 0.466194 0.367163
0.394858 0.572641 0.394202
0.420722 0.573297 0.394171
0.478828 0.575006 0.394354
0.562783 0.576608 0.395102
0.634943 0.561059 0.361624
0.698528 0.538598 0.310369
0.770459 0.524605 0.268696
0.885634 0.530632 0.284627
0.975052 0.532341 0.36286
0.473182 0.655207 0.452705
0.492256 0.655756 0.45272
0.536858 0.657115 0.452934
0.606378 0.659449 0.453254
0.687343 0.65742 0.452354
0.74229 0.632197 0.401785
0.798917 0.60795 0.349248
0.862333 0.591974 0.299474
0.957107 0.595041 0.357366
0.554314 0.741436 0.512154
0.569268 0.741695 0.512261
0.604944 0.742412 0.512459
0.662287 0.743572 0.51281
0.737301 0.744945 0.513283
0.797955 0.728679 0.49633
0.846235 0.700587 0.444144
0.895613 0.674128 0.392676
0.943755 0.654948 0.361395
0.63859 0.823041 0.580362
0.650019 0.822919 0.580636
0.677531 0.822599 0.580987
0.722972 0.821958 0.581613
0.785946 0.820691 0.582498
0.850935 0.809979 0.587991
0.894469 0.778744 0.538293
0.935088 0.74757 0.49984
0.950332 0.743587 0.515007
0 0.188571 0.309712
0.0111696 0.196597 0.30634
0.226719 0.213046 0.315114
0.456489 0.232456 0.336248
0.642618 0.226993 0.333242
0.764736 0.240223 0.316594
0.86334 0.26952 0.317418
0.954849 0.283467 0.311833
1 0.306783 0.366323
0.00234989 0.241306 0.320577
0.119905 0.251255 0.320531
0.247044 0.262013 0.326696
0.459709 0.278233 0.349279
0.633295 0.261555 0.327489
0.752758 0.281697 0.324132
0.856916 0.296208 0.320455
0.950408 0.305715 0.315358
1 0.324361 0.366323
0.154864 0.316838 0.348333
0.205005 0.323644 0.348562
0.287419 0.338842 0.349065
0.46041 0.333654 0.335943
0.610559 0.337484 0.330983
0.733577 0.342824 0.328237
0.842313 0.34818 0.325536
0.939681 0.352377 0.322454
1 0.36289 0.36556
0.272236 0.425498 0.421225
0.281987 0.426551 0.41323
0.3364 0.425132 0.376562
0.457847 0.415839 0.343664
0.583764 0.409934 0.326665
0.705699 0.411154 0.329946
0.819486 0.413077 0.33193
0.92253 0.414221 0.332723
1 0.417121 0.36408
0.311772 0.514931 0.448585
0.323018 0.51191 0.430365
0.392981 0.508125 0.411231
0.500511 0.509697 0.408255
0.580468 0.486549 0.355489
0.672602 0.47393 0.328817
0.791119 0.477577 0.336263
0.90071 0.479408 0.342245
0.986801 0.478431 0.361746
0.376165 0.586892 0.467018
0.393561 0.583032 0.454673
0.450446 0.583291 0.450919
0.536416 0.586358 0.451118
0.616999 0.575219 0.428138
0.682124 0.549905 0.374395
0.760449 0.535088 0.335409
0.876844 0.54139 0.34789
0.969909 0.540719 0.362051
0.450004 0.660334 0.495735
0.468299 0.660166 0.494011
0.513512 0.661631 0.494148
0.583597 0.664118 0.494575
0.669566 0.665492 0.496788
0.728969 0.641764 0.450874
0.786709 0.615457 0.39646
0.854353 0.598337 0.347433
0.952773 0.60116 0.367453
0.53138 0.743465 0.540307
0.546746 0.743801 0.540413
0.583413 0.744579 0.540581
0.642023 0.745861 0.540917
0.71841 0.747402 0.541192
0.787625 0.73611 0.531395
0.836774 0.706905 0.478019
0.887663 0.679225 0.424628
0.940734 0.659815 0.378836
0.61854 0.824094 0.598718
0.630335 0.823987 0.598764
0.658915 0.823728 0.599176
0.705562 0.823178 0.599802
0.76994 0.822049 0.600519
0.841077 0.814481 0.60412
0.887739 0.783978 0.560647
0.932418 0.751461 0.508537
0.948653 0.746899 0.519615
0 0.272923 0.458152
0 0.281544 0.455024
0.155352 0.302464 0.445579
0.335332 0.310567 0.44535
0.547112 0.334386 0.455512
0.713375 0.376898 0.490837
0.839811 0.353811 0.460609
0.932662 0.362814 0.447913
1 0.37322 0.438682
0 0.321324 0.462486
0 0.32755 0.459144
0.206195 0.339834 0.451392
0.347005 0.341665 0.45005
0.548898 0.362783 0.463416
0.710536 0.397253 0.494285
0.834134 0.367864 0.457115
0.927657 0.380041 0.449805
1 0.385138 0.439094
0.0963455 0.384848 0.474571
0.17499 0.389899 0.471931
0.270848 0.398093 0.465583
0.371969 0.398154 0.461494
0.556451 0.417868 0.481239
0.704631 0.409201 0.470039
0.816953 0.411063 0.459266
0.917189 0.414603 0.451423
0.996735 0.413321 0.439902
0.259144 0.458793 0.49691
0.288975 0.460746 0.494713
0.343633 0.464393 0.489311
0.409766 0.46775 0.478676
0.555337 0.459495 0.465064
0.679225 0.458717 0.459312
0.796536 0.459419 0.454582
0.903014 0.459113 0.448997
0.986648 0.456199 0.441688
0.394293 0.550698 0.555459
0.407843 0.550896 0.554406
0.413962 0.546075 0.540764
0.448386 0.535073 0.497642
0.546227 0.51754 0.461402
0.652186 0.506279 0.441703
0.772747 0.50869 0.443198
0.884718 0.509743 0.443427
0.973526 0.506752 0.441993
0.436835 0.619837 0.589029
0.437903 0.616617 0.580346
0.434394 0.608423 0.548943
0.492287 0.599725 0.520745
0.589624 0.59968 0.515648
0.656443 0.570321 0.459129
0.745815 0.555657 0.425772
0.863981 0.560967 0.432868
0.958877 0.559884 0.439017
0.459205 0.688182 0.596277
0.462898 0.68484 0.58616
0.481941 0.675502 0.56173
0.544488 0.671656 0.548104
0.635554 0.675303 0.548455
0.707973 0.658335 0.519112
0.767285 0.628412 0.461738
0.842969 0.610147 0.41532
0.944198 0.613046 0.430655
0.516701 0.759503 0.613703
0.522942 0.756466 0.604288
0.543664 0.748837 0.581918
0.604944 0.749554 0.580407
0.685069 0.751385 0.580804
0.769787 0.748501 0.582269
0.82118 0.717708 0.527764
0.874632 0.687602 0.471199
0.93257 0.666941 0.421393
0.593256 0.829129 0.644266
0.598291 0.827405 0.634806
0.623041 0.825681 0.626474
0.672999 0.825254 0.62707
0.740703 0.824369 0.627756
0.822385 0.821988 0.628748
0.875853 0.793271 0.597025
0.923949 0.759106 0.54023
0.945846 0.75256 0.527428
0 0.365286 0.580285
0 0.371359 0.578729
0.0457008 0.388296 0.571191
0.299153 0.411048 0.556588
0.431113 0.401541 0.550835
0.613153 0.422827 0.550713
0.769299 0.465644 0.583688
0.886213 0.507607 0.612284
0.970748 0.481483 0.576974
0 0.39939 0.582406
0 0.404364 0.580041
0.159884 0.416876 0.572351
0.318944 0.429999 0.558251
0.437995 0.42092 0.552483
0.613458 0.440909 0.554345
0.768246 0.48127 0.588556
0.885725 0.507805 0.605554
0.970169 0.484779 0.573587
0.0402686 0.452628 0.586328
0.150042 0.457008 0.583627
0.258946 0.464103 0.577111
0.357076 0.469322 0.564569
0.453544 0.460182 0.557046
0.617166 0.479164 0.564797
0.767742 0.514549 0.599649
0.885847 0.50605 0.587396
0.967178 0.497978 0.56846
0.252522 0.512444 0.595605
0.285176 0.514794 0.593256
0.344656 0.51899 0.587304
0.408515 0.520958 0.576318
0.477562 0.512215 0.56585
0.628946 0.530922 0.583291
0.770352 0.529503 0.583871
0.880476 0.520897 0.56907
0.965713 0.513451 0.553918
0.375296 0.573541 0.611215
0.391135 0.573999 0.609186
0.423941 0.574411 0.603983
0.464683 0.572763 0.594156
0.507591 0.566415 0.576837
0.631357 0.557671 0.564172
0.755459 0.554406 0.557061
0.868818 0.551461 0.55024
0.95761 0.545617 0.541115
0.482521 0.647822 0.654841
0.492821 0.64921 0.655467
0.516426 0.651026 0.65568
0.521782 0.641978 0.63917
0.539528 0.622003 0.589059
0.625254 0.600504 0.550729
0.731151 0.587884 0.526909
0.851011 0.589426 0.527443
0.946166 0.585931 0.526131
0.55375 0.725597 0.707866
0.552102 0.723278 0.702998
0.546624 0.716289 0.687922
0.532189 0.700572 0.646571
0.581109 0.685588 0.604822
0.681254 0.683055 0.597299
0.742306 0.647013 0.535058
0.831128 0.628901 0.496361
0.933959 0.629831 0.505135
0.583352 0.786557 0.727993
0.581231 0.784039 0.720928
0.569238 0.777691 0.69691
0.567941 0.765194 0.65362
0.632288 0.756725 0.627085
0.731655 0.758923 0.627726
0.799405 0.733974 0.589395
0.856504 0.699382 0.527382
0.922789 0.677516 0.478157
0.626245 0.841154 0.741726
0.623606 0.840116 0.734249
0.620264 0.837156 0.713863
0.628153 0.83032 0.673686
0.693477 0.827619 0.662669
0.782971 0.826352 0.663798
0.857023 0.807965 0.649836
0.910567 0.771054 0.585107
0.936934 0.763302 0.560983
0 0.450202 0.675608
0 0.454002 0.674662
0 0.464729 0.67126
0.278843 0.485267 0.659434
0.419364 0.508095 0.644007
0.513497 0.482567 0.634638
0.675563 0.499153 0.635172
0.823011 0.543984 0.664332
0.912444 0.604791 0.700755
0 0.473198 0.676905
0 0.475761 0.67602
0.117479 0.486732 0.671092
0.308171 0.502098 0.660044
0.428397 0.518517 0.644617
0.5178 0.49482 0.635309
0.676341 0.510887 0.636713
0.82298 0.554253 0.667491
0.91107 0.613275 0.703975
0.00271611 0.513481 0.679881
0.123278 0.517418 0.677852
0.250111 0.525658 0.672663
0.358083 0.534661 0.662623
0.447288 0.540398 0.646693
0.527962 0.52134 0.637324
0.679713 0.536507 0.640787
0.823789 0.577737 0.675135
0.908125 0.632944 0.711696
0.254688 0.564828 0.684321
0.287602 0.56759 0.682445
0.348592 0.572839 0.677653
0.415091 0.576638 0.668681
0.475959 0.573785 0.653025
0.54406 0.558175 0.641749
0.689921 0.574289 0.651209
0.827756 0.612894 0.687724
0.91487 0.629908 0.695918
0.37435 0.618235 0.693385
0.390753 0.619272 0.691814
0.425208 0.621134 0.687724
0.470008 0.621729 0.679622
0.51397 0.616876 0.665263
0.565591 0.600534 0.649271
0.711925 0.620829 0.669688
0.840085 0.629374 0.678889
0.928252 0.614389 0.659327
0.469947 0.670359 0.707439
0.479454 0.670588 0.706172
0.500557 0.670649 0.702693
0.529854 0.669337 0.695842
0.561563 0.663935 0.683177
0.593759 0.648936 0.657847
0.719768 0.638804 0.644526
0.837919 0.633387 0.636286
0.929076 0.625742 0.626429
0.567422 0.7364 0.744747
0.574517 0.737697 0.745296
0.591333 0.740703 0.746563
0.618723 0.744198 0.747677
0.624643 0.734218 0.731044
0.625635 0.704189 0.667918
0.710719 0.675441 0.621164
0.817426 0.658671 0.593378
0.919829 0.655756 0.594614
0.679744 0.812009 0.804898
0.678355 0.811215 0.803006
0.673899 0.808774 0.797192
0.662379 0.802457 0.782193
0.634241 0.785885 0.738598
0.666529 0.76643 0.681193
0.768994 0.759548 0.670695
0.83061 0.716396 0.59617
0.910018 0.69456 0.554147
0.714549 0.850813 0.824857
0.712642 0.850416 0.822431
0.706722 0.849226 0.815
0.696422 0.845518 0.79733
0.666529 0.838788 0.745953
0.722789 0.830976 0.706203
0.827298 0.826963 0.710277
0.889586 0.789349 0.647181
0.920134 0.780774 0.621759
0.10312 0.535012 0.762203
0.105028 0.537285 0.761685
0.11017 0.542885 0.760342
0.280354 0.560021 0.754208
0.418387 0.576532 0.741955
0.525353 0.596063 0.727794
0.597314 0.559533 0.716655
0.741863 0.5691 0.713985
0.864851 0.621744 0.735759
0.124239 0.549508 0.762814
0.126162 0.551385 0.762356
0.129885 0.555993 0.761135
0.310414 0.572793 0.754284
0.430854 0.586252 0.742428
0.530343 0.60264 0.728099
0.600031 0.567147 0.71693
0.742901 0.57702 0.71487
0.864729 0.628855 0.737911
0.16289 0.577035 0.764843
0.163775 0.5785 0.76437
0.242832 0.585885 0.761791
0.361593 0.598337 0.755261
0.456794 0.607309 0.744183
0.541192 0.61709 0.729168
0.606607 0.584466 0.717769
0.745968 0.595285 0.717083
0.864912 0.645457 0.743114
0.24329 0.615228 0.768231
0.277089 0.618189 0.767086
0.341024 0.624323 0.764141
0.41799 0.632105 0.758373
0.491493 0.637293 0.748058
0.556329 0.637598 0.731731
0.61735 0.610422 0.719692
0.752941 0.623209 0.721477
0.8663 0.67126 0.751827
0.367086 0.661494 0.772717
0.384527 0.663142 0.771801
0.421958 0.66656 0.76936
0.471687 0.670161 0.764584
0.528405 0.672297 0.755322
0.577188 0.665339 0.737972
0.63212 0.642359 0.723201
0.766934 0.659113 0.730694
0.868772 0.705043 0.764309
0.468925 0.709422 0.780056
0.479194 0.710277 0.779339
0.502235 0.712001 0.777386
0.535714 0.713726 0.773465
0.574014 0.713176 0.765881
0.610529 0.705242 0.750286
0.651789 0.681132 0.728603
0.788602 0.705684 0.749264
0.877241 0.725536 0.76376
0.55906 0.755032 0.790555
0.565637 0.755505 0.790021
0.580957 0.756436 0.78854
0.604517 0.757275 0.785412
0.632319 0.756344 0.779187
0.658122 0.749676 0.766094
0.677562 0.726696 0.733822
0.799741 0.715587 0.72047
0.894118 0.706737 0.710079
0.651484 0.805844 0.815167
0.656703 0.806683 0.815442
0.669459 0.808789 0.816236
0.690333 0.812543 0.817899
0.716869 0.816953 0.819974
0.724941 0.811322 0.809491
0.708232 0.779263 0.7411
0.792996 0.744244 0.685359
0.889433 0.724529 0.654948
0.762661 0.855665 0.855039
0.765942 0.855833 0.855222
0.770718 0.856077 0.855161
0.77055 0.855909 0.853056
0.763607 0.854475 0.846036
0.739025 0.847868 0.818235
0.762524 0.836393 0.758511
0.85658 0.817319 0.732494
0.89427 0.806912 0.704738
0.308598 0.617197 0.831052
0.3093 0.618601 0.830793
0.310918 0.621958 0.830137
0.320363 0.628305 0.828794
0.451728 0.650721 0.822446
0.547738 0.666453 0.812451
0.628687 0.681819 0.802274
0.681346 0.639246 0.792874
0.804166 0.643015 0.786999
0.31603 0.625345 0.831189
0.316548 0.626535 0.8309
0.318151 0.629572 0.830289
0.33962 0.636744 0.828702
0.463004 0.657771 0.822461
0.553979 0.672145 0.81268
0.632105 0.686427 0.802319
0.68307 0.644053 0.792935
0.8047 0.64802 0.787045
0.332799 0.642267 0.831678
0.333242 0.643275 0.831434
0.33463 0.645853 0.830854
0.381323 0.655283 0.828656
0.48629 0.673136 0.822812
0.567651 0.684947 0.81355
0.640009 0.697185 0.802609
0.687221 0.655177 0.793103
0.806058 0.659983 0.787442
0.358892 0.666041 0.832898
0.359396 0.666911 0.8327
0.360662 0.669108 0.832166
0.428443 0.680262 0.829404
0.515984 0.694881 0.824125
0.587091 0.704097 0.815518
0.649393 0.711147 0.803815
0.694041 0.672282 0.793713
0.80972 0.679072 0.788708
0.396368 0.696788 0.83476
0.396262 0.696941 0.834623
0.400992 0.697765 0.834195
0.466697 0.707042 0.831693
0.544305 0.719524 0.826993
0.608713 0.727214 0.819211
0.65948 0.727291 0.806302
0.703365 0.694087 0.794919
0.816892 0.705745 0.792264
0.453803 0.734249 0.837003
0.463706 0.735454 0.836698
0.489952 0.738613 0.835828
0.529793 0.74345 0.834134
0.576944 0.748562 0.831189
0.633829 0.754574 0.824704
0.67509 0.749508 0.811109
0.715953 0.721874 0.79675
0.826062 0.739788 0.79884
0.551919 0.775891 0.839414
0.559472 0.776852 0.83917
0.577447 0.779141 0.83856
0.605447 0.782635 0.837324
0.639689 0.786435 0.835126
0.674403 0.788388 0.830854
0.704128 0.783185 0.820218
0.732097 0.755764 0.799176
0.836789 0.783703 0.815564
0.640894 0.812268 0.843336
0.645975 0.812909 0.843214
0.658137 0.81442 0.842893
0.67744 0.816754 0.842237
0.701442 0.819394 0.840925
0.726253 0.821088 0.838193
0.746654 0.818387 0.830793
0.753536 0.796094 0.801923
0.850263 0.790936 0.794568
0.719936 0.846922 0.85658
0.723491 0.847349 0.856641
0.732067 0.848447 0.856809
0.747677 0.851072 0.857954
0.768292 0.854795 0.859907
0.791455 0.85922 0.862837
0.805814 0.860517 0.862333
0.808377 0.849897 0.826276
0.855131 0.847639 0.819379
0.487709 0.698512 0.871214
0.488243 0.69926 0.871092
0.489403 0.701091 0.870771
0.49163 0.704265 0.870253
0.521141 0.714794 0.868544
0.615244 0.741238 0.863508
0.681315 0.759319 0.857542
0.727016 0.766659 0.853178
0.75787 0.730007 0.850095
0.492042 0.702419 0.871092
0.492439 0.703136 0.87097
0.493629 0.704829 0.87068
0.495689 0.707866 0.870146
0.527184 0.718624 0.868421
0.61886 0.744244 0.863493
0.683101 0.761318 0.857618
0.728801 0.7691 0.853208
0.758923 0.732647 0.850126
0.501793 0.710964 0.870878
0.502235 0.711574 0.870771
0.503319 0.713161 0.870497
0.505241 0.715877 0.870039
0.538827 0.726726 0.868254
0.626535 0.750896 0.863584
0.687587 0.766339 0.857984
0.733166 0.775036 0.853315
0.761547 0.738994 0.850263
0.517388 0.723476 0.870817
0.5178 0.724025 0.87071
0.518761 0.725399 0.870451
0.5205 0.727825 0.870024
0.550713 0.737484 0.868437
0.636118 0.760464 0.864027
0.695186 0.775036 0.858793
0.740215 0.784482 0.853727
0.765972 0.749233 0.850736
0.538476 0.738888 0.870985
0.538399 0.738888 0.870954
0.539147 0.740001 0.870741
0.540841 0.742153 0.870329
0.552392 0.747341 0.869413
0.642908 0.770901 0.865171
0.704067 0.78616 0.860334
0.748516 0.795895 0.85481
0.772549 0.763684 0.851667
0.574701 0.765667 0.870268
0.57435 0.765332 0.870298
0.57322 0.764508 0.870359
0.571008 0.762798 0.870466
0.569574 0.762081 0.870344
0.644022 0.781704 0.867063
0.713848 0.799481 0.862608
0.755749 0.807034 0.856992
0.781888 0.78294 0.853437
0.620142 0.794827 0.86981
0.619944 0.794705 0.869841
0.619303 0.794308 0.869841
0.618112 0.79353 0.869871
0.615839 0.792081 0.869932
0.647303 0.796735 0.869032
0.722408 0.814237 0.865675
0.767178 0.822095 0.860792
0.795254 0.808209 0.857038
0.675883 0.824338 0.870298
0.675914 0.824369 0.870298
0.67602 0.82443 0.870283
0.676112 0.824521 0.870253
0.676097 0.824567 0.870237
0.713466 0.831159 0.869596
0.7523 0.838148 0.868894
0.788159 0.844648 0.867521
0.816098 0.843549 0.86537
0.74551 0.853666 0.872404
0.745892 0.853819 0.872404
0.74696 0.854231 0.872435
0.748852 0.854963 0.87248
0.75552 0.85655 0.872633
0.784833 0.861418 0.873533
0.812406 0.866804 0.875349
0.833158 0.872374 0.878447
0.844816 0.87747 0.882445
