YOYO-Client/Yoyo/Assets.xcassets/Xihu.dataset/Xihu.cube
TITLE "Generated by Resolve"
LUT_3D_SIZE 33
0.105348 0.139773 0.147555
0.0953536 0.138247 0.145571
0.10219 0.135912 0.143557
0.127947 0.132265 0.14168
0.17203 0.127428 0.140826
0.223224 0.121035 0.140459
0.275807 0.112322 0.140154
0.32755 0.101335 0.139879
0.377768 0.088304 0.139788
0.426444 0.0713054 0.140169
0.473396 0.0519112 0.140932
0.518761 0.0263066 0.142733
0.561761 0.00428778 0.145357
0.602609 0 0.149157
0.640635 0 0.153918
0.675975 0 0.159808
0.708186 0 0.166232
0.73875 0 0.174197
0.767758 0 0.182589
0.795377 0 0.191928
0.821515 0 0.201801
0.846204 0.00796521 0.21265
0.86923 0.0308843 0.22359
0.891524 0.0541085 0.234974
0.912978 0.0759442 0.24744
0.933623 0.0955978 0.261082
0.95314 0.115053 0.275135
0.97145 0.134844 0.290074
0.988403 0.154528 0.305959
1 0.175296 0.322225
1 0.196902 0.339376
1 0.219669 0.357656
1 0.243259 0.376776
0.101793 0.133944 0.144121
0.0999771 0.13489 0.143389
0.109285 0.135866 0.141695
0.135698 0.136553 0.140597
0.177249 0.135866 0.139727
0.225574 0.133318 0.139162
0.275792 0.128511 0.138552
0.326162 0.121553 0.138216
0.375296 0.112856 0.138094
0.423331 0.101793 0.138369
0.470054 0.0890211 0.139116
0.515282 0.0734264 0.1411
0.558114 0.0590372 0.143816
0.59881 0.0426184 0.147677
0.636957 0.0276036 0.152575
0.672251 0.0203555 0.158297
0.704707 0.0166629 0.165209
0.735393 0.0169223 0.17293
0.764645 0.0213931 0.181476
0.792554 0.0288548 0.190829
0.818936 0.0394293 0.201083
0.843656 0.0539254 0.211749
0.867018 0.0677195 0.222675
0.88954 0.0825666 0.23447
0.911254 0.0977646 0.247211
0.932067 0.1131 0.260487
0.951751 0.129183 0.274449
0.970245 0.146441 0.289769
0.987305 0.164446 0.305272
1 0.183474 0.321981
1 0.2038 0.339635
1 0.225071 0.35758
1 0.247883 0.376654
0.101167 0.135256 0.141375
0.105318 0.136522 0.141146
0.116991 0.140078 0.140444
0.142763 0.144259 0.139361
0.181689 0.146654 0.138415
0.227298 0.14667 0.13756
0.2757 0.144564 0.136873
0.324361 0.140627 0.136431
0.37261 0.134813 0.136141
0.420005 0.127092 0.13637
0.466377 0.118013 0.137316
0.511193 0.108553 0.139223
0.553841 0.0990921 0.141909
0.594629 0.0891585 0.145861
0.632624 0.0809339 0.150835
0.668269 0.0744182 0.156985
0.701015 0.071046 0.164004
0.731823 0.070573 0.17171
0.761364 0.0714885 0.180652
0.789487 0.0746471 0.190112
0.816052 0.0803235 0.200107
0.841031 0.0879072 0.210956
0.864607 0.0965591 0.222004
0.887282 0.106996 0.23386
0.909361 0.117815 0.246723
0.930358 0.129992 0.260121
0.950271 0.143496 0.274189
0.968887 0.158419 0.289433
0.986145 0.174624 0.304982
1 0.19202 0.321767
1 0.211063 0.339406
1 0.231388 0.357366
1 0.253086 0.376532
0.103655 0.142916 0.140551
0.112535 0.14403 0.140276
0.12697 0.148272 0.139559
0.152346 0.155352 0.138003
0.186755 0.161532 0.13637
0.229221 0.164141 0.135424
0.274983 0.164416 0.1346
0.321798 0.163058 0.133944
0.368719 0.15993 0.133669
0.415351 0.155169 0.133837
0.46099 0.149813 0.134615
0.505531 0.143343 0.136614
0.547967 0.137179 0.13962
0.588586 0.130999 0.143557
0.626673 0.125536 0.148653
0.662531 0.120912 0.154757
0.695659 0.117418 0.161852
0.726879 0.115084 0.170169
0.756558 0.1149 0.178882
0.785092 0.115419 0.188785
0.811902 0.118242 0.198688
0.837354 0.121447 0.209857
0.861143 0.12726 0.220798
0.884276 0.1337 0.232883
0.906615 0.141558 0.245609
0.927916 0.150698 0.259037
0.948058 0.161608 0.27361
0.967025 0.174075 0.288869
0.984466 0.187991 0.304662
0.999573 0.203616 0.321569
1 0.220737 0.338781
1 0.239734 0.357244
1 0.260319 0.376501
0.10985 0.157626 0.140627
0.122621 0.158816 0.14023
0.137789 0.161318 0.139727
0.162524 0.168124 0.138094
0.195102 0.176867 0.135439
0.2309 0.184298 0.13286
0.27364 0.186831 0.131792
0.318273 0.187701 0.130846
0.363607 0.186755 0.130495
0.408988 0.184787 0.130404
0.45417 0.181613 0.131365
0.498024 0.178134 0.133318
0.540322 0.174121 0.136416
0.580728 0.170031 0.140475
0.619165 0.165652 0.145785
0.655268 0.161791 0.152087
0.688853 0.158419 0.15938
0.720455 0.155657 0.168032
0.750637 0.154116 0.176791
0.779477 0.153216 0.186831
0.806729 0.15375 0.197223
0.832471 0.155291 0.208225
0.856718 0.158206 0.219486
0.880308 0.162112 0.231815
0.902953 0.167575 0.244465
0.924636 0.17435 0.258335
0.94519 0.182757 0.272816
0.964462 0.192599 0.287938
0.982208 0.204318 0.303929
0.997818 0.217884 0.320912
1 0.233051 0.338537
1 0.250355 0.357015
1 0.269139 0.375937
0.119524 0.178012 0.142092
0.13434 0.179324 0.141741
0.150118 0.180682 0.141482
0.173709 0.185428 0.140276
0.203723 0.193057 0.137407
0.238407 0.201617 0.133608
0.273793 0.209018 0.129564
0.313588 0.212482 0.127367
0.357382 0.213519 0.126787
0.401373 0.213718 0.126497
0.445472 0.212909 0.127489
0.488991 0.211109 0.129519
0.531121 0.208713 0.13257
0.571679 0.205722 0.136812
0.610254 0.202396 0.142351
0.646738 0.198901 0.148791
0.680873 0.195453 0.156466
0.712825 0.192569 0.165133
0.74345 0.190204 0.17467
0.772549 0.188739 0.184466
0.800381 0.187762 0.195193
0.82649 0.187945 0.206424
0.851331 0.188952 0.217929
0.87541 0.191012 0.230243
0.898512 0.194568 0.243214
0.920684 0.199176 0.257282
0.941619 0.205371 0.271778
0.961303 0.213107 0.287098
0.979477 0.22266 0.303334
0.995651 0.234073 0.320363
1 0.24744 0.338094
1 0.262806 0.356725
1 0.280171 0.375875
0.132967 0.202914 0.146639
0.148318 0.204227 0.14638
0.164721 0.205402 0.145846
0.185412 0.207126 0.145617
0.214542 0.213504 0.142992
0.246128 0.220508 0.138872
0.280613 0.227771 0.133776
0.314473 0.234134 0.12871
0.351507 0.237751 0.125307
0.393347 0.24062 0.122988
0.436118 0.241871 0.123079
0.479057 0.241581 0.125185
0.52108 0.240375 0.128298
0.561517 0.23859 0.13283
0.600275 0.236103 0.138277
0.637064 0.233158 0.145281
0.671748 0.229938 0.15317
0.703929 0.227024 0.161852
0.734981 0.224262 0.171618
0.764614 0.222141 0.181949
0.792889 0.220401 0.192691
0.819577 0.219501 0.204089
0.844892 0.219394 0.215747
0.869535 0.220035 0.228397
0.893217 0.222004 0.241688
0.915953 0.224964 0.255879
0.937438 0.229267 0.270741
0.95758 0.234989 0.286259
0.976165 0.242512 0.302419
0.992981 0.252125 0.319524
1 0.263645 0.337438
1 0.277134 0.356115
1 0.292805 0.375845
0.149294 0.230915 0.154513
0.164385 0.2318 0.15433
0.180407 0.233051 0.153964
0.200732 0.234546 0.153674
0.227344 0.237842 0.152972
0.25684 0.243229 0.148287
0.288258 0.248783 0.142596
0.320974 0.254536 0.136492
0.35346 0.259739 0.130129
0.388113 0.262974 0.126085
0.428962 0.266011 0.124178
0.469673 0.26836 0.122728
0.510323 0.269383 0.123888
0.550637 0.268467 0.128359
0.589502 0.266773 0.134127
0.62652 0.264622 0.141024
0.66157 0.261677 0.149248
0.69424 0.258808 0.158358
0.725704 0.25597 0.168276
0.755734 0.25359 0.178729
0.784497 0.251255 0.189899
0.811627 0.249683 0.201282
0.837674 0.248676 0.213565
0.862913 0.248417 0.226169
0.88719 0.249256 0.239887
0.910475 0.250828 0.253925
0.932555 0.253574 0.26923
0.953262 0.257847 0.284993
0.972259 0.263844 0.301488
0.989593 0.271504 0.318669
1 0.281285 0.336767
1 0.292897 0.355688
1 0.306691 0.375219
0.167926 0.260334 0.165286
0.182193 0.261082 0.165255
0.197131 0.262013 0.164843
0.216861 0.263447 0.164508
0.240772 0.265156 0.16405
0.269657 0.268971 0.162112
0.298741 0.273121 0.155932
0.329412 0.277409 0.148821
0.36054 0.28159 0.141497
0.391333 0.285664 0.134127
0.423377 0.28809 0.129671
0.462684 0.290806 0.128176
0.501778 0.293187 0.126879
0.540154 0.294911 0.126131
0.578302 0.29482 0.129656
0.615473 0.293126 0.136645
0.650752 0.290929 0.144945
0.683833 0.288197 0.154391
0.715587 0.285481 0.16463
0.746151 0.282918 0.175448
0.77525 0.280507 0.186831
0.80293 0.278401 0.198505
0.829572 0.276997 0.210681
0.855528 0.275975 0.223911
0.8804 0.275914 0.237522
0.904402 0.276371 0.25214
0.927016 0.278157 0.267384
0.948302 0.281041 0.283436
0.967941 0.285527 0.30013
0.985748 0.291707 0.31783
1 0.299809 0.336126
1 0.309712 0.355154
1 0.321889 0.374853
0.188052 0.290333 0.178561
0.201221 0.291035 0.178393
0.215213 0.291875 0.17818
0.233631 0.293019 0.177951
0.256336 0.294484 0.177325
0.282536 0.296361 0.177218
0.311711 0.299931 0.172717
0.33991 0.30277 0.165057
0.369238 0.305562 0.157076
0.398901 0.308507 0.14873
0.427604 0.311269 0.140734
0.456886 0.312779 0.13518
0.494255 0.315038 0.133822
0.53196 0.317037 0.132815
0.568658 0.318379 0.132296
0.604288 0.319051 0.133257
0.63949 0.317708 0.14049
0.672831 0.315465 0.15024
0.704875 0.312947 0.160708
0.735775 0.310323 0.17174
0.76527 0.308019 0.183139
0.793484 0.305776 0.195361
0.82089 0.303883 0.207843
0.847471 0.30251 0.221149
0.873045 0.301793 0.235004
0.897627 0.301732 0.250065
0.920928 0.30251 0.265385
0.94287 0.304341 0.281697
0.963058 0.307698 0.298787
0.981384 0.312474 0.316747
0.997406 0.318929 0.33521
1 0.327474 0.354345
1 0.337942 0.374502
0.208698 0.320348 0.193439
0.220844 0.320897 0.193439
0.233631 0.321599 0.193118
0.250645 0.322576 0.192874
0.272099 0.323857 0.192508
0.296773 0.325216 0.192065
0.325154 0.327779 0.19173
0.352453 0.329824 0.18436
0.379843 0.331502 0.175738
0.407736 0.333043 0.166766
0.435355 0.3346 0.158038
0.46215 0.336019 0.149126
0.48838 0.336446 0.141985
0.523705 0.33817 0.140948
0.560021 0.339742 0.140566
0.595056 0.34081 0.140566
0.628885 0.341253 0.141176
0.661509 0.340429 0.145815
0.693614 0.338323 0.156313
0.724804 0.33608 0.167697
0.754757 0.333761 0.179507
0.783475 0.331518 0.19173
0.811521 0.329519 0.204593
0.838727 0.328023 0.218189
0.865095 0.326818 0.232609
0.890333 0.326253 0.247593
0.914351 0.32636 0.263401
0.936873 0.327565 0.280003
0.957763 0.329717 0.297322
0.976699 0.33341 0.315358
0.9935 0.338506 0.334142
1 0.345678 0.35378
1 0.354665 0.373907
0.229709 0.349859 0.209476
0.240772 0.350347 0.209339
0.252506 0.350927 0.209171
0.268299 0.351781 0.209033
0.288182 0.352743 0.208911
0.311421 0.354101 0.208545
0.336675 0.355047 0.208377
0.365881 0.357778 0.205997
0.391836 0.358557 0.197147
0.41799 0.35903 0.187671
0.444114 0.359335 0.178073
0.469917 0.359548 0.168338
0.494789 0.35964 0.158816
0.518456 0.359136 0.150347
0.551171 0.360128 0.148699
0.585962 0.361288 0.149218
0.619608 0.361898 0.14995
0.65153 0.361959 0.150835
0.682429 0.361486 0.153414
0.713451 0.359884 0.16321
0.743679 0.357855 0.174945
0.772961 0.355779 0.187671
0.801678 0.353902 0.201083
0.829541 0.352316 0.21471
0.856626 0.350881 0.229725
0.882567 0.350057 0.24509
0.907225 0.349722 0.261082
0.930449 0.35021 0.27776
0.952026 0.351629 0.295384
0.971633 0.354299 0.313848
0.989013 0.358465 0.332982
1 0.364233 0.352926
1 0.371862 0.373465
0.251026 0.378607 0.226673
0.260975 0.378988 0.226307
0.271641 0.379538 0.226459
0.286046 0.380224 0.226291
0.304707 0.381155 0.225986
0.326085 0.382254 0.225742
0.350912 0.383673 0.225422
0.377935 0.384985 0.225895
0.404578 0.386252 0.220325
0.429129 0.385702 0.21033
0.453849 0.384939 0.20029
0.478309 0.38407 0.190066
0.502373 0.383154 0.179583
0.525628 0.382254 0.169131
0.547494 0.380865 0.159701
0.576761 0.380896 0.157305
0.610132 0.381628 0.158434
0.641947 0.381918 0.159655
0.672587 0.381735 0.161349
0.702464 0.381415 0.16347
0.732219 0.38027 0.170626
0.762112 0.378531 0.183566
0.791348 0.376898 0.196963
0.820066 0.375296 0.211566
0.84773 0.374014 0.226368
0.874372 0.3729 0.242084
0.899779 0.37232 0.258412
0.923674 0.372457 0.275639
0.945937 0.373297 0.293584
0.966217 0.375082 0.312383
0.984207 0.378256 0.331746
0.999283 0.382986 0.351919
1 0.389456 0.372839
0.272221 0.406439 0.244221
0.28098 0.406912 0.244114
0.290898 0.407172 0.243839
0.304051 0.407813 0.2439
0.32108 0.408591 0.243595
0.341176 0.409537 0.243458
0.364202 0.410666 0.243336
0.389395 0.411719 0.243
0.417121 0.413275 0.243137
0.441016 0.412634 0.234546
0.464302 0.411093 0.224125
0.487511 0.409262 0.213336
0.510292 0.407416 0.202625
0.532647 0.405432 0.191653
0.55433 0.403601 0.180545
0.574533 0.401297 0.170443
0.600427 0.400397 0.166567
0.632166 0.400885 0.168124
0.662699 0.400809 0.170291
0.692576 0.400626 0.171939
0.721767 0.400366 0.174166
0.751064 0.399802 0.179736
0.78088 0.398474 0.192905
0.810101 0.397223 0.207492
0.838437 0.396033 0.222904
0.865843 0.394934 0.238987
0.891966 0.394217 0.255604
0.916625 0.393973 0.273182
0.939513 0.394446 0.291463
0.960525 0.39559 0.310521
0.979141 0.398016 0.330236
0.995285 0.401755 0.350912
1 0.407202 0.372107
0.292943 0.433097 0.261799
0.300832 0.433387 0.261875
0.309636 0.433783 0.261769
0.32192 0.434195 0.261784
0.337484 0.434821 0.26157
0.3561 0.43563 0.261357
0.377691 0.436698 0.261082
0.401526 0.437858 0.260914
0.426657 0.43827 0.261326
0.453285 0.439246 0.258717
0.475242 0.437217 0.248478
0.497063 0.434745 0.237766
0.518837 0.431998 0.226627
0.540154 0.429175 0.215305
0.560952 0.426352 0.203998
0.581201 0.423774 0.192462
0.59968 0.420676 0.181476
0.62269 0.41886 0.176272
0.65272 0.418891 0.178363
0.682551 0.418891 0.180728
0.71194 0.418845 0.183047
0.741085 0.418906 0.18526
0.770291 0.418769 0.189929
0.799939 0.417899 0.203433
0.828962 0.416938 0.219104
0.857053 0.415976 0.235721
0.883894 0.41529 0.25272
0.909224 0.414893 0.270512
0.932891 0.415015 0.289219
0.954513 0.415854 0.30869
0.973831 0.417548 0.328664
0.990631 0.420478 0.349493
1 0.424994 0.371252
0.313161 0.458503 0.279515
0.32047 0.458701 0.279362
0.328344 0.459022 0.279423
0.339376 0.459388 0.279423
0.353857 0.459922 0.279164
0.370932 0.460624 0.278981
0.390829 0.461463 0.278996
0.413214 0.46244 0.278813
0.43743 0.463233 0.278614
0.463294 0.463935 0.279683
0.486671 0.463004 0.273426
0.507164 0.459983 0.262547
0.527657 0.456611 0.251286
0.547951 0.453086 0.239811
0.567819 0.449577 0.22826
0.587289 0.446036 0.216571
0.606134 0.442649 0.204852
0.623377 0.439017 0.1935
0.643717 0.436286 0.186923
0.672374 0.436225 0.18851
0.701976 0.436515 0.191104
0.731533 0.436851 0.193606
0.760723 0.437186 0.196201
0.789807 0.437354 0.200839
0.819272 0.436835 0.215198
0.848005 0.436133 0.231922
0.875502 0.435569 0.249256
0.901656 0.435142 0.267613
0.926024 0.435065 0.286625
0.948379 0.435538 0.306477
0.968338 0.43682 0.326955
0.985733 0.439078 0.348302
0.999756 0.442725 0.370504
0.332723 0.48246 0.296941
0.33933 0.482658 0.296925
0.346578 0.482933 0.296925
0.356512 0.483253 0.296849
0.369726 0.483696 0.296788
0.385611 0.484291 0.296635
0.403983 0.484947 0.296376
0.424765 0.485863 0.296574
0.447868 0.486732 0.296132
0.471275 0.486686 0.296666
0.497246 0.487572 0.29688
0.51751 0.484749 0.287419
0.536812 0.48098 0.276234
0.556085 0.476875 0.264561
0.57499 0.472694 0.253025
0.593545 0.468452 0.241047
0.61149 0.464271 0.229267
0.629114 0.460304 0.217365
0.645762 0.456397 0.205768
0.664073 0.453193 0.197391
0.692103 0.453254 0.198642
0.721813 0.453956 0.201389
0.751354 0.454627 0.204044
0.780606 0.455253 0.206989
0.809567 0.455604 0.212024
0.838804 0.455344 0.227832
0.867079 0.454994 0.245823
0.893858 0.454688 0.264546
0.918944 0.454643 0.284092
0.942031 0.454826 0.30428
0.962646 0.455772 0.325429
0.980713 0.45745 0.347036
0.996033 0.460395 0.369574
0.351644 0.505135 0.314321
0.35758 0.505272 0.314397
0.364172 0.505486 0.314305
0.373404 0.505791 0.314046
0.385275 0.506188 0.314168
0.399847 0.506691 0.314107
0.416999 0.507271 0.314031
0.436347 0.507958 0.313771
0.457801 0.508782 0.31368
0.481025 0.509682 0.313619
0.504372 0.509255 0.31458
0.527825 0.508782 0.31191
0.546181 0.504845 0.301274
0.56434 0.500389 0.28986
0.582269 0.495689 0.278019
0.599924 0.490913 0.266072
0.617395 0.486213 0.253971
0.634562 0.481712 0.241917
0.651545 0.477546 0.230015
0.667964 0.473472 0.218082
0.684916 0.470024 0.20795
0.712139 0.470222 0.208438
0.742016 0.471275 0.211383
0.771511 0.472221 0.21445
0.800687 0.473075 0.217472
0.829648 0.47361 0.224491
0.858442 0.473594 0.241962
0.886 0.473487 0.26125
0.911818 0.473457 0.281254
0.935576 0.473594 0.301885
0.956893 0.474205 0.323262
0.975555 0.475517 0.345632
0.991424 0.477852 0.368429
0.370275 0.526864 0.331411
0.375586 0.527031 0.33135
0.381704 0.52723 0.331273
0.389975 0.527443 0.331289
0.401068 0.52784 0.331319
0.414405 0.528206 0.331289
0.43006 0.528786 0.331182
0.448112 0.529335 0.331151
0.468162 0.530068 0.330953
0.489967 0.530831 0.330968
0.51252 0.531029 0.331243
0.53637 0.531044 0.332891
0.556298 0.528435 0.326238
0.573327 0.52372 0.3149
0.590433 0.518807 0.303258
0.607523 0.513726 0.291249
0.624491 0.508736 0.278965
0.64126 0.503853 0.26685
0.657877 0.499184 0.25449
0.674311 0.494804 0.24239
0.690394 0.490745 0.230274
0.707012 0.487175 0.219181
0.732631 0.487053 0.217762
0.762524 0.488472 0.221378
0.79202 0.489693 0.224674
0.821118 0.490745 0.228199
0.849882 0.491386 0.237995
0.878065 0.4916 0.257511
0.90457 0.491707 0.278065
0.92903 0.491829 0.299123
0.951049 0.492287 0.321126
0.970306 0.493278 0.344045
0.986725 0.495094 0.367422
0.388769 0.548241 0.348501
0.393744 0.548394 0.348409
0.399191 0.548592 0.348424
0.406836 0.54876 0.348501
0.416815 0.54905 0.348501
0.429252 0.549477 0.348409
0.443763 0.549905 0.348363
0.460563 0.550439 0.348424
0.479225 0.551034 0.348318
0.499626 0.55169 0.348318
0.521737 0.552453 0.348241
0.543175 0.551598 0.349065
0.566293 0.551446 0.349554
0.583581 0.547387 0.340063
0.6 0.542306 0.328359
0.616449 0.537133 0.316442
0.632898 0.531853 0.304219
0.649241 0.526635 0.291829
0.665461 0.521553 0.279469
0.681575 0.516716 0.26688
0.69749 0.512123 0.254475
0.713283 0.507973 0.242344
0.729519 0.504372 0.230716
0.753475 0.503944 0.227131
0.783368 0.505653 0.231159
0.812894 0.507057 0.235019
0.841718 0.508263 0.239353
0.870176 0.508904 0.253651
0.897353 0.50927 0.274556
0.922515 0.509544 0.296239
0.945159 0.509926 0.318822
0.965026 0.510643 0.34229
0.98201 0.512032 0.366201
0.407111 0.569207 0.365515
0.411688 0.569284 0.365591
0.416678 0.569421 0.365484
0.423774 0.569604 0.365606
0.433005 0.569863 0.365515
0.444236 0.570153 0.365515
0.457786 0.570504 0.36553
0.473335 0.570962 0.365576
0.490806 0.571511 0.36556
0.509941 0.572122 0.365591
0.530663 0.572793 0.365652
0.552377 0.573159 0.365759
0.573922 0.572427 0.367422
0.595071 0.571176 0.364538
0.610925 0.566262 0.353506
0.626734 0.560922 0.341604
0.642573 0.555474 0.329442
0.658473 0.549981 0.317067
0.67422 0.544564 0.304448
0.689921 0.539269 0.291783
0.705486 0.534325 0.279194
0.721004 0.529625 0.266728
0.736446 0.525292 0.254337
0.752468 0.521721 0.241978
0.775097 0.520943 0.236912
0.804654 0.522774 0.240665
0.833921 0.524392 0.244984
0.862348 0.525643 0.250919
0.890166 0.526314 0.271015
0.915999 0.526726 0.2934
0.93933 0.527123 0.316442
0.959808 0.527642 0.340475
0.977279 0.528695 0.364981
0.425696 0.589822 0.382712
0.42974 0.589929 0.382727
0.434333 0.590066 0.38262
0.44065 0.590234 0.382635
0.449271 0.590478 0.382757
0.4598 0.590768 0.382727
0.472496 0.591165 0.38262
0.486931 0.591577 0.382849
0.503243 0.592081 0.382834
0.52134 0.59266 0.382818
0.540932 0.593332 0.382803
0.562005 0.594049 0.382788
0.582864 0.593591 0.383474
0.605295 0.593637 0.385321
0.623209 0.590463 0.378607
0.638361 0.585092 0.366766
0.653559 0.579492 0.354528
0.668879 0.5738 0.342092
0.684153 0.568124 0.329503
0.699428 0.562463 0.316808
0.714626 0.557107 0.304006
0.729793 0.551949 0.291325
0.744869 0.547082 0.278706
0.760006 0.542702 0.266255
0.77612 0.539193 0.25388
0.797482 0.538109 0.246891
0.826307 0.539925 0.250553
0.8551 0.541604 0.255344
0.88307 0.542718 0.26714
0.909636 0.543359 0.290227
0.933577 0.543832 0.313909
0.954559 0.544289 0.338445
0.972564 0.545068 0.363531
0.444373 0.610788 0.39942
0.448188 0.610834 0.399619
0.452415 0.610941 0.399512
0.458305 0.611185 0.399542
0.466377 0.611383 0.399573
0.476036 0.611673 0.399573
0.487724 0.611994 0.399619
0.50135 0.612421 0.399771
0.516777 0.612894 0.399725
0.533684 0.613428 0.399878
0.552361 0.614084 0.399786
0.572351 0.614786 0.399908
0.593637 0.615518 0.399985
0.613687 0.614404 0.401358
0.635599 0.614191 0.401587
0.651164 0.609522 0.391623
0.665721 0.603876 0.379614
0.6804 0.597955 0.367269
0.695186 0.592081 0.354559
0.710002 0.58616 0.341817
0.724788 0.580423 0.328878
0.739528 0.574838 0.316121
0.754299 0.569589 0.303212
0.769116 0.564675 0.290639
0.783932 0.560159 0.278157
0.800031 0.556725 0.265782
0.820035 0.555261 0.256764
0.848096 0.556954 0.26006
0.876295 0.558587 0.266407
0.903334 0.559564 0.286885
0.927901 0.560143 0.311162
0.949493 0.560525 0.336339
0.967956 0.56109 0.362234
0.463493 0.631937 0.416297
0.466957 0.632074 0.416312
0.470924 0.632166 0.416236
0.476402 0.632334 0.416297
0.483787 0.632532 0.416312
0.492927 0.632807 0.416434
0.503914 0.633127 0.416495
0.516579 0.633509 0.41651
0.53106 0.633997 0.416464
0.547219 0.634501 0.416648
0.564874 0.635096 0.416678
0.583886 0.635721 0.416632
0.604181 0.636439 0.41677
0.624552 0.636316 0.417212
0.645396 0.635706 0.419043
0.664942 0.634043 0.416205
0.679011 0.628412 0.404578
0.693065 0.622477 0.392294
0.707301 0.616373 0.37966
0.721538 0.610285 0.366903
0.735882 0.604227 0.35407
0.750271 0.598306 0.341054
0.764675 0.59266 0.328099
0.779156 0.587274 0.315312
0.793606 0.582269 0.302602
0.808148 0.57763 0.290059
0.824048 0.574166 0.277806
0.842802 0.572396 0.266667
0.869917 0.573861 0.270085
0.897231 0.57525 0.283162
0.922393 0.576013 0.308385
0.944503 0.57644 0.334203
0.963333 0.576944 0.360784
0.482811 0.653376 0.432929
0.486076 0.653452 0.432837
0.489693 0.653574 0.432898
0.494896 0.653727 0.433036
0.501778 0.65391 0.433036
0.510353 0.654185 0.432975
0.520638 0.654459 0.432975
0.532647 0.654841 0.433082
0.546212 0.655238 0.433219
0.561486 0.655726 0.433341
0.578271 0.656245 0.433356
0.596292 0.65684 0.433433
0.615763 0.657496 0.433494
0.636301 0.658167 0.433616
0.655619 0.657053 0.434562
0.677104 0.657069 0.436667
0.693416 0.653208 0.42945
0.706783 0.647135 0.417304
0.720348 0.640925 0.404776
0.734066 0.634607 0.392035
0.74786 0.628336 0.379171
0.761822 0.622141 0.366079
0.77583 0.61619 0.35317
0.789914 0.610422 0.3402
0.804044 0.604974 0.327276
0.818189 0.599863 0.314672
0.832349 0.595148 0.302266
0.84799 0.591546 0.290059
0.866316 0.589715 0.278645
0.891371 0.590585 0.280934
0.917067 0.591562 0.305272
0.939574 0.592142 0.331777
0.95877 0.592615 0.358923
0.502388 0.675044 0.449317
0.505409 0.67509 0.44947
0.508904 0.675227 0.449424
0.51368 0.675319 0.449424
0.52015 0.675517 0.449516
0.528237 0.675715 0.449577
0.537957 0.676036 0.449531
0.549218 0.676356 0.449622
0.562142 0.676722 0.449699
0.576608 0.67715 0.449882
0.592493 0.677653 0.449958
0.609781 0.678157 0.449943
0.628305 0.678721 0.450065
0.648005 0.679377 0.450156
0.668254 0.679622 0.450401
0.687297 0.678187 0.452064
0.70753 0.677333 0.452323
0.721355 0.671931 0.442252
0.734325 0.665629 0.429862
0.747433 0.659175 0.417243
0.760769 0.65272 0.404257
0.774227 0.646311 0.391302
0.787732 0.640055 0.378347
0.801419 0.633936 0.365255
0.815122 0.628138 0.352453
0.828916 0.622583 0.339529
0.842634 0.617334 0.327108
0.856397 0.612421 0.314778
0.871382 0.608606 0.302815
0.889387 0.606775 0.291386
0.911894 0.606821 0.3019
0.934844 0.607492 0.329381
0.95433 0.608011 0.357321
0.522377 0.696818 0.465919
0.525185 0.696925 0.465873
0.528466 0.696971 0.465995
0.532876 0.697078 0.465995
0.538994 0.697261 0.466041
0.546548 0.697459 0.466041
0.555703 0.697719 0.466148
0.566491 0.698009 0.466133
0.578622 0.698329 0.466285
0.592401 0.698695 0.466255
0.607507 0.699138 0.466423
0.623941 0.699565 0.466514
0.641596 0.700053 0.466621
0.660471 0.700587 0.466712
0.68043 0.701152 0.466804
0.699748 0.700496 0.467475
0.719005 0.699214 0.469444
0.736599 0.696666 0.466819
0.74902 0.690394 0.454963
0.761517 0.683787 0.442451
0.774243 0.677226 0.429679
0.787198 0.670649 0.416678
0.800275 0.664118 0.403601
0.813443 0.657679 0.390646
0.826688 0.651499 0.377722
0.839994 0.645548 0.364767
0.853269 0.639841 0.35227
0.866575 0.63444 0.339788
0.879744 0.629328 0.327581
0.893782 0.625147 0.31603
0.910552 0.622995 0.3084
0.930404 0.622538 0.326925
0.950164 0.623102 0.355627
0.542565 0.718746 0.482475
0.545205 0.718791 0.482475
0.548272 0.718868 0.482414
0.552499 0.718975 0.48249
0.558312 0.719097 0.482536
0.565377 0.719265 0.482567
0.574029 0.719493 0.482612
0.584176 0.719707 0.482765
0.595712 0.719997 0.482811
