YOYO-Client/Yoyo/Assets.xcassets/Xihu.dataset/Xihu.cube
TITLE "Generated by Resolve"
LUT_3D_SIZE 5
0.105348 0.139773 0.147555
0.377768 0.088304 0.139788
0.708186 0 0.166232
0.912978 0.0759442 0.24744
1 0.243259 0.376776
0.167926 0.260334 0.165286
0.36054 0.28159 0.141497
0.650752 0.290929 0.144945
0.8804 0.275914 0.237522
1 0.321889 0.374853
0.332723 0.48246 0.296941
0.447868 0.486732 0.296132
0.61149 0.464271 0.229267
0.809567 0.455604 0.212024
0.996033 0.460395 0.369574
0.482811 0.653376 0.432929
0.546212 0.655238 0.433219
0.693416 0.653208 0.42945
0.804044 0.604974 0.327276
0.95877 0.592615 0.358923
0.646174 0.822629 0.572473
0.684672 0.822156 0.573098
0.792187 0.820172 0.574655
0.897124 0.776699 0.52903
0.950988 0.742214 0.513054
0 0.188571 0.309712
0.226719 0.213046 0.315114
0.642618 0.226993 0.333242
0.86334 0.26952 0.317418
1 0.306783 0.366323
0.154864 0.316838 0.348333
0.287419 0.338842 0.349065
0.610559 0.337484 0.330983
0.842313 0.34818 0.325536
1 0.36289 0.36556
0.311772 0.514931 0.448585
0.392981 0.508125 0.411231
0.580468 0.486549 0.355489
0.791119 0.477577 0.336263
0.986801 0.478431 0.361746
0.450004 0.660334 0.495735
0.513512 0.661631 0.494148
0.669566 0.665492 0.496788
0.786709 0.615457 0.39646
0.952773 0.60116 0.367453
0.61854 0.824094 0.598718
0.658915 0.823728 0.599176
0.76994 0.822049 0.600519
0.887739 0.783978 0.560647
0.948653 0.746899 0.519615
0 0.365286 0.580285
0.0457008 0.388296 0.571191
0.431113 0.401541 0.550835
0.769299 0.465644 0.583688
0.970748 0.481483 0.576974
0.0402686 0.452628 0.586328
0.258946 0.464103 0.577111
0.453544 0.460182 0.557046
0.767742 0.514549 0.599649
0.967178 0.497978 0.56846
0.375296 0.573541 0.611215
0.423941 0.574411 0.603983
0.507591 0.566415 0.576837
0.755459 0.554406 0.557061
0.95761 0.545617 0.541115
0.55375 0.725597 0.707866
0.546624 0.716289 0.687922
0.581109 0.685588 0.604822
0.742306 0.647013 0.535058
0.933959 0.629831 0.505135
0.626245 0.841154 0.741726
0.620264 0.837156 0.713863
0.693477 0.827619 0.662669
0.857023 0.807965 0.649836
0.936934 0.763302 0.560983
0.10312 0.535012 0.762203
0.11017 0.542885 0.760342
0.418387 0.576532 0.741955
0.597314 0.559533 0.716655
0.864851 0.621744 0.735759
0.16289 0.577035 0.764843
0.242832 0.585885 0.761791
0.456794 0.607309 0.744183
0.606607 0.584466 0.717769
0.864912 0.645457 0.743114
0.367086 0.661494 0.772717
0.421958 0.66656 0.76936
0.528405 0.672297 0.755322
0.63212 0.642359 0.723201
0.868772 0.705043 0.764309
0.55906 0.755032 0.790555
0.580957 0.756436 0.78854
0.632319 0.756344 0.779187
0.677562 0.726696 0.733822
0.894118 0.706737 0.710079
0.762661 0.855665 0.855039
0.770718 0.856077 0.855161
0.763607 0.854475 0.846036
0.762524 0.836393 0.758511
0.89427 0.806912 0.704738
0.487709 0.698512 0.871214
0.489403 0.701091 0.870771
0.521141 0.714794 0.868544
0.681315 0.759319 0.857542
0.75787 0.730007 0.850095
0.501793 0.710964 0.870878
0.503319 0.713161 0.870497
0.538827 0.726726 0.868254
0.687587 0.766339 0.857984
0.761547 0.738994 0.850263
0.538476 0.738888 0.870985
0.539147 0.740001 0.870741
0.552392 0.747341 0.869413
0.704067 0.78616 0.860334
0.772549 0.763684 0.851667
0.620142 0.794827 0.86981
0.619303 0.794308 0.869841
0.615839 0.792081 0.869932
0.722408 0.814237 0.865675
0.795254 0.808209 0.857038
0.74551 0.853666 0.872404
0.74696 0.854231 0.872435
0.75552 0.85655 0.872633
0.812406 0.866804 0.875349
0.844816 0.87747 0.882445
