YOYO-Client/Yoyo/Assets.xcassets/Havana.dataset/Kodak Vision3 500T.cube
TITLE "Kodak Vision3 500T"
LUT_3D_SIZE 33
0.0947433 0.0940566 0.0984054
0.0947433 0.0940566 0.0984054
0.0991989 0.0943923 0.0986648
0.129244 0.0971542 0.100938
0.158984 0.100633 0.104341
0.185183 0.10454 0.107927
0.208316 0.109102 0.112123
0.232136 0.115038 0.117327
0.256779 0.123186 0.123751
0.282139 0.134783 0.131853
0.307652 0.148898 0.142962
0.333471 0.164355 0.158068
0.359762 0.180835 0.174456
0.386282 0.197589 0.191852
0.412863 0.214343 0.209522
0.439857 0.23125 0.227176
0.466926 0.247776 0.244129
0.494026 0.263828 0.259998
0.520348 0.278355 0.274449
0.54583 0.291432 0.287388
0.569604 0.302815 0.29868
0.584009 0.310048 0.306615
0.585824 0.312581 0.310658
0.586847 0.315465 0.314794
0.587747 0.317952 0.318257
0.588434 0.319966 0.321019
0.588922 0.321553 0.323201
0.589319 0.322789 0.324895
0.589609 0.323735 0.326207
0.589853 0.324468 0.327199
0.590036 0.325017 0.327977
0.590173 0.32546 0.328557
0.59028 0.32578 0.329
0.0947433 0.0940566 0.0984054
0.0947433 0.0940566 0.0984054
0.0947433 0.0940566 0.0984054
0.114839 0.0979477 0.0994278
0.143771 0.101946 0.101122
0.170871 0.106264 0.103258
0.196857 0.111589 0.106203
0.22237 0.118181 0.109865
0.248188 0.127123 0.114611
0.274723 0.138567 0.120714
0.301854 0.152789 0.130938
0.328664 0.167773 0.14403
0.35555 0.183368 0.159716
0.382696 0.199573 0.17789
0.409567 0.216297 0.196979
0.437003 0.232944 0.216876
0.464393 0.249287 0.235309
0.49163 0.265064 0.252384
0.518135 0.279515 0.267857
0.543618 0.292409 0.281514
0.567407 0.3037 0.293309
0.582437 0.311101 0.301656
0.584466 0.313634 0.30605
0.58613 0.31577 0.309636
0.587381 0.31783 0.312764
0.588113 0.319799 0.315602
0.588708 0.321386 0.317845
0.589197 0.322637 0.3196
0.589563 0.323598 0.320958
0.589822 0.324315 0.321965
0.590005 0.324849 0.322759
0.590143 0.325261 0.323354
0.590249 0.325582 0.323796
0.0947433 0.0940566 0.0984054
0.0947433 0.0940566 0.0984054
0.0947433 0.0940566 0.0984054
0.103593 0.0980697 0.0993057
0.127123 0.103761 0.100923
0.154437 0.108659 0.102846
0.184253 0.114504 0.105699
0.212634 0.122011 0.109621
0.240696 0.131411 0.114534
0.26865 0.142977 0.120668
0.296666 0.157473 0.128435
0.323766 0.17258 0.137713
0.350881 0.187716 0.149905
0.378531 0.203265 0.167651
0.40589 0.219165 0.186053
0.433722 0.234943 0.206012
0.461646 0.250858 0.225666
0.489143 0.266331 0.244053
0.51577 0.280568 0.260655
0.541268 0.293324 0.275196
0.565118 0.304631 0.287648
0.580835 0.312169 0.296483
0.582849 0.314687 0.300984
0.584634 0.316838 0.304784
0.58613 0.318593 0.307866
0.587335 0.320058 0.310292
0.588251 0.321202 0.312169
0.588739 0.322438 0.313985
0.589105 0.3234 0.315373
0.589395 0.324132 0.316457
0.589609 0.324681 0.317266
0.589761 0.325093 0.317876
0.589899 0.325429 0.318349
0.102907 0.117983 0.106874
0.103655 0.115145 0.102388
0.10692 0.112322 0.1019
0.111284 0.110994 0.101732
0.127001 0.117418 0.103517
0.152041 0.122545 0.105516
0.17966 0.127977 0.107805
0.208347 0.134417 0.111315
0.235996 0.142016 0.115908
0.263401 0.150332 0.121294
0.291691 0.161822 0.12845
0.319875 0.176623 0.137835
0.347585 0.19147 0.149004
0.37496 0.206714 0.161624
0.402304 0.222065 0.177691
0.430137 0.237827 0.196857
0.458289 0.253574 0.217273
0.486152 0.268452 0.236332
0.513146 0.282017 0.25333
0.538827 0.29424 0.26833
0.562737 0.305486 0.281544
0.579156 0.313207 0.291066
0.58117 0.315724 0.295689
0.582971 0.317906 0.299565
0.584482 0.319661 0.302754
0.585718 0.321096 0.305318
0.586709 0.322194 0.307332
0.587488 0.323064 0.308904
0.588098 0.323735 0.310109
0.588525 0.324285 0.310994
0.588861 0.324681 0.311666
0.58912 0.325002 0.312184
0.589319 0.325231 0.312566
0.113222 0.147311 0.116091
0.113466 0.143847 0.108461
0.118578 0.140429 0.107866
0.124102 0.136965 0.107271
0.139818 0.140795 0.108415
0.159808 0.147814 0.110689
0.186206 0.1561 0.11371
0.214069 0.163363 0.117006
0.240848 0.170199 0.121431
0.26746 0.177264 0.127382
0.294423 0.184741 0.13434
0.320546 0.192798 0.142336
0.346654 0.20145 0.151781
0.372656 0.210636 0.162158
0.39968 0.22501 0.174975
0.426963 0.240589 0.189746
0.455039 0.255924 0.209354
0.482872 0.270634 0.228794
0.510155 0.284153 0.246693
0.535882 0.296208 0.262364
0.560082 0.306981 0.275853
0.5776 0.314565 0.28571
0.579477 0.316732 0.290227
0.581308 0.318914 0.294255
0.582803 0.320699 0.29752
0.584039 0.322148 0.30013
0.585016 0.323247 0.30219
0.585794 0.324117 0.303807
0.586389 0.324788 0.305043
0.586847 0.325277 0.305989
0.587213 0.325673 0.306706
0.587488 0.325978 0.307256
0.587686 0.326177 0.307668
0.12314 0.172885 0.123629
0.123384 0.170367 0.115587
0.128573 0.167102 0.113939
0.135286 0.164263 0.11342
0.150576 0.165148 0.11397
0.168383 0.169665 0.115526
0.189822 0.176577 0.118441
0.216999 0.184436 0.122332
0.244099 0.191333 0.126452
0.270542 0.197803 0.132387
0.297322 0.204654 0.140063
0.323201 0.211673 0.148562
0.34902 0.219257 0.158083
0.374807 0.227329 0.168185
0.400107 0.235782 0.178637
0.425391 0.244709 0.189532
0.452171 0.258183 0.202884
0.479728 0.272496 0.221759
0.507103 0.286061 0.239857
0.532891 0.29807 0.25626
0.557137 0.30869 0.270375
0.576532 0.316823 0.28127
0.57847 0.319005 0.285939
0.580148 0.320851 0.289845
0.581521 0.322362 0.292943
0.58262 0.323568 0.295384
0.58349 0.324529 0.297292
0.584192 0.325277 0.298787
0.584726 0.325856 0.299947
0.585153 0.326314 0.300847
0.585504 0.326711 0.301579
0.585763 0.326986 0.302129
0.585977 0.327199 0.302556
0.135134 0.196414 0.134203
0.136156 0.194675 0.125963
0.141772 0.191852 0.121569
0.149996 0.189197 0.120394
0.161517 0.187396 0.12015
0.178225 0.190509 0.121538
0.195636 0.195026 0.124575
0.218189 0.202029 0.127352
0.246067 0.210468 0.132525
0.273198 0.217502 0.137819
0.300114 0.224125 0.146029
0.326009 0.23064 0.155261
0.351568 0.237369 0.164752
0.377157 0.244556 0.174685
0.402319 0.252079 0.184878
0.42742 0.259998 0.195392
0.452674 0.268254 0.206195
0.477317 0.276463 0.216785
0.50367 0.288075 0.232715
0.529183 0.299962 0.248844
0.55346 0.310521 0.263493
0.575006 0.319326 0.275639
0.577081 0.321584 0.280552
0.57882 0.323445 0.284642
0.580224 0.324941 0.287892
0.581384 0.326162 0.290517
0.5823 0.327138 0.292561
0.583001 0.327825 0.294102
0.583551 0.328344 0.295277
0.583963 0.32874 0.296162
0.584283 0.329046 0.296849
0.584543 0.329274 0.297368
0.584726 0.329458 0.297749
0.151247 0.220401 0.150286
0.152789 0.218708 0.139849
0.158145 0.216693 0.133257
0.166949 0.214267 0.129931
0.176013 0.212207 0.128664
0.188235 0.212879 0.12929
0.203006 0.215717 0.131289
0.223056 0.220874 0.13727
0.246769 0.228077 0.139391
0.274647 0.237171 0.145647
0.302724 0.244617 0.152621
0.329076 0.251133 0.162493
0.354543 0.257313 0.172259
0.379889 0.2636 0.182086
0.404974 0.270359 0.192157
0.429938 0.277378 0.202365
0.455055 0.284657 0.212772
0.479667 0.291936 0.223255
0.504295 0.29926 0.234852
0.527123 0.30605 0.245228
0.548806 0.312688 0.254917
0.570871 0.321645 0.267475
0.574929 0.324529 0.273152
0.576776 0.326467 0.277378
0.578256 0.327962 0.280827
0.579477 0.329107 0.283589
0.580423 0.330022 0.285756
0.58117 0.330709 0.287404
0.58175 0.331228 0.28867
0.582177 0.33164 0.289631
0.582528 0.331945 0.290364
0.582788 0.332189 0.290913
0.582986 0.332357 0.291341
0.170886 0.245518 0.17084
0.172793 0.243931 0.159121
0.175326 0.242237 0.148745
0.183597 0.24036 0.14522
0.191333 0.238468 0.141741
0.198703 0.236805 0.139406
0.211856 0.238819 0.141421
0.230076 0.242298 0.146532
0.251225 0.247669 0.154009
0.275425 0.255634 0.157549
0.304051 0.265049 0.162188
0.331899 0.272145 0.169619
0.357748 0.278279 0.180117
0.38291 0.283833 0.190097
0.407919 0.289876 0.200107
0.432868 0.296101 0.210147
0.457832 0.302571 0.220233
0.482521 0.309041 0.230762
0.507118 0.315511 0.241703
0.530068 0.321538 0.251575
0.551537 0.327153 0.26041
0.571221 0.332158 0.268391
0.575463 0.332845 0.270878
0.575784 0.33254 0.271931
0.576059 0.33228 0.272816
0.576486 0.332326 0.273945
0.577478 0.333227 0.276234
0.578286 0.333944 0.278065
0.578882 0.334478 0.279377
0.579324 0.334905 0.280354
0.57966 0.33521 0.281071
0.579934 0.33547 0.281682
0.580148 0.335653 0.282139
0.193484 0.271931 0.193957
0.195254 0.27071 0.183841
0.196887 0.269123 0.171908
0.201434 0.267521 0.16495
0.208011 0.266026 0.161456
0.214084 0.2645 0.157992
0.221622 0.263249 0.155108
0.238468 0.266163 0.15967
0.258122 0.26981 0.165423
0.27953 0.275517 0.173388
0.304784 0.283818 0.177935
0.333059 0.292195 0.180926
0.360403 0.299107 0.187411
0.38616 0.30486 0.198337
0.411093 0.310277 0.208515
0.436164 0.315877 0.218555
0.461112 0.321782 0.228534
0.486076 0.327657 0.239307
0.510506 0.333272 0.249546
0.5337 0.338567 0.258915
0.555169 0.343435 0.267292
0.575143 0.347997 0.274952
0.580972 0.34902 0.27776
0.581277 0.348745 0.278721
0.581537 0.348531 0.27953
0.581796 0.348333 0.280247
0.58204 0.34818 0.280873
0.582223 0.348074 0.281361
0.582361 0.347982 0.281727
0.582467 0.347906 0.282017
0.582559 0.347845 0.282246
0.58262 0.347814 0.282414
0.582666 0.347784 0.282536
0.216846 0.298756 0.21735
0.21825 0.297932 0.209583
0.219669 0.296956 0.199634
0.220645 0.295521 0.188205
0.225971 0.294194 0.183658
0.231373 0.292943 0.180301
0.237446 0.291493 0.176516
0.248386 0.291417 0.175265
0.266987 0.29453 0.180163
0.286763 0.29836 0.186175
0.308904 0.303838 0.194324
0.334142 0.311528 0.199161
0.362112 0.320302 0.203189
0.38912 0.326696 0.20824
0.414725 0.332235 0.217838
0.439918 0.337453 0.228229
0.464927 0.342794 0.238621
0.490242 0.348211 0.248997
0.514641 0.35317 0.25864
0.537881 0.357824 0.267475
0.559853 0.362325 0.275715
0.580468 0.366476 0.283116
0.588602 0.36788 0.286397
0.588876 0.367651 0.287251
0.589136 0.367437 0.287984
0.589441 0.3673 0.28867
0.589685 0.367193 0.289219
0.589883 0.367102 0.289662
0.590036 0.367025 0.289998
0.590158 0.366979 0.290257
0.590234 0.366934 0.290455
0.590311 0.366918 0.290608
0.590372 0.366888 0.29073
0.240131 0.325658 0.24036
0.241398 0.325078 0.234028
0.242756 0.324514 0.22681
0.243839 0.323674 0.217838
0.245106 0.32253 0.20824
0.249958 0.321553 0.204593
0.255772 0.320363 0.200488
0.263508 0.318959 0.196139
0.277424 0.319921 0.196719
0.296147 0.323079 0.20177
0.31667 0.32694 0.207935
0.33904 0.332158 0.216175
0.363638 0.339879 0.221653
0.390555 0.347967 0.225483
0.417716 0.354116 0.230747
0.443626 0.359091 0.23859
0.468894 0.364202 0.248905
0.49427 0.369146 0.258915
0.519142 0.373953 0.268391
0.543282 0.378393 0.277272
0.565744 0.382422 0.285237
0.587182 0.386221 0.292378
0.59765 0.387915 0.29604
0.59791 0.387762 0.296803
0.598184 0.387625 0.29752
0.598398 0.387503 0.298085
0.598596 0.387427 0.298573
0.598733 0.387335 0.298924
0.598856 0.387304 0.299229
0.598947 0.387243 0.299443
0.599023 0.387213 0.299657
0.599069 0.387182 0.299779
0.599115 0.387167 0.299886
0.263874 0.35259 0.264073
0.264897 0.352148 0.258747
0.266072 0.35172 0.252705
0.267338 0.351339 0.246098
0.268696 0.350973 0.23888
0.269566 0.349996 0.229923
0.275227 0.349096 0.225483
0.282383 0.347967 0.221286
0.291066 0.346502 0.216617
0.307439 0.348638 0.219043
0.326513 0.352148 0.224399
0.347494 0.356161 0.230716
0.369223 0.361013 0.238804
0.393011 0.368154 0.244434
0.419333 0.375357 0.24831
0.446433 0.381979 0.253773
0.472923 0.386679 0.259464
0.498863 0.391714 0.269718
0.524544 0.396582 0.279469
0.549462 0.400885 0.288334
0.572778 0.404608 0.296086
0.594629 0.407858 0.302815
0.607691 0.40972 0.306813
0.60798 0.409613 0.307515
0.60824 0.409522 0.308125
0.608438 0.40943 0.308614
0.608621 0.409369 0.309026
0.608774 0.409308 0.309377
0.608881 0.409277 0.309636
0.608957 0.409247 0.309819
0.609018 0.409216 0.309957
0.609064 0.409201 0.310063
0.60911 0.409186 0.310155
0.288746 0.380194 0.287678
0.289677 0.379873 0.283604
0.290791 0.379614 0.279133
0.292058 0.37937 0.274083
0.293492 0.379217 0.268147
0.29485 0.378943 0.261646
0.296071 0.37821 0.25301
0.302174 0.377325 0.248051
0.310094 0.376242 0.242557
0.3196 0.374777 0.237598
0.337484 0.377829 0.241993
0.357137 0.381201 0.247318
0.378164 0.385473 0.253834
0.399664 0.390158 0.261616
0.422858 0.397009 0.267948
0.448417 0.403708 0.271824
0.475792 0.409903 0.276936
0.502647 0.414679 0.28249
0.529305 0.419333 0.290455
0.555337 0.423957 0.299672
0.579614 0.427756 0.3075
0.602182 0.430869 0.314122
0.619593 0.433066 0.318898
0.619867 0.433021 0.319478
0.620111 0.432959 0.319997
0.620295 0.432914 0.320378
0.620462 0.432883 0.320714
0.620569 0.432837 0.320974
0.620676 0.432807 0.321172
0.620737 0.432792 0.32134
0.620813 0.432792 0.321462
0.620859 0.432761 0.321553
0.620905 0.432761 0.32163
0.313649 0.40795 0.311284
0.314458 0.407706 0.307927
0.315328 0.407477 0.30428
0.316228 0.407279 0.300328
0.317327 0.407233 0.296101
0.318502 0.407233 0.291524
0.319783 0.407034 0.28481
0.321462 0.406271 0.274281
0.328649 0.405432 0.268452
0.337667 0.404456 0.263294
0.348852 0.403494 0.260014
0.367971 0.407019 0.264958
0.388037 0.410925 0.270588
0.409216 0.415183 0.276646
0.430701 0.419776 0.283879
0.452964 0.425879 0.290364
0.477729 0.431662 0.294636
0.504875 0.437888 0.300038
0.532509 0.443137 0.306325
0.559289 0.447272 0.312154
0.584314 0.450858 0.318059
0.608515 0.454398 0.325048
0.629938 0.457206 0.330663
0.632746 0.457511 0.33164
0.63299 0.457511 0.332006
0.633204 0.457511 0.332311
0.633387 0.457496 0.33257
0.633539 0.457496 0.332784
0.633646 0.457496 0.332952
0.633738 0.457496 0.333089
0.633799 0.457481 0.333181
0.63386 0.457496 0.333257
0.63389 0.457481 0.333318
0.336965 0.435569 0.334035
0.337697 0.435462 0.331365
0.338506 0.435431 0.328389
0.339376 0.435447 0.325246
0.34023 0.435431 0.321904
0.341131 0.435447 0.318212
0.34229 0.435462 0.313405
0.343786 0.435187 0.305867
0.346334 0.43418 0.294682
0.355367 0.433631 0.288914
0.365438 0.43241 0.283726
0.379431 0.432898 0.282765
0.398779 0.436545 0.287587
0.41915 0.440482 0.292821
0.440208 0.444739 0.298436
0.461982 0.449592 0.306447
0.483726 0.455329 0.313344
0.506676 0.460075 0.316594
0.533822 0.466117 0.322408
0.561944 0.471733 0.329015
0.587839 0.475547 0.333867
0.612863 0.478645 0.338155
0.635599 0.481224 0.342
0.644358 0.48217 0.343557
0.64445 0.482185 0.343862
0.644526 0.482231 0.344152
0.644617 0.482246 0.344427
0.644678 0.482261 0.34464
0.644724 0.482261 0.344808
0.64477 0.482277 0.344945
0.6448 0.482277 0.345052
0.644831 0.482292 0.345144
0.644846 0.482292 0.345205
0.35877 0.46244 0.355367
0.35935 0.462318 0.353017
0.359991 0.462242 0.350576
0.360708 0.462211 0.347997
0.361486 0.462196 0.345312
0.36231 0.462196 0.342489
0.3635 0.462272 0.338735
0.365194 0.462409 0.333425
0.367437 0.462364 0.324956
0.372335 0.461601 0.314397
0.382605 0.461097 0.30837
0.39321 0.459937 0.302464
0.409628 0.462028 0.30425
0.429374 0.465995 0.309117
0.450446 0.470527 0.315267
0.47219 0.474998 0.322454
0.493263 0.479591 0.331746
0.514214 0.484962 0.338247
0.537072 0.489311 0.340276
0.562081 0.493828 0.344091
0.588815 0.498711 0.348974
0.615503 0.503105 0.353735
0.639155 0.506279 0.357427
0.654627 0.50808 0.359564
0.654643 0.508095 0.359579
0.654658 0.50811 0.35964
0.654688 0.508141 0.359731
0.654719 0.508156 0.359808
0.654749 0.508171 0.359884
0.654765 0.508171 0.35996
0.65478 0.508186 0.360006
0.654795 0.508186 0.360052
0.65481 0.508202 0.360082
0.379812 0.48893 0.375647
0.380438 0.488914 0.373617
0.381048 0.488853 0.371496
0.381689 0.488823 0.369253
0.382345 0.488792 0.366934
0.383001 0.488762 0.364538
0.384024 0.488807 0.361563
0.385626 0.48896 0.357519
0.3879 0.489143 0.351583
0.390646 0.488945 0.34197
0.398413 0.488869 0.334539
0.409125 0.488685 0.328435
0.419944 0.487007 0.321202
0.439857 0.491585 0.326345
0.460761 0.496178 0.332753
0.482002 0.500496 0.340414
0.502708 0.504173 0.347784
0.522988 0.508049 0.356207
0.54464 0.513787 0.362615
0.566857 0.518227 0.363455
0.590753 0.522362 0.365835
0.614862 0.52668 0.368933
0.639414 0.530846 0.372335
0.662348 0.534325 0.375296
0.663142 0.534478 0.375128
0.663096 0.534478 0.374945
0.663081 0.534478 0.374853
0.663066 0.534493 0.374807
0.663066 0.534493 0.374777
0.663066 0.534493 0.374777
0.66305 0.534493 0.374762
0.66305 0.534493 0.374762
0.66305 0.534493 0.374762
0.398474 0.514504 0.394858
0.399008 0.514488 0.393088
0.399603 0.514519 0.391287
0.400198 0.514549 0.389364
0.400824 0.514595 0.387411
0.40148 0.514641 0.385367
0.402304 0.514702 0.382849
0.403693 0.514839 0.379446
0.405737 0.515068 0.374792
0.408927 0.515465 0.368338
0.412406 0.515114 0.35787
0.423331 0.515938 0.354421
0.434592 0.515297 0.347478
0.44947 0.516045 0.343801
0.470161 0.520745 0.350698
0.491035 0.525093 0.357809
0.511635 0.528954 0.364645
0.53225 0.532204 0.370871
0.552789 0.536309 0.378256
0.574594 0.542748 0.384512
0.596902 0.547784 0.38529
0.618494 0.551827 0.386831
0.640726 0.555169 0.388632
0.662058 0.558221 0.390478
0.669474 0.559258 0.390768
0.669429 0.559258 0.390372
0.669398 0.559258 0.390112
0.669383 0.559274 0.389929
0.669367 0.559289 0.389807
0.669367 0.559289 0.389715
0.669352 0.559289 0.389654
0.669352 0.559304 0.389609
0.669352 0.559304 0.389593
0.414832 0.539193 0.412345
0.415396 0.539269 0.410864
0.415976 0.539345 0.409308
0.416541 0.539391 0.407675
0.417151 0.539498 0.406027
0.417746 0.539544 0.404318
0.418616 0.539666 0.402274
0.420005 0.539803 0.399405
0.421988 0.540047 0.395514
0.425101 0.540597 0.390158
0.428855 0.54107 0.382254
0.436316 0.541665 0.375525
0.447776 0.541955 0.371176
0.459358 0.540505 0.362936
0.478828 0.544518 0.367391
0.499458 0.548882 0.373678
0.519982 0.55288 0.379767
0.541039 0.556374 0.385397
0.561746 0.559564 0.390967
0.581765 0.563806 0.39765
0.603235 0.570123 0.403998
0.624369 0.575433 0.404395
0.645121 0.579736 0.4056
0.665354 0.583001 0.406744
0.678752 0.584955 0.407279
0.678721 0.584985 0.406622
0.678706 0.585 0.406165
0.678691 0.585031 0.405859
0.678676 0.585046 0.405631
0.678676 0.585031 0.405447
0.678676 0.585046 0.405341
0.67866 0.585046 0.405249
0.67866 0.585061 0.405188
0.429725 0.562783 0.427909
0.430365 0.562921 0.426551
0.430991 0.562997 0.425162
0.431647 0.563088 0.423758
0.432334 0.56318 0.422293
0.433036 0.563272 0.420829
0.433967 0.563455 0.419043
0.435279 0.563668 0.416632
0.43714 0.564004 0.413382
0.439948 0.56463 0.408957
0.443641 0.565454 0.402609
0.447639 0.565576 0.392691
0.459403 0.566888 0.389944
0.471321 0.566262 0.384131
0.486473 0.566644 0.381415
0.506966 0.571176 0.387015
0.52755 0.57525 0.392599
0.548867 0.579019 0.397986
0.570153 0.582589 0.403372
0.589929 0.585718 0.408682
0.609659 0.589731 0.414252
0.630411 0.59646 0.419959
0.650477 0.601572 0.420874
0.670924 0.606241 0.421927
0.690425 0.609995 0.423026
0.690791 0.610101 0.422248
0.690761 0.610117 0.421622
0.69073 0.610132 0.42118
0.690715 0.610132 0.420859
0.6907 0.610132 0.420615
0.6907 0.610132 0.420447
0.6907 0.610147 0.420325
0.690684 0.610147 0.420218
0.443214 0.584863 0.44155
0.44387 0.585 0.440345
0.444556 0.585138 0.439094
0.445258 0.58529 0.437812
0.445945 0.585397 0.4365
0.446708 0.58558 0.435187
0.447623 0.585794 0.433539
0.44892 0.586069 0.431342
0.450767 0.586572 0.428428
0.453391 0.587366 0.424491
0.456733 0.588296 0.418952
0.460334 0.588739 0.410529
0.469291 0.589578 0.405112
0.481193 0.589319 0.40061
0.492958 0.586679 0.39295
0.51339 0.591577 0.398352
0.534295 0.596277 0.403738
0.555856 0.600504 0.408911
0.577646 0.604852 0.414191
0.59794 0.608133 0.418814
0.617502 0.611215 0.423468
0.636362 0.615442 0.428351
0.656199 0.621881 0.433127
0.675898 0.627192 0.43508
0.695155 0.631189 0.435584
0.700465 0.632227 0.435035
0.700435 0.632242 0.434287
0.700404 0.632242 0.433738
0.700389 0.632242 0.433341
0.700374 0.632258 0.433051
0.700374 0.632258 0.432853
0.700359 0.632258 0.432685
0.700359 0.632258 0.432563
0.454612 0.604761 0.452934
0.455329 0.60502 0.45182
0.456077 0.605295 0.45066
0.45684 0.605554 0.4495
0.457588 0.605814 0.448325
0.458396 0.606119 0.447166
0.459388 0.606485 0.445716
0.4607 0.606973 0.443763
0.462425 0.607446 0.441093
0.464714 0.608072 0.43743
0.467674 0.60882 0.432288
0.471046 0.609247 0.424552
0.47744 0.609766 0.4168
0.489723 0.61062 0.413626
0.501534 0.608286 0.407385
0.519173 0.61088 0.408133
0.54023 0.615946 0.413199
0.56173 0.619974 0.417838
0.583352 0.623896 0.422599
0.604395 0.627619 0.427253
0.624537 0.631144 0.431601
0.642954 0.634333 0.435798
0.661402 0.638895 0.439933
0.680629 0.644511 0.443687
0.699519 0.649668 0.446571
0.708705 0.651774 0.446143
0.708675 0.651774 0.445243
0.708644 0.651774 0.444602
0.708629 0.651789 0.444129
0.708614 0.651789 0.443778
0.708614 0.651789 0.443534
0.708614 0.651789 0.443336
0.708598 0.651789 0.443198
0.456184 0.60592 0.457435
0.456855 0.60621 0.456291
0.457618 0.6065 0.455207
0.458396 0.606806 0.454078
0.45919 0.607095 0.452934
0.459968 0.607385 0.451789
0.460945 0.607752 0.450385
0.462242 0.608225 0.448478
0.463966 0.608835 0.445884
0.466255 0.609628 0.442374
0.469184 0.610559 0.437522
0.47277 0.611505 0.430518
0.47744 0.612222 0.420752
0.491737 0.617578 0.419501
0.505669 0.620249 0.415671
0.522194 0.623163 0.414206
0.543084 0.627817 0.418845
0.564523 0.63154 0.423072
0.586023 0.635111 0.427558
0.607217 0.638575 0.431968
0.627466 0.641855 0.436133
0.645777 0.644312 0.439658
0.66331 0.647181 0.443351
0.681697 0.651835 0.446815
0.70013 0.656886 0.449836
0.712291 0.660136 0.451911
0.712322 0.660182 0.452064
0.712169 0.659922 0.45124
0.712077 0.659739 0.450629
0.712001 0.659617 0.450187
0.711955 0.65951 0.449851
0.71191 0.659434 0.449607
0.711894 0.659388 0.449439
0.457465 0.606912 0.461265
0.458183 0.607233 0.460121
0.458915 0.607553 0.45893
0.459693 0.607828 0.457801
0.460456 0.608103 0.456672
0.46125 0.608408 0.455558
0.462181 0.608743 0.454154
0.463462 0.609216 0.452293
0.465141 0.609812 0.44976
0.467338 0.610513 0.446311
0.470207 0.611414 0.441581
0.473793 0.612451 0.434928
0.477653 0.612894 0.42472
0.491096 0.61799 0.422293
0.505165 0.620874 0.41883
0.520516 0.623087 0.415106
0.541512 0.627832 0.41976
0.563073 0.631617 0.423957
0.584619 0.635142 0.428428
0.605814 0.638605 0.432776
0.626123 0.641932 0.436912
0.64445 0.644388 0.44033
0.66186 0.647166 0.444007
0.679866 0.65156 0.447395
0.698009 0.65655 0.450385
0.712413 0.660349 0.452628
0.712566 0.660609 0.453483
0.712673 0.660807 0.454154
0.712749 0.660929 0.454566
0.712657 0.660777 0.454063
0.712596 0.66067 0.453681
0.712551 0.660578 0.453407
0.712505 0.660517 0.453208
0.458518 0.607721 0.464317
0.459205 0.608026 0.463172
0.459937 0.608331 0.462013
0.46067 0.608637 0.460807
0.461479 0.608942 0.459678
0.462257 0.609201 0.458534
0.463188 0.609552 0.457176
0.464439 0.609995 0.455329
0.466072 0.610544 0.452857
0.468223 0.611246 0.44947
0.471031 0.612116 0.444816
0.474601 0.613184 0.438361
0.478569 0.613886 0.428748
0.490547 0.618265 0.424536
0.504738 0.621363 0.421302
0.51931 0.623133 0.416144
0.54023 0.627848 0.420523
0.561852 0.631662 0.42472
0.583474 0.635172 0.429129
0.604639 0.638636 0.433448
0.625025 0.641978 0.437522
0.643366 0.644465 0.440925
0.66067 0.647135 0.444526
0.678386 0.651347 0.447852
0.696284 0.65626 0.450828
0.71252 0.660533 0.453223
0.712657 0.660777 0.454063
0.712779 0.66099 0.454734
0.712856 0.661143 0.455238
0.712932 0.661265 0.455634
0.712978 0.661357 0.45594
0.713024 0.661418 0.456168
0.713054 0.661479 0.456352
0.459373 0.608377 0.466697
0.460075 0.608667 0.465583
0.460777 0.608972 0.464408
0.461509 0.609277 0.463218
0.462211 0.609567 0.462028
0.463035 0.609857 0.460914
0.463981 0.610178 0.459541
0.465217 0.61062 0.45774
0.466835 0.61117 0.455299
0.46894 0.611826 0.451957
0.471733 0.612696 0.447379
0.475257 0.613779 0.441062
0.479301 0.614649 0.431846
0.490074 0.618463 0.426307
0.504387 0.621714 0.423255
0.519127 0.623682 0.418265
0.539208 0.627848 0.421103
0.560891 0.631708 0.425315
0.582559 0.635187 0.429679
0.603693 0.638651 0.433982
0.62414 0.642023 0.438025
0.642496 0.644511 0.441413
0.659709 0.64712 0.444953
0.67718 0.651164 0.448234
0.694896 0.656031 0.451179
0.711467 0.66041 0.45362
0.712749 0.660929 0.454536
0.712856 0.661128 0.455192
0.712947 0.66128 0.455695
0.713008 0.661402 0.456092
0.713069 0.661494 0.456397
0.7131 0.661555 0.456626
0.71313 0.661616 0.456794
0.460029 0.608865 0.468559
0.460746 0.609171 0.46743
0.461448 0.609461 0.46627
0.462165 0.609766 0.465095
0.462882 0.610056 0.463905
0.46363 0.610346 0.46276
0.464591 0.610681 0.461418
