YOYO-Client/Yoyo/Assets.xcassets/Havana.dataset/Kodak Vision3 500T.cube
TITLE "Kodak Vision3 500T"
LUT_3D_SIZE 5
0.0947433 0.0940566 0.0984054
0.256779 0.123186 0.123751
0.466926 0.247776 0.244129
0.587747 0.317952 0.318257
0.59028 0.32578 0.329
0.170886 0.245518 0.17084
0.251225 0.247669 0.154009
0.457832 0.302571 0.220233
0.576059 0.33228 0.272816
0.580148 0.335653 0.282139
0.35877 0.46244 0.355367
0.367437 0.462364 0.324956
0.493263 0.479591 0.331746
0.654643 0.508095 0.359579
0.65481 0.508202 0.360082
0.457465 0.606912 0.461265
0.465141 0.609812 0.44976
0.541512 0.627832 0.41976
0.698009 0.65655 0.450385
0.712505 0.660517 0.453208
0.461585 0.610056 0.473045
0.468971 0.612909 0.461799
0.536385 0.627832 0.42269
0.691051 0.655375 0.452155
0.713359 0.661997 0.458061
0.127489 0.136553 0.237858
0.250278 0.158755 0.248234
0.46836 0.260884 0.321401
0.589715 0.32575 0.366522
0.592447 0.33312 0.373968
0.168582 0.238483 0.245579
0.244816 0.244358 0.246082
0.467292 0.277424 0.273106
0.5888 0.32108 0.320287
0.591257 0.328511 0.330724
0.351507 0.458457 0.377218
0.358389 0.457298 0.354467
0.488975 0.475608 0.335973
0.658366 0.504952 0.37644
0.658839 0.505104 0.378393
0.453498 0.605722 0.473762
0.460609 0.608743 0.462547
0.533425 0.628321 0.426291
0.69395 0.656397 0.453437
0.713069 0.661494 0.456397
0.457511 0.608774 0.484871
0.46479 0.611887 0.474281
0.527733 0.628168 0.429221
0.685634 0.655009 0.455558
0.714 0.663066 0.461357
0.250248 0.272663 0.428916
0.294286 0.278935 0.438529
0.46363 0.319753 0.453162
0.577371 0.367376 0.48629
0.578927 0.372854 0.490547
0.217807 0.275441 0.416434
0.248844 0.268772 0.423499
0.454841 0.316808 0.444587
0.582376 0.366781 0.4766
0.583917 0.372045 0.480583
0.344869 0.452735 0.45478
0.346532 0.451621 0.453559
0.49572 0.489113 0.481559
0.659678 0.493019 0.487831
0.658427 0.490745 0.487129
0.444953 0.606836 0.531106
0.450584 0.609094 0.526436
0.492729 0.626627 0.485328
0.685039 0.66511 0.497215
0.719631 0.67219 0.499825
0.447898 0.609354 0.539818
0.453193 0.611536 0.534951
0.489601 0.625879 0.489601
0.666224 0.660258 0.490654
0.720012 0.673518 0.494545
0.326207 0.352667 0.559625
0.344839 0.355016 0.564691
0.486564 0.380255 0.594293
0.5832 0.412711 0.606531
0.584848 0.415427 0.60763
0.302449 0.346471 0.547967
0.324025 0.350256 0.55491
0.47602 0.380163 0.590219
0.584131 0.413947 0.606149
0.58587 0.417121 0.608316
0.350362 0.453864 0.545815
0.348989 0.450889 0.549554
0.475425 0.483711 0.637522
0.628397 0.484779 0.632883
0.627131 0.48249 0.630762
0.450568 0.60708 0.61091
0.452796 0.606912 0.610712
0.471183 0.611139 0.614282
0.734707 0.724804 0.711788
0.819028 0.735759 0.722255
0.464561 0.631571 0.628855
0.46743 0.632975 0.627802
0.483192 0.639902 0.618082
0.689403 0.731441 0.674281
0.807782 0.779812 0.699596
0.334844 0.359091 0.572869
0.352392 0.362997 0.581003
0.491081 0.385031 0.606134
0.58381 0.413718 0.606943
0.585321 0.416205 0.60795
0.312505 0.352392 0.56144
0.334325 0.358968 0.572625
0.480079 0.384833 0.605966
0.584604 0.415015 0.607462
0.586206 0.417685 0.608545
0.35465 0.455467 0.571801
0.353674 0.452735 0.577035
0.466423 0.473075 0.641276
0.619913 0.474372 0.637797
0.619364 0.473487 0.637308
0.442542 0.601373 0.626337
0.444678 0.601465 0.627924
0.471244 0.609094 0.646082
0.737804 0.731411 0.808194
0.817563 0.735729 0.828336
0.467521 0.635584 0.645899
0.470497 0.637552 0.647684
0.486061 0.64744 0.653208
0.706447 0.773037 0.76109
0.923262 0.918135 0.906096
