YOYO-Client/Yoyo/Assets.xcassets/Havana.dataset/Kodak Vision3 500T.cube
TITLE "Kodak Vision3 500T"
LUT_3D_SIZE 9
0.0947433 0.0940566 0.0984054
0.158984 0.100633 0.104341
0.256779 0.123186 0.123751
0.359762 0.180835 0.174456
0.466926 0.247776 0.244129
0.569604 0.302815 0.29868
0.587747 0.317952 0.318257
0.589609 0.323735 0.326207
0.59028 0.32578 0.329
0.113222 0.147311 0.116091
0.139818 0.140795 0.108415
0.240848 0.170199 0.121431
0.346654 0.20145 0.151781
0.455039 0.255924 0.209354
0.560082 0.306981 0.275853
0.582803 0.320699 0.29752
0.586389 0.324788 0.305043
0.587686 0.326177 0.307668
0.170886 0.245518 0.17084
0.191333 0.238468 0.141741
0.251225 0.247669 0.154009
0.357748 0.278279 0.180117
0.457832 0.302571 0.220233
0.551537 0.327153 0.26041
0.576059 0.33228 0.272816
0.578882 0.334478 0.279377
0.580148 0.335653 0.282139
0.263874 0.35259 0.264073
0.268696 0.350973 0.23888
0.291066 0.346502 0.216617
0.369223 0.361013 0.238804
0.472923 0.386679 0.259464
0.572778 0.404608 0.296086
0.60824 0.409522 0.308125
0.608881 0.409277 0.309636
0.60911 0.409186 0.310155
0.35877 0.46244 0.355367
0.361486 0.462196 0.345312
0.367437 0.462364 0.324956
0.409628 0.462028 0.30425
0.493263 0.479591 0.331746
0.588815 0.498711 0.348974
0.654643 0.508095 0.359579
0.654749 0.508171 0.359884
0.65481 0.508202 0.360082
0.429725 0.562783 0.427909
0.432334 0.56318 0.422293
0.43714 0.564004 0.413382
0.459403 0.566888 0.389944
0.52755 0.57525 0.392599
0.609659 0.589731 0.414252
0.690425 0.609995 0.423026
0.690715 0.610132 0.420859
0.690684 0.610147 0.420218
0.457465 0.606912 0.461265
0.460456 0.608103 0.456672
0.465141 0.609812 0.44976
0.477653 0.612894 0.42472
0.541512 0.627832 0.41976
0.626123 0.641932 0.436912
0.698009 0.65655 0.450385
0.712749 0.660929 0.454566
0.712505 0.660517 0.453208
0.460517 0.609247 0.470008
0.463401 0.610452 0.46537
0.467918 0.612039 0.458671
0.480293 0.615686 0.436011
0.537774 0.627848 0.421927
0.622889 0.642069 0.438727
0.692897 0.65568 0.451682
0.713054 0.661479 0.456352
0.713237 0.661814 0.457435
0.461585 0.610056 0.473045
0.464576 0.611322 0.468498
0.468971 0.612909 0.461799
0.481163 0.61651 0.439734
0.536385 0.627832 0.42269
0.621714 0.64213 0.439384
0.691051 0.655375 0.452155
0.713161 0.661662 0.456977
0.713359 0.661997 0.458061
0.10219 0.103761 0.145083
0.154131 0.10927 0.156786
0.25536 0.133822 0.200443
0.360204 0.187152 0.235523
0.466804 0.249302 0.27985
0.570077 0.302724 0.320775
0.587594 0.319402 0.338857
0.589517 0.325246 0.346029
0.590249 0.327321 0.34847
0.108751 0.130968 0.136736
0.124666 0.123674 0.129076
0.244953 0.134447 0.133837
0.352529 0.17882 0.172641
0.462837 0.246479 0.242802
0.566064 0.301961 0.297795
0.587869 0.318334 0.318257
0.589746 0.324102 0.326207
0.590417 0.326131 0.329
0.165484 0.240589 0.20734
0.167758 0.234089 0.168215
0.243656 0.239948 0.157076
0.360174 0.266377 0.189166
0.461402 0.290959 0.233036
0.556298 0.317479 0.273747
0.580621 0.32491 0.289021
0.583932 0.328267 0.29633
0.585092 0.329381 0.298802
0.258503 0.350072 0.281941
0.262806 0.348287 0.263249
0.277058 0.344457 0.224537
0.366201 0.357778 0.240375
0.475273 0.383948 0.27126
0.5776 0.400458 0.304952
0.610849 0.404639 0.316304
0.61146 0.404257 0.3178
0.611688 0.404135 0.318349
0.356191 0.460792 0.364431
0.358526 0.460334 0.354955
0.363317 0.460197 0.338415
0.404181 0.461021 0.307149
0.49163 0.478019 0.333165
0.59086 0.497734 0.354818
0.656214 0.506783 0.366171
0.656458 0.506889 0.366979
0.656565 0.506935 0.367346
0.427497 0.560678 0.433417
0.429725 0.561151 0.427649
0.433829 0.561715 0.419028
0.452796 0.564797 0.392309
0.524468 0.574334 0.395087
0.607874 0.588251 0.415198
0.68957 0.608408 0.424613
0.690166 0.608637 0.423178
0.690181 0.608667 0.422797
0.455787 0.606378 0.466377
0.458717 0.607645 0.461769
0.463294 0.609384 0.454978
0.47631 0.613321 0.432242
0.538399 0.628061 0.42237
0.624338 0.642222 0.438712
0.696376 0.656489 0.451606
0.712917 0.66125 0.455589
0.712734 0.660899 0.454459
0.458869 0.608759 0.474968
0.461769 0.609949 0.470451
0.466148 0.611719 0.463676
0.478676 0.615579 0.442496
0.534401 0.628016 0.424567
0.62089 0.642374 0.440635
0.690745 0.655512 0.45301
0.713298 0.661891 0.45771
0.713481 0.662211 0.458717
0.459937 0.609552 0.477928
0.462852 0.610773 0.473503
0.467216 0.612589 0.466743
0.479393 0.61619 0.44593
0.532952 0.628016 0.425345
0.619623 0.64242 0.441321
0.688762 0.655177 0.453513
0.71342 0.662104 0.458381
0.713619 0.662425 0.459388
0.127489 0.136553 0.237858
0.177981 0.13843 0.237568
0.250278 0.158755 0.248234
0.360006 0.205905 0.28719
0.46836 0.260884 0.321401
0.571771 0.309789 0.352224
0.589715 0.32575 0.366522
0.591699 0.331197 0.37203
0.592447 0.33312 0.373968
0.117876 0.142901 0.214328
0.12462 0.130983 0.227131
0.232639 0.150271 0.231281
0.354665 0.198672 0.263569
0.464073 0.256001 0.29807
0.56791 0.306508 0.333425
0.588861 0.323552 0.350317
0.590784 0.329122 0.356664
0.59144 0.331029 0.358846
0.168582 0.238483 0.245579
0.170459 0.235233 0.242161
0.244816 0.244358 0.246082
0.366766 0.255619 0.251743
0.467292 0.277424 0.273106
0.562844 0.3037 0.299351
0.5888 0.32108 0.320287
0.590585 0.326543 0.328008
0.591257 0.328511 0.330724
0.253239 0.348074 0.305455
0.256062 0.346151 0.29398
0.26453 0.343252 0.26511
0.363012 0.354437 0.244923
0.479789 0.379873 0.293614
0.583978 0.393805 0.320195
0.613519 0.396765 0.329137
0.613596 0.396445 0.331304
0.613626 0.396323 0.332082
0.351507 0.458457 0.377218
0.35436 0.457908 0.369024
0.358389 0.457298 0.354467
0.394324 0.459403 0.31487
0.488975 0.475608 0.335973
0.594354 0.496437 0.364279
0.658366 0.504952 0.37644
0.658717 0.505058 0.377859
0.658839 0.505104 0.378393
0.424155 0.557626 0.441352
0.426246 0.558007 0.43595
0.42977 0.558709 0.427344
0.444831 0.56144 0.399786
0.519753 0.573053 0.398917
0.605249 0.586084 0.416663
0.688319 0.606012 0.4271
0.689067 0.606226 0.42652
0.689082 0.606256 0.426398
0.453498 0.605722 0.473762
0.45623 0.606882 0.469383
0.460609 0.608743 0.462547
0.473732 0.613092 0.441855
0.533425 0.628321 0.426291
0.621668 0.642664 0.441444
0.69395 0.656397 0.453437
0.713207 0.661738 0.457191
0.713069 0.661494 0.456397
0.456443 0.60798 0.481987
0.459312 0.609201 0.477806
0.463676 0.611032 0.471199
0.475929 0.615 0.451286
0.529244 0.628244 0.428489
0.617792 0.642832 0.443473
0.687678 0.655329 0.455009
0.71368 0.662531 0.459709
0.713863 0.662837 0.460624
0.457511 0.608774 0.484871
0.460349 0.609979 0.48072
0.46479 0.611887 0.474281
0.476753 0.615671 0.45452
0.527733 0.628168 0.429221
0.616373 0.642893 0.444205
0.685634 0.655009 0.455558
0.713817 0.662776 0.460441
0.714 0.663066 0.461357
0.184573 0.201236 0.331731
0.209857 0.205249 0.338994
0.269123 0.212558 0.341253
0.356542 0.239033 0.349111
0.465248 0.285817 0.383581
0.577935 0.328939 0.411475
0.597375 0.343496 0.422324
0.598764 0.348318 0.426413
0.599252 0.349996 0.427832
0.158572 0.202594 0.322499
0.181125 0.19707 0.326299
0.239857 0.207294 0.337987
0.349615 0.235691 0.342229
0.463066 0.283223 0.375265
0.57409 0.326421 0.400961
0.597116 0.341787 0.412222
0.599039 0.346731 0.416602
0.599725 0.348486 0.418143
0.18088 0.243366 0.319158
0.177035 0.235691 0.323095
0.218708 0.239216 0.34313
0.346288 0.245411 0.338308
0.460151 0.278737 0.359777
0.567864 0.322301 0.383154
0.59527 0.338674 0.394965
0.59736 0.343755 0.399634
0.598108 0.345541 0.401297
0.255802 0.345373 0.349203
0.257084 0.344167 0.347997
0.25977 0.342443 0.346258
0.370962 0.366155 0.362387
0.486992 0.374075 0.368994
0.593606 0.382223 0.376669
0.612329 0.38468 0.381659
0.612421 0.384695 0.383291
0.612451 0.384695 0.383871
0.342916 0.455528 0.407965
0.344656 0.455024 0.403647
0.348684 0.454246 0.39617
0.368994 0.455024 0.363348
0.48539 0.473701 0.367376
0.608637 0.495247 0.396536
0.663127 0.500755 0.408026
0.663386 0.500618 0.41004
0.663462 0.500542 0.410727
0.416464 0.551736 0.461982
0.418372 0.551644 0.458
0.42121 0.551659 0.451423
0.431601 0.553079 0.428061
0.505745 0.570764 0.410758
0.59881 0.580987 0.421744
0.686351 0.600061 0.436011
0.68632 0.599893 0.437491
0.686305 0.599832 0.437964
0.448524 0.60412 0.492119
0.450553 0.605066 0.488624
0.453849 0.606638 0.48307
0.466117 0.611841 0.464973
0.517617 0.627817 0.436179
0.613611 0.643977 0.449134
0.687694 0.656245 0.458549
0.714168 0.66334 0.462181
0.714199 0.663401 0.462379
0.451347 0.6065 0.499855
0.453269 0.607309 0.49633
0.456916 0.608896 0.490898
0.469154 0.614191 0.473487
0.512215 0.626993 0.437858
0.608469 0.644068 0.451499
0.679515 0.654841 0.460502
0.714778 0.664332 0.465248
0.7149 0.664546 0.465888
0.452338 0.607324 0.502571
0.454414 0.608194 0.499123
0.457954 0.609674 0.49366
0.470268 0.61503 0.476493
0.510277 0.626657 0.438422
0.606653 0.644053 0.452293
0.676799 0.654353 0.461173
0.714977 0.664652 0.466209
0.715099 0.664866 0.46685
0.250248 0.272663 0.428916
0.262013 0.272923 0.430625
0.294286 0.278935 0.438529
0.373556 0.290379 0.443885
0.46363 0.319753 0.453162
0.55906 0.354696 0.476036
0.577371 0.367376 0.48629
0.578454 0.371435 0.489448
0.578927 0.372854 0.490547
0.231525 0.268589 0.424033
0.248631 0.270771 0.4262
0.271992 0.274205 0.433722
0.364523 0.289189 0.442206
0.460121 0.318517 0.449744
0.557061 0.353796 0.471992
0.579248 0.367208 0.482597
0.580392 0.371176 0.485634
0.580789 0.372564 0.486702
0.217807 0.275441 0.416434
0.217533 0.269917 0.419898
0.248844 0.268772 0.423499
0.349447 0.289509 0.439841
0.454841 0.316808 0.444587
0.554314 0.352499 0.465766
0.582376 0.366781 0.4766
0.583505 0.370672 0.479545
0.583917 0.372045 0.480583
0.265797 0.351003 0.421515
0.264668 0.348714 0.423774
0.262623 0.344564 0.427802
0.344244 0.361975 0.460639
0.471702 0.366979 0.456352
0.564935 0.379705 0.463096
0.597787 0.384039 0.467567
0.597482 0.384009 0.467964
0.597375 0.384009 0.468132
0.344869 0.452735 0.45478
0.345571 0.452308 0.454307
0.346532 0.451621 0.453559
0.350668 0.450858 0.452567
0.49572 0.489113 0.481559
0.61239 0.494881 0.487587
0.659678 0.493019 0.487831
0.658747 0.491341 0.487312
0.658427 0.490745 0.487129
0.408499 0.546181 0.501305
0.408942 0.54583 0.499245
0.409659 0.545281 0.495903
0.416052 0.545113 0.486091
0.488197 0.570214 0.476738
0.593851 0.581949 0.48246
0.71075 0.608896 0.498222
0.711269 0.60795 0.49868
0.711345 0.607553 0.498772
0.444953 0.606836 0.531106
0.447105 0.607736 0.529366
0.450584 0.609094 0.526436
0.459617 0.61294 0.516197
0.492729 0.626627 0.485328
0.603052 0.654856 0.493462
0.685039 0.66511 0.497215
0.719844 0.672724 0.499687
0.719631 0.67219 0.499825
0.44712 0.608682 0.537514
0.449195 0.609537 0.535683
0.452537 0.610895 0.532738
0.462058 0.615076 0.522576
0.49041 0.626062 0.488472
0.592767 0.652338 0.488579
0.670726 0.661418 0.492393
0.720241 0.673945 0.495964
0.720226 0.67393 0.495903
0.447898 0.609354 0.539818
0.449882 0.610147 0.537911
0.453193 0.611536 0.534951
0.462928 0.615854 0.52488
0.489601 0.625879 0.489601
0.589075 0.651408 0.486839
0.666224 0.660258 0.490654
0.718914 0.673259 0.49453
0.720012 0.673518 0.494545
0.299413 0.32459 0.508995
0.307378 0.325124 0.510369
0.32401 0.328115 0.516579
0.39942 0.341543 0.528862
0.475212 0.35642 0.534478
0.561868 0.384512 0.546288
0.581262 0.395804 0.558663
0.583001 0.399771 0.563836
0.583581 0.401144 0.565606
0.288121 0.320912 0.503731
0.298314 0.323339 0.506889
0.311803 0.325139 0.510964
0.38967 0.339178 0.526299
0.471489 0.356481 0.533242
0.55903 0.383734 0.543557
0.581552 0.395315 0.555062
0.583459 0.399268 0.559899
0.584115 0.400626 0.561578
0.269352 0.321523 0.499947
0.280354 0.317632 0.499352
0.296681 0.321416 0.503731
0.372351 0.335134 0.522133
0.465721 0.356939 0.531655
0.554879 0.382681 0.539666
0.582071 0.394614 0.54963
0.583993 0.39852 0.55407
0.584649 0.399878 0.555611
0.276524 0.350179 0.487892
0.274342 0.346151 0.489555
0.270542 0.339132 0.492164
0.314137 0.340246 0.510323
0.447242 0.360281 0.528099
0.543587 0.379843 0.52871
0.583688 0.392889 0.534554
0.585382 0.396521 0.537591
0.585992 0.397803 0.538674
0.343938 0.451835 0.505882
0.343252 0.450614 0.506539
0.342229 0.448753 0.507698
0.353506 0.447288 0.516808
0.482551 0.486305 0.576257
0.59559 0.491691 0.57586
0.639857 0.491691 0.575235
0.638834 0.489967 0.574075
0.638453 0.489342 0.573678
0.411261 0.544472 0.546593
0.411673 0.544274 0.546365
0.412314 0.543954 0.546014
0.415244 0.543328 0.545205
0.468788 0.560327 0.560006
0.618784 0.612314 0.603403
0.728374 0.621347 0.611048
0.727092 0.618921 0.609796
0.726513 0.618128 0.6094
0.449363 0.609171 0.578683
0.450477 0.609125 0.577783
0.452171 0.609033 0.576318
0.456413 0.608408 0.571389
0.473655 0.612268 0.559197
0.595789 0.658701 0.582834
0.686671 0.673915 0.592096
0.743679 0.691539 0.60177
0.74403 0.691188 0.601862
0.457557 0.62179 0.589075
0.458854 0.622156 0.587961
0.460731 0.622782 0.586206
0.465431 0.624262 0.580362
0.479393 0.62797 0.562341
0.590295 0.675395 0.581064
0.674006 0.687373 0.585565
0.728832 0.700389 0.590845
0.73344 0.701564 0.59115
0.458762 0.622843 0.591974
0.460075 0.623194 0.590753
0.461799 0.623758 0.588861
0.466453 0.625162 0.58262
0.479011 0.627787 0.562524
0.586053 0.674083 0.578958
0.668818 0.685985 0.583261
0.719493 0.696803 0.587594
0.732326 0.700267 0.58883
0.326207 0.352667 0.559625
0.332921 0.353262 0.561044
0.344839 0.355016 0.564691
0.413413 0.368109 0.582742
0.486564 0.380255 0.594293
0.564645 0.403708 0.599756
0.5832 0.412711 0.606531
0.584405 0.41471 0.60734
0.584848 0.415427 0.60763
0.317769 0.350591 0.555718
0.325338 0.35172 0.557748
0.335378 0.352682 0.559991
0.403677 0.365866 0.579812
0.482429 0.380133 0.59263
0.561883 0.403296 0.598032
0.583581 0.413336 0.606775
0.584802 0.415366 0.607599
0.58526 0.416114 0.607904
0.302449 0.346471 0.547967
0.311086 0.346883 0.549737
0.324025 0.350256 0.55491
0.386587 0.362127 0.575036
0.47602 0.380163 0.590219
0.557641 0.402701 0.595483
0.584131 0.413947 0.606149
0.585397 0.416358 0.608011
0.58587 0.417121 0.608316
0.291661 0.361746 0.534493
0.289799 0.358083 0.5364
0.286213 0.351308 0.53875
0.329397 0.353079 0.554131
0.456535 0.382849 0.584909
0.54612 0.401892 0.58912
0.585519 0.412589 0.594629
0.586999 0.415839 0.59826
0.587579 0.417029 0.599557
0.350362 0.453864 0.545815
0.349783 0.452659 0.547173
0.348989 0.450889 0.549554
0.355657 0.447196 0.560082
0.475425 0.483711 0.637522
0.57821 0.484611 0.633875
0.628397 0.484779 0.632883
0.627482 0.483101 0.631312
0.627131 0.48249 0.630762
0.404578 0.541115 0.575082
0.404135 0.540307 0.575051
0.403861 0.539086 0.575036
0.410956 0.538842 0.579416
0.462562 0.557992 0.616297
0.611597 0.610727 0.682124
0.715129 0.618494 0.691417
0.720409 0.61677 0.690028
0.719829 0.615991 0.689326
0.450568 0.60708 0.61091
0.451453 0.607034 0.610834
0.452796 0.606912 0.610712
0.456855 0.606775 0.610391
0.471183 0.611139 0.614282
0.589456 0.658045 0.652811
0.734707 0.724804 0.711788
0.820188 0.737316 0.72311
0.819028 0.735759 0.722255
0.463416 0.630518 0.625559
0.464607 0.631037 0.625238
0.466346 0.631922 0.624796
0.471153 0.634424 0.623285
0.482063 0.638743 0.617243
0.584329 0.682261 0.645182
0.698131 0.736614 0.680018
0.78883 0.772747 0.701274
0.814084 0.780865 0.705852
0.464561 0.631571 0.628855
0.465736 0.632074 0.628412
0.46743 0.632975 0.627802
0.47216 0.635355 0.625681
0.483192 0.639902 0.618082
0.579934 0.680186 0.642008
0.689403 0.731441 0.674281
0.770138 0.765835 0.692683
0.807782 0.779812 0.699596
0.333593 0.358801 0.572259
0.340719 0.360479 0.575692
0.351293 0.362768 0.580484
0.418189 0.374731 0.597986
0.490288 0.384955 0.606119
0.565759 0.402823 0.603387
0.583642 0.413428 0.606821
0.584756 0.41529 0.607569
0.585184 0.415991 0.607858
0.325795 0.357168 0.569024
0.333394 0.35877 0.572198
0.343816 0.361135 0.576974
0.408682 0.373129 0.596353
0.485893 0.384558 0.606027
0.563073 0.403464 0.604181
0.583978 0.413993 0.60705
0.585138 0.4159 0.607828
0.58555 0.416602 0.608103
0.31104 0.352255 0.560739
0.320836 0.355444 0.56611
0.333104 0.358724 0.572106
0.39202 0.370413 0.593317
0.479545 0.38529 0.606073
0.559152 0.404562 0.605493
0.584466 0.414801 0.60737
0.585657 0.416785 0.608179
0.586099 0.417517 0.608469
0.300557 0.370626 0.556512
0.298604 0.366888 0.558099
0.294804 0.359503 0.55935
0.338277 0.361517 0.574899
0.460273 0.389944 0.606806
0.548043 0.408057 0.609171
0.585809 0.417029 0.608286
0.587182 0.419303 0.609216
0.587716 0.420142 0.609583
0.353429 0.454978 0.564736
0.353002 0.453864 0.566537
0.352361 0.452171 0.569528
0.356741 0.447791 0.580972
0.469062 0.476524 0.642863
0.571511 0.478279 0.641505
0.622049 0.477775 0.639765
0.621073 0.476234 0.638834
0.621149 0.476326 0.638911
0.406149 0.541039 0.590402
0.405692 0.540154 0.590539
0.405005 0.538811 0.590829
0.408972 0.536522 0.594263
0.459342 0.555108 0.635065
0.605173 0.604608 0.705333
0.703609 0.611246 0.714122
0.712093 0.610117 0.714244
0.711528 0.609354 0.713817
0.444663 0.602975 0.622446
0.445518 0.602975 0.622873
0.446983 0.603098 0.623606
0.452308 0.603876 0.626123
0.471351 0.609827 0.637964
0.586923 0.65658 0.688167
0.740795 0.735332 0.801907
0.823117 0.741238 0.817945
0.821683 0.739528 0.815854
0.466255 0.63444 0.642405
0.467384 0.635019 0.642481
0.469047 0.636011 0.642618
0.473625 0.63859 0.642908
0.481819 0.63827 0.641611
0.579919 0.678782 0.675013
0.713237 0.761364 0.748028
0.834287 0.823163 0.811276
0.885618 0.840238 0.828595
0.467399 0.635508 0.645823
0.468544 0.636133 0.645945
0.470176 0.637125 0.645899
0.474739 0.63975 0.645533
0.485191 0.645563 0.643748
0.575906 0.679072 0.670512
0.702785 0.762463 0.734997
0.804639 0.819989 0.779156
0.881849 0.863478 0.809339
0.334844 0.359091 0.572869
0.341863 0.360723 0.576165
0.352392 0.362997 0.581003
0.419486 0.37496 0.598215
0.491081 0.385031 0.606134
0.566094 0.401877 0.602838
0.58381 0.413718 0.606943
0.584909 0.415534 0.607675
0.585321 0.416205 0.60795
0.32723 0.357626 0.569848
0.33463 0.359045 0.572763
0.34493 0.361364 0.577432
0.410056 0.373358 0.596582
0.486641 0.384634 0.606058
0.563317 0.402548 0.603616
0.584131 0.414237 0.607141
0.58526 0.416114 0.607904
0.585672 0.4168 0.608194
0.312505 0.352392 0.56144
0.322454 0.3561 0.567102
0.334325 0.358968 0.572625
0.393637 0.370687 0.593637
0.480079 0.384833 0.605966
0.559365 0.403784 0.60502
0.584604 0.415015 0.607462
0.585779 0.416968 0.608255
0.586206 0.417685 0.608545
0.302983 0.373007 0.562921
0.299809 0.367971 0.561685
0.296635 0.358999 0.559442
0.338933 0.360998 0.575067
0.4607 0.389395 0.606668
0.54815 0.407614 0.608942
0.58587 0.417136 0.608316
0.587243 0.419379 0.609247
0.587762 0.420218 0.609613
0.35465 0.455467 0.571801
0.354253 0.454398 0.5738
0.353674 0.452735 0.577035
0.356573 0.447456 0.587015
0.466423 0.473075 0.641276
0.56907 0.475013 0.639963
0.619913 0.474372 0.637797
0.619303 0.473381 0.637247
0.619364 0.473487 0.637308
0.406668 0.540948 0.595972
0.406195 0.540032 0.596185
0.405493 0.538643 0.596551
0.408087 0.535698 0.599557
0.457511 0.552728 0.633982
0.602869 0.601297 0.703426
0.699916 0.607797 0.712139
0.709545 0.606744 0.712398
0.70901 0.606043 0.712001
0.442542 0.601373 0.626337
0.443397 0.601434 0.626963
0.444678 0.601465 0.627924
0.450278 0.602594 0.631617
0.471244 0.609094 0.646082
0.585779 0.654398 0.690089
0.737804 0.731411 0.808194
0.818921 0.737285 0.829664
0.817563 0.735729 0.828336
0.466468 0.634958 0.645304
0.467582 0.635615 0.64593
0.469261 0.636713 0.646922
0.473274 0.637903 0.649271
0.481926 0.637934 0.650507
0.578958 0.677226 0.683513
0.716533 0.767422 0.77438
0.846067 0.837812 0.877852
0.905104 0.854551 0.907622
0.467521 0.635584 0.645899
0.468727 0.636332 0.646586
0.470497 0.637552 0.647684
0.475425 0.640864 0.650645
0.486061 0.64744 0.653208
0.575341 0.679973 0.681147
0.706447 0.773037 0.76109
0.819638 0.849729 0.838331
0.923262 0.918135 0.906096
