YOYO-Client/Yoyo/Assets.xcassets/Faroe.dataset/Faroe.cube
TITLE "Faroe"
LUT_3D_SIZE 33
0.078706 0.0757 0.080354
0.102434 0.0670787 0.0597543
0.122652 0.0660258 0.0528267
0.146944 0.0711528 0.0525063
0.172763 0.0777447 0.0536049
0.199084 0.0841382 0.0543374
0.225406 0.0899825 0.0544747
0.252003 0.0950484 0.0537575
0.279576 0.0995804 0.0524758
0.307393 0.104875 0.0517586
0.333455 0.110079 0.0514382
0.359426 0.115679 0.0516976
0.385626 0.121889 0.052369
0.4112 0.128664 0.0532387
0.437629 0.136355 0.0545357
0.46302 0.144945 0.0561227
0.488029 0.154162 0.0580453
0.513161 0.164157 0.0601511
0.538979 0.175555 0.0628824
0.563867 0.187243 0.0658579
0.590356 0.200488 0.069337
0.615335 0.214023 0.0729686
0.640787 0.228351 0.0769665
0.665568 0.243641 0.0813306
0.690913 0.259861 0.0861219
0.715465 0.276722 0.0919203
0.739269 0.294728 0.103395
0.762722 0.313405 0.115587
0.785718 0.333913 0.128923
0.810742 0.364248 0.147936
0.836561 0.401511 0.171862
0.860044 0.440299 0.197101
0.876554 0.469001 0.216114
0.0721904 0.0940566 0.0695506
0.11191 0.086305 0.0565042
0.132387 0.0806744 0.0496223
0.154696 0.0824445 0.0493172
0.179355 0.0876173 0.0509651
0.204623 0.0932937 0.0523842
0.230671 0.09897 0.053193
0.256977 0.104204 0.0534066
0.28426 0.108736 0.0525368
0.312078 0.113146 0.0514229
0.338125 0.11809 0.0512398
0.364019 0.1234 0.0515145
0.390188 0.129442 0.0522316
0.415702 0.135958 0.053193
0.441123 0.142885 0.0544594
0.466896 0.151217 0.0561685
0.491905 0.16025 0.0581064
0.515999 0.169558 0.0602121
0.542473 0.180529 0.0627756
0.567254 0.192264 0.0658885
0.59263 0.204547 0.0690776
0.61825 0.217914 0.072755
0.642802 0.232288 0.076936
0.668254 0.247379 0.0812238
0.692546 0.26305 0.0858015
0.716747 0.279744 0.0919356
0.741039 0.297658 0.103334
0.764508 0.316732 0.116182
0.78732 0.336782 0.129473
0.812207 0.367025 0.148699
0.837446 0.404028 0.172885
0.861265 0.443061 0.198398
0.877119 0.470787 0.216876
0.0675364 0.113695 0.0665446
0.110719 0.107591 0.0551614
0.143847 0.0984054 0.0476997
0.164691 0.0965133 0.0471351
0.18761 0.0996109 0.0487068
0.210971 0.104067 0.05037
0.235966 0.109392 0.0517128
0.261799 0.114412 0.0522621
0.288609 0.119051 0.0519112
0.316823 0.123552 0.0510262
0.343465 0.128359 0.0509041
0.369497 0.133516 0.0511788
0.394965 0.139223 0.0517739
0.421042 0.145434 0.0526894
0.446708 0.15198 0.0537881
0.471305 0.159503 0.055314
0.496345 0.168078 0.0572213
0.520958 0.177325 0.0596017
0.54638 0.18793 0.0624094
0.57055 0.198505 0.0650492
0.595804 0.210681 0.0684672
0.620859 0.223728 0.0722362
0.645899 0.237522 0.0761425
0.670649 0.252659 0.0809033
0.694804 0.267811 0.085481
0.718975 0.284398 0.0917372
0.743328 0.302296 0.103578
0.766552 0.320821 0.116472
0.789288 0.341405 0.130541
0.814359 0.371572 0.150164
0.839124 0.408072 0.174395
0.863218 0.447639 0.200443
0.878904 0.475151 0.219074
0.0704662 0.134798 0.0654765
0.107424 0.131502 0.0586252
0.146059 0.125078 0.0520638
0.178256 0.116167 0.0484627
0.199359 0.116274 0.0488899
0.221317 0.119188 0.0501564
0.244068 0.123201 0.0513619
0.269047 0.127962 0.0521553
0.294911 0.132357 0.0520485
0.322881 0.137072 0.0514992
0.350164 0.141711 0.05066
0.375982 0.146822 0.0506142
0.401831 0.152285 0.0510109
0.426764 0.157763 0.051606
0.453254 0.164324 0.0526284
0.476875 0.171221 0.0539864
0.502144 0.179919 0.0562905
0.527214 0.188785 0.05832
0.551537 0.198489 0.0608682
0.575677 0.209049 0.0641031
0.600366 0.220142 0.067277
0.624338 0.232242 0.0710765
0.649729 0.24625 0.0755169
0.674067 0.26038 0.0798199
0.699763 0.276493 0.0851759
0.723262 0.292317 0.0914168
0.747219 0.309895 0.103975
0.770199 0.328344 0.117662
0.792889 0.348531 0.131945
0.817044 0.377997 0.152102
0.842008 0.41474 0.176898
0.865385 0.453376 0.202945
0.880842 0.480171 0.221347
0.0773785 0.156558 0.0673991
0.108232 0.15433 0.0629282
0.144442 0.150866 0.0575113
0.183856 0.14287 0.0535439
0.212879 0.135637 0.0519112
0.233921 0.136172 0.0521096
0.255375 0.138918 0.052781
0.278096 0.142596 0.0531777
0.30309 0.14725 0.0533608
0.329183 0.151934 0.0526741
0.356863 0.156619 0.0511788
0.382895 0.161257 0.0502937
0.408362 0.166201 0.0501411
0.433494 0.171389 0.050309
0.459907 0.177859 0.0512398
0.484565 0.185199 0.052781
0.508385 0.193027 0.054551
0.533089 0.201694 0.0564431
0.55787 0.21117 0.0589456
0.581659 0.221118 0.0618601
0.607217 0.233005 0.0656443
0.632181 0.245396 0.0696727
0.656779 0.258305 0.07393
0.681163 0.272343 0.0788128
0.704616 0.287129 0.0843366
0.72845 0.302373 0.0905013
0.751766 0.319585 0.104295
0.774701 0.337865 0.118822
0.797055 0.35761 0.133745
0.821607 0.387732 0.155367
0.845289 0.422675 0.179889
0.868284 0.460655 0.205997
0.882811 0.486183 0.224002
0.0834974 0.179248 0.0705425
0.109606 0.177844 0.0673075
0.141604 0.17586 0.0633707
0.184161 0.171725 0.0586557
0.21973 0.163119 0.0567941
0.24686 0.155764 0.0557259
0.267842 0.156558 0.055436
0.289326 0.159838 0.0555734
0.312825 0.16376 0.0551766
0.337697 0.167971 0.0542306
0.363561 0.172137 0.0526894
0.390127 0.176349 0.05066
0.416449 0.181079 0.0495003
0.441993 0.186404 0.049424
0.46743 0.192462 0.0497749
0.491249 0.198886 0.0506294
0.515297 0.206867 0.0521401
0.54049 0.215808 0.054078
0.564752 0.225223 0.056611
0.590173 0.236027 0.0597696
0.614954 0.247898 0.0638285
0.640116 0.260258 0.0679179
0.663813 0.272938 0.0723735
0.68809 0.286336 0.0771496
0.712383 0.300877 0.0825666
0.735317 0.315724 0.0894331
0.758282 0.332387 0.104616
0.780224 0.349859 0.120302
0.802365 0.369131 0.136248
0.826062 0.398337 0.158663
0.848951 0.432181 0.183291
0.871946 0.470039 0.210101
0.885588 0.493614 0.227085
0.0875715 0.203128 0.0749981
0.11046 0.20267 0.072755
0.139681 0.201068 0.0691234
0.178851 0.19826 0.0645151
0.220218 0.192508 0.0605631
0.253391 0.18407 0.0593576
0.280125 0.177279 0.0587167
0.301778 0.178088 0.0582437
0.324254 0.181338 0.0575875
0.347784 0.184726 0.0564431
0.372213 0.188266 0.0547036
0.398428 0.192584 0.0526436
0.424918 0.196597 0.0500496
0.45008 0.201572 0.0490425
0.475151 0.207614 0.0491798
0.500053 0.21445 0.0494545
0.524285 0.2224 0.0504311
0.54847 0.231205 0.0524147
0.573388 0.241169 0.0547951
0.598871 0.252079 0.0575875
0.623209 0.263401 0.0610971
0.648432 0.276081 0.0652171
0.672602 0.288914 0.0697032
0.697154 0.30277 0.0746166
0.720806 0.317052 0.080354
0.743709 0.331441 0.0876936
0.765713 0.347753 0.105165
0.78764 0.364858 0.122469
0.808316 0.382452 0.139269
0.831312 0.410834 0.162646
0.853605 0.443671 0.187579
0.875624 0.479957 0.214359
0.888457 0.502174 0.230961
0.0889906 0.226169 0.0791485
0.110643 0.22594 0.0773022
0.137835 0.22446 0.074052
0.174472 0.222538 0.0698863
0.215778 0.219654 0.0651713
0.254978 0.213077 0.062501
0.287251 0.205386 0.0619821
0.314229 0.198886 0.0613107
0.336263 0.199115 0.0602884
0.359396 0.202289 0.0590677
0.383246 0.20557 0.0573129
0.408042 0.209537 0.0555581
0.433982 0.213596 0.0528725
0.459937 0.218128 0.0499275
0.484489 0.223743 0.049012
0.509407 0.23061 0.0487068
0.533013 0.238392 0.0491188
0.556786 0.246921 0.0498665
0.5823 0.257099 0.0516823
0.607309 0.268238 0.0542916
0.631968 0.279713 0.057496
0.656901 0.292439 0.0614786
0.681682 0.305821 0.0658427
0.70631 0.319844 0.0709697
0.729717 0.333928 0.0768749
0.752316 0.348531 0.0848859
0.774304 0.365118 0.105013
0.794583 0.380514 0.123827
0.815091 0.397635 0.142641
0.836835 0.424399 0.166735
0.858549 0.456474 0.192309
0.879728 0.491081 0.219028
0.891966 0.512062 0.235325
0.0927749 0.248783 0.0827955
0.112673 0.248569 0.081178
0.137972 0.247501 0.0783551
0.172122 0.246357 0.0746624
0.210712 0.244617 0.0705119
0.252705 0.24123 0.0661784
0.290288 0.23473 0.0646067
0.321233 0.226505 0.0640421
0.348775 0.220035 0.0632792
0.372107 0.220539 0.0619516
0.395651 0.223896 0.0604105
0.419516 0.227192 0.05832
0.444709 0.231449 0.0561227
0.469841 0.235874 0.0530861
0.495827 0.241093 0.0496529
0.519677 0.247349 0.047837
0.543038 0.255009 0.0467842
0.566705 0.263493 0.04654
0.591302 0.273518 0.0475624
0.615671 0.284291 0.0487831
0.640436 0.296178 0.0518349
0.665904 0.309346 0.0555581
0.690532 0.322637 0.0596628
0.714611 0.336522 0.0650339
0.738689 0.351278 0.0710765
0.761257 0.366384 0.0803235
0.781979 0.382452 0.103944
0.802426 0.398077 0.125185
0.821576 0.413581 0.145571
0.842374 0.438819 0.170565
0.863249 0.469413 0.196704
0.883986 0.503075 0.224018
0.895903 0.523751 0.240757
0.0983291 0.271031 0.0861982
0.115938 0.270893 0.0847944
0.139483 0.270695 0.0825666
0.171374 0.269581 0.0792096
0.207401 0.26862 0.0755169
0.247669 0.267201 0.0714275
0.289281 0.263462 0.0680705
0.324987 0.255741 0.0665446
0.356924 0.248447 0.0660563
0.384421 0.241764 0.0651102
0.408942 0.242481 0.0634623
0.432441 0.24564 0.0615702
0.456504 0.249592 0.0593576
0.480552 0.253651 0.0561227
0.506111 0.258732 0.0520333
0.530343 0.264714 0.0478981
0.553429 0.272129 0.045182
0.577096 0.280781 0.0432288
0.601022 0.290486 0.0420081
0.625498 0.301366 0.0411231
0.650141 0.3131 0.0422522
0.674708 0.325902 0.0456092
0.699062 0.339529 0.0506294
0.722927 0.353338 0.0558938
0.747204 0.368643 0.0634012
0.769039 0.383413 0.074342
0.78967 0.399908 0.10219
0.809644 0.415213 0.125963
0.828412 0.430503 0.148409
0.848676 0.454826 0.174731
0.868482 0.483726 0.201419
0.888334 0.516106 0.229252
0.90016 0.536446 0.246479
0.103182 0.293858 0.0897383
0.119722 0.294255 0.0888075
0.141802 0.294041 0.0868391
0.171923 0.293477 0.0839857
0.206119 0.29279 0.0805676
0.24358 0.29189 0.076936
0.28513 0.290349 0.0727245
0.325826 0.285817 0.0700694
0.361624 0.277867 0.0687572
0.393149 0.269978 0.0679637
0.421424 0.263859 0.066865
0.444999 0.263966 0.0649424
0.469001 0.26807 0.0625772
0.491936 0.271763 0.0594339
0.516625 0.276722 0.055375
0.540993 0.282872 0.0499275
0.564721 0.290028 0.0435798
0.587762 0.298024 0.0383612
0.611872 0.307576 0.0303044
0.636118 0.318151 0.0246281
0.6607 0.329763 0.0222629
0.685039 0.342428 0.0235599
0.709346 0.356176 0.0287022
0.734066 0.371099 0.0339666
0.756313 0.385718 0.0497902
0.778164 0.401053 0.0660105
0.797482 0.417441 0.100008
0.816571 0.43241 0.126406
0.83563 0.448463 0.151751
0.854932 0.471733 0.179217
0.874525 0.50045 0.207065
0.892912 0.53019 0.234714
0.904555 0.549996 0.252659
0.10927 0.317479 0.0938125
0.124453 0.317357 0.0926833
0.145129 0.317403 0.0910658
0.173632 0.31751 0.088777
0.206012 0.317159 0.0854505
0.241627 0.31667 0.0819715
0.280919 0.315953 0.0783551
0.323522 0.313985 0.0740215
0.36318 0.307561 0.0715496
0.398764 0.29955 0.0703441
0.429603 0.291814 0.0694591
0.457465 0.285679 0.0681315
0.481651 0.286839 0.066041
0.504707 0.290471 0.0627604
0.528206 0.29514 0.0587778
0.551797 0.301778 0.0535897
0.57554 0.308736 0.0458686
0.600244 0.316808 0.0313878
0.623407 0.325216 0.0204013
0.646647 0.336004 0.0207218
0.670207 0.347555 0.0209049
0.693996 0.360189 0.0212711
0.719249 0.374502 0.021912
0.74345 0.388678 0.0236515
0.766232 0.402655 0.0260471
0.786984 0.418189 0.0524605
0.805661 0.435615 0.0972457
0.823911 0.450645 0.12755
0.842313 0.466133 0.15465
0.861524 0.489555 0.184024
0.880262 0.517571 0.212619
0.898207 0.546044 0.24097
0.909789 0.565698 0.259846
0.114855 0.340505 0.0972915
0.128893 0.34107 0.0964675
0.148074 0.341039 0.0951858
0.174762 0.3411 0.0928511
0.206241 0.341344 0.0901656
0.24065 0.341222 0.0866865
0.27689 0.340337 0.0829938
0.317647 0.339574 0.0787213
0.361059 0.336889 0.0747539
0.400717 0.330007 0.0725872
0.435874 0.322698 0.0714122
0.466346 0.315129 0.0703441
0.49366 0.308705 0.0685588
0.517922 0.309941 0.0655528
0.540673 0.314672 0.0613718
0.563546 0.321492 0.0564126
0.586191 0.328145 0.0487526
0.611215 0.335882 0.0297856
0.634775 0.344732 0.0196841
0.657023 0.35462 0.0192416
0.681208 0.366873 0.0181582
0.70457 0.379599 0.0182803
0.728267 0.392859 0.0188754
0.751797 0.406485 0.01944
0.775219 0.421012 0.0203098
0.797238 0.436271 0.0297704
0.813962 0.454368 0.0947433
0.83183 0.469688 0.128649
0.849378 0.484733 0.158053
0.867811 0.507561 0.188922
0.885557 0.534676 0.218006
0.903593 0.563348 0.247944
0.914656 0.581888 0.267475
0.116396 0.365408 0.100832
0.129976 0.36553 0.0999771
0.148363 0.365652 0.0987716
0.174319 0.366323 0.0967727
0.204135 0.365988 0.093904
0.237385 0.366293 0.0908675
0.273213 0.366049 0.0873121
0.311452 0.365789 0.0832837
0.355001 0.365148 0.0785687
0.39942 0.361929 0.0749065
0.438392 0.354955 0.0728161
0.471626 0.346914 0.0710765
0.502541 0.339559 0.0694743
0.530022 0.333196 0.0674601
0.553414 0.335271 0.0636606
0.575204 0.34168 0.0580148
0.597467 0.348379 0.0498512
0.622034 0.356466 0.0300755
0.646494 0.36556 0.0190127
0.669444 0.375784 0.0167239
0.69189 0.386938 0.0171817
0.715175 0.399542 0.0177768
0.738613 0.412558 0.0183566
0.761547 0.425849 0.0189059
0.783917 0.439902 0.019379
0.806104 0.455421 0.0244297
0.82211 0.47364 0.0932937
0.839094 0.48835 0.130251
0.856306 0.503563 0.161608
0.87451 0.526696 0.194415
0.891752 0.553643 0.22472
0.90901 0.581369 0.255467
0.920287 0.600107 0.276066
0.11371 0.390463 0.104311
0.126955 0.390936 0.103563
0.144793 0.391089 0.102251
0.171344 0.39205 0.100313
0.20058 0.392142 0.0973831
0.233219 0.392584 0.0944076
0.268223 0.39353 0.0912337
0.305104 0.393439 0.0871901
0.346639 0.393637 0.0827192
0.39234 0.392798 0.0773785
0.435462 0.388235 0.073518
0.473869 0.381277 0.0707103
0.508431 0.373312 0.0688182
0.539406 0.365835 0.0664378
0.56553 0.360372 0.0638285
0.587274 0.362844 0.0584268
0.609796 0.370153 0.0497444
0.633844 0.377691 0.0229648
0.657542 0.387304 0.0182193
0.680858 0.397147 0.0157626
0.703929 0.408606 0.016434
0.725856 0.419837 0.0170596
0.749065 0.432731 0.0176394
0.771267 0.446097 0.0181277
0.793042 0.459709 0.0185702
0.814542 0.474861 0.018967
0.830274 0.493034 0.091783
0.846342 0.507515 0.132387
0.863432 0.523507 0.16611
0.880995 0.546654 0.20032
0.897917 0.57348 0.232136
0.914519 0.600107 0.263493
0.925307 0.618601 0.285328
0.11075 0.417487 0.108583
0.125338 0.418814 0.108385
0.143618 0.418616 0.107027
0.169543 0.418967 0.104921
0.198276 0.419211 0.10222
0.230076 0.420294 0.0991073
0.264393 0.421561 0.0955978
0.300862 0.421866 0.0911116
0.340032 0.422446 0.0865949
0.384131 0.422156 0.0813611
0.429603 0.420737 0.0751507
0.473396 0.416526 0.0710765
0.511574 0.409415 0.0675059
0.545357 0.401434 0.0642405
0.573663 0.394827 0.0608072
0.598871 0.388907 0.0568399
0.621851 0.392721 0.047837
0.645594 0.400229 0.0186313
0.668879 0.409644 0.016968
0.691737 0.419272 0.0147097
0.714809 0.430091 0.0154726
0.73698 0.441489 0.0161135
0.758511 0.453025 0.0166934
0.78056 0.466545 0.0171511
0.801953 0.479973 0.0175631
0.822904 0.494987 0.0178225
0.837964 0.512917 0.0934615
0.853712 0.527626 0.135973
0.87013 0.544091 0.171283
0.887327 0.567559 0.206775
0.903395 0.59321 0.239887
0.91899 0.618799 0.272633
0.929412 0.637003 0.295598
0.124926 0.44593 0.115236
0.136309 0.446159 0.114504
0.153628 0.446479 0.113359
0.178195 0.447532 0.11194
0.205249 0.447532 0.109224
0.23537 0.448447 0.106081
0.267887 0.449042 0.102617
0.302632 0.450324 0.0984512
0.339956 0.450629 0.09337
0.381872 0.451423 0.0878157
0.426566 0.451301 0.0805982
0.472038 0.450202 0.0734112
0.513436 0.445289 0.0678111
0.549737 0.437949 0.0630045
0.579843 0.431647 0.0582284
0.607523 0.425391 0.0530098
0.633616 0.420111 0.0442359
0.657786 0.423774 0.0171969
0.679927 0.432471 0.0152132
0.701442 0.440787 0.0135348
0.725185 0.451957 0.0143282
0.747433 0.462791 0.0150301
0.768841 0.474556 0.0155947
0.790265 0.487556 0.0160525
0.810941 0.500298 0.0164797
0.831281 0.516121 0.0166018
0.845335 0.533272 0.0970932
0.860227 0.547585 0.140246
0.876661 0.565484 0.177401
0.89221 0.587823 0.214008
0.907805 0.612985 0.249058
0.923293 0.638651 0.28365
0.933547 0.656413 0.307225
0.14696 0.474525 0.123247
0.156634 0.47451 0.122438
0.170642 0.474876 0.121477
0.192386 0.475349 0.119646
0.217838 0.476661 0.117693
0.244938 0.476631 0.114443
0.276234 0.478172 0.111238
0.308888 0.478264 0.106813
0.34609 0.479545 0.10222
0.385077 0.48011 0.0961929
0.427283 0.48098 0.0895705
0.470741 0.480583 0.0809491
0.514595 0.478828 0.0725567
0.551995 0.474861 0.064744
0.584237 0.469322 0.0576028
0.614221 0.463386 0.0500496
0.641794 0.457313 0.0377508
0.667689 0.451545 0.0142214
0.690486 0.45536 0.0131075
0.713085 0.465187 0.0122683
0.735409 0.4748 0.0130617
0.758785 0.48603 0.0137942
0.779721 0.497215 0.0143893
0.799573 0.508675 0.0148623
0.819425 0.521172 0.0152438
0.83856 0.537453 0.0204013
0.852094 0.554116 0.10367
0.866972 0.568811 0.146471
0.881849 0.58674 0.185122
0.897002 0.609552 0.223804
0.911986 0.633509 0.259693
0.927108 0.658213 0.294865
0.937499 0.676387 0.320211
0.175677 0.503548 0.13228
0.183749 0.503746 0.131609
0.195422 0.503853 0.130495
0.213703 0.504128 0.128756
0.235401 0.50454 0.126497
0.261769 0.505638 0.123919
0.290578 0.506355 0.120439
0.322423 0.507851 0.116777
0.357092 0.508232 0.111696
0.394797 0.509194 0.106233
0.43328 0.509712 0.0995499
0.474479 0.510506 0.0921645
0.516426 0.510231 0.0826276
0.55375 0.50869 0.074876
0.587839 0.505058 0.0657816
0.618677 0.49958 0.0527199
0.647593 0.494423 0.0328222
0.675471 0.489265 0.0122683
0.700343 0.484001 0.00976577
0.723583 0.488655 0.011017
0.746181 0.4981 0.0118563
0.768994 0.508934 0.0125887
0.789319 0.519387 0.0131838
0.808652 0.530617 0.0136416
0.828138 0.542992 0.014023
0.845121 0.560174 0.0396429
0.858366 0.575555 0.1122
0.872496 0.590311 0.155047
0.886549 0.609049 0.195544
0.900633 0.630137 0.233661
0.915526 0.653468 0.270497
0.930678 0.678218 0.3075
0.941131 0.696162 0.334478
0.207645 0.53312 0.142123
0.214679 0.533425 0.141695
0.224338 0.533242 0.140536
0.240375 0.533578 0.138659
0.260075 0.534005 0.1364
0.283909 0.534783 0.133761
0.310964 0.535668 0.130663
0.340215 0.536355 0.126528
0.373312 0.537713 0.122057
0.407218 0.53782 0.116045
0.443915 0.538888 0.110079
0.481804 0.540352 0.103334
0.518791 0.540948 0.0953231
0.556161 0.540795 0.0859083
0.591608 0.539132 0.0770581
0.62359 0.534798 0.0651408
0.654047 0.530694 0.0507973
0.682551 0.525704 0.0128634
0.709529 0.521813 0.0106508
0.733989 0.517082 0.00939956
0.756359 0.521233 0.0106355
0.777966 0.531472 0.0113222
0.798199 0.541634 0.0119326
0.817548 0.553079 0.0123598
0.835859 0.565866 0.0125887
0.850752 0.582483 0.0596933
0.86334 0.59736 0.124468
0.876554 0.611994 0.166735
0.890333 0.630884 0.207019
0.904768 0.652415 0.245945
0.919097 0.674296 0.283223
0.934005 0.698024 0.321721
0.944167 0.714885 0.349859
0.246632 0.562982 0.152804
0.251743 0.563058 0.152148
0.260395 0.563119 0.150988
0.274174 0.563348 0.149325
0.291951 0.56405 0.147204
0.312932 0.564385 0.144289
0.337194 0.565621 0.141436
0.363378 0.566445 0.137407
0.392752 0.567315 0.132601
0.42475 0.568154 0.12723
0.456886 0.568994 0.121248
0.49012 0.569879 0.114626
0.52462 0.571328 0.10753
0.559853 0.571328 0.0980087
0.596292 0.571618 0.0887465
0.629587 0.569833 0.0787976
0.659953 0.565866 0.065507
0.689204 0.562005 0.0467842
0.716854 0.557977 0.0112764
0.74229 0.553689 0.00723278
0.765255 0.549477 0.00900282
0.786664 0.554788 0.0100252
0.807446 0.56527 0.0106355
0.82594 0.576089 0.0110323
0.84329 0.590372 0.0110933
0.85568 0.605905 0.0806592
0.867475 0.619654 0.138689
0.880781 0.635065 0.180072
0.893904 0.653437 0.220386
0.908019 0.674083 0.259434
0.92256 0.695003 0.297475
0.936797 0.716899 0.336797
0.947143 0.733852 0.367102
0.288304 0.592798 0.164034
0.292576 0.59292 0.163333
0.300725 0.593179 0.162493
0.312108 0.593576 0.160769
0.327367 0.594141 0.158694
0.345495 0.594446 0.155596
0.366766 0.595453 0.152636
0.38996 0.596399 0.148836
0.414801 0.597116 0.144167
0.442466 0.598321 0.139101
0.47216 0.599176 0.13312
0.50277 0.600229 0.126574
0.534508 0.60116 0.119066
0.567941 0.602487 0.111391
0.602258 0.602731 0.100908
0.636149 0.602899 0.0907149
0.667262 0.60058 0.0782025
0.697063 0.597498 0.0631113
0.723796 0.593103 0.0324254
0.750042 0.589837 0.0096437
0.773724 0.58674 0.00689708
0.795346 0.583673 0.00842298
0.814893 0.588113 0.00935378
0.834257 0.600015 0.00973526
0.848371 0.614313 0.0113069
0.858854 0.629191 0.107195
0.870863 0.642618 0.154559
0.883772 0.658488 0.195483
0.897276 0.677073 0.235904
0.911055 0.695903 0.274388
0.925414 0.71545 0.31342
0.939467 0.736507 0.354314
0.949859 0.752834 0.385779
0.331044 0.623514 0.176089
0.334997 0.623575 0.175494
0.340673 0.623697 0.174533
0.350423 0.624445 0.172992
0.36257 0.624537 0.170703
0.377356 0.625025 0.167849
0.395789 0.626505 0.165179
0.415457 0.627054 0.161303
0.438087 0.627924 0.156649
0.463478 0.62916 0.151492
0.490288 0.63003 0.145617
0.51838 0.630976 0.138674
0.54844 0.632486 0.131792
0.578531 0.633066 0.1234
0.611307 0.634958 0.114488
0.644465 0.635981 0.103899
0.675288 0.63534 0.0920424
0.704921 0.633188 0.0777447
0.732662 0.630533 0.0591897
0.757534 0.627222 0.0131075
0.780911 0.62443 0.0052491
0.802365 0.621805 0.00633249
0.822095 0.618463 0.00766003
0.840757 0.625483 0.00830091
0.851011 0.639719 0.0624857
0.861692 0.653819 0.128084
0.874022 0.667674 0.171557
0.886595 0.683436 0.212573
0.899916 0.700389 0.252384
0.913512 0.717403 0.290959
0.927764 0.735897 0.330999
0.941924 0.7561 0.373251
0.952377 0.771756 0.405921
0.363958 0.655543 0.199313
0.367361 0.656016 0.199222
0.372595 0.656153 0.198123
0.380896 0.656458 0.196597
0.391501 0.657084 0.194705
0.405402 0.65803 0.192569
0.420676 0.658656 0.189548
0.438712 0.659754 0.186557
0.458625 0.660517 0.18233
0.481209 0.661784 0.177707
0.504997 0.662593 0.172457
0.530968 0.663874 0.166857
0.558099 0.665309 0.160693
0.586511 0.667079 0.154894
0.614725 0.667979 0.147768
0.644968 0.669902 0.141085
0.675883 0.671366 0.133272
0.705058 0.671 0.12517
0.732235 0.670466 0.117311
0.756069 0.668421 0.108293
0.779004 0.666835 0.0994125
0.800076 0.664424 0.0878767
0.820569 0.662013 0.0738384
0.839658 0.659754 0.0526741
0.852781 0.666407 0.0956436
0.864134 0.680751 0.149371
0.876432 0.69427 0.191485
0.888899 0.708629 0.231617
0.902205 0.723812 0.270878
0.915923 0.739269 0.309728
0.930205 0.757214 0.351598
0.94435 0.776257 0.394919
0.954604 0.790646 0.427878
0.387243 0.689647 0.245228
0.389975 0.689632 0.24445
0.394354 0.689708 0.243427
0.40177 0.690211 0.242451
0.410986 0.690394 0.240574
0.423163 0.691112 0.238529
0.436606 0.691875 0.236408
0.453315 0.693202 0.233936
0.471 0.693965 0.23061
0.491264 0.695171 0.227024
0.513024 0.696208 0.222614
0.535775 0.697032 0.217762
0.560906 0.698756 0.213672
0.586038 0.699962 0.208789
0.61268 0.702327 0.20473
0.640192 0.704173 0.200015
0.666926 0.705211 0.194446
0.695949 0.707362 0.189776
0.723018 0.708614 0.184344
0.748211 0.709346 0.180179
0.771099 0.708598 0.174334
0.792859 0.707286 0.168566
0.813443 0.705592 0.162097
0.832776 0.703838 0.155871
0.851652 0.702525 0.149279
0.865736 0.708293 0.170626
0.877958 0.720913 0.212421
0.890898 0.734081 0.252537
0.904051 0.747402 0.291814
0.918212 0.762051 0.332219
0.932067 0.778134 0.373587
0.946197 0.795712 0.417411
0.956619 0.809079 0.451164
0.406714 0.723766 0.295109
0.409308 0.723644 0.294209
0.413397 0.72401 0.293751
0.420035 0.724071 0.292363
0.428794 0.724575 0.291173
0.439521 0.725124 0.289555
0.452873 0.726345 0.288121
0.467002 0.726925 0.285893
0.483696 0.727794 0.283101
0.502586 0.728939 0.280125
0.522072 0.729885 0.276799
0.543465 0.730831 0.273106
0.566018 0.732357 0.269657
0.589929 0.733791 0.266041
0.614542 0.735546 0.262608
0.639048 0.736675 0.258579
0.664256 0.738445 0.255283
0.689616 0.740734 0.252445
0.714733 0.742443 0.248768
0.739879 0.744396 0.244999
0.763348 0.745281 0.240528
0.786221 0.74609 0.237034
0.80737 0.746471 0.233677
0.827283 0.745434 0.228504
0.84564 0.743984 0.222736
0.863691 0.742931 0.217517
0.879088 0.748241 0.235935
0.892226 0.759991 0.276249
0.906218 0.772564 0.316869
0.920211 0.784726 0.356268
0.933944 0.799741 0.39852
0.948028 0.815808 0.443
0.958297 0.828534 0.477974
0.423514 0.757977 0.350576
0.426139 0.757961 0.350103
0.429862 0.757977 0.349218
0.435966 0.758526 0.348577
0.444968 0.758892 0.347631
0.455604 0.759899 0.347005
0.466239 0.759854 0.344976
0.480018 0.760739 0.343297
0.495552 0.761837 0.341314
0.512718 0.762448 0.338613
0.532021 0.763745 0.336797
0.550652 0.764294 0.33315
0.572381 0.765393 0.330449
0.593835 0.766323 0.327245
0.615915 0.767697 0.324285
0.639948 0.769497 0.322393
0.663645 0.771267 0.320119
0.686259 0.772717 0.317052
0.70927 0.774273 0.314427
0.73228 0.775967 0.31162
