YOYO-Client/Yoyo/Assets.xcassets/Faroe.dataset/Faroe.cube
TITLE "Faroe"
LUT_3D_SIZE 5
0.078706 0.0757 0.080354
0.279576 0.0995804 0.0524758
0.488029 0.154162 0.0580453
0.690913 0.259861 0.0861219
0.876554 0.469001 0.216114
0.0927749 0.248783 0.0827955
0.348775 0.220035 0.0632792
0.543038 0.255009 0.0467842
0.738689 0.351278 0.0710765
0.895903 0.523751 0.240757
0.124926 0.44593 0.115236
0.339956 0.450629 0.09337
0.633616 0.420111 0.0442359
0.810941 0.500298 0.0164797
0.933547 0.656413 0.307225
0.387243 0.689647 0.245228
0.471 0.693965 0.23061
0.666926 0.705211 0.194446
0.851652 0.702525 0.149279
0.956619 0.809079 0.451164
0.588861 0.908492 0.737072
0.619547 0.911635 0.741863
0.703212 0.92192 0.759823
0.815717 0.938491 0.784802
0.947341 0.958907 0.804791
0.106401 0.0979324 0.190677
0.248203 0.0664378 0.143633
0.419211 0.133806 0.162676
0.660838 0.282399 0.211948
0.866239 0.474403 0.278187
0 0.243473 0.266697
0.274113 0.288334 0.303319
0.495521 0.305333 0.242222
0.702846 0.378622 0.241962
0.883925 0.528679 0.306661
0 0.444007 0.305028
0.173587 0.46566 0.290043
0.572503 0.463157 0.249012
0.762722 0.522667 0.249638
0.921263 0.657969 0.376394
0.239734 0.676921 0.394156
0.362585 0.688609 0.385107
0.591669 0.703166 0.349554
0.816709 0.707027 0.302937
0.952895 0.809064 0.493782
0.570748 0.907179 0.749554
0.603159 0.910231 0.753353
0.690318 0.920302 0.768002
0.811246 0.938079 0.791135
0.949233 0.958938 0.804303
0.164202 0.158694 0.318654
0.294209 0.132601 0.31548
0.426856 0.113146 0.26099
0.587549 0.259495 0.326162
0.83386 0.540932 0.447745
0.00968948 0.280842 0.419013
0.241917 0.299367 0.424872
0.473686 0.263874 0.390402
0.626505 0.373327 0.395315
0.852827 0.578805 0.471336
0 0.399756 0.440299
0 0.426429 0.461845
0.496162 0.495598 0.517708
0.703243 0.537926 0.476692
0.893507 0.663523 0.515938
0 0.639307 0.55024
0.160159 0.653284 0.558389
0.469017 0.687236 0.555901
0.765026 0.710323 0.522774
0.940566 0.809659 0.608698
0.526543 0.904921 0.783352
0.563317 0.908248 0.785519
0.657465 0.917281 0.792737
0.797467 0.936706 0.81236
0.952377 0.959213 0.818555
0.246082 0.334813 0.535256
0.335378 0.353262 0.541466
0.490654 0.373297 0.578592
0.647059 0.388815 0.573754
0.797177 0.579095 0.615122
0.198657 0.39791 0.588388
0.315877 0.415717 0.58819
0.486824 0.450996 0.60415
0.659129 0.461189 0.623926
0.813748 0.622904 0.643915
0.157961 0.494606 0.635355
0.271626 0.509285 0.645853
0.479347 0.548211 0.661402
0.67332 0.57258 0.686091
0.852872 0.721126 0.696788
0.176349 0.599878 0.663874
0.25832 0.609781 0.671351
0.426062 0.641978 0.694194
0.715267 0.711223 0.73434
0.919676 0.816571 0.744808
0.499062 0.89424 0.827909
0.52723 0.898817 0.830457
0.606531 0.911223 0.839994
0.75697 0.931044 0.853376
0.956741 0.961837 0.865217
0.523415 0.748104 0.866499
0.546563 0.753506 0.868345
0.601602 0.76083 0.868223
0.697795 0.784039 0.87216
0.811154 0.836011 0.890837
0.530953 0.760113 0.871855
0.552316 0.763531 0.873594
0.616251 0.777203 0.87805
0.702937 0.801099 0.88481
0.817899 0.843275 0.895659
0.573358 0.787152 0.88542
0.590585 0.789975 0.886763
0.639673 0.799252 0.890944
0.716777 0.819471 0.897063
0.839139 0.862837 0.908278
0.628244 0.828016 0.906065
0.638712 0.829374 0.907012
0.672618 0.835279 0.910414
0.745022 0.850843 0.91754
0.879347 0.897414 0.93019
0.628275 0.89279 0.926162
0.63772 0.894682 0.927337
0.665766 0.900023 0.930755
0.741955 0.912657 0.940322
0.951873 0.966217 0.966094
