YOYO-Client/Yoyo/Assets.xcassets/Faroe.dataset/Faroe.cube
TITLE "Faroe"
LUT_3D_SIZE 9
0.078706 0.0757 0.080354
0.172763 0.0777447 0.0536049
0.279576 0.0995804 0.0524758
0.385626 0.121889 0.052369
0.488029 0.154162 0.0580453
0.590356 0.200488 0.069337
0.690913 0.259861 0.0861219
0.785718 0.333913 0.128923
0.876554 0.469001 0.216114
0.0773785 0.156558 0.0673991
0.212879 0.135637 0.0519112
0.30309 0.14725 0.0533608
0.408362 0.166201 0.0501411
0.508385 0.193027 0.054551
0.607217 0.233005 0.0656443
0.704616 0.287129 0.0843366
0.797055 0.35761 0.133745
0.882811 0.486183 0.224002
0.0927749 0.248783 0.0827955
0.210712 0.244617 0.0705119
0.348775 0.220035 0.0632792
0.444709 0.231449 0.0561227
0.543038 0.255009 0.0467842
0.640436 0.296178 0.0518349
0.738689 0.351278 0.0710765
0.821576 0.413581 0.145571
0.895903 0.523751 0.240757
0.114855 0.340505 0.0972915
0.206241 0.341344 0.0901656
0.361059 0.336889 0.0747539
0.49366 0.308705 0.0685588
0.586191 0.328145 0.0487526
0.681208 0.366873 0.0181582
0.775219 0.421012 0.0203098
0.849378 0.484733 0.158053
0.914656 0.581888 0.267475
0.124926 0.44593 0.115236
0.205249 0.447532 0.109224
0.339956 0.450629 0.09337
0.513436 0.445289 0.0678111
0.633616 0.420111 0.0442359
0.725185 0.451957 0.0143282
0.810941 0.500298 0.0164797
0.876661 0.565484 0.177401
0.933547 0.656413 0.307225
0.246632 0.562982 0.152804
0.291951 0.56405 0.147204
0.392752 0.567315 0.132601
0.52462 0.571328 0.10753
0.659953 0.565866 0.065507
0.765255 0.549477 0.00900282
0.84329 0.590372 0.0110933
0.893904 0.653437 0.220386
0.947143 0.733852 0.367102
0.387243 0.689647 0.245228
0.410986 0.690394 0.240574
0.471 0.693965 0.23061
0.560906 0.698756 0.213672
0.666926 0.705211 0.194446
0.771099 0.708598 0.174334
0.851652 0.702525 0.149279
0.904051 0.747402 0.291814
0.956619 0.809079 0.451164
0.46511 0.820935 0.469535
0.484352 0.821637 0.467796
0.528801 0.823957 0.464668
0.595956 0.826795 0.458976
0.671672 0.830381 0.452216
0.752987 0.836149 0.447913
0.835767 0.844404 0.444358
0.909331 0.847898 0.430991
0.960433 0.884947 0.573709
0.588861 0.908492 0.737072
0.597894 0.909407 0.738338
0.619547 0.911635 0.741863
0.657359 0.916152 0.749935
0.703212 0.92192 0.759823
0.758099 0.929671 0.772061
0.815717 0.938491 0.784802
0.878477 0.94815 0.79649
0.947341 0.958907 0.804791
0.0821546 0.084596 0.139788
0.164599 0.0627451 0.109575
0.244953 0.0835737 0.103838
0.356954 0.12311 0.115389
0.474723 0.176761 0.126802
0.5897 0.222141 0.129381
0.689677 0.272786 0.132464
0.783017 0.33959 0.158877
0.873625 0.471031 0.235798
0 0.159335 0.177798
0.168185 0.181949 0.193301
0.282048 0.174701 0.140826
0.388937 0.198535 0.137224
0.497551 0.223346 0.134783
0.606027 0.254383 0.13135
0.705333 0.300771 0.134615
0.794446 0.363592 0.165408
0.880323 0.488609 0.244205
0 0.261845 0.193194
0.117754 0.269215 0.169818
0.327428 0.254459 0.13431
0.42356 0.26099 0.132357
0.526268 0.285542 0.135485
0.633036 0.3205 0.136629
0.735759 0.364904 0.135821
0.818204 0.418723 0.179202
0.893462 0.525917 0.261021
9.15541e-05 0.349294 0.18172
0.112825 0.357702 0.1738
0.306767 0.35964 0.153246
0.473503 0.33846 0.136995
0.564462 0.355001 0.137179
0.662165 0.391028 0.137163
0.766094 0.436118 0.130129
0.8448 0.488396 0.1935
0.911925 0.583139 0.287282
0.000320439 0.452049 0.192325
0.106447 0.456428 0.187381
0.285359 0.461158 0.174044
0.473854 0.462394 0.154833
0.609751 0.44062 0.141451
0.700786 0.46923 0.136049
0.796872 0.511727 0.125383
0.868605 0.567102 0.216709
0.930327 0.657374 0.328252
0.162203 0.564675 0.22269
0.224918 0.566339 0.217594
0.342321 0.570932 0.205463
0.482368 0.575463 0.18587
0.629908 0.575662 0.162142
0.742245 0.559457 0.13666
0.827085 0.596887 0.136095
0.887312 0.653529 0.254383
0.944945 0.733608 0.383978
0.342809 0.687602 0.299306
0.370077 0.688975 0.294652
0.435325 0.692973 0.284703
0.530892 0.698085 0.267323
0.641581 0.705287 0.248569
0.753719 0.710109 0.228473
0.840528 0.704387 0.204181
0.899474 0.747127 0.318639
0.955612 0.809094 0.463676
0.448493 0.81912 0.488243
0.465995 0.819806 0.485924
0.51342 0.822736 0.483665
0.583032 0.825589 0.47715
0.662043 0.829252 0.470344
0.745403 0.834806 0.464652
0.83061 0.843122 0.459648
0.906508 0.84683 0.444862
0.959854 0.884245 0.58056
0.582742 0.907881 0.740444
0.592615 0.908858 0.741985
0.614664 0.911116 0.745296
0.651576 0.915267 0.751949
0.699657 0.92166 0.762554
0.755779 0.929397 0.774716
0.814939 0.938384 0.78587
0.878157 0.948104 0.796399
0.947814 0.958938 0.804685
0.106401 0.0979324 0.190677
0.181582 0.0789502 0.179324
0.248203 0.0664378 0.143633
0.318364 0.0885176 0.144396
0.419211 0.133806 0.162676
0.542992 0.203922 0.191104
0.660838 0.282399 0.211948
0.769574 0.353155 0.223789
0.866239 0.474403 0.278187
0.00529488 0.175555 0.256565
0.144152 0.182727 0.254902
0.273503 0.155138 0.224414
0.343038 0.166323 0.191089
0.448692 0.201236 0.196796
0.56286 0.253132 0.21117
0.673686 0.312612 0.224262
0.779538 0.372839 0.231678
0.872114 0.49102 0.286885
0 0.243473 0.266697
0 0.257404 0.278752
0.274113 0.288334 0.303319
0.390143 0.283268 0.250904
0.495521 0.305333 0.242222
0.599878 0.338872 0.242985
0.702846 0.378622 0.241962
0.799939 0.426505 0.251392
0.883925 0.528679 0.306661
0 0.342321 0.292088
0 0.355062 0.298451
0.206744 0.374716 0.286519
0.434394 0.368597 0.254032
0.529412 0.377737 0.244923
0.628122 0.409476 0.248127
0.731029 0.44892 0.248188
0.823682 0.495872 0.275868
0.901244 0.58526 0.336202
0 0.444007 0.305028
0 0.449729 0.300084
0.173587 0.46566 0.290043
0.40235 0.476616 0.272328
0.572503 0.463157 0.249012
0.664988 0.486213 0.24979
0.762722 0.522667 0.249638
0.84773 0.570916 0.304356
0.921263 0.657969 0.376394
0 0.550317 0.326299
0.00123598 0.556664 0.323507
0.241672 0.570901 0.317494
0.411383 0.579721 0.299458
0.576272 0.586496 0.277028
0.705821 0.573449 0.251164
0.796735 0.604639 0.255909
0.870787 0.654734 0.33817
0.939605 0.734279 0.425254
0.239734 0.676921 0.394156
0.279545 0.680751 0.391852
0.362585 0.688609 0.385107
0.471229 0.695689 0.369024
0.591669 0.703166 0.349554
0.717388 0.711971 0.329747
0.816709 0.707027 0.302937
0.888075 0.747616 0.389456
0.952895 0.809064 0.493782
0.399268 0.811963 0.530953
0.419806 0.813275 0.529397
0.473106 0.817624 0.52845
0.548577 0.821851 0.523293
0.635813 0.826795 0.517388
0.725811 0.832456 0.50988
0.817487 0.840635 0.501488
0.899306 0.845563 0.484642
0.958618 0.883665 0.599771
0.570748 0.907179 0.749554
0.581018 0.908064 0.750927
0.603159 0.910231 0.753353
0.640681 0.914168 0.758862
0.690318 0.920302 0.768002
0.749416 0.928603 0.779828
0.811246 0.938079 0.791135
0.876951 0.947921 0.799313
0.949233 0.958938 0.804303
0.134066 0.119905 0.246479
0.193011 0.106447 0.246906
0.276432 0.0859388 0.217334
0.332372 0.0752575 0.187671
0.39736 0.103243 0.193149
0.4972 0.175601 0.22829
0.619745 0.277989 0.273335
0.742092 0.385183 0.304006
0.850034 0.508873 0.361303
0.0131991 0.194125 0.329763
0.157458 0.190692 0.305333
0.272969 0.170657 0.299519
0.357855 0.148058 0.248692
0.417105 0.167559 0.233921
0.517128 0.225727 0.257053
0.635462 0.311879 0.2907
0.752865 0.405844 0.314214
0.855894 0.52076 0.368872
0.00343328 0.257893 0.340581
0.00363165 0.268147 0.354879
0.237156 0.285512 0.36495
0.380606 0.26128 0.342168
0.451362 0.273518 0.302892
0.557 0.321263 0.310246
0.667552 0.385092 0.324483
0.774151 0.446281 0.333608
0.866987 0.543297 0.381643
0 0.321065 0.352941
0 0.331212 0.36199
0.128862 0.355398 0.384344
0.384771 0.390768 0.410971
0.495262 0.396201 0.369604
0.598413 0.421897 0.356542
0.700099 0.457359 0.352987
0.799512 0.502495 0.360296
0.885725 0.589364 0.406897
0 0.422782 0.381903
0 0.432059 0.38732
0 0.454658 0.400549
0.304829 0.479789 0.402914
0.53341 0.482933 0.379843
0.630564 0.499916 0.368246
0.731762 0.531487 0.364492
0.82565 0.577279 0.398154
0.907469 0.660212 0.446525
0 0.53904 0.427039
0 0.545663 0.430182
0.00547799 0.557168 0.426444
0.321309 0.574563 0.417502
0.516777 0.589395 0.402625
0.669337 0.58407 0.370459
0.765347 0.610727 0.374868
0.850675 0.656443 0.435142
0.930449 0.735286 0.487999
0.00579843 0.658366 0.484459
0.114168 0.661692 0.483131
0.257389 0.669245 0.47715
0.400015 0.686625 0.471733
0.538735 0.699748 0.459129
0.673503 0.709636 0.439887
0.7906 0.709102 0.41181
0.872526 0.746853 0.479377
0.948196 0.808728 0.541131
0.3093 0.798138 0.591821
0.3355 0.799237 0.590082
0.393515 0.803159 0.58793
0.485176 0.811749 0.587991
0.58851 0.821439 0.588388
0.692149 0.828519 0.58294
0.794812 0.836774 0.573587
0.886198 0.843305 0.555016
0.956802 0.88333 0.632731
0.553277 0.906065 0.765301
0.561685 0.906813 0.765545
0.585946 0.909056 0.767529
0.623484 0.912779 0.771252
0.674678 0.918441 0.777859
0.739742 0.927413 0.789364
0.805341 0.937438 0.799863
0.874693 0.94789 0.807843
0.95082 0.959243 0.809018
0.164202 0.158694 0.318654
0.208011 0.152575 0.316945
0.294209 0.132601 0.31548
0.373648 0.117174 0.286488
0.426856 0.113146 0.26099
0.490013 0.152361 0.26981
0.587549 0.259495 0.326162
0.704189 0.398276 0.383139
0.83386 0.540932 0.447745
0.116609 0.211658 0.372427
0.186923 0.210681 0.362188
0.277729 0.199619 0.362905
0.37821 0.176806 0.344503
0.446082 0.167727 0.306355
0.507973 0.200748 0.304784
0.599664 0.295537 0.349187
0.716838 0.421881 0.394247
0.840208 0.553506 0.456123
0.00968948 0.280842 0.419013
0.0124514 0.289784 0.432486
0.241917 0.299367 0.424872
0.365789 0.291279 0.428046
0.473686 0.263874 0.390402
0.536858 0.28983 0.368856
0.626505 0.373327 0.395315
0.745953 0.469963 0.420539
0.852827 0.578805 0.471336
0.00299077 0.338643 0.430854
0.00296025 0.347265 0.44065
0.141833 0.36701 0.462058
0.340871 0.390967 0.473884
0.487953 0.372808 0.465202
0.561395 0.398093 0.432807
0.661891 0.459205 0.438483
0.776822 0.525124 0.449882
0.870771 0.614206 0.48986
0 0.399756 0.440299
0 0.407126 0.446265
0 0.426429 0.461845
0.237186 0.456001 0.487404
0.496162 0.495598 0.517708
0.599939 0.51104 0.491127
0.703243 0.537926 0.476692
0.80676 0.584207 0.48246
0.893507 0.663523 0.515938
0 0.512261 0.483574
0 0.51838 0.487388
0 0.533578 0.496498
0.216464 0.558633 0.513603
0.440543 0.585473 0.521111
0.634012 0.594583 0.503807
0.734569 0.617166 0.498131
0.832227 0.661219 0.525704
0.918029 0.73753 0.560555
0 0.639307 0.55024
0 0.643381 0.552407
0.160159 0.653284 0.558389
0.300465 0.668742 0.562173
0.469017 0.687236 0.555901
0.629969 0.705791 0.548287
0.765026 0.710323 0.522774
0.856565 0.746838 0.5682
0.940566 0.809659 0.608698
0.231861 0.788144 0.654215
0.254185 0.789548 0.654566
0.317769 0.793149 0.653468
0.411536 0.799023 0.650462
0.522225 0.808667 0.649714
0.651576 0.82266 0.654719
0.769818 0.832166 0.648905
0.871336 0.840681 0.63357
0.954086 0.883391 0.680049
0.526543 0.904921 0.783352
0.537942 0.906004 0.784039
0.563317 0.908248 0.785519
0.603525 0.911894 0.788037
0.657465 0.917281 0.792737
0.72433 0.925475 0.800565
0.797467 0.936706 0.81236
0.87158 0.947662 0.820005
0.952377 0.959213 0.818555
0.202655 0.228611 0.416999
0.239368 0.229587 0.416678
0.309743 0.225269 0.425895
0.397162 0.212284 0.432776
0.475746 0.208225 0.416953
0.540383 0.209018 0.393927
0.597971 0.248951 0.396979
0.684428 0.401801 0.458762
0.811856 0.560433 0.52668
0.176806 0.263111 0.448524
0.224063 0.265629 0.446052
0.300633 0.266468 0.445991
0.390936 0.253956 0.463096
0.477577 0.245045 0.450065
0.55111 0.244526 0.425925
0.611048 0.284306 0.424353
0.695598 0.427466 0.474693
0.819684 0.575006 0.5364
0.0154574 0.325444 0.506401
0.154864 0.33286 0.504601
0.271473 0.339574 0.496574
0.372 0.347265 0.497856
0.477607 0.334722 0.515572
0.568399 0.322881 0.488182
0.632807 0.359411 0.474968
0.716411 0.478508 0.504219
0.833524 0.604257 0.554513
0.00750744 0.378073 0.522057
0.00848402 0.385748 0.530068
0.208316 0.402228 0.53994
0.351034 0.420569 0.542138
0.468833 0.428794 0.546456
0.579293 0.407996 0.540551
0.65124 0.445808 0.522072
0.743404 0.539284 0.537057
0.853529 0.645029 0.576669
0.00260929 0.433402 0.536309
0.00251774 0.438758 0.5411
0.134478 0.453056 0.553719
0.293828 0.475776 0.571572
0.463066 0.503594 0.582361
0.588998 0.4981 0.587594
0.67013 0.53669 0.567208
0.780896 0.6065 0.572274
0.878096 0.693278 0.60264
0 0.491325 0.541405
0 0.496132 0.544991
0.00158694 0.509453 0.555001
0.233753 0.530083 0.571801
0.389303 0.559243 0.595071
0.602686 0.598642 0.62269
0.708309 0.621576 0.604196
0.816526 0.667628 0.604669
0.905943 0.742092 0.627497
0.00122072 0.614542 0.599298
0.0614939 0.618082 0.601785
0.190249 0.628031 0.608865
0.292409 0.644251 0.619242
0.396262 0.666865 0.633692
0.568963 0.695552 0.643458
0.739681 0.711879 0.633448
0.840406 0.749233 0.653666
0.931243 0.812451 0.678035
0.255146 0.772564 0.694514
0.273655 0.774258 0.695491
0.315587 0.778637 0.6981
0.377676 0.786954 0.703777
0.459724 0.79826 0.710643
0.594812 0.810391 0.711391
0.745007 0.827466 0.717952
0.857771 0.838682 0.708736
0.950545 0.884398 0.738643
0.504448 0.902068 0.805081
0.513115 0.903243 0.805936
0.533837 0.90605 0.808209
0.572 0.91043 0.811185
0.630686 0.915816 0.813855
0.703578 0.923369 0.81828
0.784833 0.934997 0.827756
0.868055 0.947509 0.8365
0.954253 0.959289 0.833555
0.246082 0.334813 0.535256
0.27277 0.339849 0.536126
0.335378 0.353262 0.541466
0.409049 0.366857 0.552544
0.490654 0.373297 0.578592
0.572793 0.376806 0.582834
0.647059 0.388815 0.573754
0.709194 0.415671 0.561746
0.797177 0.579095 0.615122
0.229114 0.35613 0.554025
0.262074 0.361334 0.554116
0.329854 0.373342 0.555642
0.407218 0.387671 0.563104
0.488502 0.398459 0.586755
0.575753 0.401358 0.599054
0.651576 0.412238 0.590723
0.718914 0.443717 0.58053
0.803281 0.594324 0.625956
0.198657 0.39791 0.588388
0.237675 0.403113 0.588342
0.315877 0.415717 0.58819
0.403433 0.433265 0.591592
0.486824 0.450996 0.60415
0.57644 0.455589 0.62974
0.659129 0.461189 0.623926
0.733715 0.493507 0.610956
0.813748 0.622904 0.643915
0.16289 0.446372 0.615335
0.205478 0.451759 0.618296
0.288533 0.465293 0.624781
0.388693 0.481804 0.626505
0.484718 0.502022 0.630518
0.572854 0.516258 0.64863
0.664271 0.514351 0.655085
0.748989 0.553567 0.642252
0.829541 0.667842 0.668727
0.157961 0.494606 0.635355
0.195773 0.498573 0.638285
0.271626 0.509285 0.645853
0.370138 0.526467 0.655589
0.479347 0.548211 0.661402
0.57763 0.570535 0.668376
0.67332 0.57258 0.686091
0.765972 0.621118 0.674128
0.852872 0.721126 0.696788
0.173449 0.543801 0.651972
0.203494 0.547097 0.654795
0.268315 0.555917 0.662226
0.355703 0.570642 0.673732
0.461402 0.591516 0.687175
0.580163 0.618204 0.695598
0.687663 0.63357 0.712673
0.786694 0.688472 0.702724
0.88632 0.771801 0.722759
0.176349 0.599878 0.663874
0.201236 0.601984 0.6654
0.25832 0.609781 0.671351
0.335439 0.622858 0.680919
0.426062 0.641978 0.694194
0.537591 0.668223 0.711376
0.715267 0.711223 0.73434
0.825025 0.753338 0.732021
0.919676 0.816571 0.744808
0.28542 0.751614 0.737163
0.299809 0.753048 0.737728
0.336934 0.758007 0.740627
0.394263 0.767086 0.746349
0.4636 0.779492 0.754299
0.550301 0.7953 0.764736
0.702892 0.816693 0.776181
0.84538 0.838392 0.781964
0.9458 0.885954 0.796643
0.499062 0.89424 0.827909
0.50779 0.895689 0.82855
0.52723 0.898817 0.830457
0.559716 0.904005 0.833982
0.606531 0.911223 0.839994
0.66746 0.920699 0.848325
0.75697 0.931044 0.853376
0.858976 0.946502 0.863706
0.956741 0.961837 0.865217
0.313771 0.486351 0.690593
0.332296 0.491997 0.69247
0.377676 0.503594 0.695247
0.442054 0.520821 0.698878
0.518486 0.546227 0.708431
0.591318 0.572213 0.721904
0.664302 0.594385 0.746746
0.747723 0.615259 0.76791
0.819623 0.646601 0.768414
0.308598 0.497612 0.699336
0.329183 0.501854 0.700023
0.373678 0.512261 0.701869
0.440696 0.528786 0.704784
0.519402 0.555428 0.714565
0.59443 0.583215 0.72845
0.667384 0.607721 0.751766
0.750515 0.628534 0.775204
0.821088 0.659159 0.776242
0.307088 0.518074 0.713451
0.327398 0.523293 0.715328
0.373495 0.534264 0.71812
0.441077 0.551675 0.721691
0.521248 0.57615 0.72842
0.598169 0.603876 0.740032
0.671016 0.628992 0.758694
0.754498 0.649821 0.785016
0.823529 0.679927 0.786496
0.312261 0.547768 0.730373
0.330968 0.552056 0.732464
0.375357 0.560784 0.735698
0.443503 0.576669 0.738659
0.522072 0.598642 0.743038
0.600885 0.625589 0.751507
0.675227 0.652918 0.766171
0.757977 0.675166 0.793713
0.829572 0.70721 0.796323
0.322042 0.587259 0.74995
0.338994 0.590631 0.751751
0.380819 0.598733 0.755718
0.445701 0.611154 0.760052
0.523323 0.630304 0.764248
0.602716 0.654597 0.768994
0.682216 0.68423 0.779461
0.765332 0.710933 0.804501
0.842649 0.751095 0.810559
0.343023 0.63241 0.769665
0.357534 0.634409 0.770855
0.394812 0.641123 0.774701
0.453178 0.651774 0.779797
0.525322 0.666926 0.78555
0.604562 0.686488 0.789456
0.692531 0.715343 0.795438
0.777996 0.74612 0.814725
0.861845 0.799771 0.823743
0.368246 0.682918 0.788678
0.379507 0.683879 0.789197
0.411063 0.688945 0.792386
0.461234 0.697154 0.79707
0.525261 0.708675 0.803189
0.60528 0.724407 0.809888
0.704479 0.749004 0.815549
0.796704 0.784573 0.828016
0.891234 0.84506 0.839796
0.363958 0.748318 0.803784
0.374166 0.748653 0.803677
0.401541 0.751171 0.805066
0.446876 0.756634 0.808316
0.506935 0.764889 0.81326
0.585916 0.776959 0.820508
0.690608 0.796704 0.831876
0.833082 0.838544 0.852552
0.935149 0.889967 0.858183
0.489677 0.877958 0.85893
0.497993 0.87985 0.85919
0.515511 0.883467 0.860365
0.550103 0.890135 0.863478
0.596582 0.898848 0.868528
0.656153 0.910048 0.876356
0.726772 0.923827 0.886931
0.832456 0.940078 0.897078
0.957656 0.963882 0.90779
0.523415 0.748104 0.866499
0.530587 0.749126 0.866865
0.546563 0.753506 0.868345
0.568811 0.756283 0.868284
0.601602 0.76083 0.868223
0.647669 0.76878 0.868574
0.697795 0.784039 0.87216
0.753887 0.808209 0.880476
0.811154 0.836011 0.890837
0.524468 0.751003 0.867994
0.531395 0.75288 0.868711
0.545937 0.755398 0.869322
0.569589 0.759197 0.869902
0.605966 0.76669 0.871794
0.652552 0.777737 0.874571
0.699504 0.794003 0.879774
0.756451 0.814984 0.88603
0.812879 0.838163 0.892332
0.530953 0.760113 0.871855
0.536553 0.760678 0.872206
0.552316 0.763531 0.873594
0.578805 0.769177 0.875517
0.616251 0.777203 0.87805
0.658305 0.78764 0.881041
0.702937 0.801099 0.88481
0.760693 0.819806 0.889265
0.817899 0.843275 0.895659
0.548623 0.771557 0.877577
0.553918 0.772671 0.878141
0.568811 0.775357 0.879393
0.591882 0.779232 0.881209
0.625803 0.786038 0.88333
0.663844 0.795972 0.886351
0.708324 0.809049 0.890089
0.76672 0.827344 0.894545
0.826139 0.851301 0.900923
0.573358 0.787152 0.88542
0.577691 0.788037 0.885771
0.590585 0.789975 0.886763
0.611841 0.793591 0.888502
0.639673 0.799252 0.890944
0.673701 0.807782 0.893706
0.716777 0.819471 0.897063
0.776776 0.838361 0.902007
0.839139 0.862837 0.908278
0.603754 0.806226 0.894957
0.607034 0.806485 0.895155
0.615946 0.808118 0.89604
0.632181 0.811109 0.897597
0.655299 0.815732 0.899916
0.685878 0.821942 0.902602
0.729503 0.833463 0.906218
0.790753 0.852522 0.911482
0.857267 0.878325 0.918029
0.628244 0.828016 0.906065
0.63064 0.828061 0.906203
0.638712 0.829374 0.907012
0.652659 0.831815 0.908431
0.672618 0.835279 0.910414
0.701778 0.840894 0.913436
0.745022 0.850843 0.91754
0.807935 0.869841 0.923095
0.879347 0.897414 0.93019
0.642954 0.85742 0.91902
0.64625 0.857694 0.919326
0.652445 0.85864 0.919982
0.664317 0.859937 0.921126
0.683528 0.86276 0.923201
0.711604 0.867414 0.926329
0.755886 0.87541 0.931212
0.823789 0.891112 0.937697
0.90518 0.921416 0.945357
0.628275 0.89279 0.926162
0.631479 0.893538 0.926574
0.63772 0.894682 0.927337
0.648051 0.896742 0.928618
0.665766 0.900023 0.930755
0.694438 0.904936 0.934295
0.741955 0.912657 0.940322
0.820401 0.925246 0.950225
0.951873 0.966217 0.966094
