YOYO-Client/Yoyo/Assets.xcassets/Pearl.dataset/Fuji-160S.cube
TITLE "Fuji-160S"
LUT_3D_SIZE 33
0 0 0
0.0269627 0 0
0.0539254 0 0
0.0808881 0.00355535 0
0.107851 0.00392157 0
0.134798 0.00784314 0
0.165682 0.00784314 0
0.196567 0.00784314 0
0.231373 0.00489815 0
0.26508 0.00109865 0
0.300984 0 0
0.338354 0 0
0.376959 0 0
0.419486 0 0
0.46421 0 0
0.506615 0 0
0.54902 0 0
0.5935 0 0
0.633829 0 0
0.674632 0 0
0.713237 0 0
0.751842 0 0
0.790448 0 0
0.825116 0 0
0.8598 0 0
0.897551 0 0
0.929168 0 0
0.963241 0 0
0.993133 0 0
1 0 0
1 0 0
1 0 0
1 0 0
0 0.0269627 0
0.0230411 0.0270848 0
0.0503548 0.0308843 0
0.0773327 0.0308843 0
0.104417 0.0309911 0
0.134798 0.0310063 0
0.165682 0.0310063 0
0.196567 0.0310063 0
0.231373 0.0280613 0
0.266148 0.0242618 0
0.300984 0.0204623 0
0.338354 0.0127413 0
0.376959 0.00521859 0
0.421744 0 0
0.46421 0 0
0.506615 0 0
0.550912 0 0
0.5935 0 0
0.633829 0 0
0.674632 0 0
0.713237 0 0
0.751842 0 0
0.789258 0 0
0.825116 0 0
0.8598 0 0
0.897551 0 0
0.929168 0 0
0.963241 0 0
0.993133 0 0
1 0 0
1 0 0
1 0 0
1 0 0
0 0.050248 0.00759899
0.0117647 0.0541543 0.0037995
0.0460975 0.0576181 0.000228885
0.0769665 0.057847 0
0.104417 0.057847 0
0.134798 0.057847 0
0.165682 0.0548562 0
0.200443 0.0541695 0
0.231373 0.0539864 0
0.266178 0.0500649 0
0.303502 0.0461585 0
0.338354 0.0395819 0
0.380789 0.0318608 0
0.423301 0.0217136 0
0.465827 0.00895705 0
0.508461 0 0
0.550973 0 0
0.5935 0 0
0.633829 0 0
0.674632 0 0
0.713237 0 0
0.751842 0 0
0.790448 0 0
0.825116 0 0
0.862745 0 0
0.897551 0 0
0.929168 0 0
0.963241 0 0
0.993133 0 0
1 0 0
1 0 0
1 0 0
1 0 0
0 0.0773327 0.0117647
0.00794995 0.0808881 0.0113985
0.0311284 0.0812238 0.00747692
0.0691539 0.0851301 0.000335698
0.103914 0.0887312 0
0.134798 0.08542 0
0.168872 0.0848096 0
0.200488 0.0817426 0
0.234318 0.0808881 0
0.269001 0.0770581 0
0.30367 0.0745251 0
0.342275 0.0728008 0
0.384436 0.0666667 0
0.425513 0.0622873 0
0.467933 0.0506447 0
0.510536 0.0403143 0
0.552941 0.0232853 0
0.5935 0.00732433 0
0.636027 0 0
0.674632 0 0
0.713237 0 0
0.751842 0 0
0.790448 0 0
0.82768 0 0
0.862745 0 0
0.897551 0 0
0.929168 0 0
0.963241 0 0
0.993133 0 0
1 0 0
1 0 0
1 0 0
1 0 0
0 0.111269 0.0191196
0 0.111269 0.0152132
0.0120089 0.111727 0.0119783
0.0498054 0.115312 0.00772107
0.0960708 0.119554 0.00349432
0.137697 0.119615 0
0.172396 0.119112 0
0.206607 0.11606 0
0.238727 0.112627 0
0.27599 0.111269 0
0.311025 0.1075 0
0.353063 0.105104 0
0.391669 0.103426 0
0.434195 0.0971847 0
0.476722 0.0933852 0
0.519234 0.0851759 0
0.559808 0.0772106 0
0.600595 0.065095 0
0.642893 0.0527504 0
0.681498 0.037583 0
0.720104 0.0214389 0
0.757519 0.00793469 0
0.793866 0 0
0.82855 0 0
0.8636 0 0
0.898299 0 0
0.931868 0 0
0.962737 0 0
0.992706 0 0
1 0 0
1 0 0
1 0 0
1 0 0
0 0.142641 0.0229191
0 0.142641 0.0229191
0.000579843 0.142641 0.0189975
0.0235294 0.146197 0.0150759
0.0729992 0.149996 0.00772107
0.126452 0.153887 0.000518807
0.169482 0.154406 0
0.207477 0.153796 0
0.242985 0.149874 0
0.28014 0.147066 0
0.318746 0.143679 0
0.357351 0.142031 0
0.398642 0.138338 0
0.438849 0.134447 0
0.481346 0.130541 0
0.521981 0.126024 0
0.564401 0.12047 0
0.604944 0.112749 0
0.64387 0.107713 0
0.682475 0.0997482 0
0.72108 0.090425 0
0.759686 0.0798199 0
0.796643 0.0710765 0
0.831861 0.0625772 0
0.866667 0.0542611 0
0.901473 0.0460822 0
0.932357 0.0423896 0
0.967163 0.039704 0
0.996567 0.039704 0
1 0.0430152 0
1 0.0505226 0
1 0.0629129 0
1 0.080766 0
0 0.173526 0.0306401
0 0.173526 0.0268406
0 0.176516 0.0267185
0.00199893 0.177386 0.022797
0.0465705 0.177447 0.0154421
0.103304 0.18468 0.00503548
0.157107 0.188479 0
0.206775 0.191699 0
0.246082 0.189273 0
0.287861 0.187945 0
0.326467 0.184054 0
0.365072 0.180636 0
0.403677 0.176715 0
0.446204 0.172793 0
0.487007 0.168872 0
0.527718 0.16495 0
0.569848 0.161028 0
0.608804 0.156756 0
0.647791 0.151064 0
0.686397 0.146929 0
0.725002 0.140414 0
0.763348 0.134936 0
0.798291 0.130877 0
0.832959 0.124269 0
0.867643 0.120165 0
0.901473 0.118746 0
0.935683 0.115694 0
0.967163 0.114946 0
0.996567 0.115038 0
1 0.115694 0
1 0.11986 0
1 0.127596 0
1 0.139956 0
0 0.207477 0.0383612
0 0.208331 0.0345617
0 0.211398 0.0344396
0 0.211398 0.030518
0.0141604 0.212146 0.0231632
0.0762341 0.216037 0.0147097
0.134676 0.222583 0.00131228
0.195041 0.226413 0
0.24596 0.229603 0
0.290806 0.227939 0
0.330266 0.22649 0
0.372793 0.222599 0
0.411399 0.218708 0
0.453925 0.214817 0
0.493004 0.21091 0
0.535042 0.205386 0
0.574075 0.201587 0
0.616175 0.197787 0
0.65478 0.193515 0
0.693385 0.189685 0
0.728923 0.185855 0
0.766659 0.181735 0
0.801938 0.177935 0
0.836652 0.175006 0
0.871351 0.171328 0
0.905394 0.170459 0
0.936278 0.167407 0
0.967163 0.167407 0
0.996567 0.167407 0
1 0.167697 0
1 0.171511 0
1 0.175372 0
1 0.187015 0
0 0.251957 0.0460822
0 0.251957 0.0460822
0 0.252949 0.0423438
0 0.252949 0.0386053
0 0.252949 0.0346838
0.0449989 0.256703 0.023621
0.113176 0.260044 0.0115206
0.175494 0.265476 0.000640879
0.236515 0.271565 0
0.293538 0.272541 0
0.340017 0.27187 0
0.382101 0.269001 0
0.423896 0.265202 0
0.464179 0.260197 0
0.503182 0.256306 0
0.545708 0.250858 0
0.584314 0.246571 0
0.622919 0.241184 0
0.661524 0.237247 0
0.70013 0.233341 0
0.737621 0.229404 0
0.772396 0.225498 0
0.807843 0.224262 0
0.842649 0.221286 0
0.87451 0.217639 0
0.908339 0.217426 0
0.939223 0.216114 0
0.970092 0.213733 0
0.999146 0.216663 0
1 0.216663 0
1 0.217838 0
1 0.220706 0
1 0.227451 0
0 0.288609 0.0538033
0 0.295262 0.0538033
0 0.296452 0.0501259
0 0.296452 0.0498817
0 0.296452 0.0425269
0.0055848 0.296452 0.0352483
0.0835431 0.299626 0.0199741
0.152697 0.303426 0.00453193
0.215076 0.3075 0
0.279652 0.312139 0
0.337621 0.314076 0
0.387259 0.3131 0
0.430762 0.311025 0
0.473289 0.307103 0
0.511894 0.300984 0
0.554406 0.297185 0
0.593011 0.291417 0
0.631617 0.285664 0
0.670222 0.281865 0
0.707683 0.278065 0
0.743511 0.274266 0
0.778912 0.270848 0
0.811994 0.267018 0
0.846448 0.263966 0
0.878431 0.261158 0
0.912139 0.260044 0
0.943008 0.260044 0
0.973449 0.260044 0
1 0.260044 0
1 0.260151 0
1 0.261326 0
1 0.265156 0
1 0.269001 0
0 0.3299 0.0615244
0 0.335012 0.0615244
0 0.337575 0.057847
0 0.337743 0.0551614
0 0.335042 0.050248
0 0.335042 0.0464485
0.0419471 0.335042 0.0316167
0.122667 0.338964 0.0152132
0.191241 0.343816 0.000671397
0.25684 0.34963 0
0.322057 0.353429 0
0.383017 0.35465 0
0.434318 0.355673 0
0.479408 0.353429 0
0.521813 0.349508 0
0.562127 0.34493 0
0.600732 0.339712 0
0.639338 0.333242 0
0.676768 0.328191 0
0.712627 0.323659 0
0.749752 0.318135 0
0.784558 0.314214 0
0.817502 0.310292 0
0.850248 0.307256 0
0.882353 0.305699 0
0.913237 0.30341 0
0.944121 0.302449 0
0.975006 0.302449 0
1 0.302449 0
1 0.302449 0
1 0.30367 0
1 0.303792 0
1 0.311513 0
0 0.369726 0.0666667
0 0.37615 0.0653544
0 0.377569 0.0653239
0 0.377569 0.0617685
0 0.377569 0.057969
0 0.37644 0.0535592
0.00328069 0.377325 0.0432593
0.0883803 0.377569 0.0267643
0.165194 0.381491 0.00550851
0.233341 0.388235 0
0.301885 0.392035 0
0.367498 0.396719 0
0.429297 0.398795 0
0.48217 0.399756 0
0.528084 0.397543 0
0.569848 0.393118 0
0.608454 0.38732 0
0.647059 0.382223 0
0.68394 0.377081 0
0.720348 0.370718 0
0.755032 0.366064 0
0.788815 0.359197 0
0.823163 0.355398 0
0.85539 0.351965 0
0.886915 0.348775 0
0.919173 0.346197 0
0.948043 0.344854 0
0.977172 0.342275 0
1 0.342275 0
1 0.342275 0
1 0.342275 0
1 0.3449 0
1 0.350118 0
0 0.419608 0.0730449
0 0.421027 0.0730449
0 0.422553 0.0730449
0 0.422553 0.0691234
0 0.422553 0.0652018
0 0.421073 0.057969
0 0.421073 0.0509804
0.0420691 0.422232 0.0383154
0.136645 0.422553 0.0171511
0.210178 0.427527 0.000686656
0.279652 0.431403 0
0.34818 0.4374 0
0.41471 0.441245 0
0.4766 0.442161 0
0.530877 0.442161 0
0.575738 0.441382 0
0.617395 0.437507 0
0.657237 0.431693 0
0.692744 0.427207 0
0.729519 0.419486 0
0.763729 0.415686 0
0.796078 0.407965 0
0.829877 0.402487 0
0.861769 0.39791 0
0.892653 0.394125 0
0.923537 0.390326 0
0.950484 0.387259 0
0.980758 0.386648 0
1 0.383337 0
1 0.383337 0
1 0.383337 0
1 0.383337 0
1 0.385779 0
0 0.457115 0.080766
0 0.464881 0.080766
0 0.466545 0.0770886
0 0.466545 0.0768444
0 0.466545 0.0729229
0 0.465202 0.0656901
0 0.464958 0.057969
0 0.462623 0.0489967
0.100343 0.464363 0.0305486
0.185901 0.466545 0.00563058
0.256489 0.470466 0
0.325978 0.474388 0
0.395468 0.479301 0
0.461036 0.482231 0
0.521904 0.486152 0
0.57612 0.485313 0
0.622736 0.484565 0
0.662501 0.480644 0
0.701106 0.47602 0
0.738109 0.470253 0
0.771466 0.463478 0
0.8038 0.455756 0
0.834684 0.450858 0
0.865568 0.444236 0
0.896452 0.440436 0
0.926818 0.433585 0
0.955581 0.430945 0
0.982849 0.429297 0
1 0.427131 0
1 0.423407 0
1 0.423407 0
1 0.423407 0
1 0.423407 0
0 0.499504 0.0845655
0 0.505089 0.0845655
0 0.509071 0.0845655
0 0.509071 0.0810101
0 0.507561 0.0772106
0 0.505486 0.0734112
0 0.50515 0.0656901
0 0.50515 0.057969
0.0518959 0.50515 0.0420996
0.155993 0.50515 0.0194858
0.233341 0.509071 0.000686656
0.302815 0.512993 0
0.372305 0.516915 0
0.441794 0.523156 0
0.507347 0.525994 0
0.5682 0.528679 0
0.621317 0.527825 0
0.665934 0.526955 0
0.706615 0.523033 0
0.742611 0.517525 0
0.776715 0.510628 0
0.808194 0.504875 0
0.840192 0.498283 0
0.870604 0.490562 0
0.900252 0.486763 0
0.928923 0.479896 0
0.957671 0.475563 0
0.986145 0.471717 0
1 0.467857 0
1 0.465934 0
1 0.462013 0
1 0.462013 0
1 0.462013 0
0 0.539834 0.0922866
0 0.547555 0.0922866
0 0.54963 0.0922866
0 0.549752 0.0906081
0 0.547677 0.0867475
0 0.547677 0.0811322
0 0.546181 0.0754864
0 0.54583 0.0677653
0.00550851 0.54583 0.0565805
0.12517 0.547158 0.0349279
0.208942 0.547677 0.00640879
0.282948 0.551598 0
0.351919 0.55552 0
0.419471 0.560525 0
0.488106 0.56556 0
0.551598 0.567285 0
0.610605 0.56936 0
0.663844 0.56936 0
0.706615 0.567285 0
0.74522 0.563851 0
0.781201 0.557595 0
0.81323 0.552331 0
0.845548 0.54461 0
0.874998 0.536889 0
0.904051 0.533089 0
0.932845 0.525368 0
0.959808 0.521569 0
0.98677 0.516014 0
1 0.510277 0
1 0.506416 0
1 0.502571 0
1 0.500618 0
1 0.500618 0
0 0.582345 0.101961
0 0.586206 0.103914
0 0.588235 0.100252
0 0.588235 0.100008
0 0.588235 0.0960861
0 0.586282 0.0924697
0 0.586282 0.0850538
0 0.586282 0.0792859
0 0.586282 0.0686198
0.0852369 0.586282 0.0537423
0.187137 0.586282 0.0264744
0.261707 0.590188 0.00202945
0.331868 0.593378 0
0.39939 0.597238 0
0.466911 0.601968 0
0.533394 0.605875 0
0.596078 0.60882 0
0.65301 0.609812 0
0.703304 0.608942 0
0.746014 0.607843 0
0.784314 0.603189 0
0.81912 0.59736 0
0.850004 0.590936 0
0.879774 0.585168 0
0.907851 0.577935 0
0.934798 0.571694 0
0.961761 0.565927 0
0.988113 0.560174 0
1 0.55465 0
1 0.548836 0
1 0.544976 0
1 0.541115 0
1 0.539208 0
0 0.620951 0.113481
0 0.624872 0.113481
0 0.628794 0.113481
0 0.628794 0.113481
0 0.628794 0.10956
0 0.625208 0.105638
0 0.624872 0.0985275
0 0.624872 0.0926528
0 0.624872 0.0849317
0.0484474 0.624872 0.0738689
0.164096 0.624872 0.0541695
0.24239 0.626245 0.0219425
0.312505 0.628794 0.000686656
0.378912 0.631968 0
0.445716 0.637003 0
0.511269 0.640803 0
0.574884 0.644602 0
0.63566 0.646571 0
0.690684 0.648402 0
0.741054 0.645716 0
0.781979 0.64448 0
0.818509 0.640558 0
0.851957 0.635416 0
0.882841 0.629541 0
0.911177 0.623896 0
0.939834 0.616571 0
0.966918 0.6103 0
0.990066 0.604944 0
1 0.599039 0
1 0.593133 0
1 0.587381 0
1 0.581735 0
1 0.581735 0
0 0.657847 0.128923
0 0.663355 0.130587
0 0.663478 0.130632
0 0.663478 0.128923
0 0.663478 0.125216
0 0.663478 0.12134
0 0.662089 0.117479
0 0.661768 0.111513
0 0.661768 0.104173
0.0135653 0.660182 0.0936294
0.141421 0.661768 0.0805982
0.22623 0.662898 0.060441
0.297063 0.663478 0.0241093
0.360296 0.666712 0.00138857
0.425986 0.670573 0
0.489952 0.673533 0
0.55172 0.677455 0
0.613474 0.681376 0
0.673533 0.681376 0
0.72668 0.683085 0
0.77319 0.680552 0
0.814588 0.679164 0
0.850782 0.675242 0
0.882841 0.67071 0
0.912749 0.666423 0
0.939834 0.659083 0
0.966918 0.653117 0
0.990066 0.647181 0
1 0.641184 0
1 0.63566 0
1 0.627939 0
1 0.62034 0
1 0.616419 0
0 0.69424 0.148287
0 0.698116 0.149828
0 0.700343 0.149874
0 0.698375 0.148287
0 0.698161 0.144564
0 0.698161 0.142031
0 0.696864 0.138109
0 0.696574 0.131121
0 0.696574 0.127321
0 0.696574 0.1196
0.129778 0.696574 0.10956
0.216297 0.697612 0.0938125
0.284688 0.698161 0.0711986
0.347829 0.700496 0.0334173
0.410544 0.703395 0.00347906
0.471458 0.706493 0
0.532479 0.708339 0
0.594247 0.712261 0
0.652079 0.71487 0
0.708339 0.716182 0
0.759182 0.716182 0
0.805951 0.713848 0
0.846448 0.712261 0
0.879576 0.709484 0
0.909804 0.705028 0
0.939834 0.701228 0
0.966918 0.693507 0
0.990066 0.686397 0
1 0.681987 0
1 0.674266 0
1 0.666545 0
1 0.658946 0
1 0.655024 0
0 0.727459 0.169116
0 0.7299 0.171496
0 0.731365 0.171572
0 0.731365 0.167651
0 0.731365 0.165499
0 0.731365 0.165194
0 0.731365 0.161273
0 0.731365 0.155444
0 0.731365 0.151598
0 0.731365 0.144244
0.126955 0.731365 0.13753
0.211521 0.732845 0.127184
0.278431 0.732845 0.112261
0.33933 0.732845 0.0895857
0.397208 0.736126 0.0537118
0.456245 0.738064 0.0113985
0.516182 0.740688 0
0.574014 0.74461 0
0.633234 0.746319 0
0.690562 0.748531 0
0.743694 0.748531 0
0.794003 0.748531 0
0.836484 0.747768 0
0.874998 0.74461 0
0.907347 0.740688 0
0.936767 0.737377 0
0.964462 0.732387 0
0.987625 0.725856 0
1 0.718135 0
1 0.712123 0
1 0.706615 0
1 0.69894 0
1 0.695094 0
0 0.762249 0.193622
0 0.762249 0.196124
0 0.766171 0.196201
0 0.766171 0.193622
0 0.766171 0.192279
0 0.762463 0.1897
0 0.762249 0.186267
0 0.762249 0.182422
0 0.762249 0.178592
0.0104829 0.762249 0.174746
0.13579 0.762249 0.167407
0.21532 0.763943 0.159686
0.278431 0.766171 0.149508
0.33547 0.766171 0.133883
0.39057 0.76762 0.111269
0.447898 0.770092 0.0807202
0.503853 0.771389 0.0318608
0.559197 0.775219 0.00358587
0.617151 0.777188 0
0.673777 0.780514 0
0.727825 0.781857 0
0.777935 0.781857 0
0.824262 0.781445 0
0.86595 0.777935 0
0.903517 0.776959 0
0.935424 0.773159 0
0.961898 0.76936 0
0.988724 0.763394 0
1 0.758007 0
1 0.751476 0
1 0.743908 0
1 0.738643 0
1 0.734798 0
0 0.793133 0.219364
0 0.793133 0.220584
0 0.795834 0.220752
0 0.795834 0.220584
0 0.793133 0.219364
0 0.793133 0.216663
0 0.793133 0.213245
0 0.793133 0.209674
0 0.793133 0.20589
0.0456245 0.793133 0.20209
0.154055 0.793133 0.198291
0.223041 0.793133 0.191363
0.282353 0.793133 0.18407
0.335164 0.795834 0.172427
0.387991 0.797055 0.157061
0.441382 0.797055 0.135668
0.492897 0.800366 0.109194
0.544976 0.802243 0.0699016
0.601709 0.804211 0.0183566
0.655268 0.807599 0
0.707561 0.808057 0
0.759503 0.80882 0
0.80882 0.80882 0
0.851225 0.808484 0
0.892653 0.806928 0
0.927703 0.804044 0
0.957839 0.800748 0
0.984924 0.796445 0
1 0.792645 0
1 0.784924 0
1 0.777203 0
1 0.770794 0
1 0.765682 0
0 0.820096 0.246448
0 0.822919 0.250278
0 0.822919 0.250431
0 0.822919 0.247807
0 0.822919 0.246586
0 0.822919 0.244068
0 0.822919 0.242725
0 0.822919 0.239704
0.00164797 0.822919 0.236759
0.0992294 0.822919 0.233753
0.181964 0.822919 0.229923
0.240925 0.822919 0.226093
0.294286 0.822919 0.218753
0.343343 0.822919 0.211032
0.390814 0.824018 0.197803
0.439948 0.825513 0.182849
0.487678 0.826841 0.162066
0.536736 0.826841 0.13814
0.586892 0.830762 0.106615
0.638727 0.830762 0.059556
0.690028 0.834684 0.0117189
0.740185 0.834684 0
0.789456 0.834684 0
0.835782 0.834684 0
0.877211 0.834684 0
0.915816 0.831617 0
0.949233 0.827939 0
0.977203 0.82623 0
1 0.819959 0
1 0.815808 0
1 0.808087 0
1 0.80322 0
1 0.796567 0
0 0.847059 0.276463
0 0.849912 0.279408
0 0.850004 0.279408
0 0.850004 0.279408
0 0.847425 0.276844
0 0.847059 0.275486
0 0.847059 0.273106
0.00918593 0.847059 0.272557
0.0715648 0.847791 0.269612
0.156466 0.848035 0.268635
0.217273 0.848035 0.264714
0.267369 0.85098 0.261128
0.313726 0.85098 0.25539
0.35613 0.85098 0.248249
0.399268 0.85098 0.240375
0.443351 0.85098 0.227726
0.486763 0.85098 0.211276
0.531151 0.851957 0.192523
0.578241 0.854902 0.169055
0.62623 0.855299 0.140108
0.675486 0.856992 0.10576
0.725734 0.858824 0.0588235
0.772061 0.859129 0.0194247
0.817395 0.8598 0.00492866
0.862745 0.858824 0
0.90135 0.858824 0
0.936828 0.855695 0
0.967163 0.851804 0
0.996567 0.847913 0
1 0.843748 0
1 0.839948 0
1 0.832349 0
1 0.828428 0
0 0.873167 0.317159
0 0.877089 0.317159
0 0.877089 0.317159
0 0.877089 0.317159
0 0.876326 0.313726
0 0.876219 0.313237
0.0232547 0.876219 0.312535
0.110369 0.876219 0.309316
0.167987 0.876219 0.309316
0.217517 0.876219 0.305394
0.26302 0.876219 0.303288
0.302571 0.876219 0.301472
0.34255 0.877089 0.297871
0.381979 0.877089 0.292165
0.420584 0.877089 0.284443
0.458335 0.877089 0.276722
0.496941 0.877089 0.265507
0.538598 0.878523 0.252445
0.581125 0.88101 0.23357
0.624903 0.88101 0.212985
0.67039 0.884062 0.189822
0.716182 0.884932 0.162554
0.761273 0.884932 0.131273
0.804898 0.884932 0.093492
0.847303 0.884932 0.0408331
0.888853 0.884932 0.00860609
0.926711 0.884184 0
0.961517 0.88101 0
0.988952 0.877089 0
1 0.872877 0
1 0.869001 0
1 0.865202 0
1 0.861402 0
0 0.89633 0.348043
0.0049897 0.89633 0.348043
0.0115816 0.89633 0.348043
0.0159762 0.89633 0.348043
0.0432593 0.89633 0.344518
0.0965438 0.89633 0.344121
0.144259 0.89633 0.340932
0.185214 0.89633 0.3402
0.223224 0.89633 0.3402
0.261112 0.89633 0.337011
0.295811 0.89633 0.336507
0.330877 0.89633 0.334188
0.367681 0.89633 0.332631
0.40209 0.89633 0.329168
0.436347 0.89633 0.325246
0.47071 0.899504 0.319234
0.505028 0.899504 0.307973
0.543267 0.899855 0.296345
0.581125 0.900252 0.28333
0.61973 0.903426 0.263966
0.661524 0.903426 0.24387
0.704051 0.904173 0.220966
0.747051 0.905165 0.198291
0.789456 0.907347 0.170306
0.830884 0.90753 0.140688
0.872831 0.908095 0.109102
0.910674 0.906752 0.0636454
0.946075 0.904173 0.0130465
0.976959 0.900252 0.00128176
1 0.89633 0
1 0.892409 0
1 0.888487 0
1 0.884565 0
0.10454 0.915557 0.378927
0.126589 0.915557 0.379522
0.140841 0.91577 0.379538
0.152087 0.915557 0.378927
0.170459 0.915557 0.376028
0.192523 0.915557 0.375097
0.217762 0.915557 0.375006
0.244739 0.915557 0.375006
0.274876 0.915557 0.371695
