YOYO-Client/Yoyo/Assets.xcassets/Pearl.dataset/Fuji-160S.cube
TITLE "Fuji-160S"
LUT_3D_SIZE 9
0 0 0
0.107851 0.00392157 0
0.231373 0.00489815 0
0.376959 0 0
0.54902 0 0
0.713237 0 0
0.8598 0 0
0.993133 0 0
1 0 0
0 0.111269 0.0191196
0.0960708 0.119554 0.00349432
0.238727 0.112627 0
0.391669 0.103426 0
0.559808 0.0772106 0
0.720104 0.0214389 0
0.8636 0 0
0.992706 0 0
1 0 0
0 0.251957 0.0460822
0 0.252949 0.0346838
0.236515 0.271565 0
0.423896 0.265202 0
0.584314 0.246571 0
0.737621 0.229404 0
0.87451 0.217639 0
0.999146 0.216663 0
1 0.227451 0
0 0.419608 0.0730449
0 0.422553 0.0652018
0.136645 0.422553 0.0171511
0.41471 0.441245 0
0.617395 0.437507 0
0.763729 0.415686 0
0.892653 0.394125 0
1 0.383337 0
1 0.385779 0
0 0.582345 0.101961
0 0.588235 0.0960861
0 0.586282 0.0686198
0.331868 0.593378 0
0.596078 0.60882 0
0.784314 0.603189 0
0.907851 0.577935 0
1 0.55465 0
1 0.539208 0
0 0.727459 0.169116
0 0.731365 0.165499
0 0.731365 0.151598
0.278431 0.732845 0.112261
0.516182 0.740688 0
0.743694 0.748531 0
0.907347 0.740688 0
1 0.718135 0
1 0.695094 0
0 0.847059 0.276463
0 0.847425 0.276844
0.0715648 0.847791 0.269612
0.313726 0.85098 0.25539
0.486763 0.85098 0.211276
0.675486 0.856992 0.10576
0.862745 0.858824 0
0.996567 0.847913 0
1 0.828428 0
0.219608 0.935286 0.416663
0.256367 0.935286 0.413657
0.330022 0.935286 0.41323
0.427939 0.935286 0.40882
0.532601 0.935286 0.391424
0.656184 0.939223 0.34461
0.804776 0.946563 0.270954
0.94699 0.943069 0.170092
1 0.93138 0.0465705
0.494118 1 0.580392
0.509316 1 0.584314
0.536278 1 0.580392
0.578927 1 0.580392
0.635294 1 0.572549
0.704906 1 0.555398
0.79118 1 0.515694
0.896086 1 0.449516
1 1 0.356863
0 0.0156863 0.103914
0.0922255 0.0191196 0.104356
0.231373 0.00134279 0.107851
0.37911 0 0.100008
0.547066 0 0.0882277
0.705394 0 0.067155
0.854902 0 0.0313725
0.9897 0 0
1 0 0
0 0.11519 0.111269
0.0995651 0.119066 0.115251
0.233829 0.118685 0.111284
0.390204 0.109133 0.103807
0.554162 0.0796216 0.0904097
0.712749 0.0168917 0.0703136
0.859312 0 0.030396
0.989273 0 0
1 0 0
0 0.255756 0.141176
0.0563363 0.256733 0.137377
0.240314 0.265721 0.115282
0.416846 0.258564 0.103685
0.576898 0.241856 0.0897688
0.730877 0.225574 0.0661784
0.869612 0.213733 0.0223087
0.994858 0.20882 0
1 0.21912 0
0 0.419608 0.160296
0 0.422553 0.157351
0.163561 0.419959 0.13872
0.416236 0.435431 0.0846113
0.611124 0.430884 0.0494545
0.757473 0.407843 0.0218814
0.888731 0.387488 0
1 0.379675 0
1 0.381857 0
0 0.582345 0.182849
0 0.588479 0.180667
0.0360266 0.586282 0.165682
0.340841 0.590356 0.1196
0.595102 0.60502 0.00514229
0.780484 0.599268 0
0.903914 0.574197 0
1 0.550515 0
1 0.537255 0
0 0.728923 0.234318
0 0.732876 0.234623
0 0.732845 0.223484
0.300496 0.732845 0.198657
0.520592 0.738811 0.128283
0.743694 0.748531 0.00241093
0.905882 0.740078 0
1 0.718135 0
1 0.692653 0
0 0.848035 0.326467
0 0.85098 0.328542
0.170245 0.85098 0.321569
0.342153 0.85098 0.308873
0.498772 0.85098 0.273106
0.679408 0.855344 0.202899
0.862745 0.858824 0.102449
0.993133 0.847913 0.0132296
1 0.828428 0.021561
0.274632 0.935286 0.451469
0.308766 0.93872 0.45452
0.368032 0.935286 0.45098
0.453925 0.935286 0.446296
0.548012 0.935286 0.429404
0.665721 0.93872 0.3897
0.804898 0.943633 0.323903
0.946563 0.943069 0.242161
1 0.93138 0.176043
0.513237 1 0.603433
0.528435 1 0.604349
0.551476 1 0.603433
0.590509 1 0.599512
0.644846 1 0.591669
0.712444 1 0.578119
0.795102 1 0.539712
0.899504 1 0.479957
1 1 0.395102
0 0.0460822 0.219608
0.0614023 0.0460822 0.219608
0.211765 0.0460822 0.223529
0.388235 0 0.241047
0.561761 0 0.227939
0.712261 0 0.205386
0.854902 0 0.186526
0.986282 0 0.163241
1 0 0.135286
0 0.135164 0.230396
0.06804 0.130404 0.230884
0.22562 0.13431 0.234684
0.398856 0.104112 0.243442
0.561273 0.0416724 0.224445
0.712749 0 0.205478
0.855756 0 0.186496
0.986542 0 0.163668
1 0 0.13431
0 0.253681 0.237247
0.0811322 0.25687 0.242161
0.244724 0.258396 0.250004
0.407813 0.249821 0.239338
0.568872 0.237385 0.225986
0.722362 0.220371 0.209125
0.863478 0.205631 0.191485
0.989487 0.199908 0.166171
1 0.209064 0.133089
0 0.412741 0.274998
0.0586404 0.418631 0.276967
0.226444 0.418631 0.269856
0.418402 0.427085 0.246082
0.602396 0.416175 0.232532
0.747021 0.395483 0.216922
0.878401 0.383337 0.198657
0.995819 0.377707 0.17348
1 0.376837 0.137743
0 0.58088 0.303426
0 0.586282 0.303914
0.183703 0.582849 0.296452
0.363973 0.583764 0.275731
0.595102 0.597787 0.235538
0.772915 0.589944 0.220523
0.896819 0.566171 0.2065
1 0.545281 0.184863
1 0.533822 0.150484
0 0.726467 0.345586
0 0.731365 0.348043
0.179538 0.728923 0.3402
0.352026 0.728923 0.327077
0.531746 0.733028 0.290135
0.74461 0.74461 0.243198
0.901961 0.736156 0.22562
1 0.71426 0.212421
1 0.689708 0.182727
0.0593118 0.844846 0.416663
0.170245 0.847059 0.419699
0.277516 0.847059 0.41593
0.397055 0.847059 0.407446
0.524392 0.847059 0.38529
0.685695 0.851774 0.337469
0.862745 0.856428 0.28603
0.989914 0.846906 0.257969
1 0.828428 0.252934
0.349508 0.93492 0.518746
0.378561 0.934798 0.522057
0.424231 0.934798 0.519112
0.493538 0.934798 0.514336
0.576471 0.934798 0.503426
0.680751 0.934844 0.476112
0.80882 0.942641 0.425711
0.946563 0.942641 0.363363
1 0.93138 0.320592
0.5402 1 0.641169
0.555398 1 0.645106
0.574517 1 0.642161
0.61323 1 0.639338
0.661768 1 0.633829
0.723903 1 0.624018
0.802701 1 0.593133
0.899504 1 0.542153
1 1 0.475486
0 0.0848096 0.350973
0 0.0848096 0.353429
0.19559 0.0848096 0.35845
0.367651 0.0721141 0.370031
0.556374 0 0.387503
0.740688 0 0.385779
0.876966 0 0.354894
0.991852 0 0.324025
1 0 0.302449
0 0.153429 0.360296
0 0.149996 0.362066
0.206256 0.150958 0.367788
0.377279 0.148882 0.375357
0.565438 0.0827497 0.392157
0.740017 0 0.381857
0.872557 0 0.350973
0.989059 0 0.323522
1 0 0.300984
0 0.276478 0.375006
0 0.273533 0.377447
0.210117 0.261769 0.381277
0.396277 0.268132 0.38645
0.58088 0.238727 0.395041
0.733822 0.206638 0.370718
0.862928 0.180514 0.344244
0.985168 0.168627 0.320821
1 0.18027 0.299504
0 0.401465 0.37641
0.0016022 0.405325 0.381796
0.237247 0.408789 0.388495
0.417365 0.411933 0.401099
0.581796 0.399023 0.385748
0.728374 0.388174 0.369146
0.865202 0.378103 0.351217
0.985489 0.369985 0.330388
1 0.371084 0.304417
0 0.564218 0.419852
0.11519 0.568139 0.426078
0.281865 0.573831 0.431617
0.416663 0.576471 0.428214
0.592157 0.585046 0.404654
0.756374 0.574044 0.393133
0.881682 0.553185 0.374517
0.990356 0.538811 0.350973
1 0.529412 0.322057
0.101106 0.719539 0.469123
0.197421 0.723522 0.471687
0.311803 0.722545 0.471565
0.424567 0.722545 0.467643
0.551904 0.724239 0.449088
0.742733 0.736187 0.417411
0.892134 0.729778 0.409415
0.99147 0.707835 0.387259
1 0.68481 0.356863
0.278431 0.840192 0.525612
0.321004 0.843137 0.531868
0.385199 0.843137 0.531365
0.46836 0.843137 0.528054
0.566415 0.840192 0.516121
0.697063 0.847059 0.486503
0.858824 0.852781 0.451469
0.982223 0.844114 0.434455
1 0.825498 0.418143
0.429419 0.93138 0.602457
0.451743 0.931533 0.605875
0.488853 0.93106 0.605875
0.544121 0.930877 0.602457
0.614862 0.930877 0.595926
0.702144 0.930877 0.581369
0.815686 0.93872 0.548089
0.942641 0.938888 0.502754
1 0.930877 0.477455
0.578927 1 0.695094
0.592828 1 0.699016
0.611765 1 0.699016
0.644114 1 0.695094
0.688731 1 0.695094
0.744121 1 0.687251
0.812619 1 0.666667
0.899992 1 0.629908
1 1 0.578439
0 0.123537 0.492164
0 0.11986 0.495827
0.13138 0.11667 0.500008
0.353918 0.111757 0.509071
0.530388 0.0852979 0.518624
0.712749 0 0.53872
0.885298 0 0.54313
1 0 0.52108
1 0 0.486275
0 0.176471 0.497063
0 0.173037 0.501015
0.137255 0.16936 0.50515
0.361273 0.171084 0.512505
0.537621 0.161028 0.523156
0.718379 0.0779736 0.541817
0.888243 0 0.544366
1 0 0.517922
1 0 0.482841
0 0.281376 0.507347
0 0.277455 0.508827
0.14461 0.2701 0.512627
0.371817 0.274144 0.520409
0.550729 0.278676 0.530632
0.727764 0.245533 0.547616
0.886641 0.215076 0.543267
0.997421 0.180636 0.509133
1 0.154894 0.473533
0 0.418631 0.514702
0 0.420096 0.517647
0.148226 0.414893 0.523339
0.377203 0.405173 0.529473
0.566796 0.418753 0.542031
0.738262 0.402457 0.552972
0.872557 0.38143 0.528496
0.982605 0.35465 0.491325
1 0.343389 0.461036
0 0.546075 0.517647
0 0.549996 0.523278
0.231861 0.55172 0.527459
0.413108 0.557839 0.539834
0.583825 0.565682 0.556863
0.728801 0.552209 0.541054
0.858824 0.539712 0.520592
0.973281 0.527077 0.494606
1 0.519615 0.468635
0.124514 0.697795 0.562737
0.215442 0.700984 0.569116
0.340749 0.704906 0.577508
0.476509 0.710048 0.590234
0.592401 0.71397 0.591913
0.736767 0.724544 0.574289
0.873228 0.716609 0.562432
0.973526 0.693141 0.535637
1 0.677699 0.507347
0.332357 0.832349 0.625986
0.374563 0.835782 0.632349
0.441672 0.835782 0.63444
0.530632 0.836271 0.637263
0.614954 0.836271 0.636271
0.711086 0.839216 0.624079
0.855634 0.847059 0.599023
0.970397 0.840009 0.58854
1 0.821561 0.564706
0.485298 0.927443 0.686763
0.507347 0.930877 0.69041
0.544915 0.927443 0.690684
0.596414 0.927443 0.693721
0.659068 0.927077 0.694118
0.729229 0.926955 0.687343
0.820035 0.931868 0.66421
0.938933 0.935286 0.633341
1 0.930877 0.621576
0.621561 1 0.756863
0.633341 1 0.760784
0.651957 0.996567 0.760784
0.682841 0.996078 0.760784
0.723537 0.996078 0.762737
0.769604 0.996078 0.760784
0.827451 0.998535 0.748531
0.903426 1 0.719112
1 1 0.684306
0 0.159808 0.633326
0 0.158328 0.633326
0 0.150851 0.637263
0.309255 0.142641 0.644175
0.516182 0.13872 0.653681
0.686702 0.119112 0.66862
0.853315 0.00550851 0.688243
0.998718 0 0.691844
1 0 0.679408
0 0.200488 0.633829
0 0.200061 0.636454
0 0.196078 0.638239
0.31429 0.190875 0.644724
0.520745 0.193713 0.656703
0.690333 0.188113 0.669917
0.853925 0.130495 0.688609
0.997848 0.0473487 0.690913
1 0.0776379 0.678248
0 0.289586 0.636759
0 0.287739 0.640192
0 0.282994 0.641306
0.320424 0.282582 0.648264
0.530877 0.293385 0.660471
0.697185 0.300618 0.674342
0.857359 0.275883 0.691447
0.99443 0.252796 0.691524
1 0.25478 0.673533
0 0.421637 0.642161
0 0.418814 0.643626
0 0.408942 0.647547
0.325551 0.404074 0.652598
0.538964 0.417685 0.666392
0.706142 0.435782 0.681315
0.859083 0.42327 0.695216
0.989227 0.412818 0.690379
1 0.393622 0.660777
0 0.557595 0.649027
0 0.558831 0.65098
0.0681926 0.558831 0.654902
0.333272 0.553399 0.662196
0.536645 0.548653 0.672801
0.714183 0.574517 0.690196
0.859312 0.565805 0.698772
0.972305 0.544274 0.674418
1 0.51667 0.636271
0 0.679408 0.652873
0.00482185 0.68278 0.655879
0.233036 0.685786 0.66096
0.408331 0.688807 0.669551
0.572061 0.694087 0.683543
0.724422 0.704814 0.703548
0.844923 0.690944 0.684291
0.950607 0.675776 0.661707
1 0.666117 0.639216
0.25919 0.812253 0.693751
0.313603 0.815198 0.697063
0.404654 0.815564 0.70454
0.51899 0.81912 0.716075
0.640864 0.826352 0.732845
0.739086 0.831373 0.739712
0.848035 0.83827 0.724544
0.953613 0.830839 0.713771
1 0.813352 0.688853
0.47892 0.919921 0.754406
0.504906 0.922057 0.758114
0.551873 0.923339 0.764569
0.622171 0.923339 0.771756
0.700343 0.924605 0.779416
0.764035 0.926955 0.782162
0.831022 0.926955 0.770413
0.935225 0.933516 0.750866
1 0.927443 0.747051
0.643137 0.998535 0.817151
0.654414 0.998718 0.818631
0.678553 0.996078 0.822553
0.717098 0.996078 0.826474
0.760296 0.996078 0.828428
0.802945 0.996078 0.830396
0.846571 0.996078 0.825864
0.91078 1 0.807843
0.998535 1 0.784802
0 0.198032 0.764706
0 0.197055 0.765682
0 0.189456 0.768627
0.254292 0.181369 0.772549
0.489708 0.178439 0.782361
0.677333 0.1935 0.792157
0.826719 0.195834 0.803189
0.962127 0.158816 0.812131
1 0.147051 0.815686
0 0.234928 0.768139
0 0.231495 0.768627
0 0.227451 0.768627
0.258167 0.21973 0.772625
0.4916 0.223346 0.783581
0.678782 0.240269 0.793042
0.827482 0.247608 0.802396
0.961654 0.221576 0.813901
1 0.21532 0.817777
0 0.310048 0.767651
0 0.307836 0.768627
0 0.303914 0.768627
0.263233 0.300008 0.774548
0.496208 0.307713 0.783825
0.683818 0.331777 0.794644
0.828855 0.344366 0.803311
0.960784 0.330022 0.813764
1 0.328435 0.816907
0 0.424018 0.767163
0 0.4206 0.768627
0 0.413733 0.771481
0.260227 0.407965 0.775036
0.495644 0.417838 0.783825
0.687251 0.44509 0.794644
0.829068 0.465293 0.804562
0.956374 0.457816 0.814588
1 0.454414 0.814221
0 0.558831 0.770581
0 0.558328 0.772549
0 0.551354 0.772549
0.228305 0.539773 0.776471
0.48481 0.536767 0.782605
0.685542 0.563912 0.794919
0.828794 0.589578 0.806867
0.951293 0.58529 0.816663
1 0.58529 0.813733
0 0.689708 0.770092
0 0.689784 0.773648
0 0.688243 0.77586
0.288502 0.685786 0.779644
0.486213 0.681071 0.784802
0.674998 0.680568 0.794125
0.829602 0.710781 0.810697
0.943984 0.707332 0.818128
1 0.692287 0.801343
0 0.800977 0.773526
0.0285496 0.801984 0.776471
0.249271 0.803922 0.779843
0.414679 0.803922 0.784314
0.567651 0.804288 0.792157
0.708644 0.809491 0.804196
0.835538 0.820035 0.82298
0.930785 0.805753 0.805173
1 0.797055 0.786282
0.389334 0.908217 0.807355
0.423972 0.91078 0.811154
0.487861 0.91078 0.814771
0.578622 0.911635 0.822461
0.679957 0.914336 0.834012
0.777447 0.918395 0.849073
0.85095 0.923033 0.855268
0.931319 0.927672 0.847044
1 0.926101 0.842161
0.622553 0.996078 0.863722
0.638117 0.996078 0.867643
0.668635 0.996078 0.870832
0.71519 0.996078 0.875486
0.771572 0.996078 0.88333
0.829282 0.996078 0.888243
0.873289 0.996078 0.892149
0.919615 0.996078 0.88394
0.996078 1 0.869612
0 0.255879 0.888243
0 0.251957 0.891661
0 0.248035 0.891661
0.231373 0.240375 0.892149
0.476463 0.240192 0.896086
0.663722 0.257359 0.899992
0.819242 0.292653 0.903426
0.939147 0.308339 0.907347
1 0.31667 0.91519
0 0.282414 0.888243
0 0.282368 0.891661
0 0.276173 0.891661
0.232624 0.270771 0.892149
0.476188 0.272511 0.896025
0.665385 0.29073 0.899199
0.81912 0.325551 0.902953
0.93904 0.345159 0.907347
1 0.352941 0.914702
0 0.347066 0.888243
0 0.346685 0.889097
0 0.34313 0.891661
0.232715 0.339208 0.89189
0.47567 0.342153 0.894728
0.666087 0.361883 0.898528
0.818631 0.397086 0.902449
0.935271 0.417655 0.90724
1 0.427451 0.914214
0 0.443442 0.888243
0 0.442008 0.888395
0 0.435599 0.888243
0.216968 0.431678 0.88957
0.470985 0.435294 0.891966
0.663523 0.457359 0.894896
0.818143 0.495842 0.900053
0.931319 0.517159 0.905608
1 0.523537 0.91342
0 0.56495 0.888243
0 0.564706 0.888243
0 0.555642 0.888243
0.134066 0.542306 0.888075
0.446815 0.539712 0.889708
0.653437 0.558572 0.893629
0.81416 0.596445 0.897551
0.926741 0.622522 0.903639
1 0.626474 0.912993
0 0.694118 0.885603
0 0.696071 0.887739
0 0.688746 0.887922
0.00885023 0.67953 0.887922
0.400824 0.665049 0.885786
0.629404 0.664637 0.88922
0.80589 0.698528 0.895949
0.920409 0.728374 0.904723
1 0.732052 0.912566
0 0.812253 0.881254
0 0.814832 0.883818
0 0.811765 0.88394
0.25771 0.807965 0.88394
0.455451 0.800977 0.88481
0.618631 0.793301 0.888731
0.788663 0.792767 0.893294
0.918746 0.827451 0.907881
1 0.827939 0.91519
0.14699 0.907408 0.880385
0.226474 0.907835 0.883818
0.328603 0.907408 0.884321
0.450813 0.907347 0.884321
0.574472 0.903929 0.888243
0.699672 0.903487 0.892042
0.818753 0.903929 0.900862
0.926101 0.918364 0.919066
1 0.907835 0.907774
0.539208 0.996078 0.906859
0.558328 0.996078 0.906859
0.597055 0.996078 0.910658
0.65655 0.992157 0.914214
0.728191 0.992157 0.920348
0.806073 0.992157 0.9299
0.883818 0.996078 0.941665
0.93872 0.996078 0.946075
0.996078 1 0.942153
0 0.360784 0.996078
0 0.360784 0.996078
0.0176394 0.356863 0.996078
0.334798 0.356863 0.996078
0.519615 0.358816 0.996078
0.685786 0.377935 0.996078
0.823529 0.417639 0.992157
0.934798 0.459312 0.992157
1 0.486275 0.992157
0 0.382849 0.99559
0 0.382849 0.99559
0.0231632 0.378927 0.99559
0.333822 0.378927 0.99559
0.520836 0.382849 0.99559
0.685298 0.400488 0.992157
0.823529 0.439582 0.992157
0.93431 0.480888 0.991669
1 0.506859 0.991669
0 0.435294 0.995102
0 0.432349 0.995102
0.0154421 0.431373 0.995102
0.332845 0.428428 0.992157
0.520592 0.434318 0.992157
0.68481 0.453437 0.992157
0.823529 0.488975 0.992157
0.933822 0.525979 0.99118
1 0.550988 0.99118
0 0.510292 0.994614
0 0.507836 0.994797
0 0.506371 0.994614
0.320104 0.503929 0.992157
0.512993 0.508583 0.992157
0.6804 0.525002 0.990692
0.822065 0.555886 0.988235
0.929412 0.593133 0.988235
1 0.61471 0.988235
0 0.607843 0.998032
0 0.605875 0.996078
0 0.600488 0.99411
0.269123 0.594125 0.992157
0.492149 0.596078 0.990188
0.668132 0.608576 0.988235
0.813733 0.636271 0.988235
0.923033 0.670832 0.986282
1 0.692164 0.986282
0 0.722545 0.997543
0 0.722545 0.997543
0 0.714702 0.996078
0.0773327 0.705943 0.993622
0.441428 0.694362 0.992157
0.641672 0.697551 0.988235
0.800366 0.718135 0.985779
0.916976 0.751476 0.984314
1 0.774502 0.985779
0 0.836271 0.993133
0 0.836271 0.993133
0 0.832349 0.993133
0.0980392 0.828428 0.993133
0.394614 0.816663 0.993133
0.593256 0.801587 0.992157
0.774502 0.800977 0.988235
0.911391 0.830884 0.98529
0.996078 0.853925 0.988235
0.0166629 0.934798 0.988235
0.0243839 0.934798 0.988235
0.213977 0.93138 0.988235
0.367834 0.930877 0.988235
0.506127 0.925246 0.988724
0.635782 0.9196 0.992157
0.758328 0.910903 0.992279
0.895644 0.903929 0.992157
0.996078 0.930388 0.992157
0.439216 1 0.984314
0.458335 1 0.984314
0.500008 1 0.984314
0.565682 1 0.984314
0.647059 1 0.988235
0.733822 1 0.988235
0.822553 1 0.992157
0.911269 1 0.996078
1 1 1
