YOYO-Client/Yoyo/Assets.xcassets/Pearl.dataset/Fuji-160S.cube
TITLE "Fuji-160S"
LUT_3D_SIZE 5
0 0 0
0.231373 0.00489815 0
0.54902 0 0
0.8598 0 0
1 0 0
0 0.251957 0.0460822
0.236515 0.271565 0
0.584314 0.246571 0
0.87451 0.217639 0
1 0.227451 0
0 0.582345 0.101961
0 0.586282 0.0686198
0.596078 0.60882 0
0.907851 0.577935 0
1 0.539208 0
0 0.847059 0.276463
0.0715648 0.847791 0.269612
0.486763 0.85098 0.211276
0.862745 0.858824 0
1 0.828428 0
0.494118 1 0.580392
0.536278 1 0.580392
0.635294 1 0.572549
0.79118 1 0.515694
1 1 0.356863
0 0.0460822 0.219608
0.211765 0.0460822 0.223529
0.561761 0 0.227939
0.854902 0 0.186526
1 0 0.135286
0 0.253681 0.237247
0.244724 0.258396 0.250004
0.568872 0.237385 0.225986
0.863478 0.205631 0.191485
1 0.209064 0.133089
0 0.58088 0.303426
0.183703 0.582849 0.296452
0.595102 0.597787 0.235538
0.896819 0.566171 0.2065
1 0.533822 0.150484
0.0593118 0.844846 0.416663
0.277516 0.847059 0.41593
0.524392 0.847059 0.38529
0.862745 0.856428 0.28603
1 0.828428 0.252934
0.5402 1 0.641169
0.574517 1 0.642161
0.661768 1 0.633829
0.802701 1 0.593133
1 1 0.475486
0 0.123537 0.492164
0.13138 0.11667 0.500008
0.530388 0.0852979 0.518624
0.885298 0 0.54313
1 0 0.486275
0 0.281376 0.507347
0.14461 0.2701 0.512627
0.550729 0.278676 0.530632
0.886641 0.215076 0.543267
1 0.154894 0.473533
0 0.546075 0.517647
0.231861 0.55172 0.527459
0.583825 0.565682 0.556863
0.858824 0.539712 0.520592
1 0.519615 0.468635
0.332357 0.832349 0.625986
0.441672 0.835782 0.63444
0.614954 0.836271 0.636271
0.855634 0.847059 0.599023
1 0.821561 0.564706
0.621561 1 0.756863
0.651957 0.996567 0.760784
0.723537 0.996078 0.762737
0.827451 0.998535 0.748531
1 1 0.684306
0 0.198032 0.764706
0 0.189456 0.768627
0.489708 0.178439 0.782361
0.826719 0.195834 0.803189
1 0.147051 0.815686
0 0.310048 0.767651
0 0.303914 0.768627
0.496208 0.307713 0.783825
0.828855 0.344366 0.803311
1 0.328435 0.816907
0 0.558831 0.770581
0 0.551354 0.772549
0.48481 0.536767 0.782605
0.828794 0.589578 0.806867
1 0.58529 0.813733
0 0.800977 0.773526
0.249271 0.803922 0.779843
0.567651 0.804288 0.792157
0.835538 0.820035 0.82298
1 0.797055 0.786282
0.622553 0.996078 0.863722
0.668635 0.996078 0.870832
0.771572 0.996078 0.88333
0.873289 0.996078 0.892149
0.996078 1 0.869612
0 0.360784 0.996078
0.0176394 0.356863 0.996078
0.519615 0.358816 0.996078
0.823529 0.417639 0.992157
1 0.486275 0.992157
0 0.435294 0.995102
0.0154421 0.431373 0.995102
0.520592 0.434318 0.992157
0.823529 0.488975 0.992157
1 0.550988 0.99118
0 0.607843 0.998032
0 0.600488 0.99411
0.492149 0.596078 0.990188
0.813733 0.636271 0.988235
1 0.692164 0.986282
0 0.836271 0.993133
0 0.832349 0.993133
0.394614 0.816663 0.993133
0.774502 0.800977 0.988235
0.996078 0.853925 0.988235
0.439216 1 0.984314
0.500008 1 0.984314
0.647059 1 0.988235
0.822553 1 0.992157
1 1 1
