YOYO-Client/Yoyo/Assets.xcassets/Lisbon.dataset/Lisbon.cube
TITLE "Lisbon"
LUT_3D_SIZE 32
0.149264 0.160678 0.167086
0.150240 0.160769 0.167056
0.152834 0.160891 0.167178
0.158724 0.161166 0.167391
0.167788 0.161990 0.167849
0.181857 0.162814 0.168154
0.198215 0.163638 0.168734
0.215915 0.164706 0.169192
0.235111 0.165652 0.169741
0.256535 0.166659 0.170321
0.281010 0.167361 0.170901
0.308537 0.167941 0.171237
0.339635 0.167971 0.171481
0.374456 0.167819 0.171695
0.412879 0.166629 0.172061
0.454536 0.165164 0.172366
0.498939 0.163363 0.172610
0.545159 0.160922 0.172641
0.592370 0.158511 0.172335
0.639338 0.157321 0.171695
0.684504 0.159243 0.170657
0.730404 0.165255 0.169100
0.771908 0.175509 0.167514
0.810452 0.189731 0.165347
0.846525 0.206546 0.163149
0.880674 0.225589 0.160616
0.913207 0.246281 0.158022
0.943969 0.267796 0.155581
0.973297 0.289647 0.153689
1.000000 0.311528 0.152773
1.000000 0.332830 0.153475
1.000000 0.353643 0.156313
0.149538 0.161227 0.167208
0.149935 0.161166 0.167208
0.153109 0.161410 0.167300
0.158633 0.161746 0.167514
0.168215 0.162325 0.167788
0.182071 0.163333 0.168276
0.198428 0.164157 0.168856
0.215640 0.165286 0.169314
0.234867 0.166262 0.169863
0.256168 0.167269 0.170413
0.280369 0.168032 0.170993
0.307897 0.168460 0.171206
0.338842 0.168582 0.171450
0.373571 0.168307 0.171847
0.411719 0.167636 0.172152
0.453223 0.166110 0.172366
0.497597 0.164248 0.172641
0.543725 0.161990 0.172641
0.591089 0.159792 0.172335
0.637995 0.158572 0.171695
0.683070 0.160281 0.170718
0.728450 0.165743 0.169314
0.769680 0.175998 0.167636
0.808011 0.189761 0.165408
0.844053 0.206027 0.163363
0.878172 0.225162 0.160678
0.910765 0.245701 0.158145
0.941772 0.266941 0.155550
0.971283 0.288670 0.153719
0.999664 0.310521 0.152621
1.000000 0.331945 0.153079
1.000000 0.352758 0.155764
0.149783 0.163577 0.167788
0.150332 0.163699 0.167941
0.152529 0.164034 0.167666
0.158694 0.164492 0.167697
0.168673 0.164828 0.168002
0.182681 0.165957 0.168429
0.198703 0.166812 0.169009
0.216007 0.167727 0.169497
0.234989 0.168704 0.170047
0.256321 0.169528 0.170657
0.280766 0.170382 0.171023
0.308263 0.170809 0.171206
0.339086 0.171084 0.171603
0.373663 0.171054 0.172000
0.411963 0.170321 0.172305
0.453346 0.169406 0.172610
0.497627 0.167819 0.173007
0.543816 0.165591 0.172854
0.590875 0.163668 0.172549
0.637781 0.163058 0.171695
0.683070 0.164889 0.170809
0.728084 0.171176 0.169162
0.769009 0.180667 0.167422
0.807187 0.193942 0.165591
0.843076 0.210239 0.163119
0.877073 0.228519 0.160525
0.909728 0.248600 0.158022
0.940703 0.269566 0.155459
0.970275 0.291020 0.153384
0.998718 0.312718 0.152468
1.000000 0.333837 0.152804
1.000000 0.354406 0.155306
0.150301 0.168856 0.169192
0.150637 0.168826 0.169375
0.152834 0.168948 0.169497
0.158114 0.170016 0.168917
0.168734 0.170962 0.168765
0.183749 0.171267 0.168948
0.199771 0.171878 0.169528
0.216922 0.172763 0.170016
0.236088 0.173495 0.170413
0.257481 0.174258 0.170993
0.281987 0.175021 0.171206
0.309606 0.175692 0.171511
0.340398 0.176272 0.172030
0.375036 0.176486 0.172366
0.413092 0.176150 0.172641
0.454292 0.175631 0.173068
0.498421 0.174624 0.173251
0.544213 0.173220 0.173190
0.591058 0.172183 0.172793
0.637720 0.171939 0.171908
0.683101 0.174289 0.170779
0.727230 0.180331 0.169223
0.767697 0.189883 0.167422
0.805783 0.202365 0.165469
0.841764 0.218143 0.162905
0.876127 0.235813 0.160403
0.908995 0.255589 0.157717
0.940215 0.276127 0.155184
0.969879 0.297215 0.153017
0.998352 0.318334 0.152102
1.000000 0.338720 0.152743
1.000000 0.358831 0.155337
0.150942 0.177371 0.171511
0.151186 0.177493 0.171481
0.153597 0.177279 0.171817
0.158267 0.178470 0.171572
0.167666 0.180148 0.170626
0.182742 0.181735 0.169924
0.199710 0.181247 0.170291
0.218326 0.180423 0.170443
0.237522 0.181094 0.171023
0.259281 0.181704 0.171420
0.283787 0.182559 0.171786
0.311345 0.183444 0.172030
0.342290 0.184360 0.172488
0.376928 0.185122 0.172885
0.415015 0.185458 0.173373
0.456519 0.185550 0.173861
0.500603 0.185122 0.173922
0.546532 0.184573 0.173556
0.593194 0.184207 0.172915
0.639521 0.184848 0.172091
0.685145 0.188205 0.170871
0.728389 0.194308 0.169345
0.768429 0.203769 0.167269
0.806210 0.216098 0.165164
0.842069 0.230991 0.162722
0.876310 0.248325 0.159823
0.909056 0.266911 0.157137
0.940032 0.286625 0.154543
0.969635 0.306767 0.152560
0.998016 0.326970 0.151492
1.000000 0.346807 0.152316
1.000000 0.366003 0.155093
0.150088 0.189242 0.173373
0.150637 0.189364 0.173495
0.153109 0.189151 0.173678
0.157687 0.189334 0.174075
0.165713 0.191165 0.173312
0.179263 0.193393 0.172183
0.198093 0.195254 0.171115
0.217227 0.194339 0.171298
0.238712 0.193027 0.171572
0.262058 0.192416 0.172122
0.286839 0.193515 0.172396
0.314641 0.194644 0.172915
0.345983 0.196017 0.173404
0.380896 0.197330 0.174014
0.419379 0.198337 0.174472
0.460853 0.198917 0.174472
0.505028 0.199405 0.174716
0.550988 0.199771 0.174166
0.597498 0.200412 0.173312
0.643366 0.202365 0.172091
0.689082 0.206790 0.170718
0.731685 0.213382 0.168826
0.783993 0.227970 0.165896
0.821164 0.241062 0.163668
0.856107 0.255985 0.161257
0.889372 0.272801 0.158236
0.920897 0.290654 0.156008
0.950683 0.309056 0.153719
0.979126 0.327977 0.152651
1.000000 0.346532 0.152560
1.000000 0.364752 0.154208
1.000000 0.382147 0.158358
0.149416 0.203281 0.176028
0.150118 0.203220 0.176181
0.152773 0.203159 0.176486
0.157687 0.202884 0.177096
0.164858 0.203952 0.176974
0.176272 0.206455 0.175845
0.192996 0.209476 0.174472
0.216373 0.212497 0.172671
0.238865 0.211734 0.172854
0.264103 0.210788 0.173404
0.292058 0.209873 0.173861
0.321843 0.210483 0.174502
0.354009 0.212192 0.174990
0.389593 0.213687 0.175418
0.428595 0.215396 0.175479
0.470436 0.216678 0.175570
0.514672 0.217899 0.175021
0.560204 0.219272 0.174380
0.606256 0.221195 0.173373
0.653529 0.224826 0.171847
0.699397 0.230503 0.169955
0.742092 0.238407 0.167758
0.781796 0.248966 0.165499
0.819394 0.261601 0.162966
0.854887 0.275822 0.160220
0.888212 0.291997 0.157473
0.919768 0.308568 0.154940
0.949371 0.325841 0.152987
0.977691 0.343328 0.151858
1.000000 0.360510 0.151949
1.000000 0.377478 0.153780
1.000000 0.393896 0.158297
0.149264 0.218723 0.180087
0.149935 0.218662 0.180240
0.152651 0.218601 0.180392
0.157595 0.218357 0.181003
0.164981 0.218051 0.182040
0.174624 0.220706 0.181094
0.189273 0.223911 0.179721
0.209293 0.227787 0.177890
0.235660 0.232273 0.175814
0.262486 0.232975 0.175631
0.291478 0.232822 0.175937
0.323735 0.232395 0.176333
0.359411 0.231540 0.176577
0.395758 0.233433 0.176791
0.435004 0.235569 0.176669
0.476783 0.237583 0.176333
0.520775 0.239689 0.175723
0.566033 0.242130 0.174441
0.612787 0.245365 0.173281
0.659297 0.249790 0.171298
0.703243 0.256046 0.169284
0.744625 0.264256 0.166903
0.783413 0.274266 0.164523
0.820188 0.286229 0.161837
0.855161 0.299657 0.159091
0.888243 0.314549 0.156222
0.919310 0.330083 0.153811
0.948791 0.345830 0.151675
0.976898 0.361913 0.150820
1.000000 0.377844 0.151614
1.000000 0.393439 0.154086
1.000000 0.408423 0.158663
0.148867 0.237064 0.184939
0.149599 0.237034 0.184939
0.152102 0.236881 0.185092
0.156985 0.236667 0.185824
0.164797 0.236332 0.186679
0.174350 0.237400 0.186801
0.187106 0.240787 0.185428
0.204807 0.245029 0.183902
0.228428 0.250065 0.181796
0.258793 0.255924 0.179141
0.290806 0.258610 0.178042
0.323827 0.259556 0.178256
0.360540 0.259922 0.178012
0.400702 0.259770 0.177768
0.443275 0.259525 0.177493
0.485237 0.262211 0.176883
0.529076 0.265049 0.175784
0.574914 0.268650 0.174502
0.621241 0.272953 0.172732
0.666072 0.278264 0.170626
0.708644 0.284825 0.168185
0.748592 0.293034 0.165621
0.786252 0.302647 0.163088
0.822232 0.314000 0.160372
0.856535 0.326665 0.157382
0.889036 0.340246 0.154696
0.919738 0.354498 0.152193
0.948852 0.368872 0.150729
0.976715 0.383520 0.150179
1.000000 0.397864 0.151247
1.000000 0.411902 0.154665
1.000000 0.425605 0.159854
0.145907 0.258824 0.189792
0.146670 0.258793 0.189792
0.149538 0.258640 0.190066
0.154940 0.258427 0.190646
0.162997 0.258061 0.191501
0.173159 0.257481 0.192630
0.185519 0.260716 0.191592
0.201907 0.265202 0.190005
0.223575 0.270481 0.188052
0.251194 0.276616 0.185397
0.285100 0.283360 0.181979
0.323583 0.289158 0.179599
0.361120 0.291081 0.179049
0.402014 0.292210 0.178256
0.446296 0.292943 0.177615
0.492805 0.292882 0.176547
0.540337 0.294743 0.175357
0.585840 0.298955 0.173495
0.630854 0.303990 0.171328
0.674220 0.309758 0.168917
0.715053 0.316686 0.166384
0.753170 0.324346 0.163760
0.789395 0.333440 0.160952
0.824125 0.343755 0.158267
0.857298 0.355169 0.155550
0.889158 0.367437 0.152682
0.919371 0.380377 0.150637
0.948241 0.393317 0.149477
0.976043 0.406409 0.149599
1.000000 0.419379 0.151461
1.000000 0.431922 0.155367
1.000000 0.444251 0.161959
0.140444 0.283818 0.194675
0.141085 0.283879 0.194675
0.144198 0.283726 0.194797
0.149874 0.283543 0.195346
0.158846 0.283268 0.196139
0.170474 0.282811 0.197208
0.183383 0.283909 0.197604
0.199619 0.288518 0.196109
0.220188 0.294102 0.194034
0.246403 0.300725 0.191440
0.278355 0.308232 0.188022
0.317113 0.316503 0.183749
0.362188 0.325017 0.179568
0.404334 0.327855 0.178256
0.449989 0.330480 0.176852
0.497749 0.332403 0.174990
0.546715 0.333471 0.173587
0.595880 0.333989 0.171572
0.640528 0.337865 0.169284
0.682124 0.343786 0.166598
0.721370 0.350469 0.163882
0.758022 0.357794 0.161166
0.793271 0.366278 0.158358
0.827054 0.375769 0.155734
0.859648 0.386145 0.153140
0.890806 0.397223 0.150698
0.920500 0.408698 0.149233
0.948974 0.420111 0.148592
0.976471 0.431464 0.149752
1.000000 0.442908 0.152804
1.000000 0.453956 0.157656
1.000000 0.464851 0.164920
0.129061 0.313207 0.199069
0.129488 0.313207 0.199069
0.133608 0.313146 0.199313
0.140383 0.312963 0.199710
0.151003 0.312596 0.200504
0.164218 0.312230 0.201663
0.179446 0.311681 0.203220
0.196414 0.315435 0.202121
0.217105 0.321263 0.200046
0.242618 0.328161 0.197421
0.273899 0.336095 0.193851
0.311467 0.345525 0.189517
0.361730 0.361151 0.183780
0.416175 0.373571 0.176730
0.463600 0.377569 0.174319
0.512505 0.380743 0.171878
0.561791 0.383124 0.169436
0.610590 0.384833 0.166964
0.657374 0.386145 0.164431
0.701503 0.387243 0.162417
0.738552 0.393408 0.159731
0.773159 0.399969 0.157076
0.806607 0.407294 0.154910
0.838865 0.415595 0.152773
0.869932 0.424445 0.150637
0.899596 0.433570 0.149386
0.927977 0.442786 0.149172
0.955261 0.452033 0.149996
0.981720 0.461250 0.152651
1.000000 0.470466 0.156802
1.000000 0.479652 0.163210
1.000000 0.488838 0.172213
0.106996 0.348486 0.203647
0.108186 0.348455 0.203647
0.113069 0.348333 0.203891
0.122957 0.347967 0.204318
0.136660 0.347478 0.205142
0.153384 0.346990 0.206149
0.172030 0.346288 0.207675
0.191836 0.347295 0.208530
0.213718 0.353643 0.206332
0.240238 0.361364 0.203586
0.272251 0.370275 0.200046
0.310185 0.380468 0.195529
0.354772 0.391791 0.189761
0.405676 0.403784 0.182345
0.464820 0.418280 0.172732
0.514977 0.423194 0.168917
0.563897 0.426429 0.165774
0.611475 0.428809 0.162722
0.656947 0.430671 0.159854
0.699825 0.432105 0.157687
0.739956 0.432776 0.155825
0.776638 0.435035 0.154543
0.809262 0.441382 0.152560
0.840848 0.448432 0.150729
0.871275 0.456031 0.149325
0.900572 0.463722 0.148959
0.928588 0.471534 0.149630
0.955627 0.479377 0.151583
0.981933 0.487221 0.155306
1.000000 0.495216 0.160708
1.000000 0.503075 0.168246
1.000000 0.510918 0.178225
0.036316 0.386145 0.207675
0.040284 0.386114 0.207675
0.062684 0.385779 0.207858
0.092409 0.385473 0.208408
0.113069 0.385107 0.209171
0.136355 0.384497 0.210300
0.160250 0.383825 0.211673
0.184482 0.383124 0.213565
0.208865 0.387030 0.212711
0.236484 0.394598 0.209964
0.268772 0.403418 0.206271
0.306493 0.413458 0.201907
0.350164 0.424537 0.196048
0.399145 0.436347 0.188968
0.453254 0.448646 0.180056
0.513970 0.463081 0.168093
0.565850 0.469368 0.162234
0.612299 0.472053 0.158602
0.656672 0.474189 0.155856
0.698512 0.475624 0.153292
0.737728 0.476387 0.151797
0.775265 0.477089 0.151003
0.811307 0.478035 0.150423
0.844022 0.481849 0.149813
0.873869 0.488136 0.149599
0.902586 0.494331 0.150118
0.930175 0.500816 0.151980
0.956847 0.507256 0.155306
0.982879 0.513787 0.160067
1.000000 0.520470 0.166903
1.000000 0.527123 0.175418
1.000000 0.533837 0.186526
0.000000 0.426307 0.211612
0.000000 0.426276 0.211734
0.000000 0.425910 0.211948
0.000000 0.425483 0.212375
0.050141 0.424750 0.213230
0.109377 0.423987 0.214298
0.142672 0.423133 0.215915
0.173159 0.422339 0.217563
0.202792 0.422126 0.219516
0.232029 0.429328 0.216709
0.265660 0.437842 0.213046
0.304021 0.447578 0.208560
0.347173 0.458167 0.203159
0.394690 0.469459 0.196414
0.446845 0.481147 0.188022
0.502342 0.492958 0.177584
0.562493 0.506584 0.164034
0.613977 0.513909 0.156252
0.657221 0.515862 0.153140
0.697963 0.516930 0.151247
0.736324 0.517510 0.149966
0.773373 0.518151 0.149233
0.809018 0.518975 0.149203
0.843534 0.519768 0.149844
0.876493 0.520439 0.151736
0.905150 0.524804 0.153872
0.932341 0.529992 0.156710
0.958648 0.535363 0.161379
0.984497 0.540734 0.167636
1.000000 0.546349 0.175509
1.000000 0.551934 0.185611
1.000000 0.557610 0.197757
0.000000 0.466712 0.215732
0.000000 0.466773 0.215824
0.000000 0.466499 0.216007
0.000000 0.466194 0.216495
0.000000 0.465583 0.217441
0.040681 0.464973 0.218540
0.120424 0.464271 0.220066
0.160616 0.463569 0.221988
0.196078 0.462806 0.224521
0.229129 0.466163 0.224094
0.264439 0.473976 0.220737
0.303410 0.482734 0.216342
0.346166 0.492348 0.211215
0.392584 0.502373 0.205112
0.442603 0.512871 0.197360
0.495491 0.523461 0.188327
0.550591 0.534203 0.177188
0.607752 0.546532 0.163088
0.658106 0.554437 0.154055
0.697688 0.555322 0.152224
0.735622 0.555993 0.151339
0.772244 0.556573 0.150881
0.807614 0.557336 0.151553
0.841794 0.558038 0.153079
0.874418 0.558556 0.155673
0.905730 0.558770 0.159762
0.935363 0.559319 0.164950
0.961303 0.563561 0.170748
0.986725 0.567773 0.178012
1.000000 0.572107 0.187015
1.000000 0.576593 0.197910
1.000000 0.581109 0.211063
0.000000 0.506798 0.220523
0.000000 0.506706 0.220554
0.000000 0.506584 0.220798
0.000000 0.506188 0.221317
0.000000 0.505821 0.222141
0.000000 0.505089 0.223362
0.095338 0.504387 0.224979
0.149691 0.503563 0.226993
0.191257 0.502708 0.229465
0.227817 0.501701 0.232242
0.265080 0.508568 0.229343
0.304387 0.516533 0.225376
0.347082 0.525170 0.220706
0.392828 0.534234 0.215061
0.441230 0.543511 0.208499
0.492012 0.553033 0.200748
0.544060 0.562554 0.191379
0.596612 0.572473 0.180331
0.650294 0.583642 0.166781
0.698878 0.591699 0.157900
0.736110 0.592340 0.157137
0.772061 0.592920 0.157382
0.806943 0.593622 0.158480
0.840604 0.594141 0.160708
0.872831 0.594415 0.164157
0.903746 0.594354 0.169100
0.933562 0.594171 0.175418
0.962371 0.593652 0.182864
0.989197 0.594568 0.191836
1.000000 0.597925 0.201755
1.000000 0.601373 0.213260
1.000000 0.605005 0.226932
0.000000 0.545892 0.227085
0.000000 0.545922 0.227176
0.000000 0.551720 0.228733
0.000000 0.551354 0.229343
0.000000 0.550927 0.230259
0.000000 0.550256 0.231418
0.091005 0.549340 0.233005
0.151736 0.548363 0.235111
0.197330 0.547295 0.237552
0.237125 0.546105 0.240543
0.274540 0.547906 0.241337
0.314824 0.554803 0.237919
0.357427 0.562127 0.233677
0.402106 0.569726 0.229007
0.448676 0.577630 0.223331
0.496803 0.585718 0.216953
0.545892 0.593805 0.209293
0.594598 0.602136 0.200229
0.643397 0.610681 0.190524
0.693294 0.620386 0.177981
0.740658 0.629175 0.169558
0.775692 0.629511 0.170047
0.809506 0.629816 0.171817
0.842069 0.629908 0.174655
0.873289 0.629480 0.178897
0.903349 0.628962 0.184298
0.932494 0.628138 0.190646
0.960754 0.627131 0.198520
0.988312 0.626001 0.207950
1.000000 0.624750 0.218875
1.000000 0.625971 0.231174
1.000000 0.628779 0.245243
0.000000 0.584253 0.236637
0.000000 0.584802 0.236790
0.000000 0.585199 0.237186
0.000000 0.585382 0.237827
0.000000 0.585321 0.238956
0.000000 0.584833 0.240085
0.109865 0.584100 0.241672
0.164981 0.583001 0.243595
0.208499 0.581933 0.246036
0.247654 0.580713 0.249027
0.284550 0.579339 0.252384
0.323308 0.584192 0.250614
0.364599 0.590600 0.247257
0.407538 0.597406 0.243229
0.452033 0.604425 0.238590
0.497688 0.611658 0.233341
0.543725 0.618952 0.227512
0.589960 0.626581 0.220737
0.636255 0.634424 0.212985
0.682307 0.642451 0.204349
0.727932 0.650599 0.194522
0.775296 0.660822 0.186984
0.809842 0.662013 0.188327
0.841733 0.661952 0.191470
0.872343 0.661463 0.196262
0.901976 0.660700 0.201694
0.930571 0.659693 0.208804
0.958556 0.658442 0.217014
0.985779 0.657099 0.226688
1.000000 0.655573 0.237766
1.000000 0.653986 0.250767
1.000000 0.652247 0.265171
0.000000 0.618158 0.247745
0.000000 0.618647 0.247990
0.000000 0.619013 0.248447
0.000000 0.619257 0.249332
0.000000 0.619226 0.250370
0.091646 0.618799 0.251591
0.148623 0.618006 0.253086
0.192203 0.617090 0.255131
0.230930 0.615991 0.257542
0.267460 0.614740 0.260349
0.302464 0.613397 0.263615
0.337499 0.613733 0.265690
0.377111 0.619318 0.262974
0.417945 0.625208 0.259922
0.459998 0.631434 0.256229
0.502739 0.637781 0.252293
0.545861 0.644465 0.247654
0.589288 0.651331 0.242344
0.632898 0.658412 0.236545
0.676417 0.665766 0.230014
0.719722 0.673304 0.223026
0.763027 0.681147 0.215061
0.807706 0.690761 0.210117
0.841825 0.692744 0.212253
0.871824 0.692195 0.217044
0.900877 0.691279 0.222965
0.929107 0.690120 0.229953
0.956634 0.688685 0.238254
0.983490 0.687160 0.248264
1.000000 0.685451 0.259648
1.000000 0.683619 0.272709
1.000000 0.681727 0.287388
0.000000 0.650538 0.262364
0.000000 0.650965 0.262608
0.000153 0.651240 0.263066
0.080598 0.651484 0.263859
0.122225 0.651362 0.264927
0.158572 0.650935 0.266087
0.193637 0.650263 0.267582
0.227237 0.649409 0.269474
0.260990 0.648341 0.271855
0.293858 0.647120 0.274571
0.326177 0.645808 0.277867
0.358556 0.644312 0.281682
0.393988 0.647303 0.281254
0.432136 0.652461 0.279026
0.471168 0.657984 0.276341
0.511070 0.663783 0.273350
0.551476 0.669917 0.269963
0.592340 0.676295 0.266178
0.633478 0.683040 0.262211
0.674830 0.690059 0.257694
0.716152 0.697383 0.252873
0.757321 0.704799 0.247868
0.798093 0.712245 0.242130
0.840238 0.721279 0.240208
0.873960 0.724056 0.243809
0.902495 0.723110 0.250309
0.930266 0.721798 0.257603
0.957397 0.720241 0.266300
0.983734 0.718502 0.276677
1.000000 0.716579 0.288487
1.000000 0.714565 0.301884
1.000000 0.712459 0.316838
0.158328 0.684169 0.282017
0.160983 0.684291 0.282261
0.167819 0.684260 0.282658
0.180880 0.684108 0.283207
0.198520 0.683772 0.283940
0.220035 0.683192 0.285130
0.244236 0.682460 0.286534
0.270756 0.681605 0.288334
0.298802 0.680568 0.290532
0.327886 0.679469 0.293431
0.357244 0.678218 0.296513
0.386603 0.676814 0.300237
0.416419 0.676081 0.303441
0.451301 0.680659 0.301793
0.487282 0.685542 0.299840
0.523949 0.690730 0.297673
0.561151 0.696162 0.295232
0.599115 0.701961 0.292638
0.637140 0.707942 0.289769
0.675532 0.714168 0.286687
0.713893 0.720546 0.283299
0.752224 0.727169 0.279759
0.790402 0.733822 0.275914
0.828550 0.740536 0.271855
0.868315 0.748959 0.271336
0.901518 0.752224 0.276188
0.928832 0.750912 0.283787
0.955474 0.749294 0.292699
0.981323 0.747402 0.303014
1.000000 0.745357 0.314763
1.000000 0.743191 0.328191
1.000000 0.740902 0.343328
0.231296 0.713710 0.303380
0.232273 0.713832 0.303593
0.236637 0.713863 0.303838
0.245212 0.713680 0.304509
0.257542 0.713375 0.305303
0.273045 0.712886 0.306279
0.292332 0.712184 0.307622
0.313848 0.711391 0.309422
0.337224 0.710506 0.311650
0.362554 0.709438 0.314427
0.388464 0.708278 0.317510
0.414893 0.707027 0.321080
0.441688 0.705562 0.324987
0.471504 0.707362 0.326207
0.504265 0.711818 0.324987
0.537774 0.716518 0.323705
0.572229 0.721523 0.322210
0.606989 0.726711 0.320562
0.642359 0.732143 0.318730
0.677913 0.737819 0.316869
0.713649 0.743740 0.314824
0.749477 0.749783 0.312749
0.785245 0.756039 0.310460
0.821103 0.762387 0.307958
0.855833 0.767514 0.303197
0.893797 0.775601 0.304082
0.926665 0.779385 0.310399
0.952819 0.777676 0.319432
0.978149 0.775784 0.329686
1.000000 0.773587 0.341405
1.000000 0.771328 0.355077
1.000000 0.769039 0.370092
0.294255 0.743801 0.329473
0.295598 0.743984 0.329717
0.299016 0.743984 0.330083
0.304692 0.743740 0.330510
0.313451 0.743343 0.331151
0.325475 0.742702 0.331884
0.339849 0.741878 0.333043
0.357153 0.740932 0.334447
0.376684 0.739834 0.336431
0.397894 0.738705 0.338720
0.420447 0.737453 0.341527
0.443854 0.736141 0.344701
0.468025 0.734676 0.348455
0.492439 0.733181 0.352544
0.521569 0.736934 0.351568
0.551843 0.740932 0.350622
0.583001 0.745235 0.349584
0.614923 0.749874 0.348547
0.647395 0.754849 0.347570
0.680323 0.760098 0.346624
0.713619 0.765652 0.345647
0.746914 0.771328 0.344640
0.780392 0.777096 0.343328
0.813901 0.782986 0.341833
0.847593 0.788846 0.339971
0.881682 0.794705 0.338048
0.917967 0.802487 0.339513
0.949920 0.806455 0.347448
0.974670 0.804288 0.357366
0.998535 0.801968 0.369116
1.000000 0.799557 0.382361
1.000000 0.797086 0.397589
0.344915 0.770657 0.356085
0.345830 0.770871 0.356359
0.348638 0.770871 0.356786
0.353246 0.770748 0.357275
0.360449 0.770413 0.357946
0.370306 0.769986 0.358831
0.382544 0.769436 0.360143
0.397436 0.768734 0.361822
0.414374 0.767971 0.363806
0.432898 0.767086 0.366339
0.452949 0.766079 0.369177
0.474037 0.765011 0.372503
0.495888 0.763729 0.376074
0.518181 0.762356 0.380102
0.542321 0.763088 0.382208
0.569390 0.766720 0.381811
0.597559 0.770596 0.381231
0.626368 0.774777 0.380774
0.656001 0.779324 0.380438
0.686152 0.784176 0.380072
0.716732 0.789273 0.379828
0.747494 0.794644 0.379522
0.778622 0.800137 0.379156
0.809873 0.805692 0.378729
0.841489 0.811307 0.378058
0.873503 0.816953 0.377295
0.906065 0.822538 0.376318
0.940917 0.830167 0.378576
0.970703 0.833341 0.388556
0.994842 0.831540 0.400122
1.000000 0.828885 0.413275
1.000000 0.826108 0.427924
0.392889 0.798306 0.386969
0.393622 0.798398 0.387213
0.395605 0.798306 0.387518
0.399268 0.798215 0.387884
0.405249 0.797879 0.388495
0.413397 0.797452 0.389410
0.423743 0.796963 0.390570
0.436103 0.796323 0.392157
0.450477 0.795621 0.394110
0.466560 0.794827 0.396429
0.484199 0.793942 0.399145
0.502953 0.792966 0.402319
0.522576 0.791897 0.405859
0.542992 0.790707 0.409766
0.563622 0.789364 0.414038
0.587427 0.792142 0.414343
0.612634 0.795712 0.414252
0.638605 0.799588 0.414160
0.665400 0.803799 0.414160
0.692866 0.808316 0.414343
0.720790 0.813107 0.414679
0.749111 0.818082 0.414923
0.777798 0.823178 0.415167
0.806851 0.828428 0.415229
0.836240 0.833646 0.415290
0.866087 0.838804 0.415106
0.896483 0.843931 0.415015
0.927428 0.848966 0.414771
0.960876 0.856291 0.417121
0.988495 0.858579 0.428992
1.000000 0.857023 0.441810
1.000000 0.854032 0.456367
0.436316 0.825406 0.419776
0.436805 0.825498 0.420020
0.438422 0.825498 0.420356
0.441718 0.825406 0.420813
0.446815 0.825223 0.421515
0.453651 0.825040 0.422553
0.462989 0.824826 0.424170
0.474159 0.824613 0.426184
0.487221 0.824338 0.428626
0.501854 0.824063 0.431556
0.517998 0.823697 0.434882
0.535119 0.823239 0.438483
0.553185 0.822690 0.442481
0.571801 0.821988 0.446723
0.590906 0.821073 0.451087
0.610925 0.821408 0.454322
0.633143 0.824765 0.454658
0.656184 0.828428 0.454871
0.679957 0.832364 0.455360
0.704524 0.836545 0.456001
0.729671 0.840940 0.456672
0.755398 0.845548 0.457435
0.781552 0.850156 0.458045
0.808194 0.854826 0.458717
0.835294 0.859495 0.459266
0.862913 0.864073 0.459632
0.891173 0.868559 0.460151
0.919829 0.872953 0.460548
0.948882 0.877226 0.460853
0.980468 0.883940 0.463355
1.000000 0.885100 0.476600
1.000000 0.883482 0.490822
0.482094 0.855589 0.459571
0.482429 0.855589 0.459602
0.483742 0.855497 0.459815
0.486244 0.855375 0.460121
0.490394 0.855161 0.460670
0.496132 0.854856 0.461585
0.503593 0.854520 0.462715
0.512627 0.854154 0.464210
0.523461 0.853727 0.466163
0.535790 0.853269 0.468452
0.549401 0.852750 0.471199
0.564172 0.852201 0.474311
0.580133 0.851530 0.477821
0.596643 0.850858 0.481575
0.613886 0.850034 0.485664
0.631586 0.849180 0.490089
0.650782 0.851316 0.491676
0.671168 0.854673 0.492256
0.692439 0.858244 0.492927
0.714351 0.862028 0.493721
0.737057 0.865965 0.494575
0.760372 0.869993 0.495583
0.784237 0.874113 0.496468
