YOYO-Client/Yoyo/Assets.xcassets/Lisbon.dataset/Lisbon.cube
TITLE "Lisbon"
LUT_3D_SIZE 8
DOMAIN_MIN 0.000000 0.000000 0.000000
DOMAIN_MAX 0.903226 0.903226 0.903226
0.149264 0.160678 0.167086
0.167788 0.161990 0.167849
0.235111 0.165652 0.169741
0.339635 0.167971 0.171481
0.498939 0.163363 0.172610
0.684504 0.159243 0.170657
0.846525 0.206546 0.163149
0.973297 0.289647 0.153689
0.150942 0.177371 0.171511
0.167666 0.180148 0.170626
0.237522 0.181094 0.171023
0.342290 0.184360 0.172488
0.500603 0.185122 0.173922
0.685145 0.188205 0.170871
0.842069 0.230991 0.162722
0.969635 0.306767 0.152560
0.148867 0.237064 0.184939
0.164797 0.236332 0.186679
0.228428 0.250065 0.181796
0.360540 0.259922 0.178012
0.529076 0.265049 0.175784
0.708644 0.284825 0.168185
0.856535 0.326665 0.157382
0.976715 0.383520 0.150179
0.106996 0.348486 0.203647
0.136660 0.347478 0.205142
0.213718 0.353643 0.206332
0.354772 0.391791 0.189761
0.563897 0.426429 0.165774
0.739956 0.432776 0.155825
0.871275 0.456031 0.149325
0.981933 0.487221 0.155306
0.000000 0.506798 0.220523
0.000000 0.505821 0.222141
0.191257 0.502708 0.229465
0.347082 0.525170 0.220706
0.544060 0.562554 0.191379
0.736110 0.592340 0.157137
0.872831 0.594415 0.164157
0.989197 0.594568 0.191836
0.000000 0.650538 0.262364
0.122225 0.651362 0.264927
0.260990 0.648341 0.271855
0.393988 0.647303 0.281254
0.551476 0.669917 0.269963
0.716152 0.697383 0.252873
0.873960 0.724056 0.243809
0.983734 0.718502 0.276677
0.344915 0.770657 0.356085
0.360449 0.770413 0.357946
0.414374 0.767971 0.363806
0.495888 0.763729 0.376074
0.597559 0.770596 0.381231
0.716732 0.789273 0.379828
0.841489 0.811307 0.378058
0.970703 0.833341 0.388556
0.522301 0.883360 0.497749
0.529320 0.883085 0.498970
0.557885 0.882109 0.504448
0.607813 0.880583 0.515801
0.667018 0.875853 0.526146
0.744686 0.889189 0.530419
0.833249 0.903716 0.535515
0.929839 0.916838 0.539422
0.151217 0.162112 0.183963
0.167819 0.163210 0.184665
0.231785 0.165194 0.185092
0.332738 0.175540 0.192660
0.490669 0.171237 0.194644
0.676326 0.163760 0.193118
0.835111 0.202182 0.187808
0.964660 0.282689 0.181247
0.148501 0.179965 0.187594
0.169375 0.181613 0.189181
0.233249 0.185946 0.191440
0.338018 0.190860 0.194003
0.496162 0.190646 0.195346
0.680079 0.190799 0.192966
0.834623 0.228061 0.186984
0.962768 0.301457 0.180179
0.155215 0.241245 0.201511
0.171023 0.240696 0.203037
0.230198 0.250645 0.201205
0.359075 0.258671 0.198825
0.523522 0.265690 0.197055
0.699794 0.282231 0.191562
0.845518 0.319890 0.184115
0.968627 0.377020 0.178927
0.112673 0.350835 0.218112
0.142184 0.350072 0.219394
0.217960 0.352636 0.223087
0.351659 0.386786 0.209384
0.552300 0.416358 0.192142
0.728450 0.421607 0.185183
0.859953 0.447578 0.179751
0.973999 0.481331 0.183780
0.000000 0.508537 0.235996
0.000000 0.507164 0.237522
0.196323 0.503471 0.243870
0.346197 0.521324 0.238834
0.538872 0.557549 0.214298
0.729946 0.586694 0.188785
0.867948 0.589532 0.194797
0.984344 0.591730 0.217136
0.000000 0.649714 0.276493
0.125154 0.649104 0.278141
0.261784 0.646204 0.284916
0.392615 0.643793 0.295659
0.548882 0.667079 0.286442
0.713893 0.695369 0.273075
0.871214 0.721675 0.267094
0.981109 0.716365 0.295933
0.343847 0.768978 0.365637
0.357946 0.768093 0.366430
0.412055 0.765560 0.371893
0.494179 0.761593 0.384009
0.595880 0.768185 0.391333
0.714687 0.787076 0.390539
0.839078 0.808774 0.388891
0.968261 0.830838 0.399145
0.520592 0.881743 0.501549
0.528435 0.881804 0.503349
0.556847 0.880735 0.508568
0.606836 0.879240 0.519677
0.670130 0.876921 0.535882
0.745815 0.889403 0.538628
0.833249 0.903288 0.542412
0.929656 0.916472 0.546471
0.154635 0.166049 0.241154
0.171420 0.166659 0.242100
0.231540 0.172122 0.245701
0.332250 0.184268 0.253117
0.501549 0.151156 0.252506
0.680140 0.139956 0.255528
0.834165 0.195987 0.261631
0.964202 0.277440 0.263432
0.158022 0.185824 0.245884
0.175387 0.187015 0.246616
0.233860 0.191928 0.249516
0.336858 0.199710 0.255863
0.504112 0.170138 0.250370
0.677913 0.188418 0.260594
0.833768 0.222995 0.261479
0.962768 0.297154 0.262943
0.149355 0.248539 0.255650
0.169100 0.249943 0.256748
0.237797 0.255161 0.261143
0.356970 0.261906 0.262913
0.522118 0.268589 0.264408
0.697902 0.281407 0.264561
0.843442 0.316747 0.264012
0.966247 0.373724 0.266300
0.105898 0.368994 0.275029
0.146029 0.370123 0.276951
0.234165 0.369329 0.279973
0.363317 0.392645 0.277348
0.560967 0.412207 0.272435
0.726894 0.421454 0.271153
0.858305 0.448219 0.271214
0.972198 0.482033 0.278141
0.000000 0.525322 0.295537
0.000000 0.524315 0.296788
0.218875 0.520623 0.302434
0.361761 0.525628 0.307988
0.548394 0.561700 0.295811
0.732296 0.584985 0.287694
0.868833 0.586084 0.294408
0.980804 0.593500 0.310765
0.124941 0.658320 0.337194
0.175540 0.657740 0.338598
0.289281 0.654505 0.343938
0.411292 0.648646 0.354620
0.553765 0.666896 0.354131
0.714870 0.695399 0.349706
0.868986 0.719875 0.353826
0.979400 0.715480 0.376501
0.364843 0.773739 0.416419
0.378058 0.772915 0.417243
0.428626 0.770077 0.421271
0.507103 0.765652 0.430884
0.601129 0.767483 0.441016
0.716670 0.787106 0.443519
0.840024 0.810025 0.446754
0.967742 0.832090 0.461494
0.529778 0.883543 0.531334
0.536278 0.883085 0.532067
0.563928 0.881987 0.536522
0.613519 0.880827 0.547021
0.675471 0.878386 0.561242
0.749233 0.888945 0.567956
0.835203 0.903410 0.573114
0.930297 0.916960 0.578271
0.154849 0.172122 0.342321
0.176394 0.173281 0.343938
0.247501 0.177859 0.348638
0.355383 0.181430 0.357244
0.506584 0.187991 0.370733
0.700069 0.155123 0.384955
0.850278 0.056794 0.369116
0.970123 0.182406 0.359045
0.160281 0.193576 0.348425
0.181003 0.194583 0.349523
0.251591 0.197665 0.353307
0.359808 0.201266 0.361212
0.511955 0.211002 0.374334
0.701930 0.183169 0.384771
0.849851 0.132815 0.366430
0.966278 0.237675 0.364965
0.142061 0.257786 0.358862
0.167575 0.258610 0.360601
0.251621 0.264134 0.365240
0.369848 0.271916 0.371710
0.531273 0.295048 0.387549
0.709529 0.268101 0.380468
0.847684 0.286046 0.371649
0.958709 0.369421 0.385931
0.000000 0.381506 0.376562
0.090150 0.382849 0.377478
0.229313 0.388464 0.381567
0.380560 0.398505 0.389502
0.552941 0.406500 0.389899
0.710689 0.421027 0.390875
0.845457 0.446906 0.393652
0.962432 0.481331 0.400946
0.000000 0.547509 0.402441
0.000000 0.547326 0.402960
0.247623 0.547417 0.407599
0.400336 0.543664 0.414405
0.562280 0.566735 0.417609
0.733486 0.579980 0.419989
0.864866 0.582940 0.425422
0.971588 0.597314 0.434516
0.246311 0.674708 0.447242
0.277501 0.675532 0.449775
0.338109 0.673060 0.444007
0.453193 0.666468 0.451545
0.570062 0.669642 0.459510
0.719814 0.697902 0.462898
0.866026 0.717739 0.472755
0.976013 0.713954 0.487343
0.397284 0.782284 0.496407
0.410254 0.781827 0.497414
0.458442 0.779507 0.500908
0.532952 0.775235 0.508019
0.616510 0.769162 0.518761
0.722194 0.787839 0.524743
0.841611 0.811521 0.531243
0.964965 0.831693 0.547753
0.545586 0.888548 0.582330
0.552148 0.888212 0.583093
0.578515 0.887022 0.586481
0.625177 0.885039 0.593805
0.685237 0.882231 0.605066
0.754818 0.887602 0.615503
0.838499 0.903166 0.622461
0.931792 0.917845 0.630213
0.160342 0.180179 0.487343
0.188296 0.180819 0.488899
0.276036 0.181827 0.492927
0.402441 0.179934 0.500938
0.551507 0.172519 0.512413
0.701747 0.199374 0.522179
0.854215 0.286259 0.546075
0.973022 0.300847 0.540429
0.164462 0.201968 0.491920
0.192050 0.202335 0.493385
0.279637 0.203128 0.496986
0.405982 0.202457 0.503685
0.554894 0.199344 0.514916
0.704005 0.229740 0.524407
0.853696 0.306798 0.546471
0.971984 0.319158 0.539666
0.143740 0.272160 0.502312
0.178714 0.272892 0.503105
0.278141 0.275639 0.505821
0.412604 0.281010 0.512047
0.562707 0.289647 0.521508
0.706935 0.328588 0.530236
0.849729 0.374273 0.545403
0.967071 0.377996 0.534020
0.000000 0.393927 0.510796
0.094759 0.394659 0.511498
0.249058 0.398322 0.515557
0.413611 0.410590 0.524224
0.570611 0.426886 0.532433
0.711788 0.469581 0.545464
0.846128 0.463935 0.539086
0.963134 0.456062 0.517082
0.000000 0.552117 0.526940
0.000000 0.552911 0.527703
0.238590 0.555657 0.530510
0.414649 0.560174 0.535790
0.574121 0.566552 0.543450
0.714412 0.570611 0.542168
0.841245 0.580285 0.542626
0.953735 0.595392 0.546441
0.200473 0.685756 0.547723
0.239231 0.685512 0.548272
0.347967 0.683558 0.549767
0.479713 0.680690 0.555230
0.594079 0.674922 0.561639
0.722560 0.696559 0.572320
0.860349 0.710018 0.581903
0.969665 0.708064 0.589502
0.425055 0.790829 0.588098
0.437140 0.790280 0.588342
0.485206 0.788540 0.590448
0.551537 0.786526 0.590600
0.636591 0.779965 0.597650
0.726040 0.784421 0.606500
0.842588 0.810849 0.616754
0.960784 0.827481 0.632105
0.564691 0.892485 0.646479
0.566369 0.892424 0.644648
0.583642 0.891630 0.642329
0.632685 0.890074 0.649104
0.693263 0.886931 0.657679
0.759335 0.883360 0.669642
0.840665 0.900755 0.678523
0.932677 0.917082 0.688289
0.228794 0.187137 0.635554
0.254643 0.186770 0.636439
0.341314 0.184970 0.638300
0.467750 0.179507 0.642786
0.611200 0.177920 0.650477
0.743954 0.200870 0.659358
0.850828 0.288121 0.659327
0.964080 0.427161 0.679377
0.230625 0.210361 0.635248
0.255955 0.210147 0.635706
0.341650 0.208865 0.637812
0.467414 0.205936 0.642329
0.609583 0.207950 0.649348
0.741848 0.231754 0.658228
0.848692 0.311955 0.658717
0.961578 0.442390 0.679316
0.223331 0.288396 0.641566
0.251255 0.288762 0.642054
0.343053 0.290745 0.644190
0.471443 0.294499 0.647150
0.612360 0.306676 0.653040
0.741451 0.334417 0.661158
0.846952 0.402075 0.663111
0.956909 0.505272 0.685023
0.160647 0.411749 0.646815
0.202579 0.412238 0.647425
0.328679 0.420966 0.650172
0.472175 0.430762 0.654658
0.614374 0.447852 0.660273
0.739254 0.473457 0.667506
0.844877 0.524315 0.673610
0.953063 0.581476 0.693202
0.136324 0.559136 0.648493
0.188571 0.559472 0.648798
0.313085 0.560845 0.650263
0.455268 0.564385 0.653437
0.605921 0.577386 0.661860
0.731380 0.593835 0.670344
0.842924 0.630610 0.685298
0.951385 0.627192 0.680873
0.258793 0.688258 0.660731
0.287572 0.688746 0.661616
0.373419 0.689021 0.662989
0.488258 0.689876 0.665858
0.609644 0.692042 0.670527
0.732448 0.698085 0.679133
0.845823 0.700618 0.678065
0.951080 0.706111 0.678767
0.408759 0.804959 0.683894
0.423438 0.804929 0.684382
0.475196 0.803769 0.685054
0.558282 0.801602 0.686915
0.657496 0.798245 0.691920
0.746059 0.791775 0.697230
0.848020 0.812741 0.709926
0.958679 0.824155 0.721950
0.549981 0.901213 0.713710
0.557031 0.900816 0.713924
0.586847 0.899809 0.715755
0.640620 0.898344 0.720699
0.706996 0.895995 0.727504
0.771420 0.891508 0.733303
0.844663 0.897459 0.744778
0.934905 0.917296 0.758572
0.357549 0.200504 0.766751
0.376501 0.200320 0.767453
0.444190 0.199191 0.768399
0.549706 0.199619 0.770901
0.666957 0.214267 0.774289
0.780148 0.258579 0.778744
0.881773 0.322210 0.784146
0.956329 0.414923 0.773495
0.356512 0.225925 0.765316
0.375494 0.226017 0.766110
0.442847 0.225406 0.767208
0.547295 0.227207 0.769284
0.664363 0.241672 0.772488
0.776883 0.282414 0.776547
0.878050 0.340642 0.781613
0.952850 0.427008 0.771298
0.353796 0.311620 0.768032
0.372442 0.312016 0.768246
0.441016 0.314122 0.768948
0.545983 0.320684 0.770687
0.661494 0.338079 0.773312
0.772946 0.374121 0.777340
0.873747 0.422156 0.783261
0.950378 0.492287 0.775692
0.335943 0.441382 0.770291
0.356481 0.441840 0.770199
0.430274 0.445045 0.770626
0.538537 0.454047 0.772488
0.654658 0.470375 0.775143
0.765957 0.497902 0.779660
0.866453 0.530663 0.786221
0.946166 0.580133 0.782559
0.301610 0.571496 0.766079
0.323980 0.571374 0.766110
0.403143 0.572442 0.767605
0.518975 0.578393 0.771450
0.642908 0.590173 0.774929
0.756313 0.606592 0.780331
0.858091 0.627893 0.788113
0.943755 0.668544 0.792935
0.358099 0.690700 0.771328
0.374578 0.690761 0.771572
0.433906 0.690578 0.772335
0.524315 0.690517 0.773892
0.629664 0.691737 0.776120
0.751522 0.705348 0.785702
0.855924 0.723232 0.796201
0.944244 0.758633 0.810880
0.434180 0.799924 0.785031
0.446174 0.800137 0.785458
0.490211 0.800198 0.786221
0.564446 0.800717 0.788052
0.655818 0.801907 0.790799
0.753445 0.805112 0.795438
0.852079 0.812009 0.803464
0.945037 0.813993 0.801205
0.529259 0.911650 0.802152
0.537530 0.911528 0.802365
0.571221 0.911223 0.803708
0.628016 0.910033 0.805692
0.701228 0.908049 0.808988
0.783017 0.905364 0.815213
0.856535 0.900389 0.821469
0.937682 0.918303 0.837461
0.486824 0.259464 0.888518
0.499031 0.260838 0.888762
0.544976 0.265721 0.888701
0.620813 0.280064 0.889464
0.710933 0.308965 0.890440
0.802731 0.356847 0.891478
0.890990 0.420752 0.893095
0.975189 0.478431 0.895262
0.485695 0.282872 0.887480
0.497993 0.284184 0.887755
0.543969 0.289342 0.887938
0.619318 0.302739 0.888579
0.709071 0.330083 0.889525
0.800809 0.375006 0.890562
0.889036 0.434363 0.891997
0.973236 0.488350 0.894133
0.482216 0.365637 0.886870
0.494026 0.366857 0.886961
0.539574 0.371771 0.886992
0.615137 0.385565 0.888182
0.703975 0.408637 0.888731
0.795163 0.444007 0.889525
0.883879 0.490578 0.891264
0.968658 0.533288 0.893828
0.470771 0.483619 0.885588
0.483284 0.484840 0.885771
0.529717 0.489174 0.885924
0.605554 0.499275 0.886687
0.695399 0.515892 0.887663
0.787564 0.540185 0.889036
0.877134 0.571710 0.891478
0.962646 0.601740 0.894896
0.449775 0.594781 0.883940
0.462562 0.595422 0.884276
0.519249 0.602319 0.884367
0.592889 0.605402 0.885435
0.684657 0.615106 0.886717
0.778714 0.630213 0.888762
0.870420 0.652277 0.892119
0.956664 0.675776 0.896880
0.453498 0.697169 0.882689
0.462959 0.696834 0.882506
0.501427 0.695888 0.882170
0.575006 0.696834 0.883574
0.669795 0.702754 0.886809
0.772335 0.717037 0.890837
0.867521 0.735897 0.896208
0.952605 0.757321 0.902464
0.505394 0.797269 0.890532
0.513298 0.797177 0.890532
0.545678 0.796994 0.890501
0.603174 0.797360 0.890959
0.678187 0.798703 0.891691
0.762936 0.802335 0.893065
0.863066 0.819486 0.900481
0.946563 0.840421 0.908537
0.556481 0.903593 0.900816
0.562707 0.903563 0.900847
0.589014 0.903746 0.901152
0.637568 0.904479 0.902007
0.703182 0.905669 0.903349
0.779873 0.907652 0.905333
0.860960 0.911223 0.908721
0.938964 0.917876 0.915068
