YOYO-Client/Yoyo/Assets.xcassets/Lisbon.dataset/Lisbon.cube
TITLE "Lisbon"
LUT_3D_SIZE 5
DOMAIN_MIN 0.000000 0.000000 0.000000
DOMAIN_MAX 0.903226 0.903226 0.903226
0.149264 0.160678 0.167086
0.215915 0.164706 0.169192
0.412879 0.166629 0.172061
0.730404 0.165255 0.169100
0.973297 0.289647 0.153689
0.149264 0.218723 0.180087
0.209293 0.227787 0.177890
0.435004 0.235569 0.176669
0.744625 0.264256 0.166903
0.976898 0.361913 0.150820
0.000000 0.426307 0.211612
0.173159 0.422339 0.217563
0.446845 0.481147 0.188022
0.773373 0.518151 0.149233
0.984497 0.540734 0.167636
0.158328 0.684169 0.282017
0.270756 0.681605 0.288334
0.487282 0.685542 0.299840
0.752224 0.727169 0.279759
0.981323 0.747402 0.303014
0.522301 0.883360 0.497749
0.548547 0.882414 0.502586
0.633631 0.876310 0.517571
0.765896 0.892851 0.531701
0.929839 0.916838 0.539422
0.153811 0.165072 0.223484
0.211765 0.168338 0.226841
0.410437 0.165652 0.231113
0.717403 0.165286 0.239384
0.962921 0.278172 0.238346
0.152499 0.226566 0.234440
0.215427 0.231388 0.238560
0.426642 0.241703 0.241764
0.732082 0.259495 0.241032
0.966033 0.351720 0.239750
0.000000 0.440528 0.264530
0.188235 0.437110 0.269657
0.447639 0.476814 0.260685
0.767453 0.506310 0.248264
0.978698 0.539178 0.264500
0.198367 0.689662 0.337896
0.295506 0.687251 0.343297
0.495125 0.684962 0.358618
0.752224 0.726772 0.350256
0.978607 0.745998 0.375189
0.530175 0.884520 0.524712
0.555505 0.883421 0.528740
0.642847 0.880095 0.546746
0.769802 0.893614 0.561669
0.931029 0.918029 0.571313
0.154910 0.176303 0.411536
0.235416 0.179294 0.416144
0.447303 0.178897 0.432319
0.745571 0.214786 0.465644
0.975891 0.202914 0.445289
0.149477 0.244083 0.425971
0.238163 0.246738 0.428840
0.459236 0.255344 0.441993
0.746944 0.293095 0.466285
0.973724 0.285832 0.436316
0.000000 0.467323 0.451575
0.171267 0.471351 0.454536
0.477913 0.485786 0.467323
0.745724 0.501732 0.467506
0.957916 0.539422 0.476051
0.294499 0.708797 0.508202
0.373510 0.706508 0.511345
0.540063 0.698207 0.517693
0.754910 0.727016 0.531792
0.970092 0.740688 0.550530
0.546838 0.889860 0.608087
0.571954 0.888914 0.611139
0.656947 0.885191 0.623438
0.775601 0.889158 0.642359
0.931640 0.916838 0.656550
0.256016 0.189120 0.667506
0.337804 0.187198 0.669764
0.554589 0.179538 0.677455
0.781857 0.222843 0.690791
0.961181 0.422309 0.702052
0.255985 0.267338 0.671351
0.338933 0.268101 0.672908
0.556054 0.274449 0.679377
0.778317 0.321447 0.691188
0.955688 0.480812 0.704677
0.168887 0.486610 0.673152
0.293370 0.488594 0.675380
0.546685 0.506828 0.683223
0.764675 0.541100 0.694270
0.946624 0.629847 0.722286
0.316716 0.718746 0.693660
0.384558 0.718410 0.694301
0.563165 0.719753 0.699092
0.765591 0.727199 0.710842
0.949279 0.731960 0.708736
0.546197 0.903746 0.733852
0.574578 0.903014 0.735409
0.672724 0.900420 0.743496
0.793149 0.893797 0.755123
0.935576 0.917449 0.777676
0.486824 0.259464 0.888518
0.530205 0.263859 0.888640
0.665064 0.292241 0.889982
0.825223 0.371740 0.891844
0.975189 0.478431 0.895262
0.483925 0.340673 0.887297
0.526970 0.345190 0.887510
0.660243 0.370672 0.888609
0.819638 0.435096 0.890379
0.970428 0.520409 0.894377
0.463569 0.542901 0.884916
0.507744 0.545495 0.884886
0.643763 0.559625 0.885893
0.805325 0.590967 0.888487
0.959380 0.637659 0.895415
0.467781 0.723201 0.885100
0.501762 0.722499 0.884855
0.621057 0.723140 0.885679
0.795163 0.742092 0.892638
0.951263 0.777859 0.903807
0.556481 0.903593 0.900816
0.580377 0.903655 0.900999
0.668666 0.904997 0.902647
0.800015 0.908354 0.906035
0.938964 0.917876 0.915068
