YOYO-Client/Yoyo/Assets.xcassets/Santorini.dataset/Santorini.cube
TITLE "Generated by Resolve"
LUT_3D_SIZE 9
0 0 0.0117647
0.107851 0 0.000976577
0.237247 0.00195315 0
0.377447 0.00392157 0.00146487
0.537255 0 0
0.693141 0 0.00489815
0.832349 0.000976577 0.00294499
0.958831 0 0.00686656
0.996078 0 0
0.00343328 0.103914 0
0.0979782 0.107286 0.00300603
0.24976 0.106493 0.00477607
0.381247 0.11342 0.00428778
0.534066 0.106615 0.00538643
0.682963 0.0905013 0
0.822065 0.0571145 0.000854505
0.948287 0.00943008 0.000854505
0.996078 0 0.00686656
0 0.247059 0.00195315
0.108583 0.24535 0.00981155
0.245838 0.24535 0.00563058
0.398047 0.250248 0.00355535
0.542641 0.247059 0.00294499
0.684443 0.242649 0.00343328
0.819364 0.232593 0.00514229
0.951843 0.220096 0.00575265
0.988235 0.20589 0
0 0.397543 0.0024567
0.0159304 0.405509 0.000915541
0.250126 0.397055 0.00662242
0.388785 0.386892 0.00735485
0.528435 0.385046 0.00146487
0.674998 0.389334 0.0015259
0.813474 0.380026 0
0.94461 0.364767 0
0.997055 0.353429 0
0.00588998 0.535286 0
0.00170901 0.539208 0.00514229
0.191669 0.537255 0.00294499
0.371328 0.53579 0
0.520592 0.527443 0.00392157
0.665934 0.522057 0.00122072
0.806867 0.511269 0.00146487
0.939467 0.505394 0.00514229
1 0.494118 0.00392157
0.00784314 0.663722 0
0.000183108 0.670222 0.0109102
0.0562448 0.678676 0.00331121
0.338231 0.670283 0
0.510292 0.659312 0.00588998
0.656184 0.655329 0.00337224
0.795712 0.64889 0.00221256
0.932113 0.6383 0.000366217
1 0.623041 0.00538643
0 0.797055 0
0.00808728 0.798901 0
0.0102998 0.792157 0.000732433
0.271077 0.8 0.00221256
0.46569 0.799023 0.00440986
0.637751 0.788724 0
0.779416 0.78407 0.00367742
0.920836 0.773892 0.00772107
1 0.758831 0
0.000488289 0.924025 0
0.00134279 0.929168 0.000854505
0.000244144 0.919982 0.00122072
0.203922 0.918685 0.00808728
0.427695 0.920348 0
0.607782 0.916548 0.00502022
0.75552 0.910414 0.00526436
0.893568 0.903929 0.000427253
1 0.892149 0.00343328
0 0.996078 0
0.00343328 0.999512 0.00343328
0.0117647 0.996078 0.000976577
0.00146487 0.997543 0
0.350988 1 0
0.558328 1 0.0024567
0.726467 1 0
0.875975 0.996567 0
0.996078 1 0.00392157
0 0 0.11519
0.111894 0.00300603 0.101411
0.253559 0.00294499 0.105638
0.390814 0.00215152 0.0908675
0.541665 0.00196841 0.0529488
0.690013 0.00146487 0.00158694
0.827085 0.000366217 0.000366217
0.947494 0.000488289 0
0.996078 0 0
0.000427253 0.110292 0.11017
0.103456 0.100496 0.103075
0.242588 0.0932021 0.0929122
0.392157 0.0692454 0.0724498
0.550546 0.00689708 0.0252079
0.69601 3.0518e-05 0.000656138
0.832578 0.000106813 0.00257877
0.955627 6.10361e-05 0.00648508
0.993072 0 0.00386053
0 0.25417 0.0590677
0.0450141 0.255711 0.038468
0.260471 0.254505 0.0435645
0.399069 0.246754 0.0165866
0.546624 0.226047 0.000915541
0.688609 0.209003 0.00376898
0.825177 0.180423 0.00486763
0.95668 0.167163 0.00526436
0.996445 0.146807 0.000122072
0.00961318 0.402335 0.00361639
0.00846876 0.413062 0.0039826
0.224491 0.400397 0.00216678
0.390036 0.392462 0.00386053
0.536156 0.382193 0.00263981
0.678553 0.372137 0.00325017
0.815854 0.356649 0
0.947234 0.343297 0
0.993072 0.33051 0.00294499
0.00392157 0.544366 0
0.00282292 0.550301 0.00732433
0.148959 0.546319 0.00177005
0.368048 0.539956 0.00358587
0.531624 0.525856 0.00294499
0.676005 0.518868 0.00331121
0.819303 0.503243 0.00607309
0.943572 0.492164 0.00215152
1 0.480644 0.00538643
0 0.676341 0.00471504
0.00366217 0.677363 0.000747692
0.00961318 0.677348 0
0.316014 0.674891 0
0.499138 0.66949 0.00143435
0.655924 0.659251 0.00146487
0.798459 0.646601 0.0052491
0.937713 0.634165 0.00390631
1 0.61912 0
0 0.800977 0.000244144
0.000762951 0.808911 0.00175479
0.00634775 0.79617 0.00924697
0.252781 0.794186 0.00650034
0.454963 0.802152 0.000427253
0.629236 0.794003 0.0019379
0.781491 0.785595 0.00321965
0.921386 0.774533 0.000961318
1 0.755398 0
0.000427253 0.924514 0.000854505
0.0144198 0.917708 0.000167849
0.00221256 0.924407 0.00251774
0.0895705 0.924712 0.00251774
0.407385 0.923995 0
0.588586 0.91928 0.000656138
0.753628 0.91519 0.00257877
0.89781 0.906615 0.00129702
0.999512 0.896086 0
0 1 0
0 1 0
0 0.999878 0.000732433
0.00146487 1 0.00459297
0.337499 0.994614 0.00343328
0.54725 0.996384 0.00520333
0.720592 1 0
0.876844 0.996567 0.00643931
0.996078 0.996567 0.000488289
0.0127413 0 0.244114
0.123781 0 0.247425
0.248768 0.00221256 0.252689
0.38529 0.00404364 0.247059
0.54902 0.000488289 0.237751
0.698283 0 0.218021
0.830396 0.000244144 0.17966
0.962615 0.00343328 0.141299
0.995102 0 0.0784314
0.000732433 0.0903182 0.262745
0.0646372 0.0829786 0.258473
0.24831 0.063386 0.260822
0.409979 0.00747692 0.242939
0.549203 0.000610361 0.223041
0.700191 0.00169375 0.200946
0.840192 0.000885023 0.170748
0.964706 0.000762951 0.12987
0.997543 0.00270085 0.047303
0.00514229 0.254658 0.265446
0.00173953 0.259312 0.245655
0.243137 0.243198 0.245472
0.398032 0.230426 0.232258
0.546197 0.207721 0.205753
0.690044 0.174792 0.179599
0.831128 0.124269 0.144244
0.957137 0.0373236 0.0894331
0.996078 0.000732433 0.00662242
0.00613413 0.40502 0.204166
0.0116121 0.408682 0.201892
0.179324 0.397513 0.18471
0.391165 0.389822 0.167834
0.547677 0.370459 0.170718
0.69279 0.358602 0.144564
0.825025 0.334218 0.112505
0.959915 0.302464 0.027863
1 0.273777 0
0.00343328 0.548531 0.0784314
0.000427253 0.553796 0.0736553
0.0213169 0.55465 0.0375067
0.344488 0.542763 0.0451667
0.525979 0.532601 0.0436255
0.683574 0.514031 0.00784314
0.822797 0.495827 0.000488289
0.951415 0.477577 0.00434882
0.997543 0.446571 0.00833143
0 0.678676 0.000366217
0.00621042 0.685023 0.00428778
0.00560006 0.681651 0.00389105
0.284657 0.678965 0.00344854
0.487068 0.674327 0.00477607
0.658289 0.663005 0.00141909
0.805417 0.649577 0.00477607
0.942123 0.63679 0.00183108
0.99559 0.611399 0.00109865
0 0.808576 0.00343328
0.000854505 0.808423 0.00170901
0.00109865 0.80705 0.00918593
0.16997 0.807202 0.00885023
0.448035 0.79939 0.000366217
0.625589 0.794308 0.00015259
0.785595 0.788724 0.00440986
0.933059 0.769024 0.00146487
1 0.750973 0.00440986
0.00257877 0.92549 0.000854505
0.000534066 0.928267 0
9.15541e-05 0.927047 0.00514229
0.000457771 0.934676 0
0.361761 0.925612 0.000915541
0.577157 0.923079 0.00128176
0.748867 0.91664 0.00164797
0.907317 0.902815 0.00396735
1 0.892409 0.00772107
0 0.999023 0.00294499
0.00343328 0.998779 0.00514229
0.00146487 0.998291 0
0.0084535 0.997299 0.00857557
0.255879 0.997055 0.00146487
0.51397 0.997299 0
0.707851 0.997055 0.00294499
0.858946 1 0
0.996078 0.997055 0.00294499
0 0 0.396078
0.112078 0.00392157 0.401709
0.257847 0 0.395834
0.398352 0 0.402701
0.549264 0.00146487 0.395346
0.700191 0 0.377203
0.831495 0 0.359442
0.961334 0.00128176 0.328862
1 0 0.297063
0.000488289 0.0501869 0.415747
0.0037995 0.0341955 0.398383
0.233875 0.000579843 0.402853
0.400732 0.00167849 0.407034
0.547799 0.00395209 0.398108
0.694438 0.00189212 0.378058
0.837446 0.00227359 0.353109
0.962036 0.000427253 0.327993
0.997238 0 0.29247
0.004654 0.227085 0.414832
0.00366217 0.216922 0.411078
0.203128 0.200824 0.415869
0.402655 0.188434 0.399985
0.561395 0.172 0.380758
0.698085 0.128756 0.358282
0.831678 0.0522927 0.337407
0.964523 0.00201419 0.308293
1 0 0.279652
0.0024567 0.396933 0.398535
0.0105135 0.395636 0.408621
0.11931 0.389319 0.393072
0.373327 0.376562 0.375631
0.534768 0.362005 0.360723
0.684962 0.343221 0.34728
0.828901 0.317494 0.317281
0.958068 0.280201 0.294148
0.993622 0.229908 0.246387
0.004654 0.547555 0.351965
0.00015259 0.555825 0.340902
0.00404364 0.551476 0.323461
0.30515 0.540169 0.312901
0.5299 0.528923 0.30074
0.687739 0.506157 0.292775
0.819913 0.487861 0.30074
0.95285 0.460136 0.260533
0.999268 0.429404 0.203922
0.000915541 0.680262 0.261341
0.00173953 0.691798 0.252811
0.0024567 0.682841 0.247639
0.216052 0.676905 0.236286
0.471015 0.675212 0.217868
0.66392 0.660807 0.211063
0.816815 0.644709 0.184909
0.954513 0.622889 0.177447
0.989883 0.591974 0.126833
0.00294499 0.806622 0.115938
0.00425727 0.807782 0.107057
0.00799573 0.807263 0.0814069
0.030869 0.80647 0.0447242
0.398596 0.810483 0.0335851
0.612985 0.801068 0.0279088
0.787594 0.791669 0.0223392
0.937407 0.771496 0.000915541
0.999634 0.745342 0
0.00471504 0.925978 0.00128176
0.000747692 0.927657 0.00369268
0.000686656 0.934066 0.00354009
0.00244144 0.925826 0.00393683
0.304051 0.925551 0.00860609
0.553414 0.924788 0.00167849
0.737026 0.921889 0.000961318
0.903517 0.910887 0.00601205
0.999512 0.889036 0.00440986
0 1 0
0.00392157 1 0.000488289
0.00257877 0.997543 0.00183108
0.00164797 0.997604 0.00318914
0.0433814 0.997543 0
0.466361 0.996628 0.00581369
0.675608 0.998169 0.00392157
0.857176 1 0.00215152
1 0.997543 0.00735485
0.00392157 0 0.556863
0.0938735 0.000244144 0.558328
0.253925 0.00343328 0.564218
0.407111 0 0.555642
0.54902 0.000976577 0.551965
0.691173 0 0.543633
0.833829 0 0.521569
0.965194 0.000244144 0.501961
1 0 0.472541
0.000244144 0 0.567163
0.00282292 0.0034638 0.56492
0.214832 0.00306706 0.558953
0.386023 0.00428778 0.569726
0.547066 0.00282292 0.548898
0.697826 0.00321965 0.541451
0.835294 0.00170901 0.519738
0.967742 0.0015259 0.49482
0.993133 0.00686656 0.457847
0.00196841 0.196567 0.569116
0.0015259 0.188052 0.583093
0.144121 0.169116 0.567529
0.371939 0.137682 0.56759
0.555398 0.102693 0.557107
0.703059 0.0467536 0.531441
0.836393 0.00122072 0.506371
0.972122 0.000122072 0.481193
0.99559 0 0.456855
0.00270085 0.371328 0.566171
0.00857557 0.366949 0.569116
0.0062562 0.353491 0.554711
0.336767 0.330724 0.550942
0.535912 0.316182 0.545708
0.698253 0.308431 0.522606
0.838178 0.290929 0.498955
0.953948 0.261769 0.462501
0.998535 0.202701 0.442405
0 0.542153 0.541176
0.000976577 0.545098 0.533455
0.00318914 0.533822 0.550988
0.270222 0.524147 0.536156
0.509316 0.509804 0.511772
0.668132 0.497795 0.496574
0.814221 0.482597 0.482597
0.94902 0.456367 0.465568
0.997055 0.418631 0.411765
0.00146487 0.682841 0.478676
0.00273136 0.689097 0.48394
0.00704967 0.680583 0.477699
0.0806439 0.675486 0.459342
0.436393 0.668132 0.433082
0.654353 0.660914 0.432197
0.818448 0.638666 0.421942
0.95172 0.617182 0.432135
0.998032 0.584314 0.394369
0 0.807843 0.400488
0.000427253 0.810971 0.403616
0.000366217 0.807477 0.381613
0.000732433 0.809735 0.380941
0.35613 0.803922 0.364706
0.593744 0.804715 0.353491
0.788846 0.792035 0.343389
0.946624 0.765988 0.320104
0.995102 0.733822 0.290196
0.000488289 0.927459 0.29485
0.00650034 0.927794 0.2916
0.0053254 0.924941 0.286091
0.00514229 0.928985 0.266148
0.23505 0.926345 0.259922
0.528893 0.922881 0.228031
0.733883 0.918868 0.213169
0.903731 0.91342 0.19237
1 0.886763 0.0911727
0.00196841 1 0.00392157
0.000244144 1 0.00196841
0.00489815 0.998032 0.00196841
0.00146487 0.997299 0.000732433
0 0.999023 0
0.410056 0.998779 0.00514229
0.645594 0.999023 0.00294499
0.849271 1 0.000732433
0.99411 0.996078 0.00392157
0 0 0.703914
0.0428931 0.0024567 0.707652
0.238483 0.00270085 0.697185
0.394247 0 0.701167
0.535042 0 0.687495
0.684871 0 0.686641
0.827817 0.0024567 0.681254
0.971267 0 0.661219
1 0 0.633326
0 0.000183108 0.706127
0.0140536 0.000701915 0.70338
0.182437 0.000961318 0.71223
0.364126 0.00585946 0.708598
0.528435 0.000732433 0.701656
0.682063 0.00317388 0.691875
0.830427 0.00289921 0.673136
0.972625 0.000274662 0.659236
0.999695 0.00215152 0.636881
0.00294499 0.159319 0.710658
0.00343328 0.155306 0.709422
0.0736858 0.130449 0.706432
0.334585 0.0859236 0.696696
0.522911 0.0135958 0.692088
0.687678 0 0.689174
0.84271 0.000518807 0.680552
0.966323 0.000350958 0.654856
1 0 0.632837
0 0.333333 0.7019
0.00369268 0.327016 0.694606
0.00886549 0.314229 0.692454
0.28333 0.301915 0.69163
0.494179 0.277455 0.692805
0.682353 0.256229 0.689281
0.83624 0.240421 0.665629
0.965362 0.214832 0.637079
0.993072 0.154406 0.609369
0.000732433 0.50367 0.691417
0.00622568 0.504021 0.693599
0.00595102 0.494545 0.68983
0.201282 0.472526 0.691264
0.45919 0.464698 0.6766
0.670832 0.453834 0.672801
0.826658 0.457176 0.653559
0.948287 0.441306 0.635172
1 0.422797 0.606622
0 0.670954 0.668757
0.00030518 0.670085 0.670756
0.00248722 0.669566 0.668254
0.0242771 0.667033 0.661677
0.426139 0.658396 0.653468
0.640375 0.639735 0.648356
0.795209 0.636225 0.633051
0.933333 0.624002 0.616327
0.995712 0.595163 0.602762
0 0.812009 0.628428
0 0.814298 0.623545
0.00383001 0.817746 0.610056
0.00631724 0.804013 0.607279
0.337377 0.800427 0.596017
0.58677 0.795727 0.594598
0.784619 0.78909 0.578866
0.94081 0.761822 0.557687
0.998901 0.74081 0.574762
0 0.929717 0.541726
0.00112917 0.928283 0.546654
0.00527962 0.926467 0.537408
0.00062562 0.929213 0.533364
0.225086 0.921202 0.533333
0.516609 0.92372 0.512657
0.722988 0.91928 0.505791
0.902205 0.909346 0.490196
0.999023 0.880201 0.450004
0.0024567 1 0.434318
0.0024567 0.999817 0.427268
0.00367742 0.995224 0.440925
0.00662242 0.998535 0.426352
0 0.999268 0.407599
0.404288 0.998535 0.402274
0.644724 0.997177 0.37818
0.843931 0.996078 0.343572
0.990692 1 0.258824
0 0 0.819608
0 0 0.816907
0.214466 0.00440986 0.824262
0.374014 0.00428778 0.816663
0.509316 0.00146487 0.826963
0.661768 0 0.818143
0.807355 0.000732433 0.821073
0.953674 0 0.808209
1 0 0.783337
0 0.000854505 0.833341
0 0.00750744 0.83653
0.126345 0.00164797 0.82681
0.33904 0.000503548 0.82829
0.503609 0.00343328 0.823835
0.659266 0.00108339 0.813397
0.811276 0 0.812467
0.952575 9.15541e-05 0.811902
0.998169 0 0.799878
0.00294499 0.12108 0.827451
0.00392157 0.113756 0.825589
0.00170901 0.082536 0.822736
0.294606 0.0176852 0.822919
0.489952 0.000976577 0.827695
0.653132 0.000854505 0.82533
0.814832 0.000610361 0.821378
0.953429 0.000732433 0.807477
0.999756 0 0.792645
0.000366217 0.298528 0.826352
0.00198367 0.292332 0.822202
0.00550851 0.279225 0.822889
0.251392 0.263676 0.825864
0.460853 0.236637 0.82414
0.640406 0.213275 0.820203
0.812161 0.18732 0.815442
0.960006 0.133043 0.791012
0.996933 0.050248 0.765682
0.00196841 0.461769 0.818143
0.00189212 0.459983 0.818082
0.00195315 0.448768 0.823285
0.111391 0.439277 0.81796
0.420096 0.429908 0.818387
0.626352 0.41323 0.813794
0.807355 0.402457 0.812131
0.96611 0.387869 0.806378
0.999023 0.387259 0.766659
0.00331121 0.624384 0.810788
0.00531014 0.626825 0.81796
9.15541e-05 0.627085 0.806378
0.00123598 0.621592 0.801144
0.382162 0.608942 0.799146
0.610147 0.60351 0.803601
0.801221 0.601373 0.804593
0.944335 0.601572 0.784756
0.995956 0.592035 0.758206
0 0.798047 0.801968
0.00128176 0.795682 0.79678
0.00115969 0.798779 0.79498
0.0154421 0.791791 0.805386
0.328313 0.794369 0.798169
0.580575 0.789914 0.788968
0.77261 0.772061 0.774639
0.908644 0.768536 0.766567
0.998535 0.750484 0.756863
0 0.936522 0.751232
4.57771e-05 0.928862 0.754757
0.000213626 0.93315 0.744549
0.000274662 0.934768 0.73994
0.211704 0.927138 0.74461
0.529 0.91339 0.731777
0.72987 0.910353 0.726467
0.899702 0.904067 0.718212
1 0.879774 0.699626
0.00294499 0.997055 0.676463
0.0132296 0.993622 0.671321
0.00588998 0.99559 0.675731
0 1 0.675731
0.00343328 0.998032 0.664714
0.438605 0.998901 0.669123
0.656367 1 0.655879
0.843259 1 0.646937
0.999023 1 0.612741
0 0 0.934798
0 0.00386053 0.93959
0.193744 0 0.947311
0.351354 0.00343328 0.931685
0.490196 0.000244144 0.93872
0.633463 0.00030518 0.937682
0.78027 0 0.9364
0.92488 0.00306706 0.935607
1 0 0.913725
0 0 0.938231
0.0169375 0 0.941985
0.040116 0.0087892 0.933898
0.302678 0.000534066 0.940566
0.477577 0.00173953 0.938689
0.636454 0.00143435 0.942
0.778302 0.000106813 0.941192
0.927825 0 0.939849
0.999146 0 0.930022
0 0.0560006 0.941543
0 0.0425269 0.933577
0.000549325 0.00468452 0.925795
0.259907 0.00474556 0.943511
0.44387 0.00404364 0.933883
0.617014 0.00326543 0.938994
0.770932 0.000457771 0.942061
0.931685 0.000640879 0.940398
0.997055 0.00158694 0.920958
0.00030518 0.265202 0.929107
0.00616464 0.25835 0.931044
0.0135653 0.244999 0.943282
0.210437 0.223697 0.939788
0.429099 0.20174 0.941238
0.601968 0.162325 0.940093
0.772183 0.106569 0.941344
0.922881 0.0315251 0.926223
0.995407 0 0.926528
0.000244144 0.421317 0.928191
0.00215152 0.422797 0.932692
0.000427253 0.42034 0.933577
0.04448 0.412375 0.917891
0.389212 0.392889 0.925002
0.589242 0.380331 0.932204
0.758953 0.36231 0.935302
0.928618 0.34583 0.937316
0.992401 0.324514 0.928923
0 0.587259 0.927825
0.00112917 0.586954 0.927306
7.62951e-05 0.587976 0.924773
0.00140383 0.574929 0.925689
0.353735 0.577752 0.929107
0.5691 0.575082 0.919722
0.758602 0.563745 0.923339
0.925582 0.55346 0.930053
0.998718 0.54461 0.907225
0.00294499 0.747555 0.93051
0.00047303 0.748837 0.932555
0.00230411 0.74966 0.923461
0.00448615 0.752071 0.92636
0.285847 0.752819 0.927581
0.550042 0.750439 0.918135
0.740536 0.745007 0.914641
0.908751 0.741634 0.913176
1 0.73492 0.898772
6.10361e-05 0.91606 0.911391
0.000427253 0.915236 0.911818
0.00239567 0.916854 0.909712
0.00456245 0.910277 0.91313
0.199207 0.907622 0.918654
0.527871 0.903212 0.902632
0.732143 0.896513 0.900298
0.885924 0.901335 0.889769
0.999817 0.885237 0.885786
0 0.999512 0.86569
0.00349432 1 0.869612
0.000976577 0.999756 0.874266
0.00177005 0.999634 0.865995
0.0149538 0.995834 0.853437
0.459495 0.999695 0.867826
0.687495 0.997299 0.854536
0.857481 0.996933 0.851774
0.993133 0.999512 0.853925
0 0 0.996078
0 0 0.996078
0.0617685 0.00294499 0.999023
0.304417 0.00146487 1
0.454902 0 0.996078
0.606867 0 1
0.749996 0 0.998047
0.892653 0.00686656 0.999512
1 0.00392157 1
0.00343328 0 0.996078
0.00643931 0 0.999084
0.00183108 0.00331121 0.993622
0.256062 0.00495918 0.999084
0.437263 0.00367742 0.992401
0.599023 0.000488289 0.994919
0.74963 0 0.997177
0.893019 0 0.999939
0.999512 0.000488289 0.998535
0.00392157 0 0.996078
0.00221256 0.00257877 0.996933
0.00170901 0.00294499 0.996078
0.230518 0.00109865 0.998779
0.417655 0.00146487 0.992645
0.584802 0.00294499 0.996323
0.746563 0.000732433 0.997787
0.888853 0.00270085 0.994492
1 0 0.996078
0 0.238239 1
0.00428778 0.230518 0.996567
0.00428778 0.218143 0.998047
0.16495 0.199329 0.994186
0.398291 0.16495 0.997543
0.566293 0.110109 0.997238
0.727703 0.0178988 0.990448
0.88983 0 1
1 0 0.997543
0.00588998 0.388235 0.998032
0.00588998 0.388235 0.998032
0.000488289 0.385779 0.996567
0.00489815 0.383337 0.98407
0.35491 0.364706 0.995102
0.551476 0.353918 0.997787
0.727947 0.330388 1
0.880385 0.309804 1
0.998032 0.27451 0.998032
0.0024567 0.548531 0.997543
0.00030518 0.548531 0.997543
0.00550851 0.547555 0.997665
0 0.540566 1
0.335042 0.541176 0.995834
0.540444 0.540993 0.995773
0.714824 0.53579 0.99939
0.876036 0.525673 0.99675
0.998535 0.509804 0.994614
0 0.706859 0.999023
0 0.708583 0.997299
0.00221256 0.711513 0.991669
0.00820935 0.706127 0.999634
0.278431 0.714214 0.999023
0.527443 0.711635 0.999634
0.706859 0.714702 0.997787
0.874022 0.711269 0.996567
1 0.700984 1
0.00343328 0.861769 0.996567
0.00386053 0.861341 0.996567
0.000976577 0.868635 0.999146
0 0.862928 0.996139
0.180392 0.856123 0.999512
0.506859 0.866361 0.995529
0.716793 0.862379 0.997421
0.878553 0.868315 1
1 0.869123 1
0 1 1
0 1 0.999512
0.00294499 1 1
0.00146487 1 0.9897
0.00196841 1 0.99411
0.452445 0.997543 0.998535
0.68333 1 1
0.862257 1 0.999023
0.992157 1 0.992157
