YOYO-Client/Yoyo/Assets.xcassets/Santorini.dataset/Santorini.cube
TITLE "Generated by Resolve"
LUT_3D_SIZE 33
0 0 0.0117647
0 0 0.00784314
0.0262303 0 0.000244144
0.0762188 0 0.00355535
0.107851 0 0.000976577
0.144732 0 0
0.181369 0 0
0.205264 0.00613413 0
0.237247 0.00195315 0
0.276844 0.00109865 0.00282292
0.31397 0 0.010544
0.351476 0 0.00784314
0.377447 0.00392157 0.00146487
0.407721 0.00158694 0.00158694
0.450248 0 0
0.498772 0 0
0.537255 0 0
0.575738 0 0.00183108
0.614221 0 0
0.656611 0 0
0.693141 0 0.00489815
0.721813 0 0
0.762997 0.00270085 0.00122072
0.801587 0 0.00282292
0.832349 0.000976577 0.00294499
0.850492 0.00306706 0
0.88603 0 0
0.920714 0 0
0.958831 0 0.00686656
0.981857 0 0
0.996078 0 0
0.996078 0 0
0.996078 0 0
0 0.0115206 0.00784314
0 0.0112764 0.000122072
0.0339361 0.0149691 0.000122072
0.0804913 0.00415045 0.000228885
0.0906233 0.0144656 1.5259e-05
0.13666 0.00819409 0
0.1738 0.0037995 0
0.205173 0.00759899 0
0.234195 0.00477607 3.0518e-05
0.281224 0.0103609 0.000274662
0.315038 0.0125887 0.00392157
0.339864 0.00759899 0.00511177
0.371756 0.00677501 0.00161746
0.411521 0.00538643 0.00230411
0.446372 0.0037995 0
0.492775 0.00178531 0
0.533333 0.0037995 0.00189212
0.571939 0.00178531 0.00183108
0.610956 0 0
0.651225 0 0
0.691203 0 0.00387579
0.726879 7.62951e-05 0.00131228
0.765438 0 0.00384527
0.797635 0 0.00106813
0.823529 0.000976577 0
0.850568 0.00309758 0
0.882322 0.000106813 0.00451667
0.920821 0 0.0049897
0.951095 0.000488289 0.0133974
0.981857 0 0
0.999878 0.0037995 0.0037995
0.996078 0 0.00759899
0.996078 0 0.00784314
0 0.0382391 0.00735485
0.000244144 0.0382239 0.00367742
0.0340887 0.0347906 0
0.083238 0.0309758 0
0.101228 0.0473335 3.0518e-05
0.137285 0.0394293 0
0.168917 0.0373083 0
0.210163 0.0411078 0.00654612
0.237064 0.0436255 6.10361e-05
0.270405 0.0460822 0.00263981
0.304509 0.0473945 0.0100557
0.345342 0.0447395 0.00825513
0.377386 0.03299 0.00410468
0.411795 0.0362554 0.00392157
0.450248 0.0318608 0.00218204
0.491066 0.0242618 0
0.529412 0.0183871 0
0.564462 0.0128634 0.000122072
0.604898 0.00749218 0.00218204
0.64007 0.00218204 0.00015259
0.677668 0.00137331 0.00167849
0.716869 0.00265507 0.0012665
0.751644 0.00114443 0.00122072
0.786145 0.00263981 0.00103761
0.81973 0 0
0.852644 0.0028687 0
0.889662 0 0.00318914
0.920424 0 4.57771e-05
0.948409 3.0518e-05 0.00321965
0.981598 0.000244144 0
0.999771 0.00369268 0.00369268
0.996323 0.000244144 0.000244144
0.996078 0 0.000488289
0 0.0734112 0.000732433
0 0.0733959 3.0518e-05
0.0331121 0.0690013 0
0.079408 0.0691234 0.000671397
0.100343 0.0702068 0.000183108
0.138476 0.0729076 0.00300603
0.169909 0.0681468 0.00288396
0.201999 0.0737316 0.00155642
0.232197 0.0750896 0.00195315
0.274632 0.074403 0
0.31667 0.0769665 0
0.346807 0.0734112 0.00341802
0.366674 0.0733349 0.00543221
0.408118 0.0773022 0.00218204
0.450202 0.0760662 0.00216678
0.490959 0.0722972 0
0.531929 0.0666056 0.000366217
0.566247 0.0585336 0.00225834
0.603098 0.0526894 0.00216678
0.639338 0.0470283 0
0.676966 0.0387427 0.00132753
0.712993 0.0240177 0.00122072
0.75111 0.0155489 0
0.787457 0.00637827 0.000106813
0.815259 0.00364691 0.000549325
0.850492 0.00306706 0
0.882399 0.000961318 0.000442512
0.913542 0.00300603 0.000488289
0.947433 0.000488289 0.00108339
0.977646 0.00355535 0.00750744
0.996078 0 0.00666819
0.996078 0 0.000732433
0.996078 0 0.000732433
0.00343328 0.103914 0
0.010193 0.106874 0
0.0303349 0.103426 0
0.0731212 0.106538 0
0.0979782 0.107286 0.00300603
0.130343 0.107851 0.00578317
0.171023 0.110231 0.0096437
0.216403 0.10457 0.00456245
0.24976 0.106493 0.00477607
0.276326 0.108476 0.000137331
0.304173 0.114458 0
0.3402 0.114122 0
0.381247 0.11342 0.00428778
0.422522 0.112383 0.0056611
0.460288 0.109346 0.00535592
0.497993 0.11075 0.00343328
0.534066 0.106615 0.00538643
0.569741 0.105257 0.00209049
0.604654 0.101717 0
0.642771 0.100862 0
0.682963 0.0905013 0
0.727001 0.0816663 0.00274662
0.760632 0.0748455 0.00270085
0.79324 0.0690013 0
0.822065 0.0571145 0.000854505
0.86421 0.04065 0.00686656
0.89044 0.0300908 0
0.918166 0.0166171 0
0.948287 0.00943008 0.000854505
0.983429 0.00387579 0.00727855
0.996078 0 0
0.996078 0 0.000213626
0.996078 0 0.00686656
0.00453193 0.134798 0
0.00833143 0.139193 0
0.0349279 0.141421 0
0.0738384 0.13872 0
0.120226 0.127565 0.0033875
0.148363 0.132631 0.00827039
0.174151 0.13872 0.00404364
0.20856 0.138109 0.00120546
0.252628 0.136767 0.0125582
0.274998 0.138277 0.0009308
0.289769 0.147845 0
0.34612 0.148867 0
0.390906 0.142641 0.00207523
0.426719 0.14435 0.0059968
0.463874 0.142992 0.00392157
0.504204 0.144518 0.00518807
0.538598 0.142641 0.00495918
0.571817 0.13872 0
0.610361 0.13872 0
0.649882 0.137133 0
0.682948 0.135164 0
0.715908 0.132036 0.000427253
0.750423 0.129046 0
0.784543 0.125566 0
0.820279 0.119539 0.00015259
0.866819 0.101213 0.00381476
0.893034 0.0969406 0.000610361
0.922377 0.0852979 0
0.950057 0.0796674 7.62951e-05
0.982727 0.0664836 0.00442512
0.999786 0.0551156 0.00309758
0.993164 0.0467079 0
0.986145 0.039704 0
0 0.176715 0
0 0.176715 0
0.0166171 0.176562 0
0.058381 0.180346 0.00132753
0.11667 0.163485 0.00177005
0.144228 0.167758 0.0078584
0.175525 0.166415 0.00326543
0.206226 0.170184 0.000167849
0.234684 0.17145 0.00239567
0.271519 0.177249 0.00236515
0.301717 0.177447 0
0.344594 0.181155 0
0.380423 0.181094 0
0.414542 0.183261 0
0.458503 0.182773 0.00105287
0.497673 0.178134 0.000350958
0.537621 0.177081 0.000366217
0.577615 0.175418 0.00357061
0.616083 0.173205 0.00138857
0.652949 0.169314 0.00318914
0.690166 0.168139 0.00444038
0.725383 0.165911 0.000259403
0.755154 0.161257 0.000228885
0.792447 0.16083 0.000534066
0.82298 0.158328 0.000549325
0.857145 0.152331 0.00730907
0.887007 0.145205 0.00178531
0.915434 0.143496 0
0.943908 0.136645 0.000885023
0.980072 0.130266 0.00422675
0.996612 0.122545 0.00686656
0.987259 0.114946 0
0.987259 0.114214 0
0.00170901 0.197421 0.00698863
0.00170901 0.200488 0.00328069
0.0205386 0.20441 0.00325017
0.0548562 0.208042 0.00555428
0.0932479 0.202914 0.00161746
0.134707 0.203555 0.00491341
0.172793 0.20589 0.00334173
0.207294 0.204227 0.000671397
0.24213 0.210208 0.00753796
0.265934 0.212009 0.0105287
0.29485 0.213428 0.000961318
0.347127 0.213504 0.00402838
0.388388 0.212787 0.00689708
0.427085 0.209476 0.00248722
0.461158 0.210437 0.00172427
0.496483 0.20914 0.00613413
0.538109 0.209873 0.0015259
0.577813 0.213474 0.00143435
0.616053 0.21091 0.00257877
0.653773 0.20589 0.00341802
0.686702 0.205844 0.00529488
0.721813 0.202213 0.00553903
0.761013 0.20174 0.00662242
0.797436 0.198764 0.00723278
0.830304 0.192309 0.00851453
0.862257 0.186343 0.00134279
0.889784 0.184527 0.00114443
0.924025 0.18471 0.00613413
0.956939 0.179049 0.00546273
0.984634 0.169818 0.00199893
1 0.164279 0
0.999146 0.159564 0
0.999146 0.159564 0
0 0.247059 0.00195315
0.00285344 0.250004 0.00195315
0.0104829 0.248219 0.00189212
0.0433509 0.250706 0.00285344
0.108583 0.24535 0.00981155
0.137896 0.247059 0.00619516
0.167285 0.252934 0.00331121
0.214252 0.248463 0
0.245838 0.24535 0.00563058
0.287221 0.24831 0.00489815
0.313909 0.251164 0.000976577
0.352972 0.248066 0.00227359
0.398047 0.250248 0.00355535
0.431464 0.250401 0.00273136
0.470405 0.24828 0.00164797
0.506676 0.250462 0
0.542641 0.247059 0.00294499
0.576379 0.246082 0.00517281
0.614832 0.245533 0.00361639
0.650126 0.246448 0.00236515
0.684443 0.242649 0.00343328
0.714946 0.244083 0.00787366
0.757839 0.244114 0.00918593
0.788968 0.239368 0.00952163
0.819364 0.232593 0.00514229
0.850919 0.234775 0.00480659
0.885847 0.227024 0.0031281
0.920104 0.224567 0.00495918
0.951843 0.220096 0.00575265
0.976349 0.216297 0.00668345
0.999451 0.212497 0.00367742
0.99118 0.207843 0
0.988235 0.20589 0
0 0.283574 0
0 0.292363 0.00273136
0.0084535 0.292699 0
0.0319982 0.293263 0
0.0942092 0.29337 0.000350958
0.127626 0.294896 0.00109865
0.160494 0.294362 0.000213626
0.218006 0.289219 0.000854505
0.239185 0.288579 0
0.294057 0.285481 0.00282292
0.320958 0.28394 0.0019379
0.356359 0.282872 0.000717174
0.397467 0.281743 0.00123598
0.427985 0.283009 0.00180056
0.462974 0.281727 0.00440986
0.499046 0.281865 0
0.534737 0.283268 0.00392157
0.568475 0.285267 0.00561532
0.60734 0.281239 0.00109865
0.642695 0.282521 0.00109865
0.680934 0.281041 0.00178531
0.71841 0.280629 0.00454719
0.755032 0.279652 0.00303655
0.787808 0.275731 0.00233463
0.820279 0.271656 0.00376898
0.850492 0.271199 0.000610361
0.882475 0.267887 0
0.917769 0.260716 0.0009308
0.945769 0.257649 0.000961318
0.975738 0.255039 0.000259403
0.998901 0.246571 0.00282292
0.997833 0.24535 0.00273136
0.998901 0.238727 0.00282292
0.00392157 0.324514 0.00122072
9.15541e-05 0.327123 0.00122072
0.00230411 0.330953 0
0.0196231 0.331121 0.00244144
0.0717479 0.335851 0.00701915
0.116823 0.328847 0.00534066
0.156649 0.330129 0.00270085
0.210422 0.322621 0
0.244419 0.32285 0.00386053
0.283406 0.319585 0.00178531
0.33344 0.314595 0
0.362432 0.318975 0
0.389395 0.321508 0.000457771
0.426825 0.320455 0
0.462837 0.319356 0
0.500618 0.316014 0.0012665
0.532113 0.318746 0
0.565881 0.320012 0
0.604944 0.318715 0
0.643641 0.316167 0
0.679408 0.317891 0.00215152
0.715114 0.316243 0.00164797
0.749996 0.313588 0.000839246
0.782864 0.313115 0
0.815991 0.305943 0.000915541
0.850492 0.30367 0.00238041
0.883803 0.297566 0.00320439
0.915557 0.296635 0.000610361
0.944121 0.293141 0.00550851
0.977935 0.29044 0.00381476
0.998779 0.289296 0.00767529
0.997497 0.285496 0.00387579
0.998779 0.286763 0.00514229
0.00270085 0.355398 0.00392157
0 0.360464 0.00134279
0 0.368292 0.00257877
0.00611887 0.364828 0
0.0636759 0.360876 0.00117494
0.100572 0.361883 0.00601205
0.145571 0.366903 0.00244144
0.199725 0.366674 0
0.246693 0.356069 0.00202945
0.285801 0.3505 0.00109865
0.323537 0.353628 0
0.357198 0.356161 0
0.390158 0.354742 0
0.428809 0.354589 0
0.460929 0.355718 0
0.498909 0.353307 0
0.534005 0.353368 0
0.564691 0.354757 0.00120546
0.602716 0.353185 0
0.641917 0.352773 0.00105287
0.676936 0.355016 0
0.703899 0.353155 0
0.743923 0.351888 0
0.774136 0.34902 0
0.809842 0.345556 0
0.844297 0.343328 0
0.877195 0.339712 0
0.910628 0.334432 0
0.941543 0.335882 0.000167849
0.974502 0.3299 0.000122072
0.999832 0.326345 0.00134279
0.996002 0.322591 0
0.994858 0.320104 0.00134279
0 0.397543 0.0024567
0 0.405341 0.00633249
0 0.40441 0.0099031
0.00576791 0.402197 0.00503548
0.0159304 0.405509 0.000915541
0.0845502 0.402197 0.00271611
0.159564 0.402213 0.00267033
0.201862 0.399023 0
0.250126 0.397055 0.00662242
0.270542 0.401465 0.000686656
0.31899 0.394461 0.00505074
0.361181 0.388754 0.0103151
0.388785 0.386892 0.00735485
0.424002 0.386252 0.00354009
0.459709 0.386175 0.00146487
0.492287 0.386282 0.000686656
0.528435 0.385046 0.00146487
0.565728 0.38706 0
0.604807 0.387655 0
0.641321 0.387137 0
0.674998 0.389334 0.0015259
0.707057 0.384802 0
0.743603 0.383795 0
0.783658 0.381292 0.000411994
0.813474 0.380026 0
0.847425 0.376257 0.00146487
0.885023 0.371115 0.00294499
0.913252 0.368505 0.00169375
0.94461 0.364767 0
0.97612 0.363851 0.00268559
0.998444 0.361517 0
0.997009 0.357794 0
0.997055 0.353429 0
0 0.43125 0
0.00225834 0.442847 0.00772107
0 0.444755 0.00407416
0.00210575 0.440162 0.00247196
0.00077821 0.445167 0.000579843
0.0615091 0.441779 0
0.13994 0.439399 0.00332647
0.182315 0.435172 0.00216678
0.238636 0.432227 0.00297551
0.261677 0.435706 0.000900282
0.309285 0.428061 0.00430304
0.357168 0.427817 0.0117037
0.38378 0.427726 0.00480659
0.419699 0.424048 0.00361639
0.454856 0.422385 0.00233463
0.49044 0.422919 0.00209049
0.530571 0.418692 0.00355535
0.566537 0.417899 0.00198367
0.607279 0.418585 0.00228885
0.641871 0.420432 0.00347906
0.677348 0.419211 0.000869764
0.710781 0.415808 0.00134279
0.751598 0.414328 0.00341802
0.783581 0.412131 0.00109865
0.815717 0.409903 0
0.844755 0.411292 0
0.879042 0.407858 0
0.91606 0.407111 0.000244144
0.944381 0.401266 0.000198367
0.975769 0.397406 0.00334173
1 0.394369 0.00691234
1 0.392691 0.00703441
1 0.390448 0.00477607
0.00613413 0.462013 0.00170901
0.00172427 0.471382 0.00723278
0.0016022 0.479301 0.00773632
0.00170901 0.475975 0.00613413
0.000915541 0.474845 0.000549325
0.0298466 0.477348 0
0.108248 0.471 0.000320439
0.174166 0.47071 0.00170901
0.226963 0.468315 0.000549325
0.258961 0.468132 0.00378424
0.295338 0.470054 0.00476081
0.341985 0.466346 0.00820935
0.384588 0.460624 0.0113375
0.420508 0.457481 0.00755322
0.457603 0.451957 0.00370794
0.493904 0.451957 0.00888075
0.527459 0.451102 0.00563058
0.56109 0.450248 0.00563058
0.597772 0.450996 0.00296025
0.636439 0.451072 0.0062562
0.671809 0.451011 0.00680552
0.707622 0.449485 0.00537118
0.742885 0.447547 0.00784314
0.779782 0.446937 0.00282292
0.813657 0.44596 0.00422675
0.847425 0.441917 0.00268559
0.877455 0.439872 0.00178531
0.91252 0.434821 0.000350958
0.94342 0.434287 0
0.972961 0.429984 0
0.996109 0.427832 0
0.994369 0.42623 0
0.998291 0.427939 0
0.00601205 0.498527 0.00183108
6.10361e-05 0.508095 0.00361639
0 0.515831 0.00367742
0 0.514168 0.00367742
0 0.513954 0.000457771
0.0132296 0.508827 0
0.0773327 0.507515 0
0.157122 0.499382 0.000457771
0.216724 0.502632 0.00149538
0.252796 0.504021 0.00263981
0.293751 0.505791 0.00511177
0.334615 0.499413 0.0030518
0.37528 0.496101 0.00367742
0.418494 0.495354 0.00526436
0.451713 0.493019 0.00300603
0.490684 0.490562 0.00280766
0.529534 0.486763 0.00392157
0.559304 0.486763 0.00770581
0.599023 0.489647 0.00901808
0.636606 0.486763 0.00674449
0.66981 0.486595 0.00758373
0.706142 0.484047 0.00383001
0.743999 0.4795 0.00183108
0.774411 0.480247 0.00234989
0.806561 0.476371 0.00137331
0.842649 0.476173 0.00595102
0.87541 0.471473 0.00262455
0.908873 0.470787 0.00204471
0.937606 0.466926 0.00209049
0.970092 0.465324 0.000198367
1 0.463233 0.00601205
0.998093 0.459495 0.00422675
0.996078 0.457481 0.0062562
0.00588998 0.535286 0
6.10361e-05 0.540993 0.00189212
0 0.543145 0.00196841
0 0.53959 0.000183108
0.00170901 0.539208 0.00514229
0.00030518 0.540871 0.00030518
0.0297856 0.543145 0
0.121752 0.539651 0
0.191669 0.537255 0.00294499
0.243259 0.541176 0.00337224
0.294606 0.537865 0
0.329168 0.536583 0
0.371328 0.53579 0
0.410849 0.53254 0.00196841
0.447181 0.534188 0.00282292
0.484001 0.530327 0.00209049
0.520592 0.527443 0.00392157
0.558206 0.525612 0.00495918
0.592035 0.524392 0.00109865
0.631495 0.521935 0
0.665934 0.522057 0.00122072
0.706737 0.517647 0.00196841
0.742763 0.514458 0.00122072
0.776959 0.513176 0.00140383
0.806867 0.511269 0.00146487
0.837186 0.51133 0.00349432
0.873167 0.508217 0.00428778
0.906676 0.507836 0.00422675
0.939467 0.505394 0.00514229
0.97438 0.503548 0.00215152
0.998032 0.499748 0.00183108
0.998108 0.49601 0.00392157
1 0.494118 0.00392157
0.00575265 0.566293 0
0.00392157 0.57377 0
0.000122072 0.579782 0.000137331
0 0.57821 0
0.00547799 0.575982 0.0102998
0 0.576593 0.0012665
0.0116426 0.577478 0
0.0970932 0.574762 0.00756847
0.159869 0.571145 0.00340276
0.236759 0.574655 0.00267033
0.283955 0.567483 0
0.31603 0.570932 0
0.36379 0.570123 0
0.401968 0.567788 0
0.439521 0.567086 0
0.479057 0.566186 0
0.520653 0.565133 0
0.558328 0.562264 0
0.593118 0.560296 0
0.630655 0.560678 0
0.662943 0.558999 0
0.698772 0.556863 0.000717174
0.734966 0.555154 0.00350958
0.77258 0.553185 0.000579843
0.807843 0.549905 0.000976577
0.841672 0.547677 0.00698863
0.87953 0.540688 0.000732433
0.90927 0.538521 0
0.94313 0.533074 0.00183108
0.974014 0.534676 0.000167849
0.995956 0.530892 0
0.995834 0.530709 0
0.995834 0.527077 0
0 0.598535 0
0 0.61059 0
0 0.61677 0.000137331
0 0.615351 0
0.00578317 0.613855 0.00343328
0.00323491 0.607889 0.000350958
0.00375372 0.608255 0.000320439
0.0531167 0.604654 0.00172427
0.144854 0.601831 0.00306706
0.214588 0.603555 0.00158694
0.271763 0.598535 0.000534066
0.312352 0.602502 0
0.35024 0.606806 0
0.388724 0.605264 0
0.43064 0.602457 0.000961318
0.470405 0.602945 0.000808728
0.509804 0.59791 0.00109865
0.550622 0.593805 0.000915541
0.59118 0.592889 0
0.626261 0.593179 0
0.661707 0.590539 0.000640879
0.695003 0.588708 0.000595102
0.731624 0.58677 0.00170901
0.770565 0.58381 0
0.799695 0.582361 0
0.835294 0.581613 0
0.873213 0.577203 0.00221256
0.901442 0.576593 0.000350958
0.936126 0.573281 0.000213626
0.970748 0.571405 0.0037995
0.998291 0.563867 0.00378424
0.99823 0.565744 0.00166323
1 0.558083 0
0.0071107 0.633829 0
0.00698863 0.637629 0.00154116
0.00376898 0.643854 0.00158694
0.00392157 0.643992 0.00158694
0.00392157 0.643992 0.00706493
0.00268559 0.638102 0.00231937
0.00233463 0.637751 0.00158694
0.017258 0.638086 0.000350958
0.107134 0.64152 0.000793469
0.183291 0.634928 0.00114443
0.259419 0.630991 0.00697337
0.306249 0.634302 0.00213626
0.341238 0.637903 0.00358587
0.386313 0.633829 0.00427253
0.423819 0.634714 0.00178531
0.463096 0.635691 0.00233463
0.50631 0.631067 0.00196841
0.544854 0.62797 0
0.582757 0.625986 0.00131228
0.61973 0.625986 0
0.658534 0.622187 0
0.693019 0.618387 0.0015259
0.727932 0.615808 0
0.76585 0.615152 0
0.79939 0.613657 0.000579843
0.834638 0.613703 0.00175479
0.869169 0.609552 0.000595102
0.903792 0.609934 0.00170901
0.935088 0.607767 0.00138857
0.962615 0.606073 0
0.99086 0.602457 0.000106813
0.996078 0.600855 0
0.997665 0.599268 0
0.00784314 0.663722 0
0.0049897 0.667002 0.00242618
0.00146487 0.671077 0.00392157
0.00146487 0.671077 0.00146487
0.000183108 0.670222 0.0109102
0.00662242 0.670253 0.00932326
0.00492866 0.67454 0.00340276
0.00682078 0.670634 0
0.0562448 0.678676 0.00331121
0.163653 0.668452 0.0099794
0.234806 0.670588 0.00814832
0.28426 0.672404 0
0.338231 0.670283 0
0.376699 0.667765 0.00321965
0.426383 0.667247 0.00294499
0.474754 0.661189 0.00294499
0.510292 0.659312 0.00588998
0.541451 0.663554 0.00758373
0.582345 0.660777 0.00613413
0.620218 0.658213 0.0043183
0.656184 0.655329 0.00337224
0.689097 0.654078 0.00198367
0.724788 0.652262 0.00192264
0.760983 0.653727 0.002533
0.795712 0.64889 0.00221256
0.833387 0.649317 0
0.867185 0.6439 0
0.90074 0.643015 0
0.932113 0.6383 0.000366217
0.964843 0.638361 0.00427253
0.996323 0.633173 0.00440986
0.999924 0.630808 0.00440986
1 0.623041 0.00538643
0.0104219 0.698283 0
0.00531014 0.698283 0
0.00257877 0.704692 0.00134279
0.00257877 0.704906 0.00148013
0.000320439 0.704784 0.00703441
0.00370794 0.704784 0.00485237
0.00343328 0.704433 0.0016022
0.00411994 0.706004 0.000289921
0.0216068 0.710262 0
0.130327 0.704662 0.0100557
0.203998 0.702754 0.00392157
0.268254 0.706889 0
0.334035 0.702129 0.00418097
0.374441 0.701289 0.0031281
0.41828 0.69807 0.00134279
0.464851 0.695583 0
0.505211 0.697551 0.00526436
0.537163 0.700877 0.00529488
0.578653 0.697307 0
0.618936 0.694545 0.00109865
0.655375 0.692515 0.000839246
0.691661 0.691249 0.00303655
0.731624 0.689097 0.0009308
0.767178 0.685176 0.00320439
0.798032 0.68481 0.00428778
0.82446 0.684871 0.000289921
0.860929 0.683818 0.00134279
0.898955 0.683619 0.000213626
0.929107 0.678935 0
0.964462 0.670832 0.00233463
0.996124 0.67332 0.0049897
0.998688 0.672023 0.00257877
1 0.665568 0
0.00392157 0.731624 0
0.00392157 0.736843 0
0.000244144 0.740688 0
0.00122072 0.739712 0
0.00444038 0.733913 0.00236515
0.00454719 0.733089 0.00619516
0.0010071 0.733318 0.00442512
0 0.733089 0.00392157
0.00270085 0.731868 0.00195315
0.0819867 0.735912 0.00282292
0.183932 0.733471 0.0034638
0.258656 0.73225 0
0.308492 0.729839 0
0.359075 0.731991 0
0.411475 0.728725 0
0.455604 0.727901 0
0.492897 0.730388 0
0.532799 0.731823 0
0.572061 0.728191 0
0.611154 0.725368 0
0.648707 0.726467 0
0.682475 0.722423 0.00349432
0.721325 0.720485 0.00270085
0.756817 0.717754 0
0.792157 0.71606 0.000915541
0.824216 0.712016 0
0.860777 0.711009 0.0021973
0.898451 0.711589 0.000610361
0.929473 0.708522 0.00270085
0.956481 0.702937 0.00550851
0.992477 0.699016 0.009308
0.997391 0.69894 0.00408942
1 0.693629 0.00662242
0 0.765194 0.00282292
0 0.765194 0.00282292
0 0.766293 0.00282292
0 0.765194 0.00282292
0 0.763699 0.000350958
0 0.766293 0.00282292
0 0.762371 0.00109865
0 0.760418 0.000244144
0.00349432 0.76492 0.00140383
0.0477455 0.765194 0.00483711
0.147082 0.765728 0.00480659
0.236027 0.763348 0
0.297734 0.759258 0
0.355352 0.757839 0
0.399741 0.756741 0
0.437034 0.761273 0
0.482658 0.763241 0
0.525734 0.760464 0.00149538
0.564828 0.758938 0
0.604532 0.757305 0
0.64155 0.756283 0
0.675639 0.757351 0.00296025
0.713603 0.757351 0.000762951
0.750607 0.753429 0.00109865
0.786587 0.751751 0
0.819486 0.746456 0.000854505
0.857481 0.745266 0.00228885
0.894972 0.744976 0
0.928389 0.741314 0.000961318
0.953429 0.737743 0.00062562
0.989822 0.733822 0.00282292
1 0.729778 0.00282292
1 0.725978 0.00282292
0 0.797055 0
0 0.796078 0.000976577
0 0.8 0.000976577
0 0.800885 9.15541e-05
0.00808728 0.798901 0
0.00137331 0.794736 0
0 0.798901 0
0 0.800977 0
0.0102998 0.792157 0.000732433
0.0117647 0.8 0
0.11133 0.79411 0.00337224
0.219944 0.793103 0.00495918
0.271077 0.8 0.00221256
0.322179 0.799817 0
0.371145 0.798047 0
0.419944 0.797757 0.00155642
0.46569 0.799023 0.00440986
0.514549 0.795102 0.00155642
0.558328 0.792828 0.00164797
0.597025 0.788205 0
0.637751 0.788724 0
0.668544 0.792462 0.00202945
0.708766 0.791119 0.00325017
0.744183 0.789212 0
0.779416 0.78407 0.00367742
0.817685 0.779202 0.00881971
0.857847 0.776471 0.0112154
0.893019 0.773526 0.00587472
0.920836 0.773892 0.00772107
0.952117 0.774411 0
0.983154 0.766659 0
0.996201 0.765591 0
1 0.758831 0
0 0.83566 0.000854505
0 0.834836 3.0518e-05
0 0.834806 0
0 0.834806 0
0 0.840543 0.000381476
0 0.835035 0
0.000167849 0.836271 0
0 0.834623 0
0.00358587 0.831647 0.00192264
0 0.830884 0
0.0902724 0.832059 0.010193
0.194553 0.827253 0.00529488
0.248005 0.829068 0.0024567
0.309209 0.833555 0.0065919
0.3635 0.82916 0.00343328
0.418875 0.828595 0.00163272
0.461891 0.82739 0.00128176
0.498741 0.830488 0.00367742
0.545464 0.83003 0.00698863
0.587381 0.825711 0.00392157
0.626184 0.827893 0.00714122
0.663844 0.829541 0.00115969
0.707942 0.826108 0.000595102
0.741909 0.818875 0.000244144
0.777569 0.817029 0.00282292
0.812802 0.815869 0.00679026
0.850034 0.814618 0.00555428
0.881636 0.808942 0.00564584
0.916075 0.805798 0.00546273
0.949996 0.810056 0.00163272
0.983993 0.806439 0.0016022
0.998306 0.802457 0
1 0.797787 0
0 0.863478 0.000732433
0 0.860288 0.00392157
0.000686656 0.858732 0.000198367
0.000732433 0.858579 0
0.000183108 0.868727 0.000488289
0.00135805 0.858457 0
0.000274662 0.858442 0
0 0.862501 0
0.000366217 0.860471 0.00881971
0 0.859266 0.00109865
0.0480201 0.863951 0
0.179065 0.85919 0.00672923
0.253346 0.859831 0.00808728
0.304036 0.861769 0.00581369
0.365515 0.857847 0.00392157
0.412497 0.856352 0.000686656
0.450614 0.861402 0
0.488533 0.861769 0.000350958
0.531548 0.859648 0.000411994
0.577752 0.860471 0.00030518
0.614008 0.859098 0.000915541
0.651713 0.857237 0.00575265
0.695857 0.855421 0.00369268
0.734188 0.852811 0.00228885
0.766659 0.853193 0.00495918
0.801068 0.852323 0.00131228
0.844739 0.848661 0.000732433
0.879026 0.84596 0
0.907912 0.845029 0
0.948791 0.834745 0
0.983337 0.832013 0
0.995483 0.831739 0
1 0.827207 0
0 0.889342 0
0 0.892546 0
0 0.892653 0.00662242
0.00300603 0.893263 0.00961318
0.000411994 0.886397 0.00123598
0.0114748 0.88542 0
0.00134279 0.891798 0
0.00109865 0.891691 0
0.00523384 0.890654 0.0124056
