YOYO-Client/Yoyo/Assets.xcassets/Santorini.dataset/Santorini.cube
TITLE "Generated by Resolve"
LUT_3D_SIZE 5
0 0 0.0117647
0.237247 0.00195315 0
0.537255 0 0
0.832349 0.000976577 0.00294499
0.996078 0 0
0 0.247059 0.00195315
0.245838 0.24535 0.00563058
0.542641 0.247059 0.00294499
0.819364 0.232593 0.00514229
0.988235 0.20589 0
0.00588998 0.535286 0
0.191669 0.537255 0.00294499
0.520592 0.527443 0.00392157
0.806867 0.511269 0.00146487
1 0.494118 0.00392157
0 0.797055 0
0.0102998 0.792157 0.000732433
0.46569 0.799023 0.00440986
0.779416 0.78407 0.00367742
1 0.758831 0
0 0.996078 0
0.0117647 0.996078 0.000976577
0.350988 1 0
0.726467 1 0
0.996078 1 0.00392157
0.0127413 0 0.244114
0.248768 0.00221256 0.252689
0.54902 0.000488289 0.237751
0.830396 0.000244144 0.17966
0.995102 0 0.0784314
0.00514229 0.254658 0.265446
0.243137 0.243198 0.245472
0.546197 0.207721 0.205753
0.831128 0.124269 0.144244
0.996078 0.000732433 0.00662242
0.00343328 0.548531 0.0784314
0.0213169 0.55465 0.0375067
0.525979 0.532601 0.0436255
0.822797 0.495827 0.000488289
0.997543 0.446571 0.00833143
0 0.808576 0.00343328
0.00109865 0.80705 0.00918593
0.448035 0.79939 0.000366217
0.785595 0.788724 0.00440986
1 0.750973 0.00440986
0 0.999023 0.00294499
0.00146487 0.998291 0
0.255879 0.997055 0.00146487
0.707851 0.997055 0.00294499
0.996078 0.997055 0.00294499
0.00392157 0 0.556863
0.253925 0.00343328 0.564218
0.54902 0.000976577 0.551965
0.833829 0 0.521569
1 0 0.472541
0.00196841 0.196567 0.569116
0.144121 0.169116 0.567529
0.555398 0.102693 0.557107
0.836393 0.00122072 0.506371
0.99559 0 0.456855
0 0.542153 0.541176
0.00318914 0.533822 0.550988
0.509316 0.509804 0.511772
0.814221 0.482597 0.482597
0.997055 0.418631 0.411765
0 0.807843 0.400488
0.000366217 0.807477 0.381613
0.35613 0.803922 0.364706
0.788846 0.792035 0.343389
0.995102 0.733822 0.290196
0.00196841 1 0.00392157
0.00489815 0.998032 0.00196841
0 0.999023 0
0.645594 0.999023 0.00294499
0.99411 0.996078 0.00392157
0 0 0.819608
0.214466 0.00440986 0.824262
0.509316 0.00146487 0.826963
0.807355 0.000732433 0.821073
1 0 0.783337
0.00294499 0.12108 0.827451
0.00170901 0.082536 0.822736
0.489952 0.000976577 0.827695
0.814832 0.000610361 0.821378
0.999756 0 0.792645
0.00196841 0.461769 0.818143
0.00195315 0.448768 0.823285
0.420096 0.429908 0.818387
0.807355 0.402457 0.812131
0.999023 0.387259 0.766659
0 0.798047 0.801968
0.00115969 0.798779 0.79498
0.328313 0.794369 0.798169
0.77261 0.772061 0.774639
0.998535 0.750484 0.756863
0.00294499 0.997055 0.676463
0.00588998 0.99559 0.675731
0.00343328 0.998032 0.664714
0.656367 1 0.655879
0.999023 1 0.612741
0 0 0.996078
0.0617685 0.00294499 0.999023
0.454902 0 0.996078
0.749996 0 0.998047
1 0.00392157 1
0.00392157 0 0.996078
0.00170901 0.00294499 0.996078
0.417655 0.00146487 0.992645
0.746563 0.000732433 0.997787
1 0 0.996078
0.00588998 0.388235 0.998032
0.000488289 0.385779 0.996567
0.35491 0.364706 0.995102
0.727947 0.330388 1
0.998032 0.27451 0.998032
0 0.706859 0.999023
0.00221256 0.711513 0.991669
0.278431 0.714214 0.999023
0.706859 0.714702 0.997787
1 0.700984 1
0 1 1
0.00294499 1 1
0.00196841 1 0.99411
0.68333 1 1
0.992157 1 0.992157
