YOYO-Client/Yoyo/Assets.xcassets/Wuzhen.dataset/Fuji-Provia-400X.cube
TITLE "Generated by Resolve"
LUT_3D_SIZE 5
0.0745098 0.0470588 0.109804
0.127459 0.054902 0.105882
0.437247 0 0.0882429
0.824506 0 0.0294194
1 0.0431373 0
0.0392157 0.132357 0.113725
0.159808 0.165927 0.102205
0.502449 0.206867 0.0627451
0.843137 0.204166 0
1 0.31078 0
0 0.435294 0.0980392
0 0.437263 0.0867628
0.554894 0.550988 0
0.88333 0.582849 0
1 0.609796 0
0 0.723522 0.112749
0 0.723522 0.101961
0.344121 0.736278 0.000488289
0.840192 0.823529 0
1 0.835294 0
0.341176 0.956863 0.443137
0.413718 0.956863 0.439216
0.566659 0.952941 0.427451
0.780392 0.961761 0.396078
1 0.984314 0.329412
0.0892195 0.0323491 0.204898
0.160784 0.0323491 0.200977
0.491661 0 0.226474
0.840192 0 0.194369
1 0 0.159808
0 0.169604 0.233082
0.163912 0.178058 0.23769
0.531868 0.147677 0.218631
0.857847 0.094789 0.190188
1 0.242405 0.1402
0 0.490684 0.249012
0 0.483696 0.250126
0.571817 0.558572 0.197299
0.879408 0.576471 0.168017
1 0.596078 0.0990158
0 0.745342 0.278187
0 0.742702 0.276463
0.381857 0.740566 0.244846
0.839948 0.823529 0.209613
1 0.836271 0.185534
0.375494 0.960784 0.511757
0.440436 0.960784 0.511757
0.578439 0.956863 0.500008
0.776471 0.961761 0.4804
0.993133 0.984314 0.448035
0.196078 0 0.537255
0.335286 0 0.55491
0.613733 0 0.535302
0.905882 0 0.569604
1 0.0745098 0.558816
0 0.100008 0.567651
0.215564 0.0760967 0.575738
0.631373 0.104173 0.556619
0.896696 0.261891 0.585657
1 0.26421 0.536767
0 0.551965 0.569604
0 0.560784 0.57818
0.606867 0.575982 0.594614
0.857114 0.556619 0.552941
1 0.560784 0.501961
0 0.798032 0.555886
0.232837 0.793011 0.560784
0.515679 0.770581 0.556619
0.830518 0.827817 0.581003
0.998535 0.839216 0.572549
0.429419 0.968627 0.660792
0.487251 0.966659 0.664714
0.607843 0.960784 0.660792
0.767651 0.960784 0.652949
0.980392 0.984314 0.666667
0.495094 0 0.831373
0.572549 0 0.83505
0.778439 0 0.843137
0.948043 0 0.823529
1 0.31078 0.830396
0.189212 0 0.842161
0.430396 0 0.844785
0.763119 0 0.848157
0.935485 0.166415 0.826474
1 0.472541 0.837003
0 0.435294 0.838727
0.00221256 0.433707 0.840314
0.653193 0.446326 0.846815
0.885298 0.580026 0.832715
0.990188 0.703426 0.854902
0 0.819852 0.825238
0.0148928 0.822553 0.830396
0.561273 0.822797 0.837125
0.825925 0.839826 0.853071
0.968627 0.818875 0.81593
0.382361 0.98529 0.830396
0.475242 0.984314 0.836515
0.641184 0.977447 0.842161
0.779416 0.968627 0.842161
0.967651 0.984314 0.861769
0.780392 0 1
0.830396 0 1
0.921569 0 1
1 0 1
1 0.341176 0.992157
0.68333 0 1
0.734554 0 1
0.888243 0 1
1 0 1
1 0.454902 0.988235
0.368627 0.227451 1
0.523537 0.193133 1
0.792157 0.171572 1
0.983337 0.431373 1
1 0.658824 0.982361
0 0.752941 1
0 0.74902 0.997055
0.538231 0.737255 0.996078
0.852934 0.751965 0.996078
0.996078 0.847059 0.980392
0.282353 0.996078 0.988235
0.393133 0.992157 0.988235
0.592157 0.990188 0.988235
0.787259 0.988235 0.988235
0.976471 0.988235 0.988235
