YOYO-Client/Yoyo/Assets.xcassets/Wuzhen.dataset/Fuji-Provia-400X.cube
TITLE "Generated by Resolve"
LUT_3D_SIZE 33
0.0745098 0.0470588 0.109804
0.0784314 0.0470588 0.109804
0.0784314 0.0470588 0.109804
0.0819867 0.0470588 0.109804
0.0857862 0.0509804 0.109804
0.0935073 0.0509804 0.109804
0.101228 0.0509804 0.109804
0.112016 0.0509804 0.109804
0.127459 0.054902 0.105882
0.14963 0.054902 0.105882
0.172793 0.054902 0.105882
0.202457 0.054902 0.101961
0.239704 0.054902 0.101961
0.280644 0.0486458 0.0980392
0.329168 0.0348058 0.0958267
0.381125 0.0172732 0.0920272
0.437247 0 0.0882429
0.491295 0 0.0844434
0.549264 0 0.0784314
0.601709 0 0.0729229
0.651957 0 0.0652018
0.698283 0 0.0614023
0.743389 0 0.0497597
0.785901 0 0.0409247
0.824506 0 0.0294194
0.863111 0 0.0139773
0.900984 0 0
0.931868 0 0
0.962737 0 0
0.992889 0 0
1 0 0
1 0 0
1 0.0431373 0
0.0745098 0.0509804 0.109804
0.0783093 0.0509804 0.109804
0.0784314 0.0509804 0.109804
0.0819867 0.0509804 0.109804
0.0857862 0.0509804 0.109804
0.0901961 0.0541848 0.109804
0.101228 0.0548714 0.109804
0.112016 0.0578775 0.109804
0.127459 0.0587015 0.105882
0.14963 0.0588235 0.105882
0.175402 0.062623 0.105882
0.20502 0.062623 0.101961
0.239704 0.0601663 0.101961
0.284489 0.0563668 0.0980392
0.330877 0.0464485 0.0941176
0.383215 0.0287938 0.0920272
0.437247 0.00575265 0.0882429
0.49308 0 0.0844434
0.549264 0 0.0784314
0.603311 0 0.0729229
0.651957 0 0.0652018
0.700862 0 0.0574807
0.74461 0 0.0497597
0.785901 0 0.0382086
0.825452 0 0.0254978
0.863111 0 0.0101778
0.900984 0 0
0.931868 0 0
0.962737 0 0
0.989456 0 0
1 0 0
1 0.000717174 0
1 0.0741436 0
0.0745098 0.0509804 0.109804
0.0783093 0.0509804 0.109804
0.0784314 0.0544289 0.109804
0.0823529 0.0546578 0.109804
0.0857862 0.054902 0.109804
0.0932937 0.0579995 0.109804
0.101228 0.0587778 0.109804
0.112016 0.0616922 0.109804
0.130205 0.0626841 0.106798
0.14963 0.0664225 0.105882
0.175494 0.0665904 0.105882
0.206378 0.0703441 0.101961
0.243534 0.0678874 0.101961
0.286046 0.0640879 0.0980392
0.334691 0.0579843 0.0941176
0.386892 0.0442359 0.0920272
0.440925 0.0191196 0.0882429
0.495216 0 0.0823529
0.549264 0 0.0767224
0.603311 0 0.0729229
0.655726 0 0.0652018
0.702205 0 0.0574807
0.74461 0 0.0486
0.785901 0 0.0370031
0.828428 0 0.0218204
0.86598 0 0.00637827
0.900984 0 0
0.931868 0 0
0.962737 0 0
0.989334 0 0
1 0 0
1 0.0162814 0
1 0.101228 0
0.0745098 0.054902 0.109804
0.0783093 0.054902 0.109804
0.0784314 0.054902 0.109804
0.0820172 0.0584573 0.109804
0.0862745 0.0587778 0.109804
0.0935073 0.0623789 0.109804
0.101228 0.065568 0.109804
0.115648 0.0663005 0.109804
0.131273 0.070222 0.106859
0.153185 0.0741436 0.105882
0.179156 0.076585 0.105882
0.210163 0.0780652 0.101961
0.24741 0.0780652 0.099733
0.292027 0.0776989 0.0980392
0.338567 0.0715648 0.0941176
0.390692 0.0617685 0.0901961
0.444724 0.0439918 0.0862745
0.498939 0.0187991 0.0806897
0.553185 0 0.0767224
0.60708 0 0.0690013
0.655879 0 0.0616465
0.702205 0 0.0539254
0.747051 0 0.0447242
0.789563 0 0.0331884
0.828428 0 0.0180209
0.866178 0 0.00335698
0.900984 0 0
0.931868 0 0
0.962737 0 0
0.989334 0 0
1 0.00222782 0
1 0.0729381 0
1 0.131868 0
0.0745098 0.0622568 0.113237
0.0745098 0.0622568 0.109804
0.0784314 0.0622568 0.109804
0.0819867 0.0622568 0.109804
0.0897078 0.0661784 0.109804
0.0969406 0.0700236 0.109804
0.107851 0.0728923 0.109804
0.119356 0.0767071 0.109804
0.137377 0.0813764 0.106859
0.156985 0.0852979 0.105882
0.186282 0.0892195 0.105882
0.21973 0.0931411 0.101961
0.258335 0.0931411 0.0995041
0.302693 0.0931411 0.0959945
0.349294 0.0907149 0.0941176
0.401343 0.082948 0.0883803
0.45539 0.0725414 0.0845655
0.509438 0.0547799 0.0805219
0.563485 0.0257115 0.0730144
0.616129 0 0.065568
0.662745 0 0.057847
0.709072 0 0.0501259
0.751812 0 0.0384833
0.793256 0 0.0258793
0.831861 0 0.0116426
0.869612 0 0.000381476
0.904418 0 0
0.935286 0 0
0.965682 0 0
0.992447 0.0265965 0
1 0.0775464 0
1 0.125139 0
1 0.168139 0
0.0711986 0.0699779 0.113725
0.0745098 0.0699779 0.113725
0.0750896 0.0699779 0.113146
0.0789807 0.0729686 0.110109
0.0857862 0.0738994 0.109804
0.09691 0.0806134 0.109804
0.111757 0.0844282 0.109804
0.127077 0.0882429 0.109804
0.142519 0.0958267 0.105882
0.167086 0.0996262 0.105882
0.194491 0.104662 0.103609
0.227939 0.11075 0.101961
0.266545 0.112276 0.0982681
0.311391 0.115816 0.0957046
0.357717 0.112154 0.0919051
0.410056 0.109514 0.0881056
0.464088 0.101472 0.0826581
0.518135 0.0912947 0.0766003
0.568612 0.0749828 0.0694896
0.620966 0.056733 0.0617685
0.667643 0.033051 0.0540475
0.713756 0.013138 0.0445716
0.755154 0 0.033463
0.793744 0 0.0180209
0.832349 0 0.00401312
0.8701 0 0
0.904906 0.00909438 0
0.93579 0.0385595 0
0.966171 0.069688 0
0.992889 0.105501 0
1 0.134554 0
1 0.169375 0
1 0.204776 0
0.0673991 0.0848096 0.113725
0.0704814 0.0848096 0.113725
0.0743114 0.0848096 0.113725
0.0781262 0.0848096 0.113725
0.0825971 0.0854505 0.110201
0.0941329 0.0920272 0.109804
0.11165 0.0997482 0.109804
0.134112 0.106905 0.106737
0.153185 0.112078 0.105882
0.178637 0.118471 0.105882
0.206134 0.125978 0.10219
0.239094 0.131121 0.0998703
0.277913 0.135042 0.0980392
0.322301 0.138674 0.0941176
0.369039 0.138964 0.0884108
0.419257 0.138231 0.0845808
0.471809 0.133944 0.0787976
0.525856 0.127825 0.0730144
0.577768 0.119783 0.0656901
0.628428 0.107424 0.057969
0.674754 0.0989853 0.0463264
0.717632 0.0887312 0.0351568
0.758556 0.0813916 0.0235447
0.797665 0.0774548 0.0102998
0.836271 0.0784314 0
0.873442 0.0877394 0
0.904906 0.10074 0
0.93579 0.120211 0
0.966171 0.140291 0
0.992889 0.160662 0
1 0.184558 0
1 0.208576 0
1 0.23946 0
0.059678 0.103304 0.113725
0.063508 0.103304 0.113725
0.067277 0.103304 0.113725
0.0710765 0.103304 0.113725
0.0787976 0.104067 0.113725
0.0898299 0.107958 0.109804
0.105272 0.11519 0.109804
0.130755 0.12665 0.106737
0.160784 0.137621 0.103578
0.190188 0.144488 0.101961
0.220829 0.150103 0.0988937
0.254292 0.156863 0.096025
0.292897 0.163729 0.0922103
0.33724 0.169116 0.0887312
0.38407 0.169116 0.0849317
0.432471 0.169116 0.0807202
0.483452 0.168688 0.0734112
0.53521 0.16434 0.0656901
0.585901 0.160037 0.057969
0.636149 0.15404 0.0489967
0.681331 0.149706 0.0374609
0.723522 0.145586 0.0236057
0.762997 0.143008 0.0110323
0.801587 0.143877 0.000610361
0.839979 0.147066 0
0.874022 0.154772 0
0.907973 0.166583 0
0.93579 0.179049 0
0.966171 0.191913 0
0.989334 0.210498 0
1 0.227771 0
1 0.25098 0
1 0.274998 0
0.0392157 0.132357 0.113725
0.0430152 0.132357 0.113725
0.0497597 0.132357 0.113725
0.0574807 0.132357 0.113725
0.0677653 0.132357 0.113725
0.0791638 0.133333 0.110414
0.0970016 0.140444 0.109804
0.123033 0.151232 0.105882
0.159808 0.165927 0.102205
0.200641 0.178302 0.0962081
0.239216 0.185351 0.0924086
0.275608 0.190845 0.08925
0.314214 0.197543 0.08542
0.359075 0.202945 0.08159
0.405386 0.206867 0.0759136
0.453803 0.208423 0.0700084
0.502449 0.206867 0.0627451
0.552666 0.20589 0.055024
0.601221 0.204166 0.0439307
0.646815 0.201556 0.0323186
0.691051 0.198047 0.0207065
0.730602 0.197055 0.00808728
0.769848 0.197055 0.000671397
0.808179 0.200275 0
0.843137 0.204166 0
0.876967 0.209674 0
0.907835 0.220523 0
0.93872 0.229664 0
0.965316 0.243748 0
0.992004 0.256611 0
1 0.272114 0
1 0.291417 0
1 0.31078 0
0.00550851 0.160296 0.113725
0.009308 0.164096 0.113725
0.0141451 0.164218 0.113725
0.0273136 0.164218 0.113725
0.042649 0.164218 0.113725
0.0604715 0.164218 0.110414
0.0823529 0.167605 0.109804
0.108583 0.176226 0.105882
0.145617 0.190814 0.0998398
0.191669 0.20827 0.0952163
0.246662 0.223758 0.0874952
0.292042 0.229786 0.0808881
0.335119 0.236149 0.0742657
0.379294 0.239948 0.0700236
0.42562 0.245472 0.0627451
0.47454 0.248875 0.055024
0.522728 0.249393 0.04448
0.569604 0.248875 0.0349279
0.61593 0.24828 0.0234073
0.658991 0.24828 0.0118868
0.700374 0.247868 0.00248722
0.738964 0.247181 0
0.776699 0.24828 0
0.812253 0.251408 0
0.847059 0.256001 0
0.880766 0.260914 0
0.911116 0.271443 0
0.939712 0.280262 0
0.966171 0.291905 0
0.992889 0.303655 0
1 0.316548 0
1 0.332113 0
1 0.351354 0
0 0.193866 0.113725
0 0.197711 0.113725
0 0.197787 0.113725
0 0.197787 0.113725
0.00459297 0.197787 0.113725
0.0222324 0.195102 0.110414
0.0526589 0.198795 0.109804
0.0859236 0.206012 0.105882
0.124269 0.216968 0.0990158
0.172427 0.233341 0.0912947
0.231022 0.25417 0.0817273
0.294591 0.270024 0.0692454
0.352422 0.27892 0.057145
0.402457 0.282841 0.0484016
0.448768 0.286763 0.037995
0.495094 0.290684 0.0269169
0.542031 0.293263 0.0166629
0.588403 0.294606 0.00640879
0.631373 0.295781 0.00190738
0.672175 0.296208 0
0.710781 0.294606 0
0.746685 0.295537 0
0.78407 0.297688 0
0.818875 0.301564 0
0.85098 0.305455 0
0.881865 0.311147 0
0.912749 0.318868 0
0.939712 0.326589 0
0.966171 0.338231 0
0.989334 0.346319 0
1 0.358999 0
1 0.373327 0
1 0.389944 0
0 0.22855 0.113725
0 0.232471 0.113725
0 0.23624 0.113725
0 0.234058 0.113725
0 0.232471 0.111467
0 0.232471 0.109804
0.00682078 0.23357 0.109804
0.0429389 0.23946 0.105882
0.0929885 0.248188 0.0990158
0.144625 0.262989 0.0912947
0.206134 0.282353 0.0778821
0.277302 0.304295 0.0602884
0.351858 0.322805 0.0368658
0.417029 0.330694 0.0148928
0.470817 0.333089 0.00521859
0.518257 0.336385 0.0012665
0.563302 0.338964 0
0.605783 0.340932 0
0.646815 0.344854 0
0.685054 0.344854 0
0.72134 0.345815 0
0.756985 0.347433 0
0.791791 0.347845 0
0.823056 0.35172 0
0.854902 0.355612 0
0.885786 0.361105 0
0.914839 0.365194 0
0.941878 0.372915 0
0.966171 0.380636 0
0.989334 0.3897 0
1 0.400092 0
1 0.413108 0
1 0.42855 0
0 0.27451 0.111269
0 0.275975 0.111269
0 0.277455 0.111269
0 0.275227 0.109941
0 0.273716 0.109804
0 0.273533 0.109804
0 0.273533 0.106157
0.00114443 0.276921 0.102815
0.0378729 0.284321 0.0990158
0.107637 0.29633 0.0877852
0.174472 0.312779 0.0745098
0.247303 0.335164 0.0534218
0.332418 0.357412 0.0220645
0.413581 0.376226 0.000595102
0.484871 0.38471 0
0.537499 0.385779 0
0.583825 0.386526 0
0.624384 0.3897 0
0.662989 0.392248 0
0.700603 0.394232 0
0.735363 0.397543 0
0.767163 0.397543 0
0.799512 0.398779 0
0.830396 0.401465 0
0.86128 0.403555 0
0.888243 0.407401 0
0.916396 0.413504 0
0.941543 0.419013 0
0.966171 0.425483 0
0.989197 0.433204 0
1 0.441016 0
1 0.450202 0
1 0.461769 0
0 0.312016 0.109804
0 0.317479 0.109804
0 0.32134 0.109804
0 0.319997 0.107698
0 0.317815 0.107469
0 0.317525 0.106126
0 0.315938 0.105882
0 0.317174 0.102312
0 0.32047 0.0950942
0.0448157 0.329335 0.0873732
0.130404 0.344121 0.0730449
0.211215 0.364523 0.0511025
0.297673 0.386892 0.015198
0.3879 0.408453 0
0.475212 0.427817 0
0.546822 0.43566 0
0.598413 0.437507 0
0.641306 0.437507 0
0.679896 0.440528 0
0.71458 0.441428 0
0.747799 0.44535 0
0.779217 0.44535 0
0.808835 0.449271 0
0.838117 0.449912 0
0.86627 0.453193 0
0.893278 0.455863 0
0.91986 0.459144 0
0.943008 0.465202 0
0.966171 0.469368 0
0.989334 0.474754 0
1 0.482475 0
1 0.490318 0
1 0.501839 0
0 0.352209 0.105882
0 0.35993 0.105882
0 0.362112 0.105882
0 0.360052 0.105882
0 0.360052 0.10367
0 0.358328 0.10367
0 0.35613 0.101961
0 0.35613 0.0984207
0 0.359075 0.0928969
0 0.366796 0.0839399
0.0666514 0.377203 0.0708324
0.167254 0.393774 0.047776
0.257603 0.414801 0.0112764
0.35024 0.437125 0
0.445853 0.459327 0
0.531868 0.475731 0
0.600855 0.486641 0
0.651652 0.487739 0
0.690455 0.487739 0
0.726223 0.487739 0
0.757107 0.488396 0
0.787991 0.491661 0
0.817639 0.494072 0
0.845212 0.496071 0
0.871809 0.499504 0
0.897169 0.501701 0
0.922057 0.503746 0
0.944869 0.507622 0
0.966171 0.511482 0
0.989136 0.517281 0
1 0.52108 0
1 0.528801 0
1 0.540444 0
0 0.392889 0.103792
0 0.398596 0.101961
0 0.402579 0.101961
0 0.402579 0.101961
0 0.398917 0.0998703
0 0.398657 0.0998703
0 0.398657 0.0980392
0 0.396811 0.0945144
0 0.398199 0.0906539
0 0.40206 0.0819562
0.00505074 0.411887 0.0691234
0.109407 0.425238 0.0458076
0.214298 0.443137 0.0112764
0.310796 0.46421 0
0.408209 0.486351 0
0.503807 0.505638 0
0.584985 0.522057 0
0.650004 0.532967 0
0.698772 0.534066 0
0.733944 0.534066 0
0.76875 0.534066 0
0.79707 0.534707 0
0.82536 0.536553 0
0.852445 0.539834 0
0.877455 0.542367 0
0.900618 0.54583 0
0.923781 0.548058 0
0.946929 0.550042 0
0.966171 0.553903 0
0.987076 0.555886 0
1 0.559686 0
1 0.565316 0
1 0.575128 0
0 0.435294 0.0980392
0 0.439155 0.0980392
0 0.439216 0.0980392
0 0.439216 0.0980392
0 0.439216 0.0960861
0 0.437568 0.0944228
0 0.437263 0.0925307
0 0.437263 0.0906233
0 0.437263 0.0867628
0 0.44062 0.07953
0 0.445838 0.0658122
0.032166 0.456794 0.0458991
0.16495 0.471565 0.0112764
0.268315 0.490135 0
0.367895 0.510536 0
0.465263 0.530694 0
0.554894 0.550988 0
0.632227 0.567468 0
0.694362 0.575372 0
0.739345 0.578439 0
0.774502 0.578439 0
0.805386 0.578439 0
0.833082 0.580392 0
0.858763 0.580392 0
0.88333 0.582849 0
0.906493 0.584741 0
0.927321 0.588602 0
0.948592 0.592157 0
0.967895 0.592645 0
0.987015 0.596262 0
1 0.6 0
1 0.603983 0
1 0.609796 0
0 0.471931 0.0962081
0 0.479652 0.0941176
0 0.479774 0.0941176
0 0.479774 0.0941176
0 0.479774 0.0941176
0 0.478233 0.0922866
0 0.475853 0.0901961
0 0.475853 0.0867323
0 0.475853 0.0833295
0 0.475853 0.0776989
0 0.480644 0.0652018
0 0.488365 0.0471809
0.0984054 0.499306 0.0163424
0.224247 0.515206 0
0.325368 0.532662 0
0.424765 0.552941 0
0.518257 0.57322 0
0.602213 0.592523 0
0.674876 0.608042 0
0.734203 0.618769 0
0.777279 0.620951 0
0.809308 0.620951 0
0.838972 0.620951 0
0.863966 0.620951 0
0.887129 0.621469 0
0.909895 0.624872 0
0.931228 0.627298 0
0.950851 0.629419 0
0.969604 0.632975 0
0.988968 0.636637 0
1 0.638727 0
1 0.640635 0
1 0.646571 0
0 0.510536 0.0941176
0 0.516594 0.0941176
0 0.51838 0.0941176
0 0.51838 0.0925612
0 0.514733 0.0901961
0 0.514458 0.0901961
0 0.514458 0.0870069
0 0.513115 0.0862745
0 0.512749 0.0823529
0 0.512123 0.0756085
0 0.513924 0.0678874
0 0.519234 0.0503395
0.0350805 0.528344 0.0222171
0.179492 0.540932 0
0.286763 0.556374 0
0.385962 0.574014 0
0.480522 0.594491 0
0.567468 0.613779 0
0.64683 0.632105 0
0.713481 0.646647 0
0.766827 0.65539 0
0.808194 0.659556 0
0.840192 0.659556 0
0.866056 0.659556 0
0.890501 0.659556 0
0.912383 0.660044 0
0.933013 0.662089 0
0.9523 0.66569 0
0.969879 0.667674 0
0.988968 0.669612 0
1 0.671458 0
1 0.673655 0
1 0.677455 0
0 0.549142 0.0941176
0 0.553017 0.0941176
0 0.553063 0.0941176
0 0.553063 0.0901961
0 0.553063 0.0901961
0 0.55172 0.0901961
0 0.549584 0.0862745
0 0.549142 0.0832074
0 0.549142 0.079408
0 0.549142 0.0756085
0 0.549142 0.0678874
0 0.55404 0.0536812
0 0.559442 0.0270848
0.133318 0.569482 0.00224308
0.252979 0.581735 0
0.351965 0.597177 0
0.444602 0.613794 0
0.531502 0.633082 0
0.61471 0.651347 0
0.686397 0.669123 0
0.747295 0.682231 0
0.797055 0.6916 0
0.837507 0.695842 0
0.866712 0.69424 0
0.893141 0.69424 0
0.915434 0.694743 0
0.934798 0.696574 0
0.954162 0.696574 0
0.969604 0.700496 0
0.987381 0.700496 0
1 0.70074 0
1 0.704479 0
1 0.708339 0
0 0.583825 0.0941176
0 0.588647 0.0941176
0 0.588724 0.0941176
0 0.588724 0.090425
0 0.586587 0.0901961
0 0.587747 0.0901961
0 0.587747 0.0865492
0 0.587747 0.0843671
0 0.587747 0.0805219
0 0.587747 0.0756085
0 0.587747 0.0678874
0 0.587747 0.0559854
0 0.593194 0.0348058
0.0783246 0.599374 0.00537118
0.222553 0.608911 0
0.323323 0.62182 0
0.41471 0.637247 0
0.502083 0.653849 0
0.582849 0.672053 0
0.657588 0.689952 0
0.722545 0.704479 0
0.780011 0.717037 0
0.827176 0.724758 0
0.863233 0.728923 0
0.890684 0.728923 0
0.913848 0.728923 0
0.935073 0.728923 0
0.954391 0.728923 0
0.971084 0.728923 0
0.986526 0.730617 0
1 0.732845 0
1 0.736767 0
1 0.740688 0
0 0.622431 0.0941176
0 0.624918 0.0954299
0 0.626352 0.0954604
0 0.626352 0.0941176
0 0.624994 0.0941176
0 0.624994 0.0915389
0 0.622431 0.0901961
0 0.622431 0.0865644
0 0.622431 0.0826886
0 0.622431 0.076585
0 0.621073 0.071809
0 0.621958 0.0606394
0 0.624994 0.0419013
0.0510872 0.631251 0.0140383
0.197665 0.638972 0
0.300099 0.649271 0
0.390066 0.662867 0
0.474998 0.678309 0
0.556863 0.693751 0
0.630152 0.710231 0
0.698878 0.726238 0
0.758328 0.73872 0
0.811154 0.750362 0
0.853803 0.758083 0
0.886854 0.762249 0
0.914946 0.762249 0
0.935546 0.762249 0
0.954772 0.762249 0
0.973526 0.762249 0
0.988968 0.762249 0
1 0.762417 0
1 0.764874 0
1 0.76875 0
0 0.657115 0.0980392
0 0.66099 0.0992599
0 0.661036 0.0992599
0 0.661036 0.0981613
0 0.6598 0.0956741
0 0.6598 0.094316
0 0.657618 0.0919203
0 0.657115 0.0901961
0 0.657115 0.0845655
0 0.657115 0.080415
0 0.655879 0.0730449
0 0.655879 0.0653239
0 0.658793 0.0512245
0.026627 0.662135 0.0268406
0.177935 0.665934 0.00106813
0.281376 0.676341 0
0.369482 0.68603 0
0.450568 0.697551 0
0.527199 0.712459 0
0.60209 0.727199 0
0.670069 0.742641 0
0.732601 0.757168 0
0.788373 0.768765 0
0.835538 0.780026 0
0.875975 0.787076 0
0.908095 0.789807 0
0.933806 0.789212 0
0.954162 0.789212 0
0.972457 0.787991 0
0.988968 0.787991 0
1 0.787991 0
1 0.788113 0
1 0.791913 0
0 0.690684 0.103059
0 0.694606 0.106859
0 0.694606 0.106981
0 0.694606 0.103059
0 0.694606 0.103059
0 0.691783 0.0995804
0 0.690684 0.0991379
0 0.690684 0.0952163
0 0.690684 0.0912947
0 0.690684 0.0873732
0 0.690684 0.080766
0 0.690684 0.0730449
0 0.690684 0.0600443
0.0116426 0.693019 0.0429389
0.167529 0.696818 0.0140993
0.270375 0.703426 0
0.35465 0.711147 0
0.431861 0.720714 0
0.506249 0.731746 0
0.575738 0.745418 0
0.6448 0.758083 0
0.707362 0.773526 0
0.766049 0.785046 0
0.815076 0.796567 0
0.858305 0.807111 0
0.895582 0.812009 0
0.925704 0.815076 0
0.949752 0.815076 0
0.969604 0.814725 0
0.985046 0.811154 0
1 0.811154 0
1 0.811154 0
1 0.815076 0
0 0.723522 0.112749
0 0.726467 0.115679
0 0.726467 0.115679
0 0.726467 0.115679
0 0.726467 0.112749
0 0.726467 0.109285
0 0.724086 0.108827
0 0.723522 0.105119
0 0.723522 0.101961
0 0.723522 0.0981613
0 0.723522 0.0934462
0 0.723522 0.0866407
0 0.723156 0.0759747
0.0180514 0.723522 0.0629892
0.166537 0.726467 0.0407416
0.265538 0.730388 0.0104829
0.344121 0.736278 0.000488289
0.418509 0.743999 0
0.487556 0.753002 0
0.5561 0.764553 0
0.623529 0.776104 0
0.684321 0.789578 0
0.740932 0.802152 0
0.793866 0.812161 0
0.840192 0.823529 0
0.881102 0.83125 0
0.915129 0.835843 0
0.943008 0.839216 0
0.965805 0.839216 0
0.985046 0.836179 0
1 0.835294 0
1 0.835294 0
1 0.835294 0
0 0.760296 0.135042
0 0.764187 0.135042
0 0.764218 0.135042
0 0.763439 0.135042
0 0.760296 0.131121
0 0.760296 0.127825
0 0.760296 0.127199
0 0.759625 0.123949
0 0.759441 0.120348
0 0.759441 0.116548
0 0.757336 0.112749
0 0.756374 0.107897
0 0.756374 0.0993057
0.0561074 0.756374 0.0904402
0.191546 0.759915 0.0766003
0.2766 0.761929 0.0543832
0.350973 0.765743 0.022797
0.420066 0.773037 0.00137331
0.484794 0.780758 0
0.548287 0.789731 0
0.610056 0.799588 0
0.670466 0.81091 0
0.727581 0.822553 0
0.778317 0.831373 0
0.826078 0.841917 0
0.86772 0.849638 0
0.903181 0.857359 0
0.934798 0.861158 0
0.961395 0.864454 0
0.984192 0.864179 0
1 0.861402 0
1 0.860533 0
1 0.861402 0
0 0.79118 0.150484
0 0.79118 0.151232
0 0.79118 0.151232
0 0.79118 0.150484
0 0.790448 0.146654
0 0.787747 0.143877
0 0.787259 0.142779
0 0.787259 0.140154
0 0.787259 0.13872
0 0.787259 0.135012
0 0.787259 0.131624
0 0.787259 0.125124
0 0.787259 0.121324
0.0969406 0.787259 0.113603
0.211109 0.787259 0.104097
0.286885 0.790448 0.0893568
0.355276 0.792767 0.0703441
0.418631 0.796597 0.041474
0.478264 0.803922 0.00753796
0.537499 0.81091 0
0.597055 0.818631 0
0.652934 0.826596 0
0.709072 0.837995 0
0.758984 0.845716 0
0.808148 0.857359 0
0.849882 0.86508 0
0.888487 0.872801 0
0.922545 0.8766 0
0.950149 0.880385 0
0.976837 0.883818 0
0.995636 0.880644 0
1 0.880644 0
1 0.879896 0
0 0.818143 0.170459
0 0.818143 0.174289
0 0.818143 0.171283
0 0.818143 0.170459
0 0.818143 0.166613
0 0.817517 0.166537
0 0.817517 0.163241
0 0.817517 0.162615
0 0.817517 0.159319
