YOYO-Client/Yoyo/Assets.xcassets/Wuzhen.dataset/Fuji-Provia-400X.cube
TITLE "Generated by Resolve"
LUT_3D_SIZE 9
0.0745098 0.0470588 0.109804
0.0857862 0.0509804 0.109804
0.127459 0.054902 0.105882
0.239704 0.054902 0.101961
0.437247 0 0.0882429
0.651957 0 0.0652018
0.824506 0 0.0294194
0.962737 0 0
1 0.0431373 0
0.0745098 0.0622568 0.113237
0.0897078 0.0661784 0.109804
0.137377 0.0813764 0.106859
0.258335 0.0931411 0.0995041
0.45539 0.0725414 0.0845655
0.662745 0 0.057847
0.831861 0 0.0116426
0.965682 0 0
1 0.168139 0
0.0392157 0.132357 0.113725
0.0677653 0.132357 0.113725
0.159808 0.165927 0.102205
0.314214 0.197543 0.08542
0.502449 0.206867 0.0627451
0.691051 0.198047 0.0207065
0.843137 0.204166 0
0.965316 0.243748 0
1 0.31078 0
0 0.27451 0.111269
0 0.273716 0.109804
0.0378729 0.284321 0.0990158
0.332418 0.357412 0.0220645
0.583825 0.386526 0
0.735363 0.397543 0
0.86128 0.403555 0
0.966171 0.425483 0
1 0.461769 0
0 0.435294 0.0980392
0 0.439216 0.0960861
0 0.437263 0.0867628
0.16495 0.471565 0.0112764
0.554894 0.550988 0
0.774502 0.578439 0
0.88333 0.582849 0
0.967895 0.592645 0
1 0.609796 0
0 0.583825 0.0941176
0 0.586587 0.0901961
0 0.587747 0.0805219
0 0.593194 0.0348058
0.41471 0.637247 0
0.722545 0.704479 0
0.890684 0.728923 0
0.971084 0.728923 0
1 0.740688 0
0 0.723522 0.112749
0 0.726467 0.112749
0 0.723522 0.101961
0 0.723156 0.0759747
0.344121 0.736278 0.000488289
0.623529 0.776104 0
0.840192 0.823529 0
0.965805 0.839216 0
1 0.835294 0
0 0.850004 0.201465
0 0.846571 0.198474
0 0.846082 0.193622
0.127764 0.845594 0.181552
0.382605 0.845594 0.151232
0.584619 0.858824 0.0908675
0.778424 0.885298 0.0131075
0.926955 0.911696 0.00808728
1 0.919112 0
0.341176 0.956863 0.443137
0.364706 0.956863 0.443137
0.413718 0.956863 0.439216
0.48333 0.956863 0.435294
0.566659 0.952941 0.427451
0.664714 0.954406 0.414221
0.780392 0.961761 0.396078
0.892149 0.976471 0.372061
1 0.984314 0.329412
0.0779431 0.0470588 0.128923
0.0892805 0.0470588 0.125002
0.13431 0.0431373 0.132845
0.259129 0.00520333 0.128618
0.452949 0 0.120592
0.6598 0 0.107347
0.828428 0 0.0877394
0.966598 0 0.0479744
1 0 0
0.0667277 0.0691844 0.13193
0.0857862 0.0695506 0.132036
0.148699 0.0700999 0.13193
0.280919 0.0598001 0.128161
0.473014 0.000213626 0.118624
0.674022 0 0.103593
0.835782 0 0.0803845
0.966171 0 0.0319219
1 0.0919661 0
0.0133516 0.150484 0.14313
0.0568856 0.147784 0.143267
0.160052 0.171145 0.133089
0.324605 0.189166 0.124285
0.513787 0.184314 0.111025
0.698482 0.163912 0.0882887
0.847059 0.164706 0.0535897
0.969116 0.208438 0
1 0.28481 0
0 0.293629 0.148043
0 0.292866 0.148043
0.0307469 0.294163 0.140063
0.336339 0.361273 0.0940566
0.58677 0.381216 0.0403754
0.736278 0.384497 0.0093843
0.86128 0.391058 0
0.968627 0.412436 0
1 0.45098 0
0 0.452689 0.14583
0 0.456397 0.144335
0 0.452445 0.139712
0.173037 0.476127 0.0999924
0.558694 0.552941 0
0.776318 0.574502 0
0.88333 0.580392 0
0.967651 0.588693 0
1 0.604166 0
0 0.597055 0.151659
0 0.601648 0.151476
0 0.598062 0.145174
0 0.599329 0.122728
0.419913 0.639796 0.0149844
0.726467 0.706798 0
0.890684 0.728923 0
0.971084 0.728923 0
1 0.738231 0
0 0.731365 0.174136
0 0.73431 0.176959
0 0.731029 0.169146
0 0.730159 0.151965
0.356924 0.738659 0.103059
0.623529 0.777935 0.0016022
0.840192 0.823529 0
0.965805 0.839216 0
1 0.836271 0
0 0.853498 0.24712
0 0.853437 0.250492
0 0.850004 0.242649
0.174411 0.849515 0.230884
0.39237 0.846082 0.20589
0.587259 0.858656 0.169589
0.777447 0.887968 0.140383
0.926528 0.911696 0.121706
1 0.919112 0.0157473
0.352941 0.960784 0.466178
0.383825 0.960784 0.4701
0.425498 0.956863 0.466178
0.491173 0.956863 0.462257
0.570596 0.952941 0.452201
0.667155 0.956863 0.438727
0.779416 0.961761 0.422919
0.891722 0.973037 0.403372
0.996078 0.984314 0.367651
0.0892195 0.0323491 0.204898
0.116182 0.0323491 0.207843
0.160784 0.0323491 0.200977
0.277455 0 0.21912
0.491661 0 0.226474
0.678431 0 0.209308
0.840192 0 0.194369
0.973159 0 0.179049
1 0 0.159808
0.0196078 0.0591897 0.218631
0.0827802 0.0552682 0.222446
0.170718 0.0627451 0.215747
0.3028 0.0446479 0.226902
0.49926 0 0.222309
0.686641 0 0.205753
0.84712 0 0.192126
0.973739 0 0.175433
1 0 0.154894
0 0.169604 0.233082
0.000427253 0.174411 0.234318
0.163912 0.178058 0.23769
0.33431 0.174319 0.230213
0.531868 0.147677 0.218631
0.710811 0.106096 0.205753
0.857847 0.094789 0.190188
0.973404 0.149386 0.167437
1 0.242405 0.1402
0 0.339208 0.240192
0 0.340551 0.245594
0.0857557 0.330388 0.246235
0.3552 0.369863 0.226932
0.588968 0.376471 0.213916
0.737057 0.369467 0.200855
0.865202 0.3738 0.181369
0.972549 0.393576 0.152331
1 0.430884 0.113237
0 0.490684 0.249012
0 0.492653 0.25098
0 0.483696 0.250126
0.21648 0.489464 0.233829
0.571817 0.558572 0.197299
0.774823 0.57377 0.175433
0.879408 0.576471 0.168017
0.964645 0.58088 0.144549
1 0.596078 0.0990158
0 0.623529 0.260288
0 0.624506 0.262745
0 0.618296 0.260014
0.124086 0.614221 0.249012
0.437064 0.64448 0.217151
0.72961 0.709087 0.181628
0.88922 0.728923 0.157687
0.964584 0.728923 0.152102
1 0.73431 0.132601
0 0.745342 0.278187
0 0.746105 0.280766
0 0.742702 0.276463
0.0995956 0.738231 0.266789
0.381857 0.740566 0.244846
0.626932 0.777935 0.216175
0.839948 0.823529 0.209613
0.959869 0.838849 0.190997
1 0.836271 0.185534
0 0.857725 0.330388
0 0.857359 0.333822
0.00386053 0.85417 0.328679
0.233692 0.852567 0.318135
0.410849 0.849515 0.302266
0.590692 0.85864 0.282216
0.774411 0.885176 0.278981
0.922713 0.911696 0.289342
1 0.919112 0.269734
0.375494 0.960784 0.511757
0.402457 0.960784 0.515694
0.440436 0.960784 0.511757
0.502571 0.956863 0.507851
0.578439 0.956863 0.500008
0.668254 0.956863 0.492164
0.776471 0.961761 0.4804
0.887861 0.973037 0.471199
0.993133 0.984314 0.448035
0.116182 0 0.355886
0.156863 0 0.361273
0.250492 0 0.371206
0.356863 0 0.359808
0.524025 0 0.364706
0.741665 0 0.393011
0.875486 0 0.376959
0.980392 0 0.353918
1 0 0.336278
0 0.0279393 0.377935
0.0733806 0.0176394 0.382345
0.239216 0.000320439 0.386267
0.370581 0 0.370703
0.543145 0 0.375982
0.745098 0 0.394553
0.87245 0 0.373037
0.977554 0 0.349203
1 0 0.33431
0 0.14461 0.396078
0 0.142763 0.399008
0.177874 0.141787 0.405875
0.389273 0.164294 0.391302
0.572549 0.17322 0.401404
0.736278 0.134066 0.390692
0.86421 0.0652323 0.362936
0.976028 0.081529 0.342641
1 0.19498 0.32549
0 0.356863 0.400549
0 0.363653 0.406867
0.00123598 0.371664 0.410193
0.383459 0.379355 0.415656
0.581369 0.367895 0.399512
0.736217 0.356863 0.380941
0.8663 0.358297 0.362249
0.969177 0.372366 0.340688
1 0.40882 0.319539
0 0.542885 0.392645
0 0.546166 0.396567
0.0419165 0.541238 0.406195
0.34461 0.525979 0.410788
0.588113 0.565927 0.402213
0.762737 0.572549 0.396506
0.867826 0.570596 0.378744
0.958831 0.569451 0.353429
1 0.583093 0.323781
0 0.664149 0.403433
0 0.664775 0.408331
0.0408026 0.656687 0.409796
0.304204 0.64567 0.408881
0.477455 0.650523 0.394888
0.734371 0.713237 0.398444
0.878004 0.728923 0.397803
0.95314 0.726467 0.383398
1 0.730388 0.356863
0 0.767163 0.412375
0 0.767163 0.417151
0.00505074 0.763241 0.414496
0.27248 0.754604 0.40914
0.432349 0.749447 0.395102
0.632151 0.777325 0.387457
0.836851 0.827451 0.409796
0.950576 0.838849 0.411765
1 0.839216 0.401343
0 0.865202 0.440192
0 0.867338 0.443626
0.120623 0.863416 0.439704
0.304784 0.857359 0.432349
0.44445 0.853437 0.420584
0.593942 0.858335 0.408637
0.769604 0.88481 0.419303
0.91519 0.911696 0.446723
1 0.919112 0.450492
0.402457 0.964706 0.579904
0.425483 0.964706 0.583825
0.461402 0.960784 0.581369
0.518624 0.960784 0.577447
0.589456 0.956863 0.573526
0.671077 0.956863 0.568139
0.771939 0.961761 0.560296
0.880385 0.973037 0.560296
0.988235 0.984314 0.554894
0.196078 0 0.537255
0.234562 0 0.54313
0.335286 0 0.55491
0.488731 0 0.55172
0.613733 0 0.535302
0.751965 0 0.534798
0.905882 0 0.569604
1 0 0.577935
1 0.0745098 0.558816
0.000244144 0 0.555154
0.115282 0 0.557839
0.299565 0 0.564767
0.487404 0 0.560784
0.620829 0 0.542641
0.758724 0 0.542306
0.905394 0 0.574762
0.996139 0.118654 0.576745
1 0.157107 0.553185
0 0.100008 0.567651
0 0.0951553 0.569604
0.215564 0.0760967 0.575738
0.482292 0.0529335 0.575738
0.631373 0.104173 0.556619
0.765682 0.159197 0.557656
0.896696 0.261891 0.585657
0.983093 0.271321 0.566674
1 0.26421 0.536767
0 0.311513 0.571572
0 0.313726 0.576959
0 0.315999 0.58088
0.418418 0.323552 0.586023
0.629038 0.370214 0.574639
0.760754 0.417685 0.585077
0.874266 0.421073 0.577142
0.964706 0.387411 0.538964
1 0.387747 0.509316
0 0.551965 0.569604
0 0.556863 0.574517
0 0.560784 0.57818
0.365438 0.567651 0.584314
0.606867 0.575982 0.594614
0.744121 0.566293 0.576349
0.857114 0.556619 0.552941
0.950484 0.550118 0.525002
1 0.560784 0.501961
0 0.703426 0.556374
0 0.705882 0.560296
0.127138 0.702876 0.564218
0.414466 0.696361 0.573739
0.562005 0.6804 0.57525
0.737377 0.72108 0.584588
0.858824 0.728313 0.581613
0.935286 0.719951 0.553918
1 0.718868 0.523033
0 0.798032 0.555886
0 0.798032 0.562188
0.232837 0.793011 0.560784
0.399023 0.782361 0.560784
0.515679 0.770581 0.556619
0.641794 0.776959 0.548592
0.830518 0.827817 0.581003
0.935042 0.838849 0.58854
0.998535 0.839216 0.572549
0.0205844 0.880644 0.566918
0.158633 0.880385 0.570336
0.277211 0.876478 0.566918
0.392248 0.869612 0.56495
0.500252 0.862989 0.557961
0.609125 0.860792 0.548684
0.760235 0.880888 0.559319
0.905608 0.911696 0.596567
0.998291 0.919112 0.612009
0.429419 0.968627 0.660792
0.452445 0.968627 0.664714
0.487251 0.966659 0.664714
0.542153 0.964706 0.664714
0.607843 0.960784 0.660792
0.68014 0.958831 0.656855
0.767651 0.960784 0.652949
0.872297 0.972793 0.656855
0.980392 0.984314 0.666667
0.338231 0 0.697551
0.371572 0 0.699687
0.438239 0 0.707225
0.574441 0 0.711757
0.711513 0 0.703426
0.812192 0 0.693629
0.910903 0 0.692531
1 0.0190585 0.714702
1 0.355886 0.743145
0.185779 0 0.708156
0.254658 0 0.710704
0.3897 0 0.712749
0.563302 0 0.71667
0.712749 0 0.709072
0.814023 0 0.697063
0.908705 0 0.696452
0.996139 0.191501 0.717647
1 0.395895 0.741848
0 0.00550851 0.71519
0.00386053 0 0.718624
0.304051 0 0.720104
0.537743 0 0.724407
0.7122 0 0.717891
0.812192 0.073991 0.704799
0.902083 0.207599 0.70367
0.981369 0.365942 0.72755
1 0.471565 0.744488
0 0.252934 0.718135
0 0.254414 0.720531
0.100877 0.252018 0.722469
0.47129 0.250889 0.727459
0.692195 0.299504 0.727916
0.798596 0.375891 0.714565
0.882612 0.446006 0.717968
0.959319 0.526345 0.740017
1 0.542702 0.735302
0 0.502937 0.718379
0 0.506859 0.721569
0 0.506127 0.721569
0.34905 0.506859 0.72549
0.621698 0.521447 0.733333
0.772549 0.574502 0.725948
0.857847 0.622675 0.73872
0.93695 0.622553 0.730632
1 0.5897 0.694606
0 0.703487 0.712261
0 0.705943 0.716243
0 0.709316 0.718074
0.355535 0.710842 0.723293
0.579934 0.717464 0.731655
0.743862 0.730434 0.744991
0.835645 0.718013 0.723964
0.919112 0.704234 0.697002
0.999451 0.701411 0.67451
0 0.823896 0.696208
0 0.824994 0.699138
0.199939 0.821073 0.70135
0.431418 0.817853 0.70634
0.593866 0.812253 0.714946
0.696803 0.797482 0.716472
0.824903 0.832197 0.733974
0.914214 0.838849 0.733822
0.981003 0.834806 0.708461
0.0972457 0.899687 0.694118
0.215076 0.899687 0.697551
0.336141 0.896101 0.700893
0.464714 0.890394 0.702281
0.574517 0.881529 0.702266
0.657359 0.872236 0.695949
0.753918 0.876967 0.693233
0.895582 0.911772 0.736278
0.983032 0.919112 0.751965
0.425986 0.976471 0.749508
0.452934 0.976471 0.749508
0.500008 0.974014 0.753429
0.565682 0.972549 0.753429
0.632837 0.968627 0.757351
0.697612 0.964706 0.753429
0.764828 0.961151 0.748898
0.862928 0.972549 0.753429
0.972549 0.984314 0.773037
0.495094 0 0.831373
0.528557 0 0.831373
0.572549 0 0.83505
0.6598 0 0.841047
0.778439 0 0.843137
0.880522 0 0.835294
0.948043 0 0.823529
1 0 0.818631
1 0.31078 0.830396
0.406867 0 0.834806
0.436164 0 0.837873
0.51516 0 0.839216
0.640681 0 0.843137
0.774502 0 0.844419
0.878523 0 0.836713
0.944366 0 0.826261
1 0.0527962 0.81912
1 0.366659 0.832471
0.189212 0 0.842161
0.28014 0 0.843137
0.430396 0 0.844785
0.604593 0 0.847059
0.763119 0 0.848157
0.872679 0 0.838849
0.935485 0.166415 0.826474
0.989212 0.301503 0.821576
1 0.472541 0.837003
0 0.173526 0.841672
0.00450141 0.166125 0.843137
0.308827 0.146685 0.845624
0.542565 0.123674 0.847745
0.732906 0.171939 0.85098
0.853895 0.302678 0.842359
0.915938 0.402701 0.829664
0.966583 0.485969 0.82536
1 0.592645 0.843626
0 0.435294 0.838727
0 0.436759 0.839216
0.00221256 0.433707 0.840314
0.404288 0.432532 0.842649
0.653193 0.446326 0.846815
0.815198 0.508217 0.845838
0.885298 0.580026 0.832715
0.937194 0.640864 0.835599
0.990188 0.703426 0.854902
0 0.663233 0.832471
0 0.663844 0.834318
0 0.663233 0.835294
0.306722 0.659312 0.838239
0.552209 0.66305 0.839155
0.745266 0.67892 0.844312
0.852262 0.725734 0.840803
0.91078 0.767514 0.851865
0.975494 0.770962 0.848035
0 0.819852 0.825238
0 0.822553 0.828183
0.0148928 0.822553 0.830396
0.367926 0.822553 0.832105
0.561273 0.822797 0.837125
0.709651 0.82855 0.843137
0.825925 0.839826 0.853071
0.894453 0.827726 0.835782
0.968627 0.818875 0.81593
0.0084535 0.915312 0.816175
0.0877852 0.91519 0.818753
0.295247 0.914824 0.819608
0.455879 0.91104 0.819974
0.596078 0.906981 0.823896
0.707179 0.900236 0.827817
0.783886 0.887739 0.823926
0.889998 0.91519 0.846998
0.968994 0.922545 0.854414
0.382361 0.98529 0.830396
0.416663 0.984314 0.834318
0.475242 0.984314 0.836515
0.555398 0.980758 0.838239
0.641184 0.977447 0.842161
0.720592 0.973159 0.84509
0.779416 0.968627 0.842161
0.852934 0.972549 0.841306
0.967651 0.984314 0.861769
0.64509 0 0.93872
0.668132 0 0.93872
0.717647 0 0.93872
0.763424 0 0.942641
0.842649 0 0.946563
0.933028 0 0.942641
0.994858 0 0.933822
1 0 0.922545
1 0.263233 0.91519
0.622553 0 0.93872
0.645594 0 0.93872
0.670222 0 0.942626
0.735256 0 0.946502
0.83624 0 0.946563
0.928923 0 0.942153
0.993301 0 0.933349
1 0.0955825 0.922118
1 0.32163 0.914702
0.451957 0 0.945586
0.492439 0 0.946563
0.577935 0 0.946563
0.694652 0 0.946563
0.818631 0 0.949508
0.920684 0 0.943893
0.983215 0.0327153 0.933089
1 0.293095 0.919112
1 0.428305 0.914214
0.281987 0 0.944793
0.352758 0 0.946563
0.482216 0 0.946563
0.636652 0 0.946563
0.78407 0 0.946563
0.898222 0.102754 0.943923
0.963653 0.335149 0.93051
0.998123 0.454948 0.919097
1 0.553918 0.91342
0 0.355398 0.93872
0.00598154 0.353643 0.93872
0.296391 0.345769 0.940444
0.520104 0.333974 0.94255
0.707973 0.342885 0.942641
0.851621 0.40441 0.940444
0.933394 0.515312 0.930144
0.971572 0.602701 0.918624
1 0.675731 0.914702
0 0.60264 0.930877
0 0.601465 0.930877
0 0.597314 0.930877
0.338354 0.59118 0.930877
0.572854 0.592248 0.930877
0.767468 0.60882 0.930877
0.888472 0.668391 0.927855
0.937255 0.729412 0.918517
0.975494 0.781857 0.919921
0 0.7897 0.922667
0 0.792645 0.923033
0 0.789609 0.923033
0.290059 0.785779 0.922667
0.515312 0.781674 0.922667
0.678874 0.781491 0.922667
0.825513 0.795132 0.923903
0.910033 0.835615 0.922545
0.960784 0.869612 0.930877
0 0.911772 0.91519
0 0.914763 0.91519
0.212924 0.911696 0.915618
0.402777 0.910842 0.915618
0.553948 0.907774 0.918685
0.684382 0.907774 0.918685
0.799023 0.910842 0.922713
0.894789 0.921813 0.933135
0.957351 0.911696 0.919539
0.290196 0.992157 0.91519
0.336278 0.992157 0.91519
0.40882 0.992157 0.91519
0.508339 0.990005 0.91519
0.612741 0.988235 0.91519
0.713726 0.984314 0.918624
0.799023 0.980392 0.922545
0.868132 0.976471 0.919112
0.968627 0.984314 0.93431
0.780392 0 1
0.79559 0 1
0.830396 0 1
0.88333 0 1
0.921569 0 1
0.987259 0 1
1 0 1
1 0.0102998 1
1 0.341176 0.992157
0.764706 0 1
0.779904 0 1
0.817655 0 1
0.867277 0 1
0.909804 0 1
0.983337 0 1
1 0 1
1 0.134249 1
1 0.379904 0.991669
0.68333 0 1
0.696574 0 1
0.734554 0 1
0.801968 0 1
0.888243 0 1
0.973037 0 1
1 0 1
1 0.287861 1
1 0.454902 0.988235
0.53872 0 1
0.574502 0 1
0.645594 0 1
0.746075 0 1
0.856367 0 1
0.952514 0 1
1 0.206989 1
1 0.433341 0.999512
1 0.554406 0.984314
0.368627 0.227451 1
0.422309 0.219852 1
0.523537 0.193133 1
0.658091 0.162249 1
0.792157 0.171572 1
0.906371 0.269368 1
0.983337 0.431373 1
1 0.572061 0.995834
1 0.658824 0.982361
0 0.533822 1
0 0.533822 1
0.274022 0.528069 1
0.483879 0.522057 1
0.671321 0.518135 1
0.824994 0.540749 1
0.932723 0.599634 1
0.99118 0.694606 0.992157
1 0.760296 0.980392
0 0.752941 1
0 0.751965 1
0 0.74902 0.997055
0.322423 0.741176 0.996078
0.538231 0.737255 0.996078
0.704417 0.736278 0.996078
0.852934 0.751965 0.996078
0.952941 0.797909 0.992157
0.996078 0.847059 0.980392
0 0.900496 0.988724
0 0.900496 0.988724
0.0240177 0.899992 0.988724
0.341054 0.896086 0.988724
0.51838 0.892149 0.988724
0.659617 0.888243 0.988235
0.780758 0.88481 0.988235
0.902937 0.892164 0.992157
0.983825 0.922545 0.984314
0.282353 0.996078 0.988235
0.320592 0.996078 0.988235
0.393133 0.992157 0.988235
0.489708 0.992157 0.988235
0.592157 0.990188 0.988235
0.690684 0.988235 0.988235
0.787259 0.988235 0.988235
0.879896 0.988235 0.988235
0.976471 0.988235 0.988235
