YOYO-Client/Yoyo/Assets.xcassets/Vegas.dataset/Kodak-UltraMax-400.cube
TITLE "Generated by Resolve"
LUT_3D_SIZE 5
0 0.0156863 0.0196078
0.101961 0.0235294 0.0205844
0.492149 0 0.0235294
0.881376 0 0.0480354
1 0.219608 0.133333
0 0.154894 0.0421607
0.0865187 0.185046 0.00489815
0.518624 0.201465 0.0382391
0.873533 0.246326 0.079408
1 0.410788 0.174502
0 0.533333 0.113725
0 0.530388 0.0921645
0.467643 0.600977 0
0.873045 0.623529 0.0485237
1 0.672557 0.298039
0 0.830396 0.328435
0 0.823529 0.321569
0.41912 0.828428 0.276478
0.807843 0.866423 0.167651
1 0.876478 0.363729
0.584314 0.976471 0.678431
0.610788 0.972549 0.678431
0.690196 0.972549 0.670588
0.80589 0.972549 0.642161
0.960784 0.984314 0.611765
0 0.0196078 0.167651
0.138476 0.0205844 0.176226
0.515694 0 0.211276
0.890196 0 0.232349
1 0.25098 0.294118
0 0.188968 0.215442
0.151232 0.199756 0.218204
0.547051 0.216907 0.235416
0.885664 0.274022 0.266667
1 0.429419 0.331365
0 0.575494 0.301472
0 0.556741 0.299016
0.5196 0.602457 0.243137
0.868254 0.627939 0.328557
1 0.684306 0.430396
0 0.841184 0.449012
0.210422 0.834318 0.446326
0.482231 0.830396 0.420706
0.815625 0.868635 0.375799
1 0.876478 0.505882
0.61471 0.976471 0.720592
0.641169 0.973526 0.720592
0.709316 0.972549 0.71667
0.813733 0.972549 0.696086
0.960784 0.984314 0.676463
0 0.054902 0.527443
0.230884 0.0588235 0.561761
0.644114 0.0372473 0.580392
0.891173 0.248035 0.579416
1 0.413733 0.613733
0 0.216663 0.524025
0.198657 0.246815 0.550484
0.638483 0.324514 0.5897
0.876463 0.424872 0.601968
1 0.488731 0.615686
0 0.598032 0.586282
0.0147097 0.596078 0.584558
0.584314 0.594125 0.58088
0.862013 0.621317 0.597543
1 0.684306 0.635294
0.247547 0.874022 0.68333
0.40209 0.863722 0.676722
0.606134 0.837995 0.659068
0.826841 0.863966 0.650736
0.9897 0.876478 0.724514
0.664714 0.980392 0.807843
0.691173 0.976471 0.807843
0.752941 0.972549 0.807843
0.832837 0.969116 0.799512
0.956863 0.984314 0.79411
0.105882 0.162737 0.843137
0.420096 0.186282 0.853193
0.772061 0.33431 0.876966
0.951232 0.442161 0.872541
1 0.58529 0.850004
0.0252384 0.308583 0.833326
0.386206 0.339712 0.844358
0.74902 0.464576 0.870954
0.931991 0.56434 0.873533
1 0.666667 0.858579
0 0.565194 0.813733
0.0653239 0.567285 0.814832
0.642893 0.62916 0.840436
0.890684 0.736278 0.86569
0.982361 0.794614 0.871565
0.10956 0.86569 0.853681
0.343633 0.861769 0.853742
0.621439 0.857847 0.852934
0.845289 0.854231 0.850736
0.97966 0.871809 0.861769
0.662745 0.992157 0.903929
0.700008 0.992157 0.903929
0.784314 0.984314 0.903426
0.872541 0.972549 0.902205
0.964706 0.980392 0.899992
0.639216 0.498039 0.996078
0.707851 0.528435 0.992157
0.85098 0.615686 0.988235
0.961761 0.727443 0.984314
1 0.764706 0.976471
0.623529 0.570581 0.992157
0.695827 0.597787 0.989944
0.839216 0.669123 0.98677
0.95172 0.765682 0.981125
1 0.8 0.973526
0.52549 0.698039 0.986282
0.613733 0.709316 0.984314
0.792157 0.753918 0.981369
0.933333 0.830884 0.978439
0.996078 0.860792 0.972549
0.318624 0.85687 0.980392
0.434318 0.853193 0.980392
0.651469 0.852934 0.979904
0.887251 0.884062 0.976471
0.984314 0.926467 0.976471
0.631373 0.988235 0.984314
0.66862 0.988235 0.980392
0.760784 0.984314 0.980392
0.872541 0.984314 0.980392
0.980392 0.984314 0.980392
