YOYO-Client/Yoyo/Assets.xcassets/Vegas.dataset/Kodak-UltraMax-400.cube
TITLE "Generated by Resolve"
LUT_3D_SIZE 9
0 0.0156863 0.0196078
0.0230411 0.0191196 0.0235294
0.101961 0.0235294 0.0205844
0.262745 0 0.0235294
0.492149 0 0.0235294
0.709804 0 0.0313725
0.881376 0 0.0480354
1 0 0.079408
1 0.219608 0.133333
0 0.0460822 0.027451
0.0186313 0.0504311 0.0235294
0.106249 0.0652018 0.027451
0.277943 0.0588235 0.0308843
0.503426 0 0.0330816
0.712077 0 0.0404974
0.880262 0 0.0593118
1 0.128679 0.0906844
1 0.289708 0.141665
0 0.154894 0.0421607
0 0.153185 0.0356603
0.0865187 0.185046 0.00489815
0.31458 0.206989 0.00538643
0.518624 0.201465 0.0382391
0.71458 0.208087 0.0588235
0.873533 0.246326 0.079408
1 0.323033 0.118135
1 0.410788 0.174502
0 0.3402 0.0612802
0 0.3402 0.0552071
0 0.350973 0.0126192
0.250553 0.405386 0
0.558572 0.423041 0
0.728008 0.417716 0.0189975
0.867887 0.445228 0.10454
0.9897 0.491356 0.162936
1 0.546075 0.229908
0 0.533333 0.113725
0 0.53138 0.110048
0 0.530388 0.0921645
0.0294194 0.550729 0.00367742
0.467643 0.600977 0
0.737499 0.626719 0
0.873045 0.623529 0.0485237
0.975738 0.639704 0.207599
1 0.672557 0.298039
0 0.698528 0.206867
0 0.694606 0.20325
0 0.692164 0.195468
0.000915541 0.69369 0.167224
0.381125 0.716915 0.0673991
0.657359 0.756374 0
0.862745 0.78088 0
0.969604 0.778424 0.197238
1 0.784802 0.345098
0 0.830396 0.328435
0 0.826474 0.328435
0 0.823529 0.321569
0.221698 0.822553 0.307973
0.41912 0.828428 0.276478
0.612497 0.846571 0.218509
0.807843 0.866423 0.167651
0.953796 0.877821 0.223774
1 0.876478 0.363729
0.269123 0.922545 0.492653
0.295583 0.919112 0.489219
0.358831 0.918624 0.485786
0.440864 0.914885 0.481559
0.53579 0.914702 0.468132
0.647852 0.918624 0.443809
0.774014 0.926467 0.410666
0.907347 0.937804 0.387747
0.999512 0.941665 0.424994
0.584314 0.976471 0.678431
0.592157 0.976471 0.678431
0.610788 0.972549 0.678431
0.645594 0.972549 0.67451
0.690196 0.972549 0.670588
0.7402 0.972549 0.66128
0.80589 0.972549 0.642161
0.88333 0.980392 0.623041
0.960784 0.984314 0.611765
0 0.0191196 0.057847
0.0225528 0.0196078 0.057847
0.105394 0.0204623 0.0656901
0.284504 0 0.0717479
0.507591 0 0.0811322
0.717647 0 0.0965744
0.888243 0 0.117159
1 0 0.144121
1 0.238727 0.187259
0 0.0539254 0.0686198
0.018265 0.0576791 0.0691234
0.127947 0.0628367 0.076463
0.300374 0.0515145 0.0843214
0.517128 0 0.0956436
0.721691 0 0.109133
0.888334 0 0.128435
1 0.156054 0.155871
1 0.304967 0.202518
0 0.178058 0.0965744
0 0.168994 0.0969558
0.104417 0.194339 0.0785229
0.324285 0.206561 0.0942397
0.527886 0.209873 0.11667
0.721569 0.222995 0.132403
0.880644 0.262257 0.15082
1 0.335698 0.180819
1 0.422553 0.231861
0 0.359319 0.129107
0 0.356909 0.130556
0 0.358923 0.114137
0.281193 0.410117 0.0368353
0.565103 0.425895 0.059678
0.729839 0.427024 0.140764
0.871427 0.456367 0.182361
0.993133 0.500923 0.22504
1 0.553918 0.281376
0 0.547066 0.182849
0 0.546807 0.182849
0 0.541787 0.172061
0.125246 0.55555 0.128862
0.489097 0.605875 0.00343328
0.743389 0.630732 0.0226444
0.87451 0.627451 0.178424
0.975769 0.647303 0.270375
1 0.6804 0.344121
0 0.708522 0.260792
0 0.706371 0.260868
0 0.700542 0.253574
0.121462 0.700008 0.232776
0.408087 0.720104 0.177264
0.669078 0.759808 0.0843214
0.866667 0.782437 0.13196
0.968475 0.78088 0.273198
1 0.788724 0.395102
0 0.834318 0.370092
0 0.833341 0.369619
0.00578317 0.830396 0.363729
0.276127 0.826474 0.353429
0.443442 0.830396 0.328252
0.624262 0.846647 0.282963
0.811765 0.868727 0.249882
0.953429 0.880385 0.294072
1 0.877455 0.412375
0.313787 0.922545 0.523095
0.336828 0.922545 0.520043
0.392767 0.918624 0.516182
0.465461 0.918624 0.512215
0.552911 0.914702 0.500038
0.657572 0.918624 0.477852
0.777661 0.927321 0.448524
0.907347 0.937804 0.432837
0.999512 0.942153 0.463722
0.596078 0.976471 0.693629
0.603861 0.976471 0.693629
0.623407 0.973526 0.693629
0.655573 0.972549 0.690196
0.697795 0.972549 0.68603
0.74786 0.972549 0.676661
0.806867 0.972549 0.66128
0.883818 0.980392 0.642161
0.960784 0.984314 0.634806
0 0.0196078 0.167651
0.0160525 0.0235294 0.17525
0.138476 0.0205844 0.176226
0.289219 0.000976577 0.185657
0.515694 0 0.211276
0.725124 0 0.218631
0.890196 0 0.232349
1 0.00575265 0.25919
1 0.25098 0.294118
0 0.064332 0.181857
0 0.0656901 0.189929
0.152911 0.0796216 0.196414
0.306188 0.0863355 0.20705
0.529168 0.00900282 0.219181
0.731685 0 0.227741
0.890898 0 0.245838
1 0.173083 0.270527
1 0.313603 0.305882
0 0.188968 0.215442
0 0.197665 0.217243
0.151232 0.199756 0.218204
0.342794 0.209033 0.22472
0.547051 0.216907 0.235416
0.733516 0.234257 0.249424
0.885664 0.274022 0.266667
1 0.343069 0.290929
1 0.429419 0.331365
0 0.405264 0.259556
0 0.398795 0.25713
0.0908064 0.376806 0.25214
0.329046 0.406409 0.229969
0.563424 0.418631 0.253925
0.72668 0.433341 0.281193
0.87332 0.46421 0.301106
0.993133 0.506508 0.329717
1 0.560296 0.370718
0 0.575494 0.301472
0 0.569848 0.301472
0 0.556741 0.299016
0.253193 0.557351 0.279835
0.5196 0.602457 0.243137
0.743206 0.624933 0.269612
0.868254 0.627939 0.328557
0.970336 0.651469 0.378988
1 0.684306 0.430396
0 0.72108 0.362249
0 0.718364 0.362875
0 0.710567 0.356741
0.263539 0.704616 0.346502
0.452018 0.720104 0.317098
0.682994 0.758831 0.286305
0.866667 0.78088 0.316396
0.961944 0.78088 0.398856
1 0.79118 0.485176
0 0.841184 0.449012
0.00321965 0.838026 0.449149
0.210422 0.834318 0.446326
0.350988 0.829938 0.438605
0.482231 0.830396 0.420706
0.639399 0.845747 0.393225
0.815625 0.868635 0.375799
0.949599 0.880385 0.412772
1 0.876478 0.505882
0.375006 0.922545 0.576471
0.393622 0.922545 0.575723
0.43949 0.919676 0.573037
0.505928 0.918624 0.569116
0.581186 0.914702 0.559319
0.672633 0.918624 0.54229
0.784314 0.926101 0.521477
0.906859 0.937743 0.513191
0.99559 0.941665 0.543267
0.61471 0.976471 0.720592
0.622553 0.976471 0.720592
0.641169 0.973526 0.720592
0.672053 0.972549 0.720592
0.709316 0.972549 0.71667
0.755886 0.968627 0.710658
0.813733 0.972549 0.696086
0.886397 0.976959 0.680018
0.960784 0.984314 0.676463
0 0.0299077 0.3402
0 0.0313725 0.351843
0.201465 0.0263523 0.374517
0.378363 0 0.374945
0.544854 0 0.363241
0.730388 0.0585794 0.396567
0.888243 0.053315 0.406867
1 0.135164 0.410788
1 0.267643 0.427939
0 0.0795911 0.349996
0 0.0869917 0.359258
0.208896 0.104692 0.384924
0.389578 0.102144 0.385962
0.551476 0.102541 0.377844
0.73228 0.164904 0.408515
0.888609 0.15967 0.412833
1 0.213733 0.418097
1 0.320104 0.435966
0 0.193866 0.363363
0 0.198398 0.366018
0.164431 0.219242 0.378714
0.392645 0.251865 0.394614
0.554772 0.274815 0.399634
0.737575 0.278462 0.410788
0.888609 0.287007 0.411307
1 0.343709 0.425681
1 0.430396 0.451957
0 0.400488 0.403861
0 0.401297 0.404227
0.0732128 0.404044 0.403311
0.376913 0.404089 0.399573
0.571725 0.4159 0.406836
0.739528 0.434256 0.416541
0.879042 0.46421 0.429892
0.993133 0.505699 0.449332
1 0.560296 0.48278
0 0.618143 0.459312
0 0.614221 0.456184
0.0998093 0.599695 0.446998
0.37319 0.571817 0.434562
0.552575 0.598413 0.420096
0.737987 0.614923 0.444816
0.859739 0.62739 0.473533
0.964309 0.65539 0.500252
1 0.688243 0.534066
0 0.749569 0.496086
0 0.746563 0.494728
0.22623 0.732738 0.485939
0.381247 0.717906 0.479988
0.506828 0.717647 0.465446
0.699229 0.755795 0.452018
0.862364 0.775814 0.482795
0.950072 0.78088 0.538994
1 0.795102 0.590753
0.200488 0.851835 0.558831
0.254765 0.849104 0.556146
0.346075 0.842618 0.552758
0.441352 0.835004 0.548547
0.540139 0.830396 0.538354
0.664836 0.842649 0.521401
0.822553 0.86569 0.517861
0.945098 0.876478 0.551034
1 0.876478 0.616663
0.447059 0.926467 0.649821
0.462257 0.926467 0.648219
0.49955 0.922545 0.646616
0.554116 0.918624 0.644602
0.618143 0.914702 0.637751
0.694667 0.914702 0.627527
0.791791 0.9234 0.613596
0.903868 0.934737 0.612741
0.989212 0.941665 0.641855
0.637751 0.976471 0.759319
0.645594 0.976471 0.759625
0.66421 0.976471 0.75993
0.691722 0.972549 0.760235
0.7299 0.971817 0.758572
0.771023 0.968627 0.754833
0.821195 0.972549 0.745098
0.887251 0.976471 0.731685
0.956863 0.984314 0.73431
0 0.054902 0.527443
0 0.0568704 0.539208
0.230884 0.0588235 0.561761
0.494606 0.0632334 0.588724
0.644114 0.0372473 0.580392
0.768872 0.0544137 0.562753
0.891173 0.248035 0.579416
0.998291 0.359808 0.60589
1 0.413733 0.613733
0 0.112261 0.532601
0 0.117922 0.542214
0.233951 0.133516 0.564828
0.496361 0.162585 0.592187
0.646815 0.172061 0.588479
0.768109 0.187503 0.571145
0.886519 0.313237 0.589395
0.994858 0.397971 0.613413
1 0.441184 0.619608
0 0.216663 0.524025
0 0.224994 0.532601
0.198657 0.246815 0.550484
0.478614 0.295277 0.58529
0.638483 0.324514 0.5897
0.758206 0.345769 0.578927
0.876463 0.424872 0.601968
0.987381 0.457298 0.613794
1 0.488731 0.615686
0 0.38088 0.541665
0 0.384802 0.541573
0.0628672 0.389273 0.54081
0.412863 0.421607 0.56379
0.620218 0.471321 0.587625
0.742397 0.497826 0.591119
0.870466 0.515816 0.602213
0.986282 0.523522 0.598993
1 0.56054 0.610056
0 0.598032 0.586282
0 0.598032 0.586282
0.0147097 0.596078 0.584558
0.379049 0.5935 0.582361
0.584314 0.594125 0.58088
0.733944 0.604044 0.587625
0.862013 0.621317 0.597543
0.965072 0.649516 0.612863
1 0.684306 0.635294
0 0.776959 0.642649
0 0.775158 0.644358
0.219791 0.767468 0.635904
0.43769 0.754162 0.62739
0.581491 0.72929 0.611887
0.716213 0.751446 0.606165
0.852689 0.766659 0.634012
0.936614 0.777356 0.66038
1 0.795102 0.685054
0.247547 0.874022 0.68333
0.301778 0.870588 0.680705
0.40209 0.863722 0.676722
0.514763 0.851347 0.667155
0.606134 0.837995 0.659068
0.692287 0.839338 0.648524
0.826841 0.863966 0.650736
0.93579 0.874998 0.680079
0.9897 0.876478 0.724514
0.494606 0.936034 0.736278
0.511986 0.934066 0.734554
0.555154 0.930205 0.732601
0.609003 0.923278 0.729564
0.666056 0.917769 0.725978
0.726131 0.914702 0.719265
0.803555 0.920836 0.711269
0.906432 0.934096 0.714916
0.982101 0.941665 0.737743
0.664714 0.980392 0.807843
0.672557 0.980392 0.807843
0.691173 0.976471 0.807843
0.719615 0.976471 0.807843
0.752941 0.972549 0.807843
0.791669 0.968627 0.806378
0.832837 0.969116 0.799512
0.891173 0.976471 0.791913
0.956863 0.984314 0.79411
0 0.0970626 0.701473
0 0.100984 0.709194
0.299504 0.107836 0.724025
0.546563 0.141176 0.747051
0.73431 0.222309 0.767407
0.835355 0.245594 0.755459
0.919112 0.276722 0.737865
0.99443 0.427451 0.739712
1 0.563729 0.766659
0 0.153429 0.702571
0 0.158633 0.709316
0.303883 0.173968 0.724269
0.544976 0.214023 0.749004
0.732692 0.290929 0.768872
0.83328 0.315496 0.760723
0.91458 0.341161 0.743358
0.989212 0.469444 0.747311
1 0.588724 0.773037
0 0.255879 0.688731
0 0.265339 0.700175
0.267643 0.282414 0.711986
0.51902 0.331136 0.738231
0.716548 0.405447 0.763485
0.819608 0.431617 0.759319
0.90013 0.453193 0.74522
0.972595 0.548486 0.755398
1 0.632837 0.780026
0 0.391669 0.680949
0 0.39559 0.684077
0.158221 0.408453 0.692561
0.458793 0.448096 0.717159
0.68716 0.522728 0.753368
0.797971 0.555734 0.755245
0.87892 0.576593 0.747478
0.95404 0.643565 0.767773
1 0.672557 0.778363
0 0.567895 0.700008
0 0.567895 0.700008
0.00386053 0.567468 0.699077
0.356771 0.569848 0.700008
0.605142 0.605631 0.723033
0.770092 0.660533 0.749294
0.855695 0.68333 0.753735
0.945159 0.704204 0.764492
1 0.706371 0.760296
0 0.753429 0.741665
0 0.750973 0.74258
0.157992 0.750195 0.74052
0.404761 0.748363 0.739559
0.583642 0.745586 0.738445
0.733532 0.743832 0.736217
0.845396 0.754482 0.744213
0.9355 0.770413 0.754299
1 0.79118 0.7682
0.224628 0.885298 0.792645
0.283955 0.884321 0.792325
0.395346 0.880919 0.788968
0.520165 0.875319 0.78558
0.644968 0.863661 0.77818
0.740322 0.843076 0.765118
0.83386 0.860502 0.765927
0.925322 0.869291 0.788098
0.978302 0.876478 0.807233
0.504417 0.947372 0.82089
0.523537 0.945815 0.822766
0.572961 0.942245 0.819303
0.640269 0.936477 0.816968
0.710536 0.927047 0.809903
0.767346 0.917708 0.805203
0.820142 0.918257 0.799924
0.907576 0.933822 0.805173
0.976471 0.938231 0.822736
0.670588 0.988235 0.857847
0.681865 0.985779 0.85655
0.704906 0.984314 0.856733
0.739712 0.980392 0.856931
0.779171 0.976471 0.857114
0.81471 0.972549 0.857298
0.851957 0.968627 0.853559
0.898711 0.973037 0.848219
0.958328 0.980392 0.850004
0.105882 0.162737 0.843137
0.233204 0.167651 0.846204
0.420096 0.186282 0.853193
0.607355 0.238727 0.86569
0.772061 0.33431 0.876966
0.887739 0.420706 0.881376
0.951232 0.442161 0.872541
1 0.479408 0.857481
1 0.58529 0.850004
0.115694 0.213596 0.842649
0.238132 0.221439 0.846952
0.417487 0.243259 0.853468
0.601938 0.291356 0.865278
0.767651 0.380209 0.87715
0.883284 0.464515 0.881331
0.94522 0.486458 0.873503
0.996994 0.516777 0.861219
1 0.612741 0.853925
0.0252384 0.308583 0.833326
0.192828 0.318624 0.837995
0.386206 0.339712 0.844358
0.576989 0.384436 0.856153
0.74902 0.464576 0.870954
0.869734 0.545159 0.878614
0.931991 0.56434 0.873533
0.982345 0.587839 0.859953
1 0.666667 0.858579
0 0.427939 0.821073
0.00514229 0.432837 0.823804
0.305028 0.44828 0.83003
0.525292 0.48719 0.84332
0.720165 0.559319 0.860853
0.851896 0.635782 0.873014
0.912749 0.654627 0.868635
0.962615 0.67425 0.859129
1 0.730755 0.864698
0 0.565194 0.813733
0 0.566674 0.813733
0.0653239 0.567285 0.814832
0.402884 0.5785 0.822309
0.642893 0.62916 0.840436
0.820645 0.709133 0.864836
0.890684 0.736278 0.86569
0.942397 0.75288 0.861097
0.982361 0.794614 0.871565
0 0.722545 0.825864
0 0.722545 0.826474
0.0126802 0.71899 0.824628
0.347387 0.716182 0.82327
0.543206 0.715007 0.821317
0.749554 0.752148 0.840314
0.869795 0.804898 0.861616
0.923445 0.821714 0.864759
0.979416 0.833707 0.872053
0.10956 0.86569 0.853681
0.20824 0.865568 0.853712
0.343633 0.861769 0.853742
0.485786 0.860945 0.853773
0.621439 0.857847 0.852934
0.743603 0.853925 0.850736
0.845289 0.854231 0.850736
0.919646 0.861524 0.856764
0.97966 0.871809 0.861769
0.509316 0.949996 0.88481
0.528435 0.949996 0.88481
0.577508 0.949508 0.88481
0.644602 0.946075 0.88481
0.722545 0.941726 0.884184
0.795636 0.932937 0.879866
0.85037 0.91957 0.87013
0.914809 0.930816 0.873365
0.972549 0.937743 0.887373
0.662745 0.992157 0.903929
0.674022 0.992157 0.904295
0.700008 0.992157 0.903929
0.738231 0.988235 0.903929
0.784314 0.984314 0.903426
0.834928 0.979294 0.901839
0.872541 0.972549 0.902205
0.910292 0.973037 0.89865
0.964706 0.980392 0.899992
0.423041 0.285298 0.938231
0.464698 0.296086 0.938231
0.561883 0.322179 0.942153
0.684306 0.374517 0.942153
0.806378 0.459068 0.946075
0.902449 0.551171 0.946075
0.962737 0.61471 0.945586
1 0.62948 0.93817
1 0.649027 0.926467
0.419181 0.327016 0.938231
0.461707 0.338231 0.938613
0.558129 0.361654 0.94168
0.680049 0.411872 0.942153
0.802487 0.490929 0.94583
0.898573 0.577752 0.946059
0.958831 0.638605 0.945586
0.996567 0.652445 0.93817
1 0.671626 0.930327
0.388724 0.401953 0.931868
0.436469 0.411795 0.933043
0.532845 0.433341 0.935286
0.661143 0.476951 0.939132
0.787869 0.547127 0.940932
0.886854 0.627802 0.943084
0.947829 0.686641 0.942702
0.985824 0.699031 0.93753
1 0.714824 0.930022
0.306493 0.496574 0.926467
0.363668 0.503288 0.926696
0.481209 0.521935 0.927062
0.624216 0.556252 0.930388
0.763455 0.61593 0.93431
0.871504 0.687251 0.938231
0.935195 0.741955 0.939193
0.973037 0.752911 0.934249
1 0.764218 0.926467
0.0213169 0.597055 0.916915
0.155886 0.599023 0.917159
0.351293 0.605753 0.916976
0.532418 0.627115 0.920745
0.706004 0.670588 0.924514
0.842649 0.739467 0.932204
0.918074 0.79559 0.936034
0.959106 0.808362 0.933608
0.990188 0.816419 0.926467
0 0.718318 0.911269
0 0.718318 0.91342
0.142138 0.715999 0.91104
0.385275 0.714702 0.90956
0.592401 0.725887 0.911269
0.785046 0.776532 0.920714
0.900084 0.838331 0.93286
0.945876 0.85687 0.933394
0.976471 0.864713 0.9299
0 0.843015 0.915068
0.0221866 0.842161 0.91487
0.258488 0.839216 0.914702
0.418173 0.835294 0.914092
0.56759 0.831312 0.910842
0.705165 0.830167 0.910414
0.857877 0.861524 0.918715
0.937255 0.896284 0.932967
0.968994 0.906859 0.933822
0.449516 0.938231 0.929961
0.472541 0.938231 0.929961
0.528481 0.937743 0.926909
0.604746 0.93431 0.926955
0.691386 0.930816 0.926894
0.778546 0.929961 0.926467
0.852613 0.926894 0.926467
0.920287 0.927382 0.926894
0.972976 0.933394 0.930388
0.666667 0.992157 0.945586
0.67451 0.992157 0.945586
0.700984 0.992157 0.945586
0.738415 0.988235 0.945586
0.784802 0.988235 0.947555
0.836759 0.984314 0.949508
0.887251 0.983459 0.945953
0.929473 0.976471 0.945098
0.969116 0.980392 0.945586
0.639216 0.498039 0.996078
0.658335 0.505882 0.996078
0.707851 0.528435 0.992157
0.775982 0.565682 0.992157
0.85098 0.615686 0.988235
0.914214 0.673533 0.988235
0.961761 0.727443 0.984314
0.996567 0.756863 0.980392
1 0.764706 0.976471
0.638727 0.527947 0.99559
0.66183 0.536767 0.996078
0.710048 0.55552 0.992157
0.775677 0.588113 0.992157
0.848768 0.636271 0.988235
0.912749 0.69247 0.988052
0.958831 0.741665 0.984314
0.992645 0.772061 0.980331
1 0.776471 0.976471
0.623529 0.570581 0.992157
0.64596 0.579171 0.992157
0.695827 0.597787 0.989944
0.763729 0.62623 0.989212
0.839216 0.669123 0.98677
0.904784 0.719478 0.984314
0.95172 0.765682 0.981125
0.985779 0.794858 0.979904
1 0.8 0.973526
0.593622 0.636271 0.988235
0.617029 0.640375 0.988235
0.672297 0.652323 0.988235
0.745159 0.677577 0.985779
0.824262 0.712261 0.984314
0.893141 0.757778 0.982849
0.944244 0.799512 0.980392
0.98088 0.825986 0.976471
1 0.829908 0.972549
0.52549 0.698039 0.986282
0.552209 0.700008 0.986282
0.613733 0.709316 0.984314
0.698772 0.725978 0.984314
0.792157 0.753918 0.981369
0.874266 0.792401 0.980392
0.933333 0.830884 0.978439
0.971084 0.857114 0.976471
0.996078 0.860792 0.972549
0.382345 0.769116 0.984314
0.425803 0.771572 0.984314
0.497917 0.771572 0.982483
0.607172 0.777325 0.980392
0.729656 0.793622 0.97966
0.838239 0.824628 0.977996
0.915679 0.86128 0.976471
0.965194 0.888243 0.976471
0.988235 0.895582 0.972549
0.318624 0.85687 0.980392
0.354406 0.85687 0.980392
0.434318 0.853193 0.980392
0.536034 0.852934 0.979782
0.651469 0.852934 0.979904
0.776226 0.857969 0.976471
0.887251 0.884062 0.976471
0.956497 0.917769 0.976471
0.984314 0.926467 0.976471
0.437247 0.93431 0.980392
0.460288 0.93431 0.980392
0.509682 0.93431 0.980392
0.581369 0.930388 0.980392
0.663722 0.928679 0.978683
0.749996 0.926467 0.980392
0.832959 0.922545 0.980392
0.933883 0.937743 0.976471
0.980392 0.956863 0.976471
0.631373 0.988235 0.984314
0.639216 0.988235 0.984314
0.66862 0.988235 0.980392
0.710781 0.988235 0.980392
0.760784 0.984314 0.980392
0.818631 0.984314 0.980392
0.872541 0.984314 0.980392
0.926467 0.984314 0.980392
0.980392 0.984314 0.980392
