YOYO-Client/Yoyo/Assets.xcassets/Vegas.dataset/Kodak-UltraMax-400.cube
TITLE "Generated by Resolve"
LUT_3D_SIZE 33
0 0.0156863 0.0196078
0.00392157 0.0156863 0.0196078
0.00784314 0.0156863 0.0196078
0.0153201 0.0156863 0.0196078
0.0230411 0.0191196 0.0235294
0.0340734 0.0196078 0.0235294
0.0526894 0.0235294 0.0235294
0.0749981 0.0235294 0.0235294
0.101961 0.0235294 0.0205844
0.134554 0.0235294 0.0224308
0.171572 0.016907 0.0223087
0.216663 0.00918593 0.0235294
0.262745 0 0.0235294
0.31899 0 0.0235294
0.374014 0 0.0235294
0.432593 0 0.0235294
0.492149 0 0.0235294
0.553796 0 0.0253605
0.608576 0 0.027451
0.6598 0 0.027451
0.709804 0 0.0313725
0.755886 0 0.0327153
0.804898 0 0.0365148
0.843015 0 0.0431373
0.881376 0 0.0480354
0.918868 0 0.0557565
0.956619 0 0.0634775
0.990066 0 0.0711986
1 0 0.079408
1 0.00514229 0.0909285
1 0.10367 0.102205
1 0.162005 0.114092
1 0.219608 0.133333
0 0.0194858 0.0234073
0.0037995 0.0196078 0.0196078
0.00759899 0.0231632 0.0196078
0.0115206 0.0234073 0.0235294
0.0192264 0.0235142 0.0235294
0.0340734 0.0273289 0.0235294
0.0495155 0.0305333 0.0235294
0.0749981 0.0312505 0.0235294
0.10193 0.0312505 0.0235294
0.134554 0.0312505 0.0235294
0.171572 0.0247196 0.0235294
0.217975 0.0182193 0.0235294
0.266667 0.0043183 0.0235294
0.31899 0 0.0235294
0.375677 0 0.0235294
0.434379 0 0.0235294
0.49601 0 0.0254215
0.553796 0 0.027451
0.610239 0 0.027451
0.661341 0 0.0312963
0.709804 0 0.0327916
0.75845 0 0.0352941
0.804898 0 0.0392157
0.843015 0 0.0442359
0.881376 0 0.0489967
0.918868 0 0.0557565
0.955886 0 0.0634775
0.986862 0 0.0717937
1 0 0.0828412
1 0.0290684 0.0909285
1 0.13051 0.10602
1 0.181247 0.117891
1 0.23505 0.133333
0 0.0272068 0.0235294
0.000244144 0.0272068 0.0235294
0.00415045 0.0272068 0.0232853
0.0113985 0.0307622 0.0235294
0.0191196 0.0311284 0.0235294
0.0301518 0.031342 0.0235294
0.0488136 0.03505 0.0235294
0.0749981 0.0389715 0.0235294
0.1019 0.0389715 0.0235294
0.134554 0.0389715 0.0235294
0.171572 0.03505 0.0235294
0.218021 0.028397 0.0235294
0.268971 0.0156863 0.0258335
0.322911 0.00149538 0.0272068
0.377798 0 0.0272068
0.43444 0 0.0273289
0.496086 0 0.027451
0.557473 0 0.027451
0.612497 0 0.0311284
0.663584 0 0.0313725
0.712108 0 0.0351415
0.75845 0 0.0366369
0.804898 0 0.0429694
0.843015 0 0.0479133
0.881376 0 0.051957
0.918868 0 0.0594339
0.955886 0 0.067155
0.98677 0 0.0749218
1 0.00462348 0.083299
1 0.081178 0.0946059
1 0.153658 0.106355
1 0.200259 0.118013
1 0.250492 0.137255
0 0.0349279 0.0270848
0 0.0349279 0.0270848
0.00369268 0.0349279 0.0237583
0.00817884 0.0381476 0.0235294
0.0191196 0.0388495 0.0235294
0.0337072 0.04271 0.0235294
0.0494392 0.045655 0.027451
0.0749981 0.0466926 0.027451
0.0980392 0.050248 0.027451
0.132845 0.050248 0.027451
0.173037 0.050248 0.027451
0.218997 0.0437476 0.027451
0.267903 0.0357977 0.027451
0.321813 0.0192111 0.027451
0.376226 0.00155642 0.027451
0.434012 0 0.027451
0.495888 0 0.0310063
0.55404 0 0.0313725
0.608087 0 0.032929
0.661982 0 0.0350805
0.710781 0 0.0366217
0.757107 0 0.0404364
0.801953 0 0.0442512
0.840803 0 0.0481575
0.879408 0 0.0555123
0.918013 0 0.059678
0.951965 0 0.0673991
0.98677 0.00222782 0.0787366
1 0.0555734 0.0864424
1 0.125887 0.0980697
1 0.180041 0.109926
1 0.223163 0.12192
1 0.26949 0.14081
0 0.0460822 0.027451
0 0.0460822 0.027451
0.000457771 0.0460822 0.027451
0.00747692 0.0465248 0.0270085
0.0186313 0.0504311 0.0235294
0.0335393 0.0572366 0.0235294
0.0529488 0.057847 0.0268101
0.0784314 0.0616617 0.027451
0.106249 0.0652018 0.027451
0.141558 0.0656901 0.027451
0.178775 0.06804 0.0298161
0.227298 0.0665446 0.0308843
0.277943 0.0588235 0.0308843
0.330266 0.0493935 0.0308843
0.384863 0.0340124 0.0313725
0.441535 0.0096437 0.0313725
0.503426 0 0.0330816
0.561151 0 0.0350347
0.615656 0 0.0367895
0.663523 0 0.0389258
0.712077 0 0.0404974
0.758282 0 0.0443122
0.804562 0 0.048127
0.841779 0 0.054551
0.880262 0 0.0593118
0.918013 0 0.0635996
0.955398 0.00643931 0.0713207
0.98677 0.0716411 0.0796521
1 0.128679 0.0906844
1 0.172839 0.102373
1 0.215442 0.114
1 0.254536 0.126329
1 0.289708 0.141665
0 0.0615244 0.0313725
0 0.0616159 0.0313725
0 0.064622 0.0313725
0.000549325 0.0618296 0.0277562
0.0108644 0.0659037 0.027451
0.0257115 0.0726787 0.0240482
0.053315 0.0798962 0.0235294
0.0854353 0.0844434 0.0240024
0.113939 0.0852674 0.026627
0.146807 0.088365 0.027451
0.186648 0.0910506 0.0313725
0.233082 0.0897078 0.0313725
0.282124 0.0879683 0.0313725
0.336019 0.0830854 0.0313725
0.389364 0.0772259 0.0346838
0.446204 0.0587472 0.0352941
0.503914 0.0359655 0.0352941
0.563394 0.01561 0.0386053
0.616419 0 0.0406653
0.667033 0 0.042771
0.713726 0 0.0466773
0.75845 0 0.05037
0.804898 0 0.0544747
0.841917 0 0.058381
0.8804 0.00578317 0.0631113
0.915434 0.0458991 0.0675212
0.952071 0.0962997 0.0758679
0.983459 0.146059 0.0862745
1 0.179171 0.0950179
1 0.214466 0.106004
1 0.248936 0.118105
1 0.284337 0.132967
1 0.31519 0.148409
0 0.0879835 0.0352941
0 0.0879835 0.0345617
0 0.0879835 0.0345617
0 0.0879835 0.0313725
0.000640879 0.0879835 0.0307317
0.0113985 0.0952163 0.0241398
0.0416724 0.106126 0.0209354
0.0853742 0.114015 0.0196078
0.123964 0.121019 0.0203403
0.161852 0.121813 0.0203403
0.200748 0.122316 0.0242618
0.24535 0.122545 0.0281834
0.292409 0.122545 0.0313725
0.344976 0.122118 0.0337072
0.399023 0.117479 0.0352941
0.453803 0.111147 0.0369879
0.511772 0.103059 0.0392157
0.569726 0.0938888 0.0427405
0.622065 0.0847334 0.0445258
0.672297 0.0768597 0.0483558
0.718624 0.0732586 0.0505226
0.763607 0.0766003 0.0544137
0.806134 0.0862745 0.05832
0.844724 0.102663 0.0631113
0.88333 0.124453 0.0676432
0.916747 0.147753 0.0746319
0.951965 0.173526 0.0823529
0.982956 0.201831 0.0906844
1 0.232837 0.101808
1 0.263432 0.11342
1 0.291417 0.125246
1 0.322301 0.140688
1 0.353918 0.160052
0 0.117281 0.0383612
0 0.117281 0.0383612
0 0.117281 0.0383612
0 0.118059 0.0352941
0 0.118135 0.031754
0 0.122789 0.027924
0.00854505 0.132509 0.0228275
0.0688792 0.143877 0.0165408
0.118929 0.154742 0.00967422
0.169238 0.160418 0.00955215
0.214725 0.163485 0.012253
0.25716 0.160418 0.0173953
0.303716 0.160418 0.0232395
0.353933 0.159915 0.0283055
0.406744 0.156497 0.0339513
0.460792 0.156039 0.0373846
0.51722 0.153246 0.0411841
0.573251 0.150851 0.0449683
0.625498 0.146929 0.0484016
0.672297 0.147326 0.0522316
0.718624 0.150607 0.0560464
0.763607 0.154971 0.0598764
0.806134 0.166049 0.0637064
0.844724 0.177935 0.0699779
0.882353 0.192157 0.0746319
0.917159 0.210727 0.0823529
0.948196 0.231495 0.090074
0.982605 0.255268 0.0984054
1 0.281849 0.109819
1 0.305837 0.121447
1 0.329778 0.132967
1 0.356893 0.148501
1 0.384802 0.167773
0 0.154894 0.0421607
0 0.149203 0.0421607
0 0.154528 0.0392157
0 0.149569 0.0392157
0 0.153185 0.0356603
0 0.154223 0.0310063
0 0.163424 0.0242618
0.0253605 0.174762 0.0134737
0.0865187 0.185046 0.00489815
0.153521 0.198901 0.000274662
0.212985 0.207965 0.000671397
0.265415 0.205295 0.00161746
0.31458 0.206989 0.00538643
0.362997 0.201404 0.0148623
0.411948 0.19939 0.0237736
0.463996 0.19884 0.030518
0.518624 0.201465 0.0382391
0.572793 0.19823 0.0449683
0.621378 0.198108 0.0487678
0.669367 0.202518 0.0531624
0.71458 0.208087 0.0588235
0.757717 0.21207 0.0627451
0.799573 0.221698 0.0678874
0.838849 0.233616 0.0738079
0.873533 0.246326 0.079408
0.911269 0.262074 0.087129
0.942153 0.282048 0.0948501
0.977417 0.302358 0.106493
1 0.323033 0.118135
1 0.342977 0.12987
1 0.360723 0.142641
1 0.387533 0.158083
1 0.410788 0.174502
0 0.197299 0.0459602
0 0.1935 0.0432288
0 0.198093 0.0431373
0 0.193744 0.0421302
0 0.197299 0.0395666
0 0.195102 0.0348058
0 0.200855 0.0281834
0 0.211521 0.0162966
0.0289464 0.223072 0.0027924
0.117281 0.234501 0
0.193378 0.249638 0
0.263142 0.256748 0
0.322255 0.258656 0
0.373648 0.253635 0.000656138
0.424994 0.249393 0.00282292
0.473045 0.246937 0.010071
0.52549 0.246876 0.0243229
0.575662 0.247944 0.0367437
0.622065 0.250614 0.0459602
0.668376 0.253437 0.0525673
0.713237 0.262455 0.0602884
0.755764 0.266789 0.0659495
0.794705 0.274388 0.071809
0.834073 0.286397 0.0784314
0.871565 0.298436 0.0861524
0.905638 0.314336 0.0938735
0.937377 0.328191 0.102129
0.972625 0.34728 0.113848
0.997528 0.364584 0.125368
1 0.383185 0.136889
1 0.395468 0.148577
1 0.422095 0.166659
1 0.442649 0.186023
0 0.243626 0.0497597
0 0.243626 0.0471504
0 0.243626 0.0470588
0 0.243626 0.0459449
0 0.243626 0.043473
0 0.243626 0.0396429
0 0.246815 0.0311131
0 0.254536 0.0173953
0 0.263478 0.00195315
0.0589456 0.277943 0
0.150484 0.293385 0
0.241352 0.307591 0
0.320287 0.315908 0
0.383337 0.316182 0
0.437247 0.311772 0
0.489296 0.306416 0
0.540688 0.30454 0.00183108
0.588113 0.304494 0.0143435
0.633082 0.30515 0.0321508
0.675502 0.310658 0.0459449
0.716182 0.314458 0.0586099
0.757107 0.322179 0.0680095
0.797894 0.331121 0.0757305
0.834073 0.339956 0.0842145
0.869551 0.351476 0.0938735
0.903548 0.362997 0.102449
0.939696 0.378439 0.113237
0.968811 0.393866 0.125292
0.997635 0.409461 0.137011
1 0.422431 0.148775
1 0.441428 0.166415
1 0.457023 0.178302
1 0.477455 0.197543
0 0.289952 0.0535592
0 0.293828 0.0535592
0 0.293873 0.0535592
0 0.292531 0.0512245
0 0.292531 0.0496376
0 0.292119 0.0459144
0 0.293614 0.0386053
0 0.296941 0.0238956
0 0.304662 0.0084535
0 0.316548 0
0.0803388 0.331991 0
0.188449 0.347433 0
0.283711 0.36202 0
0.369238 0.369909 0
0.437247 0.373526 0
0.493019 0.369604 0
0.547677 0.363729 0
0.595361 0.361761 0
0.638605 0.359197 0.00447089
0.678798 0.363119 0.0229801
0.719738 0.367544 0.0458228
0.758328 0.372305 0.0628672
0.794369 0.380438 0.0765393
0.832242 0.38909 0.0881056
0.867002 0.397787 0.0986496
0.901473 0.409308 0.11017
0.93492 0.422919 0.123522
0.964981 0.436271 0.13579
0.99089 0.449149 0.148486
1 0.464576 0.162753
1 0.480018 0.17818
1 0.49546 0.193744
1 0.512261 0.212985
0 0.3402 0.0612802
0 0.3402 0.0588998
0 0.341665 0.0588235
0 0.3402 0.0573587
0 0.3402 0.0552071
0 0.3402 0.0513619
0 0.3402 0.0438697
0 0.343587 0.0316167
0 0.350973 0.0126192
0 0.359075 0
0.0158389 0.37258 0
0.142245 0.38764 0
0.250553 0.405386 0
0.352132 0.417914 0
0.435447 0.42475 0
0.498482 0.426474 0
0.558572 0.423041 0
0.610086 0.419242 0
0.651225 0.417151 0
0.68957 0.415702 0.00178531
0.728008 0.417716 0.0189975
0.762982 0.422553 0.0493629
0.80119 0.427695 0.0730449
0.833234 0.435416 0.0891737
0.867887 0.445228 0.10454
0.900862 0.4551 0.117891
0.934066 0.466697 0.133059
0.963241 0.477699 0.148775
0.9897 0.491356 0.162936
1 0.504662 0.178317
1 0.516182 0.195102
1 0.53167 0.210666
1 0.546075 0.229908
0 0.390448 0.0690013
0 0.392767 0.0690013
0 0.392874 0.0690013
0 0.392767 0.0673991
0 0.390448 0.0650797
0 0.38909 0.0615091
0 0.388846 0.0540475
0 0.390448 0.0416724
0 0.394369 0.0232853
0 0.402243 0.00306706
0 0.41384 0
0.0733196 0.428305 0
0.205798 0.443122 0
0.310552 0.458488 0
0.406088 0.470054 0
0.488899 0.477958 0
0.558083 0.479042 0
0.612482 0.478294 0
0.658534 0.473533 0
0.699107 0.471199 0
0.734707 0.471199 0.000595102
0.77145 0.471748 0.0194858
0.807233 0.475624 0.0601663
0.838026 0.481743 0.0855879
0.868849 0.487709 0.108431
0.898405 0.497536 0.125612
0.931914 0.506493 0.143389
0.959564 0.518135 0.159075
0.987381 0.529778 0.17615
1 0.539315 0.191516
1 0.55317 0.209064
1 0.56257 0.224628
1 0.577935 0.24387
0 0.440681 0.0789197
0 0.442817 0.0806439
0 0.442893 0.0806439
0 0.440681 0.0789197
0 0.440681 0.076997
0 0.43711 0.0749981
0 0.436759 0.0678874
0 0.436759 0.0601663
0 0.440681 0.0465095
0 0.445838 0.021561
0 0.451865 0.00137331
0.00225834 0.463996 0
0.14728 0.479744 0
0.262959 0.494118 0
0.358877 0.507347 0
0.455009 0.519905 0
0.543511 0.528923 0
0.609613 0.530877 0
0.65832 0.529168 0
0.701762 0.527581 0
0.738781 0.525246 0
0.77348 0.523033 0.000595102
0.807111 0.52137 0.0219272
0.837995 0.526955 0.0690013
0.868879 0.531868 0.102693
0.898039 0.537865 0.128176
0.928115 0.547311 0.149187
0.957107 0.556741 0.16875
0.982071 0.56495 0.186267
1 0.576257 0.205509
1 0.585672 0.222446
1 0.597299 0.24007
1 0.60882 0.261524
0 0.487007 0.0943618
0 0.490929 0.096376
0 0.492882 0.0964523
0 0.489265 0.0943618
0 0.487007 0.0927596
0 0.487007 0.0904402
0 0.483818 0.0850233
0 0.483085 0.0776989
0 0.487007 0.0670329
0 0.48983 0.0495308
0 0.49546 0.0219425
0 0.504387 0.00143435
0.0857099 0.51519 0
0.223865 0.528801 0
0.323156 0.543069 0
0.420829 0.557595 0
0.513237 0.5682 0
0.596323 0.576959 0
0.656672 0.581933 0
0.702434 0.580377 0
0.742153 0.576516 0
0.780011 0.574655 0
0.813596 0.573281 0.000579843
0.842893 0.573281 0.0363165
0.873137 0.577203 0.0898909
0.901473 0.579904 0.123781
0.928435 0.587625 0.155154
0.955398 0.595346 0.177081
0.981598 0.603067 0.20145
0.998108 0.610956 0.218875
1 0.62034 0.239948
1 0.630198 0.257649
1 0.643626 0.278676
0 0.533333 0.113725
0 0.533333 0.113725
0 0.533333 0.113725
0 0.533333 0.113725
0 0.53138 0.110048
0 0.53138 0.108156
0 0.529778 0.104295
0 0.529412 0.100862
0 0.530388 0.0921645
0 0.53138 0.0806439
0 0.535286 0.0611582
0 0.541787 0.0289769
0.0294194 0.550729 0.00367742
0.170581 0.561517 0
0.282231 0.57586 0
0.375067 0.587442 0
0.467643 0.600977 0
0.560479 0.613596 0
0.632227 0.622431 0
0.690745 0.626291 0
0.737499 0.626719 0
0.776043 0.625498 0
0.812741 0.624872 0
0.842222 0.621561 0.00495918
0.873045 0.623529 0.0485237
0.899077 0.624384 0.107103
0.927703 0.628183 0.148043
0.953124 0.635599 0.179232
0.975738 0.639704 0.207599
0.996445 0.647425 0.230518
1 0.657115 0.253681
1 0.664836 0.276844
1 0.672557 0.298039
0 0.57966 0.13492
0 0.57966 0.13492
0 0.579782 0.13492
0 0.57966 0.13492
0 0.577813 0.133318
0 0.575738 0.130999
0 0.573892 0.127077
0 0.572274 0.124025
0 0.571817 0.117678
0 0.573892 0.110414
0 0.575158 0.0973373
0 0.580392 0.0798962
0 0.586267 0.0458534
0.121416 0.593988 0.00891127
0.237675 0.603922 0
0.332235 0.615442 0
0.428061 0.630884 0
0.515923 0.64448 0
0.592401 0.6551 0
0.662882 0.663844 0
0.721492 0.668803 0
0.76704 0.671931 0
0.806134 0.67129 0
0.839704 0.669856 0
0.870588 0.669398 0.00560006
0.897551 0.668009 0.076051
0.923781 0.668757 0.129763
0.950851 0.672267 0.17406
0.970092 0.676112 0.20589
0.989166 0.679973 0.234318
1 0.68603 0.257588
1 0.693751 0.282536
1 0.701473 0.30956
0 0.62034 0.158083
0 0.622065 0.158083
0 0.623667 0.159701
0 0.62034 0.158083
0 0.618418 0.15465
0 0.616693 0.154162
0 0.616419 0.150561
0 0.614221 0.147189
0 0.614038 0.143389
0 0.612497 0.135668
0 0.615732 0.126421
0 0.617868 0.112871
0 0.622797 0.0928969
0.115312 0.629496 0.062089
0.229908 0.637491 0.0196231
0.31986 0.646326 0
0.407477 0.658946 0
0.490517 0.673289 0
0.567864 0.686046 0
0.638804 0.69575 0
0.705699 0.702449 0
0.759533 0.707378 0
0.806424 0.710536 0
0.839582 0.710536 0
0.871015 0.710536 0
0.898405 0.710536 0.0372778
0.927703 0.710948 0.118944
0.950851 0.710536 0.166659
0.97203 0.710811 0.208301
0.989334 0.716228 0.237125
1 0.718624 0.269123
1 0.726299 0.294194
1 0.730632 0.32108
0 0.662867 0.182849
0 0.662867 0.182849
0 0.662867 0.182849
0 0.662867 0.181399
0 0.658946 0.181247
0 0.658946 0.177584
0 0.655329 0.175433
0 0.655024 0.173754
0 0.655024 0.169879
0 0.655024 0.16434
0 0.655024 0.156619
0 0.655024 0.147372
0 0.658351 0.132479
0.110613 0.6636 0.113329
0.220218 0.669001 0.0865949
0.304417 0.679042 0.040177
0.386648 0.687922 0.00477607
0.466178 0.699504 0
0.540078 0.71107 0
0.609552 0.720745 0
0.678447 0.731746 0
0.739345 0.738659 0
0.792401 0.744121 0
0.834638 0.747555 0
0.868406 0.747555 0
0.8972 0.747555 0.00854505
0.923781 0.74522 0.0915999
0.947188 0.74522 0.15552
0.969604 0.74551 0.198535
0.987533 0.747555 0.236759
1 0.747799 0.271565
1 0.751598 0.302495
1 0.757717 0.33492
0 0.698528 0.206867
0 0.697063 0.206867
0 0.697063 0.206867
0 0.697063 0.205524
0 0.694606 0.20325
0 0.694606 0.202945
0 0.692622 0.200946
0 0.692164 0.199023
0 0.692164 0.195468
0 0.692164 0.191592
0 0.692164 0.186023
0 0.692164 0.178302
0.000915541 0.69369 0.167224
0.132937 0.696071 0.154162
0.228672 0.702205 0.133425
0.305348 0.708461 0.108827
0.381125 0.716915 0.0673991
0.455756 0.726513 0.0142214
0.523781 0.736187 0
0.591669 0.747189 0
0.657359 0.756374 0
0.720729 0.766537 0
0.777417 0.773495 0
0.82475 0.777371 0
0.862745 0.78088 0
0.893629 0.78088 0.00428778
0.921782 0.78088 0.0818036
0.947173 0.778424 0.149615
0.969604 0.778424 0.197238
0.985275 0.778668 0.239582
1 0.78088 0.275639
1 0.781003 0.312795
1 0.784802 0.345098
0 0.734798 0.232837
0 0.734798 0.235416
0 0.734798 0.233005
0 0.732235 0.232837
0 0.731044 0.232837
0 0.72871 0.228916
0 0.728313 0.228916
0 0.72726 0.224994
0 0.726955 0.222065
0 0.725109 0.218265
0 0.724392 0.214466
0 0.72607 0.20763
0.048249 0.726955 0.199527
0.166278 0.729839 0.187198
0.244953 0.733089 0.174884
0.317586 0.736889 0.155489
0.385595 0.74461 0.128435
0.45362 0.753536 0.0952773
0.517235 0.762615 0.0486
0.580774 0.771389 0.013138
0.642374 0.78114 0
0.703975 0.7897 0
0.761395 0.797421 0
0.811765 0.801221 0
0.856458 0.806043 0
0.891722 0.808255 0.00460822
0.918761 0.809308 0.0746319
0.9458 0.809308 0.146075
0.966003 0.807965 0.194064
0.98529 0.807721 0.236149
1 0.805554 0.278141
1 0.807965 0.311803
1 0.807965 0.34902
0 0.769604 0.263722
0 0.769604 0.263722
0 0.769604 0.263722
0 0.767163 0.263722
0 0.765835 0.261372
0 0.765682 0.2598
0 0.7635 0.2598
0 0.762036 0.255879
0 0.761761 0.252949
0 0.761761 0.250019
0 0.761761 0.246189
0 0.761761 0.24155
0.0970932 0.761761 0.23505
0.196216 0.761761 0.227329
0.26598 0.764508 0.215686
0.326833 0.767773 0.202609
0.387503 0.774258 0.184436
0.450645 0.779293 0.163851
0.507301 0.785779 0.136812
0.565332 0.7935 0.108568
0.625772 0.802243 0.0707713
0.68542 0.811643 0.0293584
0.739467 0.818524 0.0144045
0.793164 0.824384 0.00700389
0.840742 0.830213 0.00857557
0.880262 0.831983 0.0348516
0.911513 0.83505 0.0921798
0.941985 0.83505 0.147494
0.962249 0.83505 0.192248
0.981384 0.834791 0.234684
0.998856 0.832273 0.275731
1 0.831128 0.314336
1 0.833829 0.352941
0 0.800488 0.298528
0 0.800488 0.298528
0 0.800488 0.298528
0 0.800488 0.295705
0 0.800488 0.294606
0 0.796567 0.292226
0 0.796567 0.290898
0 0.796567 0.288487
0 0.794461 0.287037
0 0.792645 0.28394
0 0.792645 0.280903
0.0584726 0.792645 0.277073
0.166293 0.792645 0.271489
0.235416 0.792645 0.265278
0.292027 0.794858 0.25539
0.34522 0.796567 0.245075
0.400793 0.801892 0.231556
0.456306 0.805737 0.21471
0.506752 0.811627 0.198032
0.560174 0.816663 0.177035
0.617029 0.824384 0.15671
0.670695 0.831724 0.134707
0.724025 0.838727 0.113573
0.776165 0.843626 0.0973068
0.823285 0.849546 0.0940871
0.865309 0.853422 0.105272
0.904005 0.857114 0.128634
0.934676 0.858213 0.164782
0.958328 0.858213 0.20087
0.977569 0.858213 0.238346
0.995285 0.856931 0.276844
1 0.854292 0.315435
1 0.854292 0.35404
0 0.830396 0.328435
0 0.829419 0.328435
0 0.829419 0.328435
0 0.829419 0.328435
0 0.826474 0.328435
0 0.826474 0.32549
0 0.826474 0.324514
0 0.826474 0.321569
0 0.823529 0.321569
0 0.822828 0.317647
0.0531319 0.822553 0.315618
0.158328 0.822553 0.311788
0.221698 0.822553 0.307973
0.276066 0.822553 0.301198
0.323781 0.822553 0.295521
0.36994 0.825086 0.287526
0.41912 0.828428 0.276478
0.466728 0.830396 0.263569
0.514885 0.835599 0.249943
0.561944 0.839826 0.23505
0.612497 0.846571 0.218509
0.664027 0.851011 0.203159
0.712261 0.857176 0.18677
0.762341 0.861891 0.174533
0.807843 0.866423 0.167651
0.850248 0.872541 0.165347
0.888548 0.876478 0.176349
0.925612 0.876478 0.197391
0.953796 0.877821 0.223774
0.973556 0.88011 0.253712
0.994492 0.877455 0.290196
1 0.876478 0.325216
1 0.876478 0.363729
0 0.857481 0.365072
0 0.857481 0.365072
0 0.857481 0.365072
0 0.854704 0.365072
0 0.853559 0.361151
0 0.853559 0.361151
0 0.853559 0.357961
0 0.850492 0.357229
0.014374 0.850492 0.357229
0.0864729 0.849638 0.353307
0.167575 0.849638 0.353307
0.225177 0.849638 0.349386
0.271153 0.849638 0.345785
0.314824 0.849638 0.341894
0.354299 0.849638 0.335897
0.394247 0.849638 0.328557
0.437873 0.851591 0.320836
0.481498 0.853559 0.311269
0.524025 0.857481 0.30013
0.567285 0.860883 0.288579
0.611597 0.86479 0.27512
0.658473 0.869734 0.262425
0.70454 0.873533 0.250874
0.750622 0.877943 0.237125
0.793042 0.884062 0.229404
0.831739 0.887984 0.224948
0.873243 0.891905 0.224918
0.911147 0.892531 0.232959
0.942168 0.895827 0.248035
0.968505 0.895827 0.270344
0.987869 0.895827 0.296818
1 0.895827 0.327794
1 0.895827 0.36556
0 0.880644 0.403677
0 0.880644 0.403677
0 0.880644 0.403677
0 0.880644 0.403677
0.00257877 0.877119 0.399847
0.0145266 0.876722 0.399756
0.0249027 0.876722 0.397162
0.107454 0.876722 0.395987
0.164584 0.876722 0.395834
0.20972 0.873686 0.393545
0.251698 0.872801 0.392142
0.289082 0.872801 0.389822
0.324483 0.872801 0.387991
0.358816 0.872801 0.384375
0.392889 0.872801 0.378683
0.427695 0.872801 0.374533
0.465324 0.872801 0.367163
0.501991 0.876326 0.359442
0.539879 0.878111 0.350317
0.578058 0.880201 0.340505
0.61593 0.883818 0.329168
0.657969 0.887739 0.317525
0.700252 0.891661 0.306386
0.741512 0.895064 0.297261
0.783459 0.898955 0.287068
0.819516 0.900374 0.280232
0.861036 0.904173 0.275731
0.895827 0.907347 0.27892
0.9299 0.910628 0.286519
0.957229 0.911269 0.298528
0.980194 0.911269 0.317357
0.999283 0.911269 0.34313
1 0.911269 0.374014
0.127199 0.903792 0.450126
0.142031 0.903212 0.450126
0.14931 0.903181 0.450126
0.166842 0.903181 0.44712
0.178134 0.903181 0.446815
0.202914 0.900389 0.446204
0.225986 0.89987 0.443519
0.254185 0.89987 0.442893
0.279957 0.899413 0.442893
