YOYO-Client/Yoyo/Assets.xcassets/Petal.dataset/Fuji-Astia-100F.cube
TITLE "Fuji-Astia-100F"
LUT_3D_SIZE 5
0 0 0
0.175494 0.000976577 0
0.564706 0 0
0.886275 0 0
1 0 0
0 0.188235 0.0156863
0.195346 0.231373 0
0.641184 0.20882 0
0.924269 0.193378 0
1 0.260777 0
0 0.533333 0
0 0.533333 0
0.567651 0.623529 0
0.921569 0.628916 0
1 0.615686 0
0 0.824506 0.132357
0 0.820829 0.0990158
0.324514 0.830396 0
0.820584 0.889464 0
1 0.866667 0
0.27451 1 0.541176
0.339208 1 0.537255
0.488243 1 0.507836
0.706859 1 0.396078
1 1 0
0.00195315 0 0.225498
0.229404 0 0.201953
0.522545 0 0.179904
0.849012 0 0.156619
1 0 0.1196
0 0.234318 0.238239
0.239033 0.235904 0.236637
0.609796 0.197055 0.208453
0.893141 0.169604 0.17261
1 0.238239 0.121569
0 0.575006 0.272557
0.0209506 0.565682 0.259312
0.585779 0.625498 0.148287
0.917647 0.627451 0.125612
1 0.617655 0.160784
0 0.836271 0.337987
0 0.835294 0.32752
0.372183 0.832349 0.2663
0.824506 0.889464 0.0588235
1 0.863722 0
0.35491 1 0.621561
0.404166 1 0.61471
0.517159 1 0.5897
0.713726 1 0.514946
1 1 0.210788
0 0 0.631373
0.371572 0 0.631373
0.661768 0 0.568627
0.801465 0 0.464714
1 0 0.466667
0 0.176471 0.640192
0.299016 0.160418 0.638239
0.66421 0.186526 0.587991
0.820096 0.165682 0.498405
1 0.0867628 0.467155
0 0.630396 0.631373
0.10956 0.632349 0.633326
0.607843 0.633829 0.633326
0.864454 0.603922 0.582605
1 0.586282 0.526467
0.224994 0.872557 0.658824
0.35172 0.868635 0.6598
0.509071 0.849271 0.627695
0.820584 0.886275 0.600488
1 0.866667 0.600977
0.509804 1 0.774502
0.538231 1 0.772549
0.60589 1 0.758831
0.742153 1 0.728435
0.992157 1 0.619608
0.303914 0 0.920592
0.495338 0 0.920592
0.787747 0 0.913725
0.951965 0 0.868879
1 0 0.773526
0.182361 0 0.916671
0.442954 0 0.916915
0.766537 0 0.913237
0.939208 0.212253 0.869368
1 0.101472 0.778683
0 0.545586 0.900984
0.157229 0.546075 0.901473
0.637507 0.555642 0.902937
0.886641 0.607111 0.871565
1 0.519615 0.792157
0 0.890196 0.890196
0.257298 0.890929 0.892409
0.581613 0.88922 0.892409
0.831983 0.887373 0.891844
1 0.858091 0.858824
0.631373 1 0.903929
0.670588 1 0.907835
0.754406 1 0.911772
0.824262 1 0.90074
0.988235 1 0.881376
0.556863 0 1
0.645106 0 1
0.847059 0 1
1 0 1
1 0.301961 1
0.524514 0 1
0.621317 0 1
0.825498 0 1
1 0.253925 1
1 0.429419 1
0.35491 0.468635 1
0.48481 0.470588 1
0.72549 0.494118 1
0.958328 0.588235 1
1 0.664698 1
0.0333257 0.821561 1
0.300984 0.821561 1
0.587259 0.830884 1
0.85417 0.848035 1
1 0.87451 1
0.52549 1 1
0.582361 1 1
0.717647 1 1
0.873533 1 1
1 1 1
