YOYO-Client/Yoyo/Assets.xcassets/Petal.dataset/Fuji-Astia-100F.cube
TITLE "Fuji-Astia-100F"
LUT_3D_SIZE 33
0 0 0
0.0115206 0 0
0.0230411 0 0
0.0459602 0 0
0.0652018 0.00343328 0
0.0850538 0.00392157 0
0.11078 0.00784314 0
0.141665 0.00477607 0
0.175494 0.000976577 0
0.214099 0 0
0.259312 0 0
0.305638 0 0
0.354406 0 0
0.408453 0 0
0.462501 0 0
0.514458 0 0
0.564706 0 0
0.614954 0 0
0.659556 0 0
0.702083 0 0
0.742153 0 0
0.779293 0 0
0.817899 0 0
0.852567 0 0
0.886275 0 0
0.92108 0 0
0.951965 0 0
0.982849 0 0
1 0 0
1 0 0
1 0 0
1 0 0
1 0 0
0 0.0115206 0
0.00772107 0.0115206 0
0.0230411 0.0115206 0
0.0459602 0.0150759 0
0.0652018 0.0154421 0
0.0882582 0.0187686 0
0.111513 0.0193637 0
0.14464 0.0155642 0
0.179324 0.00869764 0
0.220752 0.00106813 0
0.263157 0 0
0.309514 0 0
0.359686 0 0
0.412253 0 0
0.4663 0 0
0.520348 0 0
0.568566 0 0
0.618753 0 0
0.66128 0 0
0.705928 0 0
0.74461 0 0
0.783215 0 0
0.820508 0 0
0.855299 0 0
0.887251 0 0
0.92108 0 0
0.951965 0 0
0.982849 0 0
1 0 0
1 0 0
1 0 0
1 0 0
1 0 0
0 0.0230411 0.00367742
0.0037995 0.0230411 0
0.0230411 0.0269627 0
0.0459602 0.0302892 0
0.0652018 0.0308843 0
0.088365 0.0308843 0
0.114702 0.0308843 0
0.148455 0.0278172 0
0.183337 0.0240177 0
0.22562 0.0124514 0
0.270832 0.00114443 0
0.317159 0 0
0.365927 0 0
0.419974 0 0
0.474022 0 0
0.525979 0 0
0.576226 0 0
0.622553 0 0
0.667262 0 0
0.709682 0 0
0.748379 0 0
0.786892 0 0
0.821744 0 0
0.856428 0 0
0.890196 0 0
0.924758 0 0
0.955642 0 0
0.985946 0 0
1 0 0
1 0 0
1 0 0
1 0 0
1 0 0
0 0.0420386 0.00392157
0.0037995 0.0420386 0.00392157
0.0155642 0.0424048 0.000228885
0.0384833 0.0462959 0
0.0652018 0.0498817 0
0.0913558 0.0498817 0
0.118624 0.0498817 0
0.152285 0.0468147 0
0.190814 0.0430152 0
0.232227 0.0324712 0
0.278553 0.0209506 0
0.32488 0.00244144 0
0.377569 0 0
0.43125 0 0
0.481743 0 0
0.5337 0 0
0.583764 0 0
0.628611 0 0
0.672679 0 0
0.713481 0 0
0.752453 0 0
0.790692 0 0
0.82562 0 0
0.860319 0 0
0.894118 0 0
0.925002 0 0
0.955886 0 0
0.98677 0 0
1 0 0
1 0 0
1 0 0
1 0 0
1 0 0
0 0.0612802 0.00784314
0.00047303 0.0612802 0.00737011
0.0113069 0.0612802 0.0041352
0.0273289 0.0648814 0.000320439
0.060853 0.0725567 0
0.0945602 0.076463 0
0.125978 0.076463 0
0.160678 0.0734112 0
0.201953 0.0696117 0
0.244343 0.0618906 0
0.293141 0.0538338 0
0.345464 0.0367132 0
0.396078 0.0143435 0
0.449638 0 0
0.499962 0 0
0.548287 0 0
0.598535 0 0
0.641199 0 0
0.685542 0 0
0.724636 0 0
0.763241 0 0
0.800488 0 0
0.832929 0 0
0.866667 0 0
0.898405 0 0
0.931868 0 0
0.959319 0 0
0.989654 0 0
1 0 0
1 0 0
1 0 0
1 0 0
1 0 0
0 0.0844434 0.0150759
0 0.0844434 0.0117647
0.000579843 0.0844434 0.0111543
0.012253 0.0879835 0.00729381
0.0390936 0.091783 0.000411994
0.0838178 0.102296 0
0.128542 0.106737 0
0.167651 0.106874 0
0.209186 0.102968 0
0.255344 0.100008 0
0.30454 0.0922866 0
0.357961 0.0841535 0
0.408698 0.0694743 0
0.462135 0.0498817 0
0.51252 0.0256504 0
0.560906 0.00155642 0
0.607233 0 0
0.653269 0 0
0.69424 0 0
0.732845 0 0
0.77145 0 0
0.806134 0 0
0.83978 0 0
0.874388 0 0
0.905272 0 0
0.936156 0 0
0.963729 0 0
0.993378 0 0
1 0 0
1 0 0
1 0 0
1 0.0175784 0
1 0.0770886 0
0 0.11078 0.0156863
0 0.11078 0.0156863
0 0.11078 0.0149996
0.000671397 0.111513 0.0120699
0.0164187 0.115343 0.00759899
0.0568551 0.125978 0.000503548
0.11078 0.136904 0
0.166873 0.14464 0
0.216907 0.14461 0
0.263233 0.140887 0
0.313252 0.137987 0
0.366293 0.130266 0
0.42034 0.123278 0
0.473945 0.113649 0
0.52549 0.0990921 0
0.574243 0.0822003 0
0.620462 0.0618906 0
0.662974 0.0416266 0
0.70515 0.0213016 0
0.743755 0.00378424 0
0.779171 0 0
0.813855 0 0
0.847303 0 0
0.878187 0 0
0.909621 0 0
0.939956 0 0
0.97023 0.00178531 0
0.996063 0.0211032 0
1 0.0430152 0
1 0.0649729 0
1 0.0925002 0
1 0.121843 0
1 0.154162 0
0 0.144732 0.0187533
0 0.144732 0.0156863
0 0.144732 0.0156863
0 0.144732 0.0149081
0 0.148272 0.00833143
0.0207065 0.15613 0.000610361
0.0798962 0.167651 0
0.148653 0.179171 0
0.215351 0.190158 0
0.2701 0.187869 0
0.321202 0.186419 0
0.374014 0.180514 0
0.428061 0.17586 0
0.482109 0.168139 0
0.535668 0.160418 0
0.584192 0.151385 0
0.630518 0.142824 0
0.67454 0.131212 0
0.713603 0.122179 0
0.752209 0.113603 0
0.789334 0.108629 0
0.82414 0.104295 0
0.855024 0.100862 0
0.885908 0.104158 0
0.916793 0.105974 0
0.947005 0.114336 0
0.97406 0.123079 0
0.999283 0.135424 0
1 0.145342 0
1 0.156939 0
1 0.173159 0
1 0.189578 0
1 0.209674 0
0 0.188235 0.0156863
0 0.189212 0.0156863
0 0.189212 0.0129244
0 0.189212 0.0118563
0 0.189212 0.00796521
0 0.193957 0.000610361
0.0353552 0.20441 0
0.11397 0.21593 0
0.195346 0.231373 0
0.270893 0.242313 0
0.330632 0.240436 0
0.38468 0.236637 0
0.438727 0.232837 0
0.492775 0.227451 0
0.542885 0.221317 0
0.594858 0.215167 0
0.641184 0.20882 0
0.685664 0.202487 0
0.724269 0.198596 0
0.762875 0.194125 0
0.8 0.190188 0
0.831861 0.189853 0
0.862745 0.189212 0
0.893629 0.190188 0
0.924269 0.193378 0
0.951476 0.197269 0
0.978439 0.202701 0
1 0.210422 0
1 0.218143 0
1 0.226841 0
1 0.234806 0
1 0.246326 0
1 0.260777 0
0 0.229786 0.0128634
0 0.233661 0.00903334
0 0.236347 0.00894179
0 0.233967 0.00529488
0 0.233707 0.0040589
0 0.236072 0.000167849
0 0.240803 0
0.0630961 0.251835 0
0.154803 0.267033 0
0.240757 0.282475 0
0.323629 0.290547 0
0.389212 0.291661 0
0.444602 0.287861 0
0.495872 0.283619 0
0.54815 0.279164 0
0.596811 0.274052 0
0.643137 0.269612 0
0.689464 0.26569 0
0.73138 0.261769 0
0.770428 0.261311 0
0.806943 0.257847 0
0.839582 0.257847 0
0.870466 0.257847 0
0.900557 0.257847 0
0.929137 0.260945 0
0.95613 0.262623 0
0.983124 0.269612 0
1 0.273701 0
1 0.279042 0
1 0.286763 0
1 0.294484 0
1 0.302235 0
1 0.314946 0
0 0.272297 0.00514229
0 0.278798 0.00514229
0 0.27892 0.00129702
0 0.27892 0.00122072
0 0.27657 0
0 0.276219 0
0 0.279911 0
0.00669871 0.287129 0
0.10135 0.299016 0
0.198047 0.316396 0
0.289845 0.332601 0
0.374929 0.343435 0
0.443595 0.344366 0
0.49865 0.341543 0
0.550484 0.337011 0
0.600168 0.331945 0
0.647059 0.328069 0
0.689464 0.324178 0
0.732555 0.323522 0
0.772671 0.322438 0
0.809812 0.319615 0
0.843809 0.319615 0
0.875105 0.319615 0
0.90515 0.319615 0
0.933028 0.321508 0
0.960021 0.323796 0
0.98703 0.327688 0
1 0.331563 0
1 0.336522 0
1 0.340551 0
1 0.34461 0
1 0.352361 0
1 0.361273 0
0 0.314824 0
0 0.321202 0
0 0.322591 0
0 0.321447 0
0 0.321324 0
0 0.321324 0
0 0.321324 0
0 0.325734 0
0.0278477 0.3364 0
0.147311 0.349264 0
0.244358 0.367285 0
0.340047 0.383185 0
0.427588 0.394873 0
0.495033 0.398413 0
0.549371 0.395605 0
0.600732 0.389853 0
0.645777 0.385962 0
0.689464 0.384085 0
0.730739 0.381369 0
0.771145 0.380331 0
0.808194 0.378805 0
0.844602 0.378805 0
0.875486 0.378805 0
0.906371 0.378805 0
0.936919 0.379446 0
0.963928 0.382727 0
0.990448 0.382727 0
1 0.386648 0
1 0.388312 0
1 0.390692 0
1 0.394568 0
1 0.399878 0
1 0.407599 0
0 0.367163 0
0 0.370047 0
0 0.370092 0
0 0.367651 0
0 0.367651 0
0 0.3664 0
0 0.367376 0
0 0.369558 0
0 0.375616 0
0.0773175 0.386526 0
0.196048 0.401968 0
0.294606 0.420478 0
0.3897 0.436759 0
0.475349 0.448402 0
0.543786 0.451621 0
0.596811 0.44889 0
0.643137 0.445106 0
0.688777 0.441306 0
0.730144 0.439216 0
0.76875 0.439216 0
0.807355 0.435294 0
0.842039 0.435294 0
0.875486 0.435294 0
0.906371 0.435294 0
0.937255 0.435294 0
0.966125 0.436759 0
0.992432 0.436759 0
1 0.43714 0
1 0.439399 0
1 0.440681 0
1 0.443229 0
1 0.444678 0
1 0.45098 0
0 0.407721 0
0 0.413901 0
0 0.417899 0
0 0.415778 0
0 0.414176 0
0 0.413977 0
0 0.411643 0
0 0.411643 0
0 0.415167 0
0.00915541 0.423453 0
0.134081 0.435035 0
0.244602 0.44976 0
0.343389 0.469123 0
0.437507 0.484565 0
0.521523 0.496208 0
0.588388 0.501488 0
0.640803 0.500618 0
0.684443 0.49865 0
0.726925 0.494728 0
0.766415 0.493141 0
0.804425 0.490806 0
0.838361 0.488487 0
0.872068 0.486885 0
0.904051 0.486885 0
0.93492 0.486885 0
0.964218 0.487236 0
0.99173 0.488487 0
1 0.488487 0
1 0.488487 0
1 0.488624 0
1 0.492409 0
1 0.492454 0
1 0.49633 0
0 0.450248 0
0 0.457969 0
0 0.458091 0
0 0.458091 0
0 0.45658 0
0 0.454505 0
0 0.45417 0
0 0.452445 0
0 0.45417 0
0 0.460914 0
0.0556649 0.46981 0
0.190661 0.481392 0
0.293782 0.498527 0
0.39118 0.515435 0
0.482856 0.530877 0
0.564034 0.545419 0
0.628916 0.551598 0
0.679408 0.551659 0
0.721065 0.548775 0
0.762615 0.545876 0
0.798688 0.542 0
0.833432 0.540169 0
0.866133 0.538186 0
0.900252 0.537011 0
0.931121 0.534798 0
0.961639 0.534798 0
0.990448 0.534798 0
1 0.534798 0
1 0.534798 0
1 0.534798 0
1 0.534798 0
1 0.534859 0
1 0.536522 0
0 0.490929 0
0 0.496635 0
0 0.500618 0
0 0.498939 0
0 0.496696 0
0 0.496696 0
0 0.49485 0
0 0.492775 0
0 0.492775 0
0 0.496696 0
0 0.503304 0
0.129381 0.514229 0
0.246036 0.526955 0
0.344854 0.544244 0
0.438407 0.561761 0
0.527092 0.577203 0
0.603433 0.59173 0
0.666423 0.599634 0
0.714092 0.599023 0
0.75491 0.596063 0
0.792813 0.592203 0
0.827558 0.588968 0
0.861646 0.58648 0
0.894606 0.585046 0
0.927321 0.584527 0
0.956374 0.581125 0
0.985168 0.581125 0
1 0.581125 0
1 0.579049 0
1 0.578866 0
1 0.575128 0
1 0.575128 0
1 0.579049 0
0 0.533333 0
0 0.537194 0
0 0.537255 0
0 0.537255 0
0 0.537255 0
0 0.535286 0
0 0.535286 0
0 0.533761 0
0 0.533333 0
0 0.535286 0
0 0.539956 0
0.0553292 0.547677 0
0.196811 0.557839 0
0.299687 0.573281 0
0.395102 0.588724 0
0.483696 0.607172 0
0.567651 0.623529 0
0.639155 0.635172 0
0.700252 0.643137 0
0.747189 0.644297 0
0.785779 0.641184 0
0.822431 0.637247 0
0.856489 0.634684 0
0.890684 0.631373 0
0.921569 0.628916 0
0.952453 0.627451 0
0.981003 0.625116 0
1 0.623529 0
1 0.621317 0
1 0.619608 0
1 0.617517 0
1 0.615686 0
1 0.615686 0
0 0.56997 0
0 0.577691 0
0 0.577813 0
0 0.577813 0
0 0.577813 0
0 0.573892 0
0 0.573892 0
0 0.572457 0
0 0.56997 0
0 0.571466 0
0 0.573327 0
0 0.578561 0
0.140459 0.588724 0
0.255619 0.600244 0
0.350607 0.613855 0
0.442283 0.632227 0
0.527138 0.648646 0
0.605264 0.665934 0
0.673045 0.67863 0
0.731121 0.68455 0
0.776913 0.686839 0
0.81532 0.682979 0
0.850126 0.679133 0
0.884932 0.675853 0
0.915816 0.67332 0
0.946685 0.671473 0
0.977188 0.668009 0
1 0.665644 0
1 0.6636 0
1 0.660166 0
1 0.658198 0
1 0.656199 0
1 0.654414 0
0 0.608576 0
0 0.614633 0
0 0.616419 0
0 0.616419 0
0 0.612772 0
0 0.612497 0
0 0.611109 0
0 0.608576 0
0 0.608576 0
0 0.608576 0
0 0.608576 0
0 0.613947 0
0.0723278 0.620249 0
0.213153 0.628794 0
0.312016 0.642649 0
0.401541 0.656367 0
0.486641 0.672679 0
0.566674 0.691173 0
0.638987 0.705653 0
0.703914 0.716548 0
0.761181 0.722057 0
0.80502 0.722301 0
0.842405 0.72108 0
0.877211 0.717769 0
0.908522 0.714458 0
0.940688 0.710536 0
0.971252 0.706615 0
0.99855 0.706004 0
1 0.702205 0
1 0.696849 0
1 0.693004 0
1 0.689219 0
1 0.689219 0
0 0.647181 0
0 0.651102 0
0 0.654932 0
0 0.651316 0
0 0.651102 0
0 0.651102 0
0 0.647913 0
0 0.647181 0
0 0.647181 0
0 0.647181 0
0 0.647181 0
0 0.648707 0
0.0189212 0.653559 0
0.170764 0.660624 0
0.27631 0.671321 0
0.36556 0.684199 0
0.44773 0.698894 0
0.528069 0.714336 0
0.602243 0.729076 0
0.672099 0.741299 0
0.733928 0.751354 0
0.788174 0.758267 0
0.831983 0.758587 0
0.86949 0.756542 0
0.904295 0.753063 0
0.935164 0.749142 0
0.966049 0.744915 0
0.992035 0.741054 0
1 0.737179 0
1 0.73164 0
1 0.727703 0
1 0.723903 0
1 0.720104 0
0 0.685786 0.00294499
0 0.688243 0.00294499
0 0.690532 0.00155642
0 0.688243 0.000137331
0 0.688243 0
0 0.688243 0
0 0.686244 0
0 0.685786 0
0 0.685786 0
0 0.685786 0
0 0.685786 0
0 0.685786 0
0 0.688792 0
0.126757 0.695079 0
0.244938 0.702205 0
0.3337 0.712703 0
0.415198 0.724269 0
0.492409 0.737819 0
0.567895 0.751324 0
0.637385 0.765927 0
0.705394 0.776532 0
0.763363 0.786786 0
0.816175 0.790661 0
0.859358 0.791669 0
0.895094 0.788846 0
0.928923 0.78497 0
0.959808 0.779904 0
0.988006 0.775601 0
1 0.771572 0
1 0.765545 0
1 0.760296 0
1 0.756374 0
1 0.752453 0
0 0.724392 0.0328374
0 0.726879 0.0341955
0 0.728313 0.032929
0 0.726955 0.0267185
0 0.726955 0.0189975
0 0.724392 0.010132
0 0.724392 0.00294499
0 0.723339 0
0 0.723033 0
0 0.723033 0
0 0.72047 0
0 0.722148 0
0 0.723033 0
0.0762188 0.726955 0
0.216205 0.733089 0
0.307713 0.74081 0
0.38677 0.751781 0
0.463966 0.764584 0
0.535546 0.776104 0
0.606546 0.789151 0
0.674006 0.800748 0
0.736492 0.811887 0
0.794537 0.818799 0
0.845716 0.821805 0
0.888487 0.823011 0
0.923659 0.820218 0
0.954528 0.816419 0
0.985412 0.809308 0
1 0.805219 0
1 0.801099 0
1 0.793545 0
1 0.78967 0
1 0.785779 0
0 0.759075 0.0676432
0 0.761761 0.0688792
0 0.761761 0.0677195
0 0.761761 0.0638437
0 0.761761 0.0576028
0 0.759075 0.0474098
0 0.758068 0.0360418
0 0.757839 0.0208286
0 0.757839 0.00650034
0 0.757839 0.000686656
0 0.755154 0
0 0.755154 0
0 0.757839 0
0.0468605 0.760174 0
0.190188 0.763973 0
0.281987 0.770459 0
0.361028 0.77818 0
0.435752 0.787747 0
0.505348 0.797543 0
0.574136 0.809186 0
0.642161 0.820066 0
0.703914 0.83125 0
0.764843 0.839811 0
0.821668 0.84593 0
0.8701 0.84712 0
0.911635 0.847776 0
0.946807 0.843885 0
0.977691 0.840009 0
1 0.835782 0
1 0.828321 0
1 0.823117 0
1 0.816632 0
1 0.812741 0
0 0.792645 0.0985275
0 0.792645 0.102449
0 0.796567 0.102449
0 0.792752 0.0986343
0 0.792645 0.0921492
0 0.792645 0.0845655
0 0.792645 0.0768444
0 0.790448 0.0660563
0 0.789822 0.0517128
0 0.789029 0.0345617
0 0.788724 0.0124971
0 0.788724 0.00224308
0 0.788724 0
0.0193484 0.791501 0
0.167651 0.794232 0
0.263264 0.798062 0
0.340383 0.805264 0
0.409903 0.812985 0
0.478798 0.820706 0
0.546029 0.829572 0
0.611276 0.839384 0
0.674144 0.850614 0
0.735561 0.858335 0
0.793439 0.865263 0
0.846693 0.869978 0
0.895338 0.872801 0
0.934798 0.869978 0
0.96997 0.866987 0
0.999039 0.861784 0
1 0.855283 0
1 0.850126 0
1 0.843595 0
1 0.838605 0
0 0.824506 0.132357
0 0.824506 0.13431
0 0.827451 0.13431
0 0.824781 0.130755
0 0.824506 0.127825
0 0.824506 0.12105
0 0.824506 0.114275
0 0.824506 0.106737
0 0.820829 0.0990158
0 0.820584 0.088365
0 0.820584 0.0746929
0 0.820584 0.0527504
0 0.820584 0.0247501
0.004654 0.821164 0.00984207
0.152392 0.824506 0.000427253
0.248859 0.826596 0
0.324514 0.830396 0
0.39353 0.835752 0
0.456855 0.841917 0
0.521965 0.849638 0
0.584436 0.860288 0
0.648035 0.868009 0
0.708888 0.875731 0
0.766537 0.883452 0
0.820584 0.889464 0
0.873777 0.893141 0
0.919539 0.893935 0
0.95848 0.890196 0
0.99057 0.886275 0
1 0.881987 0
1 0.878187 0
1 0.870466 0
1 0.866667 0
0 0.857481 0.175982
0 0.858335 0.176806
0 0.858335 0.176837
0 0.858335 0.172427
0 0.857481 0.168627
0 0.857481 0.164828
0 0.854994 0.160296
0 0.854414 0.153307
0 0.854414 0.146227
0 0.854414 0.13872
0 0.853559 0.128313
0 0.853559 0.117357
0 0.853559 0.102205
0.0196536 0.854414 0.0839857
0.160296 0.854414 0.0512093
0.251347 0.857481 0.0111086
0.322667 0.859861 0
0.386404 0.865324 0
0.447791 0.870573 0
0.509071 0.87657 0
0.568826 0.882475 0
0.627817 0.890196 0
0.68777 0.897063 0
0.745464 0.904784 0
0.800366 0.909224 0
0.853559 0.913054 0
0.903227 0.915434 0
0.945724 0.915434 0
0.984558 0.912276 0
1 0.908095 0
1 0.904295 0
1 0.896574 0
1 0.892775 0
0 0.884565 0.206867
0 0.884565 0.210788
0 0.884565 0.210788
0 0.884565 0.206867
0 0.881773 0.200153
0 0.880751 0.195712
0 0.880644 0.191913
0 0.880644 0.187411
0 0.880644 0.181125
0 0.880644 0.173404
0 0.880644 0.169604
0 0.880644 0.158694
0 0.880644 0.148989
0.0324559 0.880644 0.137453
0.165591 0.880644 0.122301
0.250126 0.88307 0.096376
0.317647 0.884565 0.0546578
0.378683 0.888487 0.00831617
0.436194 0.891981 0
0.494057 0.897185 0
0.549996 0.901442 0
0.607233 0.908705 0
0.663005 0.91519 0
0.719234 0.920226 0
0.773281 0.926955 0
0.827329 0.930877 0
0.877455 0.934798 0
0.926467 0.934798 0
0.968475 0.931533 0
0.999329 0.930587 0
1 0.923735 0
1 0.919738 0
1 0.912016 0
0 0.907713 0.242283
0 0.907713 0.242283
0 0.907713 0.242283
0 0.907713 0.238666
0 0.907713 0.234852
0 0.907713 0.231037
0 0.907713 0.227329
0 0.904418 0.223529
0 0.904418 0.220188
