YOYO-Client/Yoyo/Assets.xcassets/Petal.dataset/Fuji-Astia-100F.cube
TITLE "Fuji-Astia-100F"
LUT_3D_SIZE 9
0 0 0
0.0652018 0.00343328 0
0.175494 0.000976577 0
0.354406 0 0
0.564706 0 0
0.742153 0 0
0.886275 0 0
1 0 0
1 0 0
0 0.0612802 0.00784314
0.060853 0.0725567 0
0.201953 0.0696117 0
0.396078 0.0143435 0
0.598535 0 0
0.763241 0 0
0.898405 0 0
1 0 0
1 0 0
0 0.188235 0.0156863
0 0.189212 0.00796521
0.195346 0.231373 0
0.438727 0.232837 0
0.641184 0.20882 0
0.8 0.190188 0
0.924269 0.193378 0
1 0.218143 0
1 0.260777 0
0 0.367163 0
0 0.367651 0
0 0.375616 0
0.3897 0.436759 0
0.643137 0.445106 0
0.807355 0.435294 0
0.937255 0.435294 0
1 0.439399 0
1 0.45098 0
0 0.533333 0
0 0.537255 0
0 0.533333 0
0.196811 0.557839 0
0.567651 0.623529 0
0.785779 0.641184 0
0.921569 0.628916 0
1 0.621317 0
1 0.615686 0
0 0.685786 0.00294499
0 0.688243 0
0 0.685786 0
0 0.688792 0
0.415198 0.724269 0
0.705394 0.776532 0
0.895094 0.788846 0
1 0.771572 0
1 0.752453 0
0 0.824506 0.132357
0 0.824506 0.127825
0 0.820829 0.0990158
0 0.820584 0.0247501
0.324514 0.830396 0
0.584436 0.860288 0
0.820584 0.889464 0
0.99057 0.886275 0
1 0.866667 0
0 0.931868 0.28481
0 0.931868 0.277882
0 0.931868 0.266545
0.0142824 0.93138 0.243626
0.327199 0.93138 0.2
0.527947 0.940505 0.0514687
0.731868 0.958328 0
0.927016 0.966171 0
1 0.954406 0
0.27451 1 0.541176
0.298039 1 0.541665
0.339208 1 0.537255
0.404898 1 0.52549
0.488243 1 0.507836
0.586267 1 0.473045
0.706859 1 0.396078
0.853437 1 0.235294
1 1 0
0.0191196 0 0.0769665
0.0769665 0 0.0691234
0.164218 0.000976577 0.0656901
0.346563 0 0.0652018
0.549508 0 0.0571145
0.72549 0 0.0357824
0.871931 0 0.00601205
1 0 0
1 0 0
0 0.0725567 0.0769055
0.0651408 0.0759899 0.0798962
0.201465 0.0686198 0.0760357
0.389517 0.0118563 0.0690776
0.583093 0 0.054902
0.747875 0 0.0314183
0.886976 0 0
1 0 0
1 0 0
0 0.211276 0.0954604
0.00149538 0.208331 0.0917678
0.210788 0.234562 0.0540475
0.442649 0.22562 0.0318608
0.637003 0.200977 0.018143
0.789609 0.181979 0
0.915038 0.182452 0
1 0.209308 0
1 0.254902 0
0 0.383825 0.100679
0 0.382879 0.0944686
0.020676 0.382116 0.0619364
0.400183 0.435843 0
0.645594 0.440436 0
0.806806 0.431373 0
0.933242 0.431418 0
1 0.435782 0
1 0.449516 0
0 0.546807 0.107103
0 0.548775 0.101472
0 0.542947 0.0738994
0.226627 0.56054 0
0.572549 0.623529 0
0.787015 0.637415 0
0.921569 0.627451 0
1 0.621317 0
1 0.615686 0
0 0.695094 0.139712
0 0.69781 0.13666
0 0.693629 0.114748
0.0475624 0.693507 0.0453803
0.425498 0.725002 0
0.705394 0.777447 0
0.896941 0.787747 0
1 0.769421 0
1 0.753918 0
0 0.828428 0.212253
0 0.831373 0.2103
0 0.828428 0.192615
0 0.824506 0.158099
0.340383 0.830884 0.0475471
0.587259 0.860288 0
0.824506 0.889464 0
0.99057 0.886275 0
1 0.863722 0
0 0.935286 0.33431
0 0.935286 0.333822
0 0.935286 0.321736
0.0753033 0.93138 0.29984
0.342611 0.93138 0.263508
0.531838 0.940505 0.180179
0.732235 0.958328 0.00759899
0.927016 0.966171 0
1 0.954406 0
0.305394 1 0.568139
0.332357 1 0.572061
0.366171 1 0.564218
0.420584 1 0.552453
0.496086 1 0.534554
0.59234 1 0.503731
0.709804 1 0.435294
0.853437 1 0.297063
1 1 0
0.00195315 0 0.225498
0.114336 0 0.225498
0.229404 0 0.201953
0.336767 0 0.176471
0.522545 0 0.179904
0.698528 0 0.168261
0.849012 0 0.156619
0.983703 0 0.140078
1 0 0.1196
0 0.064332 0.232349
0.0717479 0.060914 0.232837
0.242496 0.0576028 0.216022
0.36434 0.0317388 0.195102
0.54902 0 0.188724
0.717159 0 0.175082
0.863233 0 0.160327
0.992386 0 0.14226
1 0 0.120714
0 0.234318 0.238239
0 0.235538 0.239429
0.239033 0.235904 0.236637
0.432349 0.221698 0.224048
0.609796 0.197055 0.208453
0.761578 0.172854 0.190188
0.893141 0.169604 0.17261
1 0.189975 0.14789
1 0.238239 0.121569
0 0.418631 0.253437
0 0.420584 0.256367
0.18468 0.406622 0.247364
0.424567 0.439628 0.205615
0.64773 0.435294 0.193011
0.801877 0.431373 0.193622
0.92108 0.431373 0.184039
1 0.433875 0.164096
1 0.44448 0.135912
0 0.575006 0.272557
0 0.575067 0.27126
0.0209506 0.565682 0.259312
0.292226 0.565194 0.226902
0.585779 0.625498 0.148287
0.787015 0.635782 0.103609
0.917647 0.627451 0.125612
1 0.621561 0.155642
1 0.617655 0.160784
0 0.713726 0.29546
0 0.715068 0.294606
0 0.708583 0.282658
0.204166 0.703258 0.257359
0.447364 0.725917 0.196994
0.712871 0.778988 0.0746777
0.89427 0.786862 0
1 0.769421 0.0170443
1 0.753918 0.0816205
0 0.836271 0.337987
0 0.839216 0.339208
0 0.835294 0.32752
0.1196 0.831647 0.304814
0.372183 0.832349 0.2663
0.594736 0.857481 0.185748
0.824506 0.889464 0.0588235
0.9897 0.885908 0
1 0.863722 0
0 0.93579 0.425864
0 0.937972 0.428046
0.0043183 0.935286 0.416419
0.198566 0.931792 0.398123
0.373037 0.93138 0.371572
0.542229 0.938903 0.323033
0.732235 0.955398 0.246479
0.923964 0.966171 0.112581
1 0.954406 0
0.35491 1 0.621561
0.377935 1 0.622065
0.404166 1 0.61471
0.45098 1 0.605264
0.517159 1 0.5897
0.60441 1 0.567041
0.713726 1 0.514946
0.853437 1 0.412253
1 1 0.210788
0 0 0.426474
0.11783 0 0.428916
0.327825 0 0.424994
0.460288 0 0.387259
0.531624 0 0.322545
0.6701 0 0.318135
0.818143 0 0.313237
0.959014 0 0.301961
1 0 0.293141
0 0.0345006 0.435294
0.0472877 0.0182803 0.437095
0.323507 0 0.435782
0.467353 0 0.397238
0.54403 0 0.334554
0.682841 0 0.329412
0.829328 0 0.319478
0.963241 0 0.304936
1 0 0.293141
0 0.209308 0.443137
0 0.2103 0.443992
0.266178 0.205921 0.443626
0.474083 0.216236 0.414832
0.568933 0.197543 0.367712
0.713359 0.171145 0.35346
0.85304 0.136187 0.334676
0.977935 0.128145 0.315679
1 0.182223 0.300984
0 0.439216 0.440131
0 0.443687 0.441352
0.201831 0.443687 0.440681
0.451194 0.4421 0.438071
0.621286 0.425498 0.417655
0.762753 0.41323 0.395163
0.88719 0.409079 0.373037
0.995758 0.4103 0.348638
1 0.424506 0.328923
0 0.615442 0.442893
0 0.617487 0.449424
0.260716 0.610971 0.451957
0.399512 0.593103 0.440192
0.598032 0.629404 0.411521
0.778988 0.63183 0.406622
0.905577 0.628672 0.414466
1 0.623133 0.403922
1 0.616419 0.38407
0 0.746136 0.471015
0 0.745586 0.473533
0.210849 0.737972 0.464668
0.339712 0.725917 0.446571
0.48278 0.729412 0.418418
0.715694 0.779904 0.391196
0.887739 0.783444 0.381857
0.998657 0.769421 0.388235
1 0.757839 0.40589
0 0.851591 0.494606
0 0.852811 0.497414
0.141512 0.847059 0.488609
0.287739 0.840879 0.470848
0.424018 0.836271 0.444114
0.601465 0.856367 0.411154
0.824506 0.88922 0.383612
0.982681 0.883207 0.359411
1 0.862745 0.357473
0.0406806 0.939223 0.553124
0.129763 0.94136 0.554192
0.214649 0.938796 0.545464
0.313237 0.935286 0.53019
0.423774 0.93138 0.508186
0.557656 0.935775 0.4804
0.732235 0.951476 0.43975
0.923064 0.962249 0.392386
1 0.950484 0.334493
0.424506 1 0.693629
0.440192 1 0.695094
0.462745 1 0.689708
0.497551 1 0.681865
0.551476 1 0.668879
0.626474 1 0.652949
0.724025 1 0.619608
0.853437 1 0.549508
0.996078 1 0.426474
0 0 0.631373
0.14902 0 0.633341
0.371572 0 0.631373
0.565194 0 0.617151
0.661768 0 0.568627
0.702937 0 0.484062
0.801465 0 0.464714
0.93138 0 0.468635
1 0 0.466667
0 0 0.637751
0.0728923 0 0.638239
0.355764 0 0.635233
0.563973 0 0.622309
0.665324 0 0.575982
0.7075 0 0.491569
0.807355 0 0.475731
0.936034 0 0.474998
1 0 0.466911
0 0.176471 0.640192
0 0.172793 0.639216
0.299016 0.160418 0.638239
0.54699 0.161456 0.631189
0.66421 0.186526 0.587991
0.713298 0.160967 0.511269
0.820096 0.165682 0.498405
0.94313 0.118379 0.484001
1 0.0867628 0.467155
0 0.40441 0.635538
0 0.405875 0.636667
0.154284 0.405875 0.635294
0.470649 0.404868 0.635782
0.647425 0.423896 0.606989
0.718593 0.399237 0.549722
0.838972 0.379232 0.528191
0.957839 0.351568 0.495827
1 0.352209 0.473777
0 0.630396 0.631373
0 0.634318 0.635294
0.10956 0.632349 0.633326
0.416785 0.632349 0.633326
0.607843 0.633829 0.633326
0.744121 0.618875 0.610056
0.864454 0.603922 0.582605
0.973159 0.588968 0.550484
1 0.586282 0.526467
0 0.777935 0.629908
0.118318 0.779324 0.636179
0.313176 0.774014 0.639887
0.459373 0.766644 0.643656
0.555764 0.750729 0.626352
0.718135 0.782635 0.614008
0.869917 0.782284 0.615198
0.975982 0.773526 0.61915
1 0.764462 0.610788
0.224994 0.872557 0.658824
0.279408 0.874022 0.663233
0.35172 0.868635 0.6598
0.434073 0.859861 0.647852
0.509071 0.849271 0.627695
0.620096 0.85301 0.605875
0.820584 0.886275 0.600488
0.9682 0.881987 0.594125
1 0.866667 0.600977
0.31986 0.946807 0.690929
0.347524 0.946777 0.692149
0.385107 0.944854 0.685237
0.436606 0.939864 0.67509
0.502449 0.935164 0.657359
0.592554 0.934798 0.638086
0.734737 0.947433 0.615625
0.915465 0.961761 0.598535
1 0.950484 0.579904
0.509804 1 0.774502
0.521569 1 0.776471
0.538231 1 0.772549
0.565194 1 0.767407
0.60589 1 0.758831
0.662501 1 0.747051
0.742153 1 0.728435
0.853437 1 0.687495
0.992157 1 0.619608
0.116182 0 0.799512
0.242649 0 0.799512
0.421698 0 0.799512
0.60589 0 0.794675
0.747311 0 0.775494
0.821576 0 0.736767
0.854536 0 0.656489
0.926955 0 0.61912
1 0 0.630884
0 0 0.800977
0.199207 0 0.801465
0.404242 0 0.799558
0.600305 0 0.795209
0.745342 0 0.778592
0.821149 0 0.739391
0.85391 0 0.659846
0.927459 0 0.62533
1 0 0.633143
0 0.116304 0.8
0.0608682 0.106493 0.800977
0.357229 0.0756085 0.799146
0.574014 0.0562448 0.797421
0.735164 0.129534 0.78352
0.813733 0.181048 0.746212
0.851255 0.132967 0.669398
0.928923 0.119356 0.636316
1 0.118868 0.635782
0 0.365133 0.793561
0 0.364889 0.795041
0.221057 0.363073 0.795041
0.500893 0.361425 0.795041
0.700496 0.390692 0.788968
0.795239 0.417731 0.755245
0.840574 0.376959 0.683742
0.928313 0.354528 0.655955
1 0.33193 0.641245
0 0.59118 0.787015
0 0.592065 0.788968
0.0145266 0.590692 0.788235
0.390204 0.590417 0.787015
0.615442 0.598169 0.790204
0.760327 0.618875 0.768627
0.822553 0.575799 0.711025
0.927947 0.542641 0.679011
1 0.518868 0.648524
0 0.781369 0.78529
0 0.783825 0.787747
0.106676 0.783825 0.787747
0.393912 0.783825 0.787747
0.574517 0.78291 0.78851
0.723293 0.786603 0.789822
0.832471 0.768307 0.7664
0.937331 0.749584 0.739223
1 0.737316 0.716731
0.224506 0.891661 0.781369
0.29337 0.89189 0.784924
0.39173 0.889586 0.787045
0.508446 0.886076 0.790692
0.614221 0.87892 0.795102
0.681865 0.86453 0.779416
0.819699 0.886275 0.77586
0.946075 0.881865 0.776608
1 0.873899 0.781857
0.430762 0.958328 0.802457
0.45597 0.958022 0.80589
0.497047 0.954726 0.80589
0.556863 0.950973 0.807172
0.612497 0.945098 0.799023
0.660121 0.938613 0.781933
0.7476 0.93959 0.765179
0.911315 0.957839 0.767651
1 0.950301 0.768627
0.587259 1 0.850004
0.598535 1 0.850004
0.617639 1 0.850004
0.650004 1 0.850004
0.68333 1 0.846082
0.718685 1 0.837324
0.772061 1 0.824018
0.862074 1 0.804105
0.988235 1 0.774502
0.303914 0 0.920592
0.367285 0 0.920592
0.495338 0 0.920592
0.645594 0 0.918746
0.787747 0 0.913725
0.892653 0 0.898039
0.951965 0 0.868879
0.982971 0 0.809674
1 0 0.773526
0.26128 0 0.920226
0.340734 0 0.920592
0.47953 0 0.920592
0.638117 0 0.918746
0.781369 0 0.913664
0.888685 0 0.899458
0.947768 0 0.868757
0.979782 0 0.809293
1 0 0.776471
0.182361 0 0.916671
0.285054 0 0.916915
0.442954 0 0.916915
0.613535 0 0.916762
0.766537 0 0.913237
0.878798 0.15491 0.899779
0.939208 0.212253 0.869368
0.974044 0.142397 0.811765
1 0.101472 0.778683
0 0.318135 0.911269
0.0982071 0.315694 0.910903
0.349752 0.310384 0.910903
0.550484 0.311772 0.912749
0.723537 0.340261 0.910353
0.852811 0.396597 0.899733
0.919478 0.423865 0.871321
0.959625 0.368643 0.813245
1 0.332845 0.782345
0 0.545586 0.900984
0 0.547555 0.902937
0.157229 0.546075 0.901473
0.426963 0.54847 0.900984
0.637507 0.555642 0.902937
0.804898 0.587869 0.897368
0.886641 0.607111 0.871565
0.934005 0.549508 0.817838
1 0.519615 0.792157
0 0.741665 0.894606
0 0.744121 0.897063
0 0.742275 0.896239
0.359182 0.742321 0.893141
0.551293 0.745098 0.893141
0.727459 0.75404 0.893141
0.850248 0.766049 0.877485
0.904295 0.719554 0.830045
1 0.692653 0.810422
0 0.890196 0.890196
0.0294041 0.893141 0.893141
0.257298 0.890929 0.892409
0.432319 0.889311 0.892409
0.581613 0.88922 0.892409
0.71667 0.88922 0.892409
0.831983 0.887373 0.891844
0.91606 0.870497 0.874022
1 0.858091 0.858824
0.427573 0.969604 0.885786
0.461662 0.969604 0.885786
0.517861 0.966674 0.888731
0.597589 0.963714 0.889586
0.685908 0.958755 0.892653
0.760433 0.952819 0.893629
0.802487 0.941604 0.881132
0.915297 0.954406 0.882185
1 0.949996 0.88922
0.631373 1 0.903929
0.646693 1 0.906859
0.670588 1 0.907835
0.709926 1 0.91078
0.754406 1 0.911772
0.79559 1 0.911772
0.824262 1 0.90074
0.880888 1 0.891783
0.988235 1 0.881376
0.449027 0 1
0.490684 0 1
0.574884 0 1
0.693141 0 1
0.820096 0 1
0.930388 0 0.996567
1 0 0.98088
1 0 0.957839
1 0 0.927443
0.425986 0 1
0.471946 0 1
0.563561 0 1
0.685557 0 1
0.812253 0 1
0.925719 0 0.99501
1 0 0.980514
1 0.0775158 0.957839
1 0.00943008 0.926955
0.387747 0 1
0.438239 0 1
0.537408 0 1
0.666087 0 1
0.796567 0 1
0.910704 0.0583658 0.992813
0.994492 0.227695 0.979843
1 0.283513 0.957092
1 0.243748 0.923537
0.299504 0.258824 0.993133
0.360449 0.256672 0.99443
0.473045 0.254902 0.99443
0.612924 0.257465 0.99443
0.75491 0.287648 0.993133
0.879774 0.351278 0.98941
0.973388 0.421118 0.976593
1 0.450813 0.953918
1 0.4103 0.922057
0.004654 0.503426 0.983581
0.157015 0.507103 0.983581
0.336339 0.507103 0.983581
0.510231 0.505394 0.983581
0.676966 0.514214 0.98529
0.826474 0.546654 0.981369
0.93872 0.592706 0.971328
0.998505 0.612253 0.949996
1 0.568139 0.917647
0 0.698222 0.973526
0 0.700679 0.973831
0.182666 0.702373 0.973526
0.404044 0.703929 0.972244
0.576471 0.708583 0.969604
0.746563 0.718074 0.969604
0.891783 0.742641 0.965148
0.964706 0.756374 0.947387
1 0.710475 0.915373
0 0.858824 0.965682
0 0.858335 0.965728
0.20502 0.857969 0.965682
0.396582 0.85539 0.965682
0.550988 0.85539 0.961761
0.690562 0.855528 0.958373
0.832715 0.862287 0.957839
0.934844 0.870161 0.94728
0.988724 0.832715 0.920104
0.304906 0.965682 0.958755
0.353002 0.965682 0.961761
0.427955 0.965682 0.961761
0.52665 0.962249 0.957839
0.633616 0.961547 0.957839
0.741268 0.957839 0.957839
0.842817 0.957412 0.957412
0.930449 0.956664 0.957794
0.995651 0.946075 0.94699
0.6103 1 0.953918
0.626413 1 0.953918
0.660655 1 0.953918
0.709804 1 0.953918
0.772061 1 0.957351
0.834318 1 0.959136
0.888731 1 0.961761
0.919539 1 0.957351
0.992157 1 0.953918
0.556863 0 1
0.583337 0 1
0.645106 0 1
0.739223 0 1
0.847059 0 1
0.949508 0 1
1 0 1
1 0.198535 1
1 0.301961 1
0.54461 0 1
0.575067 0 1
0.639826 0 1
0.732845 0 1
0.841184 0 1
0.945586 0 1
1 0.0145876 1
1 0.260288 1
1 0.344121 1
0.524514 0 1
0.555032 0 1
0.621317 0 1
0.717159 0 1
0.825498 0 1
0.930266 0.0154421 1
1 0.253925 1
1 0.370092 1
1 0.429419 1
0.47451 0.198535 1
0.50901 0.200183 1
0.578927 0.2 1
0.677943 0.211765 1
0.7897 0.254902 1
0.900008 0.333883 1
0.995224 0.426474 1
1 0.502937 1
1 0.543633 1
0.35491 0.468635 1
0.399023 0.470588 1
0.48481 0.470588 1
0.598779 0.47451 1
0.72549 0.494118 1
0.849027 0.532357 1
0.958328 0.588235 1
1 0.639948 1
1 0.664698 1
0.170092 0.66421 1
0.248829 0.666667 1
0.365194 0.670588 1
0.499077 0.678431 1
0.640436 0.686275 1
0.78088 0.701961 1
0.908339 0.73138 1
1 0.764401 1
1 0.779904 1
0.0333257 0.821561 1
0.145342 0.821561 1
0.300984 0.821561 1
0.449516 0.825498 1
0.587259 0.830884 1
0.718746 0.840192 1
0.85417 0.848035 1
0.972671 0.863233 1
1 0.87451 1
0.269123 0.939223 1
0.313237 0.93872 1
0.39559 0.93872 1
0.500679 0.93872 1
0.61471 0.93872 1
0.727642 0.93872 1
0.831373 0.93872 1
0.935225 0.942641 1
1 0.946563 1
0.52549 1 1
0.540688 1 1
0.582361 1 1
0.644114 1 1
0.717647 1 1
0.796567 1 1
0.873533 1 1
0.942153 1 1
1 1 1
