YOYO-Client/Yoyo/Assets.xcassets/Lijiang.dataset/Lijiang.cube
TITLE "Lijiang"
LUT_3D_SIZE 5
0.00643931 0.00643931 0.00643931
0.127855 0 0
0.375937 0 0
0.608209 0 0
0.888701 0 0.0621042
0 0.185473 0
0.193027 0.203845 0
0.446876 0.183703 0.00172427
0.671916 0.167208 0.0218357
0.943511 0.143648 0.157687
0 0.424414 0.0186313
0.118013 0.447639 0.00225834
0.4701 0.477928 0.00675975
0.762646 0.437049 0.0752422
1 0.420386 0.247745
0 0.702785 0.115831
0 0.707652 0.127031
0.425528 0.765789 0.12549
0.764004 0.783841 0.195926
1 0.739132 0.422629
0 1 0.671199
0 1 0.686961
0.325826 1 0.711208
0.714458 1 0.765652
1 1 0.902419
0 0 0.133761
0.15555 0 0.165026
0.383917 0 0.175647
0.623163 0 0.144961
0.903471 0 0.189319
0 0.194751 0.220661
0.186099 0.214694 0.232853
0.450858 0.203357 0.210773
0.681102 0.175067 0.19939
0.955505 0.156832 0.261204
0 0.442115 0.234409
0.10309 0.460029 0.2327
0.472068 0.486091 0.23946
0.757443 0.45034 0.25861
1 0.428092 0.335271
0 0.715526 0.288655
0 0.721492 0.294148
0.415732 0.770123 0.293065
0.766903 0.787503 0.327016
1 0.74049 0.472358
0 1 0.692134
0 1 0.708827
0.339239 1 0.729793
0.721309 1 0.77998
1 1 0.910811
0 0 0.34728
0.137911 0 0.37116
0.374304 0 0.408087
0.623224 0 0.407401
0.912413 0 0.374746
0 0.185214 0.446235
0.139818 0.204944 0.465385
0.436515 0.211658 0.472618
0.685481 0.178836 0.444984
0.963043 0.130938 0.410773
0 0.445136 0.491234
0.110124 0.464561 0.501213
0.461677 0.490272 0.508766
0.749325 0.473823 0.484657
1 0.451835 0.496071
0 0.718364 0.509544
0 0.723613 0.511574
0.401556 0.769726 0.515663
0.769528 0.786267 0.541253
1 0.740459 0.582177
0 1 0.741527
0 1 0.756176
0.372244 1 0.773037
0.736156 1 0.813626
1 1 0.928206
0 0.0281071 0.605325
0.0768749 0.0973983 0.639323
0.347814 0.151537 0.672953
0.607019 0.135012 0.674739
0.907012 0.0911269 0.664775
0 0.250507 0.696681
0.103227 0.272786 0.713451
0.388861 0.291035 0.725277
0.660197 0.282811 0.721294
0.952483 0.251408 0.701671
0 0.447333 0.737865
0.127565 0.468345 0.749874
0.418372 0.490883 0.761105
0.721172 0.499275 0.763043
1 0.469703 0.734707
0 0.710689 0.769924
0.102602 0.731502 0.779293
0.420844 0.763684 0.786633
0.762585 0.781506 0.791745
1 0.755337 0.771695
0 1 0.848524
0.160311 1 0.854414
0.442588 1 0.861799
0.759472 1 0.884382
1 1 0.959258
0.146319 0.528969 0.96495
0.202777 0.554665 0.972549
0.32282 0.590661 0.981567
0.544579 0.623423 0.990143
0.817487 0.647181 0.992584
0.239536 0.628229 0.994079
0.283497 0.640192 0.996643
0.404929 0.658732 0.999985
0.598154 0.679332 1
0.854109 0.694942 1
0.350591 0.723049 1
0.396384 0.73048 1
0.504952 0.743603 1
0.671672 0.760021 1
0.911254 0.772946 1
0.497169 0.840635 1
0.535149 0.845457 1
0.619486 0.855177 1
0.757885 0.867903 1
0.979751 0.883757 1
0.678294 1 1
0.707561 1 1
0.773724 1 1
0.890135 1 1
0.999969 0.999969 0.999954
