YOYO-Client/Yoyo/Assets.xcassets/Lijiang.dataset/Lijiang.cube
TITLE "Lijiang"
LUT_3D_SIZE 33
0.00643931 0.00643931 0.00643931
0.00643931 0.00643931 0.00643931
0.00643931 0.00643931 0.00643931
0.00643931 0.00643931 0.00643931
0.00643931 0.00643931 0.00643931
0.0337224 0.00509651 0.00553903
0.0647135 0.00357061 0.0040589
0.0966964 0.00187686 0.00221256
0.127855 0 0
0.158022 0 0
0.188678 0 0
0.219867 0 0
0.25153 0 0
0.283497 0 0
0.315801 0 0
0.346441 0 0
0.375937 0 0
0.405631 0 0
0.435157 0 0
0.464485 0 0
0.493538 0 0
0.522286 0 0
0.550774 0 0
0.5794 0 0
0.608209 0 0
0.6374 0 0
0.667491 0 0
0.699336 0 0.000991836
0.732845 0 0.00653086
0.768261 0 0.0137484
0.805844 0 0.0233921
0.845701 0 0.037995
0.888701 0 0.0621042
0.00643931 0.00643931 0.00643931
0.00643931 0.00643931 0.00643931
0.00643931 0.00643931 0.00643931
0.00643931 0.00643931 0.00643931
0.0345159 0.005066 0.00550851
0.0642863 0.00360113 0.00408942
0.09308 0.00209049 0.00244144
0.121614 9.15541e-05 0.000457771
0.14934 0 0
0.177844 0 0
0.207477 0 0
0.23772 0 0
0.266941 0 0
0.295155 0 0
0.32401 0 0
0.353491 0.00315862 0
0.383352 0.00759899 0
0.412741 0.00822461 0
0.441871 0.00817884 0
0.470771 0.00781262 0
0.49955 0.007187 0
0.527794 0.00587472 0
0.556054 0.00402838 0
0.584451 0.00178531 0
0.613108 0 0
0.642481 0 0
0.672358 0 0.00109865
0.703593 0 0.00836194
0.73695 0 0.0180209
0.772457 0 0.0252689
0.810025 0 0.0359808
0.849928 0 0.0509651
0.892943 0 0.0780194
0.00643931 0.00643931 0.00643931
0.00643931 0.00643931 0.00643931
0.00643931 0.00643931 0.00643931
0.0284428 0.00538643 0.00578317
0.0657664 0.00352483 0.00399786
0.0937819 0.00205997 0.00241093
0.118883 0.00030518 0.000671397
0.143832 0 0
0.169314 0 0
0.193805 0 0
0.218051 0.00488289 0
0.244816 0.0104524 0
0.273503 0.0144503 0
0.302693 0.0182345 0
0.332403 0.0215915 0
0.362173 0.024094 0
0.391333 0.024445 0
0.42031 0.0243229 0
0.449134 0.0239261 0
0.477623 0.0231479 0
0.505562 0.0219425 0
0.533562 0.0203403 0
0.561807 0.0180514 0
0.589868 0.015259 0
0.618112 0.0122072 0
0.647379 0.00813306 0
0.677852 0.00416571 0.00502022
0.708431 0.000350958 0.012665
0.742397 0 0.0222629
0.777737 0 0.0341039
0.813993 0 0.0493629
0.8551 0 0.067155
0.897383 0 0.0934462
0.00233463 0.0148623 0.00523384
0 0.0200504 0.00444038
0.000427253 0.0241703 0.00354009
0.028687 0.0255436 0.00137331
0.0644846 0.022385 0
0.100755 0.0164797 0
0.132921 0.0104219 0
0.155093 0.0124208 0
0.178332 0.0158389 0
0.202274 0.0210117 0
0.227832 0.0271611 0
0.254292 0.0339208 0
0.283177 0.0379492 0
0.312764 0.0408026 0
0.341955 0.0417639 0
0.370962 0.0418402 0
0.399802 0.0416266 0
0.428504 0.0410925 0
0.456794 0.0402838 0
0.484916 0.0392615 0
0.512612 0.0373999 0
0.54052 0.0356909 0
0.568002 0.0326543 0
0.596216 0.029572 0
0.624338 0.0254368 0
0.65333 0.0216373 0.00254826
0.683131 0.0164492 0.00869764
0.71487 0.0128023 0.016556
0.747707 0.00987259 0.0268101
0.783749 0.00822461 0.0399329
0.820356 0.00798047 0.0576181
0.860227 0.00801099 0.0834211
0.903914 0.00839246 0.108873
0 0.0450294 0.00047303
0 0.0498512 0
0.00294499 0.0517739 0
0.0278325 0.0538643 0
0.0566262 0.0561837 0
0.0952163 0.0537423 0
0.133043 0.0468452 0
0.165072 0.0405585 0
0.189242 0.0429999 0
0.214435 0.0466773 0
0.240452 0.0520333 0
0.267247 0.0587778 0
0.294072 0.064683 0
0.322621 0.0660258 0
0.351629 0.0657664 0
0.380514 0.065507 0
0.409155 0.0646677 0
0.437675 0.0640879 0
0.465644 0.0623178 0
0.493599 0.0608835 0
0.521111 0.0586709 0
0.548699 0.0556344 0
0.576379 0.053254 0
0.603998 0.0486458 0
0.632181 0.0447852 0.00187686
0.661112 0.0399329 0.00703441
0.691066 0.0344701 0.0131838
0.722255 0.0284581 0.0209354
0.755764 0.0250248 0.0307622
0.790677 0.0226444 0.0465248
0.828321 0.0225528 0.0645457
0.86775 0.0247959 0.0937819
0.911101 0.0271458 0.124346
0 0.0802472 0
0 0.0833906 0
0.0052491 0.0853285 0
0.0268254 0.087953 0
0.0541695 0.0912032 0
0.0878767 0.0945907 0
0.129747 0.0926528 0
0.168536 0.0852064 0
0.202777 0.0777142 0
0.228672 0.0808576 0
0.254765 0.0848249 0
0.28069 0.0877089 0
0.306844 0.0908827 0
0.333181 0.0946059 0
0.360983 0.0962844 0
0.389929 0.0954147 0
0.418616 0.0946212 0
0.446937 0.0932784 0
0.475135 0.0915694 0
0.502907 0.0897078 0
0.530694 0.0872663 0
0.558236 0.0840772 0
0.585748 0.080293 0
0.613474 0.076112 0.0024567
0.641627 0.0713359 0.00662242
0.670497 0.0657054 0.0116579
0.700511 0.0594644 0.0179446
0.731914 0.0521096 0.0256504
0.764996 0.0452583 0.0354467
0.800336 0.0406806 0.0503548
0.837476 0.04065 0.0719158
0.877012 0.0434272 0.100664
0.9187 0.049958 0.134752
0 0.117266 0
0 0.119142 0
0.00560006 0.121187 0
0.0243229 0.123705 0
0.0505226 0.126864 0
0.0864576 0.130556 0
0.123842 0.134401 0
0.16495 0.131579 0
0.20502 0.124102 0
0.241733 0.115846 0
0.267872 0.116548 0
0.293767 0.117815 0
0.319631 0.119661 0
0.34551 0.122042 0
0.371557 0.125017 0
0.398016 0.127626 0
0.426902 0.126436 0
0.455421 0.124804 0
0.483818 0.122698 0
0.511742 0.120638 0
0.539879 0.11783 0
0.567651 0.114809 0.00167849
0.595544 0.111482 0.00448615
0.623362 0.107637 0.00773632
0.651942 0.103166 0.01149
0.680705 0.0976883 0.0163577
0.71104 0.0916762 0.0223392
0.742473 0.0836652 0.0303807
0.775662 0.0732128 0.0414588
0.810651 0.0661021 0.0558633
0.847639 0.0643473 0.0784772
0.886381 0.0688792 0.107851
0.927718 0.0760052 0.142733
0 0.152651 0
0 0.154604 0
0.00497444 0.156435 0
0.0223545 0.158251 0
0.0463111 0.160632 0
0.082002 0.16347 0
0.123262 0.166461 0
0.158221 0.169268 0
0.200458 0.16582 0
0.241733 0.158145 0
0.280308 0.148516 0
0.306554 0.148882 0
0.332311 0.149722 0
0.357946 0.150896 0
0.383612 0.152621 0
0.409369 0.154726 0
0.435508 0.157015 0
0.46302 0.156725 0.00157168
0.491569 0.154574 0.00263981
0.520119 0.152041 0.00395209
0.548302 0.149233 0.00563058
0.576547 0.146212 0.00747692
0.604807 0.142931 0.00991836
0.63328 0.139284 0.0129549
0.661921 0.134737 0.0166781
0.691356 0.12987 0.0215763
0.721752 0.124269 0.0275731
0.753445 0.117403 0.035584
0.786648 0.108431 0.0465858
0.821378 0.101228 0.0638743
0.857908 0.0975814 0.0862135
0.896025 0.100633 0.115358
0.93608 0.11078 0.150301
0 0.185473 0
0 0.186603 0
0.00216678 0.187762 0
0.0184634 0.189334 0
0.0394751 0.191852 0
0.0754253 0.194858 0
0.119356 0.197971 0
0.157717 0.201007 0
0.193027 0.203845 0
0.236744 0.200198 0
0.278096 0.192279 0
0.317998 0.18143 0
0.344625 0.180667 0
0.370306 0.181003 0
0.395804 0.181613 0
0.421195 0.182589 0
0.446876 0.183703 0.00172427
0.472862 0.185382 0.00581369
0.499306 0.186603 0.00949111
0.527916 0.184283 0.010071
0.556405 0.181292 0.0113069
0.584878 0.17792 0.0131991
0.613672 0.174792 0.0151369
0.642588 0.171054 0.0181888
0.671916 0.167208 0.0218357
0.701778 0.162234 0.0267796
0.732647 0.157214 0.0331426
0.764508 0.151095 0.0414282
0.797742 0.143709 0.0518654
0.832151 0.136934 0.0701915
0.868193 0.133303 0.0941329
0.905623 0.135134 0.123415
0.943511 0.143648 0.157687
0 0.216831 0
0 0.217777 0
0 0.218616 0
0.014786 0.220417 0
0.0361181 0.222873 0
0.0667735 0.226215 0
0.112657 0.229557 0
0.154742 0.232853 0
0.192599 0.235859 0
0.228687 0.238514 0
0.272694 0.234775 0
0.314031 0.226719 0.00201419
0.354482 0.215061 0.00230411
0.382528 0.212299 0.000610361
0.408148 0.211963 0.000366217
0.433509 0.211917 0.00144961
0.458762 0.212406 0.00364691
0.484367 0.213107 0.00683604
0.51017 0.214328 0.0107118
0.535897 0.215641 0.0152895
0.564202 0.214099 0.0167239
0.593194 0.211093 0.0181888
0.622293 0.207477 0.0205386
0.651637 0.203723 0.0233463
0.681559 0.199603 0.0272679
0.712139 0.19559 0.0320439
0.743496 0.190799 0.0387732
0.775845 0.185595 0.0476844
0.808927 0.179171 0.0610819
0.843091 0.172534 0.0773327
0.878447 0.168231 0.102403
0.915297 0.170062 0.131914
0.951888 0.178805 0.166323
0 0.2477 0
0 0.248493 0
0 0.249241 0
0.0102693 0.250507 0.00030518
0.029984 0.253239 0.000457771
0.0593576 0.256703 0
0.102419 0.260578 0
0.148943 0.264103 0
0.189761 0.267292 0
0.227649 0.270222 0
0.26389 0.272725 0
0.307851 0.268879 0.00108339
0.349157 0.260655 0.00596628
0.38967 0.248936 0.00697337
0.420005 0.243656 0.00550851
0.445762 0.242893 0.00514229
0.471138 0.242481 0.00608835
0.496391 0.242542 0.00808728
0.521813 0.242939 0.0112612
0.547494 0.243565 0.01561
0.57348 0.244526 0.0205997
0.601114 0.243809 0.0242771
0.630762 0.240803 0.0261082
0.660853 0.237415 0.0291447
0.691279 0.233234 0.0330358
0.722377 0.229358 0.0391394
0.75433 0.224872 0.0447852
0.786877 0.220295 0.055787
0.82034 0.215183 0.0689708
0.854093 0.209033 0.0887617
0.888762 0.204181 0.111772
0.924849 0.204822 0.14081
0.960342 0.212314 0.175006
0 0.277928 0.00401312
0 0.278569 0.0047303
0 0.279255 0.00537118
0.004654 0.280324 0.00584421
0.024567 0.282612 0.00576791
0.0493629 0.286595 0.00469978
0.0926833 0.290593 0.00230411
0.139361 0.29456 0
0.185214 0.298146 0
0.225055 0.301335 0
0.262455 0.304173 0
0.298329 0.306493 0
0.342306 0.302617 0.00306706
0.383795 0.294118 0.00885023
0.424735 0.282445 0.0107271
0.457328 0.274907 0.00988785
0.482918 0.273686 0.00970474
0.508385 0.27303 0.0106355
0.533974 0.272892 0.0128328
0.559594 0.272923 0.0163882
0.585458 0.273487 0.0211185
0.611719 0.274067 0.0270085
0.639139 0.274159 0.0330205
0.66981 0.271031 0.0358282
0.701076 0.267628 0.0392615
0.732723 0.263722 0.0452735
0.76492 0.259831 0.0550088
0.797894 0.255146 0.0647898
0.83122 0.250706 0.0799878
0.865049 0.245655 0.0998856
0.89929 0.241413 0.123339
0.93431 0.239902 0.150713
0.96849 0.246815 0.184146
0 0.307424 0.00863661
0 0.307958 0.00917067
0 0.308431 0.00970474
0 0.309773 0.00981155
0.0175784 0.311421 0.00988785
0.0427405 0.315373 0.00807202
0.0749371 0.32018 0.00527962
0.127947 0.324346 0.00128176
0.176654 0.32845 0
0.221027 0.332113 0
0.259892 0.335241 0
0.29659 0.337865 0
0.33225 0.33991 0
0.37644 0.33611 0.00544747
0.41799 0.32723 0.0124971
0.459648 0.315572 0.0153201
0.494591 0.306538 0.0149081
0.520363 0.305013 0.0147097
0.546059 0.304097 0.0158236
0.571862 0.303502 0.0185855
0.59791 0.303304 0.0226444
0.624353 0.303975 0.0279545
0.651255 0.30457 0.0352789
0.678782 0.305364 0.0442359
0.710445 0.302296 0.0483406
0.742779 0.29868 0.0544137
0.775555 0.294942 0.0624247
0.808515 0.290822 0.075349
0.842054 0.28629 0.0923629
0.875486 0.282032 0.112032
0.909453 0.278248 0.135653
0.943893 0.276768 0.161944
0.976181 0.280781 0.194354
0 0.336522 0.0119936
0 0.336996 0.0124056
0 0.337423 0.0128176
0 0.338231 0.0130007
0.00965896 0.34049 0.0124971
0.0335699 0.343496 0.011429
0.0669413 0.348547 0.00741588
0.111925 0.353933 0.00254826
0.165774 0.358587 0
0.213687 0.362615 0
0.256291 0.366293 0
0.293889 0.369024 0
0.330159 0.371542 0
0.365835 0.373114 0
0.410407 0.369436 0.00869764
0.452628 0.360815 0.0167544
0.49482 0.348837 0.0209049
0.532235 0.33843 0.0209964
0.558373 0.337194 0.0205997
0.584604 0.336095 0.0222019
0.610956 0.335348 0.0255741
0.637598 0.335088 0.0307317
0.664729 0.335393 0.0368658
0.692332 0.336217 0.0458534
0.720363 0.337209 0.0586557
0.752468 0.334371 0.0654002
0.785321 0.330739 0.076112
0.818647 0.326513 0.0876326
0.85211 0.322393 0.104692
0.88574 0.318212 0.124529
0.919188 0.314641 0.148013
0.953689 0.315251 0.175204
0.98407 0.315419 0.206104
0 0.365591 0.0144045
0 0.366003 0.0147097
0 0.366339 0.0150149
0 0.366674 0.0153353
0.000488289 0.368292 0.0149081
0.0240177 0.371725 0.0133822
0.0547646 0.376806 0.0093843
0.0985122 0.382467 0.00350958
0.149767 0.388144 0
0.203906 0.393027 0
0.249928 0.39707 0
0.290547 0.400565 0
0.327733 0.403281 0
0.363821 0.405615 0
0.399756 0.40708 0
0.444602 0.402884 0.0128481
0.487861 0.394965 0.0219883
0.531014 0.383017 0.0273747
0.570794 0.371115 0.0283665
0.59762 0.370153 0.0281529
0.62446 0.369329 0.0302434
0.651423 0.368704 0.034699
0.678599 0.368292 0.0418402
0.706294 0.3682 0.0501564
0.73431 0.36878 0.0610056
0.762554 0.369665 0.0770275
0.794873 0.366659 0.0885634
0.828397 0.363333 0.102541
0.86183 0.358709 0.11754
0.89543 0.354955 0.137865
0.928756 0.351293 0.161486
0.962325 0.351812 0.189532
0.99176 0.350744 0.219257
0 0.394842 0.016495
0 0.39527 0.0168307
0 0.395636 0.0171206
0 0.395911 0.01738
0 0.396384 0.017731
0.0133822 0.399496 0.0155642
0.0416571 0.404715 0.0112154
0.08336 0.411414 0.00514229
0.134966 0.41767 7.62951e-05
0.189471 0.423301 0
0.2421 0.427924 0
0.2851 0.431769 0
0.324758 0.435187 0
0.361746 0.438025 0
0.398016 0.440421 0
0.43447 0.4421 0.00175479
0.47985 0.437537 0.018265
0.524147 0.429618 0.0289311
0.568505 0.418357 0.0357061
0.610712 0.405432 0.0379797
0.638346 0.404364 0.0377203
0.665675 0.403479 0.0405585
0.693034 0.403082 0.0466926
0.720394 0.402274 0.0561837
0.74818 0.401968 0.0682994
0.776349 0.40209 0.0831617
0.804685 0.402564 0.101183
0.837522 0.39971 0.115419
0.871138 0.396002 0.132021
0.904509 0.391669 0.151827
0.938048 0.388861 0.176104
0.970275 0.386465 0.201953
0.999084 0.385565 0.23299
0 0.424414 0.0186313
0 0.424872 0.0189822
0 0.425284 0.0193484
0 0.425727 0.0195773
0 0.426337 0.0198062
0.00105287 0.427604 0.0196536
0.0297093 0.432807 0.0148623
0.0658122 0.440345 0.00779736
0.118013 0.447639 0.00225834
0.174731 0.454261 0
0.229175 0.459709 0
0.279057 0.464179 0
0.320302 0.467628 0
0.359686 0.470787 7.62951e-05
0.396536 0.473594 0.00149538
0.433188 0.476081 0.00320439
0.4701 0.477928 0.00675975
0.516442 0.47393 0.0257725
0.561898 0.465583 0.0378729
0.607401 0.454612 0.046067
0.651514 0.441032 0.0508888
0.679515 0.439475 0.0513771
0.70724 0.438407 0.0555581
0.735195 0.437949 0.0618448
0.762646 0.437049 0.0752422
0.790463 0.436561 0.091722
0.818341 0.436103 0.10927
0.846418 0.436255 0.130053
0.879927 0.433219 0.147127
0.913222 0.428962 0.167102
0.946578 0.426169 0.191562
0.978302 0.4215 0.216129
1 0.420386 0.247745
0 0.454795 0.0204929
0 0.455283 0.0209354
0 0.455756 0.0213779
0 0.456184 0.0217899
0 0.457023 0.0218662
0 0.458579 0.0215763
0.0147707 0.461707 0.0194553
0.0507973 0.468788 0.0126802
0.099733 0.477806 0.0061799
0.156725 0.48542 0.00183108
0.215732 0.492012 0.000823987
0.267918 0.497154 0.00103761
0.315114 0.501701 0.0018616
0.355673 0.504967 0.00325017
0.395071 0.507942 0.00488289
0.432319 0.510399 0.00683604
0.469322 0.512886 0.00915541
0.506615 0.514427 0.0136416
0.553689 0.511086 0.0348974
0.600137 0.502525 0.0505074
0.647181 0.491417 0.0590372
0.692744 0.477699 0.0667582
0.720928 0.475822 0.06981
0.748989 0.474327 0.0748913
0.776913 0.473091 0.0844129
0.804471 0.472221 0.100618
0.832135 0.471199 0.118685
0.859724 0.470802 0.140078
0.887846 0.470542 0.162982
0.921324 0.466758 0.182818
0.954452 0.463188 0.207187
0.985138 0.457954 0.231983
1 0.456138 0.263615
0 0.48661 0.0232853
0 0.487083 0.023621
0 0.487511 0.0239567
0 0.487922 0.0242924
0 0.488365 0.0245212
0 0.489982 0.0236057
0 0.493416 0.0211643
0.0318608 0.499153 0.0155489
0.0802472 0.507561 0.00903334
0.137835 0.516869 0.0065156
0.196811 0.524315 0.00401312
0.256504 0.530541 0.00512703
0.306569 0.535439 0.00598154
0.351064 0.539712 0.00759899
0.391531 0.542962 0.00949111
0.430747 0.545983 0.0117037
0.468559 0.548562 0.0143282
0.505867 0.550698 0.0174563
0.54374 0.552209 0.0231174
0.591424 0.548272 0.047303
0.639094 0.54023 0.0660716
0.687129 0.52845 0.0776684
0.734279 0.515023 0.08748
0.762921 0.513375 0.0933394
0.790768 0.511116 0.100481
0.818433 0.509483 0.113954
0.845655 0.507805 0.13051
0.872816 0.506539 0.1514
0.900099 0.506752 0.176379
0.928664 0.505013 0.20061
0.96199 0.502022 0.224475
0.991424 0.494743 0.248402
1 0.492683 0.280842
0 0.519783 0.027451
0 0.520241 0.027863
0 0.520745 0.0284733
0 0.521157 0.0288548
0 0.521614 0.0292973
0 0.522072 0.0294499
0 0.524346 0.0280461
0.0142367 0.530663 0.0217899
0.0547341 0.539208 0.0138247
0.118349 0.54818 0.0106508
0.181292 0.557092 0.00972
0.240497 0.563928 0.00972
0.296529 0.569467 0.011902
0.344182 0.574121 0.0133364
0.387121 0.578103 0.0156252
0.427756 0.581338 0.0181888
0.466743 0.584237 0.0211643
0.505043 0.586969 0.0246891
0.542763 0.589395 0.0288396
0.581018 0.59086 0.0360418
0.629175 0.585855 0.0647135
0.67837 0.578302 0.0868544
0.727657 0.56643 0.102632
0.775586 0.552865 0.112261
0.80412 0.550881 0.119463
0.831861 0.548653 0.130907
0.859159 0.546731 0.147219
0.88574 0.544625 0.166262
0.912169 0.543435 0.190021
0.938354 0.542977 0.216938
0.968154 0.540154 0.242557
0.997192 0.532921 0.266331
1 0.530404 0.299138
0 0.553689 0.0329137
0 0.554086 0.0330053
0 0.554604 0.0338445
0 0.555154 0.0348211
0 0.555734 0.0357366
0 0.556268 0.036347
0 0.556939 0.0372015
0 0.559258 0.0371405
0.0354772 0.568612 0.0293889
0.0884413 0.579965 0.0212406
0.156786 0.589258 0.0185855
0.221469 0.597574 0.016907
0.28014 0.60412 0.0185092
0.334447 0.609552 0.0218357
0.380362 0.613718 0.0244755
0.423117 0.617258 0.0280003
0.463691 0.620539 0.0305486
0.503258 0.623316 0.034638
0.541878 0.625757 0.0392462
0.579889 0.627832 0.0450294
0.618784 0.629969 0.0531319
0.66717 0.624231 0.0901656
0.717403 0.616327 0.111269
0.768277 0.604898 0.130892
0.816358 0.591928 0.143359
0.844526 0.589441 0.151904
0.87187 0.587045 0.166644
0.898238 0.584726 0.18558
0.92398 0.582437 0.208103
0.94931 0.58056 0.233249
0.974838 0.579828 0.261463
1 0.572381 0.285878
1 0.569512 0.318975
0 0.588724 0.0410925
0 0.589136 0.0413977
0 0.589502 0.0416419
0 0.58999 0.0423743
0 0.59057 0.0434882
0 0.591257 0.0448463
0 0.592355 0.0455177
0 0.595254 0.0443275
0.0083772 0.598825 0.0425727
0.0644083 0.609262 0.0337072
0.12784 0.621515 0.0301671
0.195727 0.630945 0.0294957
0.261082 0.638621 0.0280766
0.319051 0.644511 0.0319524
0.37052 0.649668 0.0358129
0.415579 0.653819 0.0391241
0.458427 0.657404 0.0434882
0.49926 0.660304 0.047715
0.539101 0.662821 0.0540475
0.578088 0.664805 0.0605325
0.616709 0.666606 0.0681926
0.65568 0.668009 0.0777447
0.705119 0.662882 0.118578
0.756619 0.655085 0.14284
0.808972 0.643885 0.164065
0.856275 0.632151 0.179614
0.883604 0.629145 0.190356
0.910002 0.626459 0.207401
0.93547 0.623819 0.229129
0.960296 0.621622 0.254231
0.984085 0.618097 0.279744
1 0.613184 0.307149
1 0.610254 0.340963
0 0.624994 0.0560769
0 0.625422 0.0565499
0 0.625818 0.0570382
0 0.626245 0.0575723
0 0.626749 0.0583505
0 0.62739 0.059556
0 0.628107 0.0610361
0 0.630472 0.0610819
0 0.636805 0.0582589
0.0300755 0.644221 0.0549477
0.0974594 0.654246 0.0480049
0.169024 0.664897 0.0499275
0.237354 0.673228 0.0496376
0.300755 0.679744 0.0490578
0.356878 0.685374 0.0548867
0.405921 0.689952 0.0570077
0.45069 0.693584 0.0629435
0.49337 0.696971 0.0659953
0.534371 0.699916 0.0714427
0.575067 0.702556 0.0815595
0.614343 0.704326 0.0906539
0.653376 0.705821 0.0996262
0.692287 0.70663 0.111025
0.742306 0.701122 0.150866
0.795544 0.694331 0.179217
0.849165 0.683589 0.202716
0.894789 0.67364 0.221836
0.921065 0.670344 0.23563
0.946151 0.666896 0.254536
0.970733 0.664469 0.278279
0.993484 0.660014 0.302907
1 0.655192 0.331182
1 0.652308 0.36492
0 0.663584 0.0826581
0 0.663951 0.0831006
0 0.664302 0.0835584
0 0.664668 0.084062
0 0.66508 0.0846571
0 0.665705 0.0862287
0 0.666362 0.0881361
0 0.667109 0.0903792
0 0.668284 0.0925154
0.000991836 0.676783 0.0883955
0.0616159 0.687556 0.082063
0.133959 0.699275 0.0746624
0.210117 0.707942 0.0777905
0.277211 0.715434 0.0768292
0.337392 0.720928 0.0787518
0.392752 0.72639 0.087068
0.439841 0.730098 0.0902266
0.484733 0.733516 0.0985428
0.527291 0.736095 0.100618
0.568704 0.738628 0.107103
0.609537 0.74078 0.115114
0.649287 0.742596 0.125673
0.688777 0.743832 0.135698
0.728099 0.744961 0.149493
0.779263 0.73991 0.189425
0.834318 0.734356 0.221988
0.889311 0.724498 0.248585
0.931456 0.716579 0.270008
0.956405 0.712963 0.28661
0.980591 0.710369 0.309026
1 0.704448 0.331487
1 0.69926 0.359106
1 0.695018 0.391455
0 0.702785 0.115831
0 0.703227 0.116899
0 0.703624 0.117998
0 0.704036 0.119188
0 0.704524 0.120653
0 0.705089 0.122133
0 0.70573 0.123735
0 0.706477 0.125322
0 0.707652 0.127031
0 0.71252 0.125719
0.0242924 0.721126 0.123278
0.104204 0.732357 0.118929
0.17499 0.742641 0.116381
0.248066 0.750164 0.117952
0.313878 0.755978 0.117189
0.371969 0.761135 0.119982
0.425528 0.765789 0.12549
0.472587 0.769314 0.129885
0.517433 0.772625 0.137026
0.560357 0.775006 0.141588
0.602609 0.777508 0.150317
0.643854 0.779446 0.158755
0.684276 0.781155 0.169375
0.724147 0.782391 0.179767
0.764004 0.783841 0.195926
0.816632 0.779934 0.237339
0.873182 0.775601 0.272007
0.929015 0.767422 0.303822
0.965713 0.761929 0.326513
0.988754 0.757839 0.34519
1 0.751598 0.366445
1 0.745769 0.39295
1 0.739132 0.422629
0 0.742977 0.157717
0 0.743404 0.158862
0 0.743816 0.15993
0 0.744198 0.160952
0 0.74464 0.162051
0 0.745144 0.163317
0 0.745739 0.164843
0 0.74641 0.166659
0 0.747097 0.168307
0 0.748363 0.169909
0 0.757214 0.166781
0.0560311 0.767788 0.163973
0.140887 0.777737 0.162707
0.214557 0.785595 0.163363
0.285435 0.792187 0.164355
0.349935 0.79704 0.165576
0.407568 0.801663 0.169863
0.458076 0.805447 0.174273
0.505241 0.808881 0.179553
0.549844 0.811765 0.184863
0.59353 0.814374 0.191257
0.636561 0.816907 0.201129
0.678447 0.81886 0.210895
0.719692 0.820554 0.221485
0.760479 0.822171 0.234501
0.800656 0.823453 0.250065
0.854261 0.820966 0.292805
0.91165 0.818097 0.330755
0.966354 0.81268 0.367803
0.995422 0.808942 0.390097
1 0.80264 0.409827
1 0.795758 0.434485
1 0.786694 0.461646
0 0.783856 0.204852
0 0.784237 0.205814
0 0.784619 0.206836
0 0.78497 0.207858
0 0.785412 0.209171
0 0.785901 0.210529
0 0.78645 0.212024
0 0.787091 0.213703
0 0.787793 0.215869
0 0.790082 0.217166
0 0.79353 0.21767
0.0122988 0.801923 0.21561
0.100206 0.81297 0.213855
0.182986 0.821637 0.215671
0.254276 0.828946 0.218036
0.323156 0.83389 0.219409
0.386007 0.838499 0.221469
0.441245 0.842374 0.225986
0.492042 0.845945 0.231449
0.539101 0.849149 0.238529
0.583978 0.851926 0.244831
0.628077 0.854612 0.253086
0.671229 0.856809 0.261509
0.713787 0.858824 0.272038
0.755886 0.860609 0.283223
0.797131 0.862104 0.297978
0.837491 0.863233 0.315099
0.891402 0.862181 0.356939
0.948241 0.86125 0.397986
0.997787 0.860639 0.444617
1 0.856107 0.46595
1 0.8486 0.487541
1 0.837751 0.511177
0 0.825544 0.257939
0 0.82591 0.258808
0 0.826246 0.259693
0 0.826596 0.260639
0 0.827024 0.26183
0 0.827512 0.263294
0 0.828061 0.265034
0 0.828672 0.266758
0 0.829435 0.268772
