YOYO-Client/Yoyo/Assets.xcassets/Lijiang.dataset/Lijiang.cube
TITLE "Lijiang"
LUT_3D_SIZE 9
0.00643931 0.00643931 0.00643931
0.00643931 0.00643931 0.00643931
0.127855 0 0
0.25153 0 0
0.375937 0 0
0.493538 0 0
0.608209 0 0
0.732845 0 0.00653086
0.888701 0 0.0621042
0 0.0450294 0.00047303
0.0566262 0.0561837 0
0.189242 0.0429999 0
0.294072 0.064683 0
0.409155 0.0646677 0
0.521111 0.0586709 0
0.632181 0.0447852 0.00187686
0.755764 0.0250248 0.0307622
0.911101 0.0271458 0.124346
0 0.185473 0
0.0394751 0.191852 0
0.193027 0.203845 0
0.344625 0.180667 0
0.446876 0.183703 0.00172427
0.556405 0.181292 0.0113069
0.671916 0.167208 0.0218357
0.797742 0.143709 0.0518654
0.943511 0.143648 0.157687
0 0.307424 0.00863661
0.0175784 0.311421 0.00988785
0.176654 0.32845 0
0.33225 0.33991 0
0.494591 0.306538 0.0149081
0.59791 0.303304 0.0226444
0.710445 0.302296 0.0483406
0.842054 0.28629 0.0923629
0.976181 0.280781 0.194354
0 0.424414 0.0186313
0 0.426337 0.0198062
0.118013 0.447639 0.00225834
0.320302 0.467628 0
0.4701 0.477928 0.00675975
0.651514 0.441032 0.0508888
0.762646 0.437049 0.0752422
0.879927 0.433219 0.147127
1 0.420386 0.247745
0 0.553689 0.0329137
0 0.555734 0.0357366
0.0354772 0.568612 0.0293889
0.28014 0.60412 0.0185092
0.463691 0.620539 0.0305486
0.618784 0.629969 0.0531319
0.816358 0.591928 0.143359
0.92398 0.582437 0.208103
1 0.569512 0.318975
0 0.702785 0.115831
0 0.704524 0.120653
0 0.707652 0.127031
0.17499 0.742641 0.116381
0.425528 0.765789 0.12549
0.602609 0.777508 0.150317
0.764004 0.783841 0.195926
0.965713 0.761929 0.326513
1 0.739132 0.422629
0 0.868574 0.320607
0 0.869963 0.324941
0 0.872221 0.332509
0.00972 0.886503 0.338201
0.337469 0.913527 0.350057
0.56318 0.925719 0.371756
0.741314 0.933898 0.409079
0.907149 0.93817 0.466636
1 0.942748 0.669123
0 1 0.671199
0 1 0.675578
0 1 0.686961
0.0772869 1 0.700069
0.325826 1 0.711208
0.540154 1 0.731853
0.714458 1 0.765652
0.885069 1 0.8159
1 1 0.902419
0.00474556 0.00294499 0.0254215
0.0227359 0 0.046952
0.149081 0 0.056733
0.266178 0 0.0594186
0.382177 0 0.0442206
0.500969 0 0.0395056
0.616785 0 0.0474556
0.742077 0 0.0692454
0.895277 0 0.139666
0 0.0646067 0.0763256
0.0505379 0.0696117 0.0833143
0.178851 0.0721141 0.0775921
0.297719 0.0724498 0.0739147
0.413062 0.0703899 0.0725261
0.525017 0.0578317 0.0693828
0.637827 0.0404517 0.0754864
0.7635 0.0233768 0.0985428
0.919783 0.0223545 0.165377
0 0.191257 0.0967269
0.0338293 0.198367 0.0983597
0.196643 0.210712 0.0982376
0.33959 0.197543 0.10634
0.447578 0.195453 0.100984
0.561334 0.182025 0.0916304
0.676463 0.165499 0.0954299
0.802976 0.144015 0.124498
0.948028 0.156634 0.206348
0 0.315694 0.105043
0.0140383 0.319295 0.106355
0.165927 0.335805 0.100923
0.335943 0.345647 0.101289
0.492805 0.314 0.116197
0.598062 0.309545 0.114778
0.714778 0.303731 0.128496
0.84538 0.288121 0.157885
0.979446 0.290227 0.239368
0 0.432959 0.110506
0 0.434684 0.112108
0.107408 0.453025 0.105135
0.315129 0.472328 0.0928664
0.471733 0.481193 0.0923629
0.64979 0.444022 0.141543
0.761608 0.43975 0.157153
0.882383 0.436301 0.205051
1 0.423529 0.283299
0 0.562707 0.130571
0 0.564492 0.132998
0.0336767 0.575784 0.131762
0.264958 0.60621 0.116487
0.459403 0.622492 0.116289
0.618402 0.630137 0.134874
0.814359 0.593408 0.209827
0.9234 0.585611 0.257191
1 0.571283 0.346731
0 0.709453 0.196002
0 0.711116 0.199283
0 0.714351 0.203937
0.171054 0.745632 0.195575
0.421271 0.767514 0.199664
0.601602 0.779156 0.214786
0.765255 0.785412 0.249546
0.964645 0.761654 0.35697
1 0.739773 0.441459
0 0.870405 0.354238
0 0.871611 0.358373
0 0.873671 0.365652
0.0229191 0.888899 0.370214
0.336889 0.91429 0.3785
0.564584 0.926497 0.4
0.743053 0.934462 0.433265
0.908751 0.938659 0.485893
1 0.940703 0.672236
0 1 0.679225
0 1 0.683452
0 1 0.695277
0.0945449 1 0.707652
0.33077 1 0.718303
0.543832 1 0.738369
0.716701 1 0.770962
0.887587 1 0.8206
1 1 0.905699
0 0 0.133761
0.0275883 0 0.149645
0.15555 0 0.165026
0.267048 0 0.176211
0.383917 0 0.175647
0.504219 0 0.1635
0.623163 0 0.144961
0.749813 0 0.144808
0.903471 0 0.189319
0 0.0591287 0.178973
0.0348211 0.0622873 0.187152
0.171756 0.0724956 0.199039
0.30042 0.0796826 0.204242
0.418891 0.070985 0.192126
0.532464 0.0481727 0.170535
0.645197 0.0251469 0.159915
0.770581 0.0143435 0.169574
0.926055 0.0310063 0.227756
0 0.194751 0.220661
0.0328374 0.201923 0.226871
0.186099 0.214694 0.232853
0.331746 0.212192 0.221149
0.450858 0.203357 0.210773
0.564996 0.191684 0.203052
0.681102 0.175067 0.19939
0.809644 0.150317 0.208591
0.955505 0.156832 0.261204
0 0.323766 0.233402
0.0117647 0.327031 0.234516
0.145159 0.342626 0.232761
0.333455 0.351919 0.231632
0.480232 0.335088 0.244266
0.592721 0.329259 0.236057
0.717906 0.311986 0.228534
0.848417 0.297642 0.243839
0.981964 0.302083 0.30132
0 0.442115 0.234409
0 0.443717 0.234302
0.10309 0.460029 0.2327
0.304387 0.477424 0.229511
0.472068 0.486091 0.23946
0.642084 0.455238 0.257374
0.757443 0.45034 0.25861
0.884627 0.441733 0.280491
1 0.428092 0.335271
0 0.571771 0.246479
0 0.573434 0.248188
0.0347448 0.583261 0.24889
0.249653 0.610239 0.241703
0.454643 0.625864 0.243809
0.618158 0.633188 0.25301
0.8094 0.59765 0.298405
0.920882 0.590234 0.325353
1 0.573114 0.388495
0 0.715526 0.288655
0 0.71696 0.290669
0 0.721492 0.294148
0.166247 0.749371 0.28835
0.415732 0.770123 0.293065
0.600626 0.781826 0.304112
0.766903 0.787503 0.327016
0.961883 0.760281 0.402777
1 0.74049 0.472358
0 0.871931 0.403281
0 0.873198 0.406302
0 0.875319 0.411353
0.0366369 0.891371 0.418616
0.336629 0.914488 0.422232
0.566232 0.926863 0.442863
0.745342 0.934691 0.470603
0.910887 0.938781 0.516442
1 0.936782 0.677424
0 1 0.692134
0 1 0.6963
0 1 0.708827
0.127108 1 0.719875
0.339239 1 0.729793
0.549203 1 0.748837
0.721309 1 0.77998
0.89131 1 0.828061
1 1 0.910811
0 0 0.240009
0.0521248 0 0.251987
0.151965 0 0.26598
0.258793 0 0.283192
0.384695 0 0.297932
0.504463 0 0.295003
0.624353 0 0.277928
0.753826 0 0.256901
0.911604 0 0.261067
0 0.0499123 0.282445
0.0251621 0.0543679 0.292515
0.158541 0.0705882 0.309239
0.291997 0.0759594 0.321263
0.419303 0.0668345 0.323308
0.532586 0.0504158 0.308675
0.648386 0.0308843 0.286427
0.775586 0.0114748 0.264271
0.931762 0 0.281086
0 0.18732 0.333654
0.0281834 0.192737 0.340307
0.161257 0.205249 0.349966
0.320195 0.211749 0.355474
0.450858 0.213062 0.350805
0.568246 0.196704 0.329839
0.687312 0.168734 0.302312
0.815976 0.133867 0.289601
0.960113 0.132372 0.321675
0 0.32401 0.361364
0.0129854 0.327459 0.364034
0.140826 0.343801 0.370565
0.324254 0.353307 0.372763
0.469673 0.346731 0.35787
0.594797 0.335622 0.345678
0.721325 0.322164 0.337987
0.853468 0.306828 0.340429
0.987579 0.311498 0.37464
0 0.446799 0.363363
0 0.448463 0.363882
0.103792 0.465187 0.368109
0.287236 0.481514 0.365301
0.469551 0.490242 0.367758
0.624491 0.475319 0.385061
0.749004 0.468788 0.376974
0.884916 0.449088 0.374411
1 0.439002 0.408774
0 0.576638 0.369924
0 0.578271 0.370291
0.0367437 0.588022 0.372122
0.237705 0.613687 0.37023
0.450675 0.627985 0.373632
0.618402 0.635493 0.388235
0.798428 0.605112 0.404974
0.914229 0.59646 0.412177
1 0.575921 0.448508
0 0.718868 0.393668
0 0.720317 0.394247
0 0.724636 0.397513
0.169955 0.751919 0.39794
0.409369 0.770977 0.399207
0.601083 0.782589 0.408804
0.768399 0.788296 0.424735
0.955871 0.757977 0.469062
1 0.740581 0.518791
0 0.872267 0.470268
0 0.873472 0.472602
0 0.87538 0.476631
0.0612345 0.893355 0.485191
0.33669 0.913756 0.485191
0.567559 0.925963 0.502251
0.747356 0.93402 0.524437
0.91342 0.93814 0.561486
1 0.930297 0.688304
0 1 0.712047
0 1 0.717311
0 1 0.728466
0.139208 1 0.73785
0.351446 1 0.747417
0.556725 1 0.76495
0.727977 1 0.79382
0.896315 1 0.839216
1 1 0.918257
0 0 0.34728
0.0493019 0 0.355276
0.137911 0 0.37116
0.249683 0 0.391577
0.374304 0 0.408087
0.502861 0 0.415686
0.623224 0 0.407401
0.753033 0 0.388922
0.912413 0 0.374746
0 0.0518807 0.3944
0.0174716 0.0573739 0.404807
0.14229 0.0814221 0.423514
0.278843 0.0869764 0.436332
0.406989 0.0835431 0.440833
0.533181 0.0666514 0.439109
0.648569 0.0402991 0.422766
0.778302 0.0246433 0.400824
0.93315 0.00909438 0.387747
0 0.185214 0.446235
0.0217441 0.190707 0.453147
0.139818 0.204944 0.465385
0.299931 0.212329 0.472877
0.436515 0.211658 0.472618
0.566781 0.201617 0.46598
0.685481 0.178836 0.444984
0.816739 0.148836 0.420356
0.963043 0.130938 0.410773
0 0.31519 0.476417
0.0128786 0.318379 0.479515
0.130266 0.332952 0.487907
0.300755 0.341558 0.492271
0.454734 0.345159 0.493416
0.591882 0.346563 0.487922
0.721309 0.328801 0.467582
0.856336 0.30277 0.443107
0.991699 0.292165 0.444984
0 0.445136 0.491234
0 0.447501 0.492927
0.110124 0.464561 0.501213
0.280766 0.481193 0.505196
0.461677 0.490272 0.508766
0.613001 0.484337 0.495109
0.749325 0.473823 0.484657
0.885832 0.458839 0.479759
1 0.451835 0.496071
0 0.577829 0.49752
0 0.579461 0.498177
0.0553292 0.592432 0.503334
0.23827 0.615381 0.506111
0.44123 0.628824 0.505287
0.616587 0.636301 0.50988
0.777813 0.620768 0.527428
0.908583 0.605859 0.515755
1 0.582635 0.528038
0 0.718364 0.509544
0 0.719768 0.510018
0 0.723613 0.511574
0.178515 0.752239 0.517143
0.401556 0.769726 0.515663
0.601053 0.780652 0.523674
0.769528 0.786267 0.541253
0.945113 0.756878 0.556146
1 0.740459 0.582177
0 0.87013 0.555673
0 0.871412 0.556832
0 0.873411 0.55874
0.0940108 0.893156 0.568826
0.34136 0.911727 0.568612
0.568612 0.923262 0.578729
0.751034 0.931502 0.596155
0.916075 0.935958 0.624109
1 0.921874 0.710704
0 1 0.741527
0 1 0.747433
0 1 0.756176
0.171618 1 0.764401
0.372244 1 0.773037
0.566491 1 0.788083
0.736156 1 0.813626
0.901823 1 0.854643
1 1 0.928206
0 0 0.460716
0.0278935 0 0.471489
0.11783 0 0.489662
0.239353 0.0209354 0.512428
0.363775 0.0363165 0.528435
0.489448 0.0294804 0.532998
0.619806 0.0188754 0.533562
0.751156 0.00103761 0.523552
0.908385 0 0.508064
0 0.0806744 0.520378
0.00914015 0.087541 0.529168
0.11397 0.116976 0.547402
0.262364 0.127993 0.560159
0.391516 0.126711 0.564324
0.517922 0.11606 0.562112
0.648905 0.092195 0.557595
0.779293 0.060853 0.543038
0.931991 0.0465095 0.525017
0 0.199435 0.565423
0.014847 0.204623 0.571252
0.117723 0.221378 0.584375
0.276555 0.232105 0.592645
0.414878 0.232593 0.594583
0.547265 0.227131 0.590829
0.683589 0.21529 0.58613
0.81384 0.183902 0.567697
0.958968 0.165103 0.546746
0 0.316609 0.59379
0.013138 0.320623 0.597513
0.121492 0.334401 0.606561
0.275227 0.344533 0.612711
0.4309 0.348882 0.615808
0.574273 0.349218 0.614878
0.717235 0.343328 0.610605
0.85037 0.321309 0.589944
0.988037 0.308858 0.570489
0 0.437018 0.610742
0 0.441108 0.613779
0.114137 0.455985 0.621942
0.266178 0.471473 0.627771
0.439933 0.479194 0.632807
0.597025 0.48455 0.634501
0.743435 0.484901 0.629541
0.882643 0.463432 0.60737
1 0.44419 0.586404
0 0.574548 0.628305
0 0.576288 0.629465
0.0852979 0.593408 0.638132
0.249271 0.613764 0.643626
0.437308 0.627192 0.6477
0.609934 0.63534 0.650813
0.765469 0.627253 0.636042
0.906188 0.611475 0.624094
1 0.597009 0.62771
0 0.715679 0.636332
0 0.717037 0.636774
0.00700389 0.725307 0.640803
0.208637 0.751659 0.647501
0.403098 0.76701 0.647532
0.594842 0.77763 0.64802
0.768383 0.783688 0.653086
0.929824 0.75845 0.655619
1 0.743038 0.666026
0 0.865049 0.658
0 0.8663 0.658656
0 0.872251 0.66247
0.147326 0.891432 0.670604
0.355535 0.90753 0.671031
0.567803 0.918166 0.673762
0.753704 0.926772 0.685863
0.918227 0.931716 0.706203
1 0.913756 0.75378
0 1 0.786831
0 1 0.791135
0.0016022 1 0.797101
0.216495 1 0.80238
0.398352 1 0.809171
0.579126 1 0.821134
0.746365 1 0.842206
0.90959 1 0.877089
1 1 0.94139
0 0.0281071 0.605325
0.00828565 0.049836 0.618143
0.0768749 0.0973983 0.639323
0.217273 0.136553 0.659922
0.347814 0.151537 0.672953
0.47509 0.148363 0.676081
0.607019 0.135012 0.674739
0.752667 0.115572 0.674647
0.907012 0.0911269 0.664775
0 0.16289 0.662669
0.00166323 0.170611 0.669688
0.0875257 0.192584 0.684062
0.231159 0.213565 0.695842
0.369116 0.216709 0.701778
0.498009 0.21178 0.70106
0.631342 0.200427 0.69723
0.776944 0.183856 0.694591
0.927199 0.157656 0.681697
0 0.250507 0.696681
0.0126345 0.254459 0.700832
0.103227 0.272786 0.713451
0.242847 0.287266 0.721157
0.388861 0.291035 0.725277
0.521767 0.288487 0.724376
0.660197 0.282811 0.721294
0.807645 0.272602 0.718181
0.952483 0.251408 0.701671
0 0.342229 0.719188
0.0216373 0.348531 0.724025
0.120333 0.362799 0.732906
0.250385 0.375311 0.739498
0.405966 0.382239 0.744488
0.546746 0.384329 0.745678
0.691295 0.383444 0.744091
0.841672 0.377432 0.741207
0.978576 0.357153 0.719661
0 0.447333 0.737865
0.0213169 0.453498 0.742046
0.127565 0.468345 0.749874
0.257465 0.482658 0.755673
0.418372 0.490883 0.761105
0.570245 0.496696 0.763653
0.721172 0.499275 0.763043
0.872236 0.492988 0.758419
1 0.469703 0.734707
0 0.569146 0.75462
0.00416571 0.575143 0.758175
0.124651 0.591699 0.765881
0.259998 0.607996 0.770642
0.426673 0.619364 0.774777
0.587808 0.626307 0.778531
0.74725 0.63151 0.778759
0.897261 0.621759 0.770504
1 0.598032 0.744823
0 0.710689 0.769924
0 0.715587 0.772412
0.102602 0.731502 0.779293
0.253803 0.750301 0.783886
0.420844 0.763684 0.786633
0.595468 0.774395 0.790127
0.762585 0.781506 0.791745
0.915541 0.768399 0.774639
1 0.755337 0.771695
0 0.858289 0.777691
0 0.860517 0.778775
0.0267185 0.872007 0.784787
0.226398 0.889906 0.790875
0.394339 0.901656 0.792416
0.576715 0.911345 0.793515
0.75082 0.92015 0.794629
0.918807 0.926574 0.801251
1 0.90866 0.82121
0 1 0.848524
0.0158389 1 0.851881
0.160311 1 0.854414
0.28835 1 0.857267
0.442588 1 0.861799
0.598077 1 0.869108
0.759472 1 0.884382
0.917601 1 0.909148
1 1 0.959258
0 0.224109 0.780926
0.00709544 0.240299 0.788403
0.0697337 0.268757 0.802121
0.174014 0.300282 0.816022
0.308858 0.319799 0.826307
0.444099 0.32752 0.833341
0.579324 0.329671 0.837232
0.727596 0.327016 0.837781
0.890806 0.321538 0.836225
0 0.309789 0.81912
0.0198978 0.317815 0.824338
0.0945907 0.333974 0.83299
0.196399 0.351812 0.840803
0.330175 0.36257 0.846525
0.465019 0.366949 0.850568
0.599603 0.367376 0.852277
0.747082 0.363943 0.850965
0.908095 0.359472 0.848051
0.00169375 0.364721 0.841611
0.045655 0.373495 0.846647
0.122393 0.388861 0.854307
0.220447 0.402899 0.859556
0.35314 0.412039 0.86389
0.489219 0.416968 0.867262
0.624353 0.417838 0.867994
0.772107 0.415305 0.865843
0.930678 0.41149 0.861982
0.0276188 0.431312 0.861311
0.0766308 0.439353 0.865324
0.149508 0.452735 0.871199
0.246494 0.464759 0.875578
0.378912 0.474998 0.879805
0.51632 0.481209 0.882918
0.653254 0.48365 0.883314
0.802106 0.483146 0.881025
0.957687 0.480552 0.876951
0.055436 0.510842 0.878004
0.109148 0.52047 0.88217
0.180102 0.532067 0.886564
0.274144 0.543297 0.890028
0.404135 0.552239 0.893523
0.544823 0.560021 0.896468
0.684352 0.564645 0.896773
0.834394 0.566033 0.894575
0.983413 0.5579 0.888747
0.0837568 0.610193 0.893751
0.1364 0.61912 0.896941
0.205646 0.628931 0.899657
0.301411 0.639338 0.902007
0.430167 0.648508 0.904723
0.570977 0.655695 0.907454
0.714809 0.66183 0.90753
0.865599 0.6645 0.90518
1 0.650965 0.897551
0.102007 0.728023 0.905516
0.154864 0.734752 0.907301
0.224048 0.744671 0.909483
0.322499 0.754009 0.910857
0.449485 0.763287 0.912535
0.594354 0.771634 0.914656
0.739727 0.777905 0.915724
0.893889 0.782925 0.914488
1 0.77052 0.906004
0.126619 0.868894 0.915465
0.181247 0.874296 0.916884
0.254597 0.881254 0.918318
0.35079 0.889128 0.9196
0.46804 0.897536 0.921096
0.610971 0.906004 0.922911
0.759075 0.91487 0.925139
0.914778 0.923445 0.926986
1 0.914611 0.9178
0.237079 1 0.931029
0.272175 1 0.931441
0.328481 1 0.932128
0.413184 1 0.933104
0.52578 1 0.934997
0.651942 1 0.939727
0.784436 1 0.946883
0.926421 1 0.95761
1 1 0.985565
0.146319 0.528969 0.96495
0.168917 0.539803 0.96817
0.202777 0.554665 0.972549
0.252293 0.572503 0.977172
0.32282 0.590661 0.981567
0.429191 0.60763 0.986068
0.544579 0.623423 0.990143
0.67155 0.637644 0.992782
0.817487 0.647181 0.992584
0.193484 0.584619 0.982193
0.212512 0.59118 0.983963
0.242924 0.600061 0.986114
0.289738 0.611032 0.988556
0.357519 0.623377 0.991119
0.460288 0.635798 0.993927
0.568536 0.64828 0.996414
0.690318 0.659922 0.997787
0.832975 0.667384 0.996551
0.239536 0.628229 0.994079
0.256001 0.633097 0.995193
0.283497 0.640192 0.996643
0.333272 0.648829 0.998306
0.404929 0.658732 0.999985
0.495949 0.668818 1
0.598154 0.679332 1
0.714916 0.689097 1
0.854109 0.694942 1
0.289952 0.673716 1
0.306508 0.67744 1
0.333013 0.68304 1
0.383658 0.69015 1
0.454276 0.698589 1
0.537194 0.707591 1
0.633661 0.717006 1
0.74522 0.725185 1
0.880796 0.730449 1
0.350591 0.723049 1
0.367269 0.726024 1
0.396384 0.73048 1
0.443046 0.736538 1
0.504952 0.743603 1
0.581628 0.751736 1
0.671672 0.760021 1
0.779828 0.767361 1
0.911254 0.772946 1
0.414984 0.778271 1
0.433143 0.780545 1
0.462852 0.78407 1
0.506035 0.789105 1
0.560998 0.795239 1
0.628412 0.802106 1
0.712673 0.809735 1
0.81825 0.817197 1
0.94464 0.823529 1
0.497169 0.840635 1
0.511604 0.842481 1
0.535149 0.845457 1
0.571359 0.84979 1
0.619486 0.855177 1
0.680583 0.861402 1
0.757885 0.867903 1
0.859968 0.875502 1
0.979751 0.883757 1
0.580453 0.91371 1
0.592493 0.915084 1
0.612634 0.917372 1
0.642924 0.920729 1
0.684276 0.925002 1
0.738552 0.930571 1
0.809964 0.937499 1
0.9028 0.945312 1
1 0.955062 1
0.678294 1 1
0.689281 1 1
0.707561 1 1
0.735515 1 1
0.773724 1 1
0.824094 1 1
0.890135 1 1
0.969512 1 1
0.999969 0.999969 0.999954
