YOYO-Client/Yoyo/Assets.xcassets/Alpine.dataset/Alpine.cube
TITLE "Alpine"
LUT_3D_SIZE 33
0.174212 0.161852 0.154208
0.190021 0.162066 0.155459
0.206516 0.162631 0.157015
0.222919 0.162814 0.158511
0.239399 0.162814 0.160067
0.256229 0.162737 0.161532
0.273106 0.162463 0.163012
0.290089 0.162219 0.164599
0.307591 0.161227 0.165957
0.325154 0.160296 0.1673
0.34374 0.15877 0.168643
0.362646 0.157015 0.170092
0.382055 0.154711 0.17142
0.402472 0.151202 0.172747
0.422904 0.147967 0.17406
0.444999 0.143236 0.17554
0.467109 0.138827 0.177127
0.49012 0.133349 0.178668
0.513237 0.127626 0.18024
0.536706 0.120119 0.181903
0.560861 0.109224 0.183764
0.585107 0.0986648 0.185809
0.609232 0.088426 0.187732
0.633356 0.0783551 0.18967
0.657588 0.0679484 0.19176
0.681529 0.0574044 0.194003
0.705409 0.0483558 0.196155
0.729198 0.0419013 0.198367
0.752956 0.0354009 0.200595
0.776287 0.0301213 0.203037
0.799603 0.0240024 0.205615
0.822141 0.0171664 0.208133
0.844099 0.00892653 0.210666
0.171984 0.1785 0.1579
0.18909 0.179034 0.159487
0.206943 0.179538 0.160937
0.224201 0.179675 0.162356
0.241596 0.179828 0.16379
0.259007 0.179858 0.165362
0.276448 0.179858 0.166888
0.294026 0.179706 0.168353
0.311711 0.179126 0.169726
0.329595 0.178607 0.171084
0.348684 0.177447 0.172549
0.367849 0.176333 0.173922
0.3879 0.174411 0.175235
0.408469 0.172107 0.176547
0.429587 0.169451 0.178027
0.451759 0.166003 0.179538
0.474128 0.162692 0.181033
0.497322 0.15816 0.182681
0.520562 0.153918 0.184375
0.54435 0.147158 0.186313
0.568383 0.139681 0.18819
0.592432 0.131945 0.190082
0.616495 0.12285 0.192035
0.640742 0.113741 0.194095
0.664485 0.102846 0.19617
0.688243 0.0918441 0.19826
0.712032 0.0833143 0.200458
0.735821 0.0757 0.202701
0.75938 0.067155 0.205112
0.78262 0.0573739 0.207553
0.806012 0.0475319 0.21001
0.827955 0.0337072 0.212543
0.849867 0.018967 0.215076
0.169421 0.195621 0.161975
0.187823 0.196368 0.163333
0.206531 0.196887 0.164706
0.224674 0.197253 0.166232
0.243076 0.197635 0.167681
0.261051 0.197833 0.169162
0.279118 0.198032 0.170626
0.297383 0.19794 0.172045
0.315969 0.197711 0.173556
0.334752 0.19733 0.17496
0.354025 0.19649 0.176303
0.373342 0.195727 0.17763
0.39411 0.194064 0.179126
0.414969 0.192523 0.180545
0.436652 0.190387 0.182086
0.45893 0.188052 0.183627
0.481407 0.185672 0.185245
0.504616 0.183001 0.187076
0.527886 0.180331 0.188769
0.551781 0.175341 0.190585
0.575647 0.170596 0.192432
0.599649 0.163561 0.194339
0.623911 0.15584 0.196399
0.647822 0.147982 0.198383
0.671489 0.139467 0.200443
0.695155 0.131807 0.202518
0.718959 0.125536 0.204913
0.742748 0.119448 0.207202
0.766033 0.109422 0.209552
0.789319 0.0972305 0.211948
0.811933 0.0823224 0.214389
0.833906 0.0630808 0.21706
0.85568 0.0443885 0.219654
0.164218 0.213901 0.165881
0.184955 0.214557 0.167208
0.205097 0.215045 0.168597
0.224765 0.215564 0.170092
0.244282 0.216007 0.171557
0.26305 0.216236 0.172961
0.281926 0.21648 0.174456
0.301152 0.216587 0.175906
0.320409 0.216724 0.177371
0.339879 0.216419 0.178729
0.359442 0.2159 0.180163
0.379568 0.215213 0.181598
0.400671 0.214115 0.183124
0.42182 0.213107 0.184634
0.444099 0.211307 0.18616
0.466194 0.209644 0.187793
0.489052 0.207721 0.189456
0.51223 0.205783 0.19118
0.535607 0.203311 0.19295
0.559335 0.199847 0.194781
0.583062 0.196597 0.196719
0.607324 0.191943 0.198718
0.631373 0.188006 0.200732
0.655039 0.183902 0.202747
0.678508 0.18027 0.204883
0.702083 0.176349 0.207019
0.725902 0.170581 0.209369
0.74963 0.16379 0.211673
0.772702 0.149905 0.213962
0.79556 0.137392 0.216358
0.817746 0.12195 0.218936
0.839643 0.10692 0.221592
0.860258 0.100343 0.224308
0.157549 0.23267 0.16968
0.181109 0.23331 0.170962
0.202106 0.233967 0.172412
0.223285 0.23476 0.173846
0.243717 0.235233 0.175341
0.263767 0.235584 0.176715
0.284031 0.235904 0.178119
0.304555 0.236088 0.179675
0.325078 0.236316 0.181247
0.345144 0.235966 0.182742
0.365301 0.235676 0.184131
0.386191 0.235111 0.185626
0.407462 0.234455 0.187198
0.429221 0.233631 0.188846
0.45127 0.232456 0.190341
0.473457 0.231418 0.191806
0.496681 0.230213 0.193576
0.519875 0.229084 0.195331
0.543404 0.22707 0.197223
0.567102 0.224765 0.199039
0.591104 0.222324 0.200931
0.614969 0.219608 0.202884
0.638743 0.217029 0.204822
0.66215 0.214084 0.206973
0.685588 0.211368 0.209033
0.709072 0.207233 0.211231
0.73254 0.202808 0.213504
0.755962 0.197253 0.215976
0.77879 0.19057 0.218402
0.801526 0.18497 0.220829
0.823224 0.179385 0.223453
0.844892 0.175784 0.226062
0.864439 0.176867 0.228962
0.149859 0.25214 0.173587
0.175906 0.252827 0.174838
0.198962 0.253468 0.176349
0.222416 0.254124 0.177768
0.243412 0.254658 0.179171
0.264637 0.255238 0.180575
0.286015 0.255741 0.182055
0.307179 0.256199 0.183673
0.328298 0.256504 0.185138
0.349142 0.256535 0.186526
0.37026 0.256611 0.187961
0.39205 0.256229 0.189593
0.414237 0.255848 0.191104
0.436683 0.255222 0.19263
0.459373 0.254536 0.194156
0.482216 0.253819 0.195758
0.50518 0.25301 0.19762
0.528161 0.252232 0.199374
0.551751 0.250675 0.201266
0.575555 0.249241 0.203174
0.599023 0.247471 0.205051
0.6224 0.24564 0.207019
0.645747 0.2439 0.208972
0.669139 0.242313 0.2112
0.692531 0.240726 0.213382
0.715755 0.237827 0.215686
0.739208 0.235065 0.217899
0.762112 0.232319 0.220233
0.784848 0.22945 0.222644
0.80705 0.226856 0.225116
0.828458 0.224567 0.227771
0.849607 0.222583 0.230335
0.868391 0.221729 0.233158
0.137224 0.272999 0.177142
0.164691 0.273899 0.178607
0.190387 0.274708 0.179965
0.215579 0.275486 0.181338
0.238758 0.276234 0.182803
0.262577 0.276982 0.184375
0.285008 0.277378 0.185809
0.307668 0.27776 0.187213
0.330205 0.278004 0.188693
0.352834 0.278218 0.190356
0.375647 0.278264 0.191897
0.398398 0.277974 0.193393
0.421347 0.27779 0.194858
0.444205 0.277607 0.196399
0.467216 0.277455 0.198062
0.49015 0.277165 0.19971
0.5131 0.276814 0.201419
0.536309 0.276295 0.203189
0.560021 0.275486 0.205051
0.58349 0.274754 0.20705
0.606714 0.273487 0.208942
0.629938 0.272343 0.210864
0.653162 0.271321 0.212985
0.676341 0.270436 0.215305
0.699474 0.269169 0.217502
0.722728 0.267247 0.219699
0.745739 0.265522 0.221897
0.768322 0.263951 0.224353
0.79089 0.262608 0.226932
0.81236 0.261418 0.229419
0.833417 0.260426 0.231907
0.853498 0.259922 0.234562
0.87248 0.259648 0.23743
0.125826 0.294606 0.181079
0.152758 0.295552 0.182315
0.180774 0.296529 0.18352
0.206912 0.297551 0.185
0.232715 0.298589 0.18645
0.258183 0.299474 0.187854
0.282017 0.300069 0.189197
0.306294 0.300679 0.190646
0.329854 0.301167 0.192187
0.353674 0.301671 0.193713
0.377432 0.301885 0.195209
0.401495 0.301946 0.196689
0.425483 0.302007 0.198337
0.4495 0.302007 0.199954
0.473686 0.302052 0.201587
0.497169 0.301823 0.203281
0.520714 0.301625 0.205066
0.544213 0.301335 0.207095
0.56791 0.301015 0.209049
0.591241 0.300618 0.210986
0.614313 0.299992 0.212909
0.637415 0.299535 0.214862
0.660471 0.299275 0.217197
0.683513 0.299077 0.219394
0.706661 0.298161 0.221576
0.729534 0.297139 0.223758
0.752178 0.296284 0.226169
0.774517 0.295567 0.228565
0.796689 0.294942 0.230961
0.817609 0.294484 0.233478
0.838529 0.294179 0.235996
0.857801 0.294362 0.238849
0.87628 0.294865 0.241611
0.0946822 0.317815 0.183993
0.126894 0.319051 0.185367
0.161089 0.320134 0.186648
0.191821 0.321202 0.188128
0.223163 0.322301 0.189624
0.251225 0.323125 0.191058
0.277653 0.323842 0.192554
0.303853 0.324514 0.194003
0.329015 0.325109 0.19556
0.354314 0.32578 0.197116
0.379416 0.326101 0.198703
0.404593 0.326482 0.200168
0.429603 0.326802 0.201801
0.454612 0.327138 0.203571
0.479393 0.327413 0.205371
0.503578 0.327581 0.207309
0.527932 0.327794 0.20914
0.551766 0.327794 0.211063
0.575433 0.327855 0.212985
0.598825 0.327764 0.214954
0.622126 0.327703 0.217075
0.645274 0.327703 0.219135
0.668055 0.327764 0.221241
0.691005 0.32781 0.223346
0.71371 0.327459 0.225742
0.736385 0.327245 0.228031
0.758541 0.327062 0.23035
0.780468 0.32697 0.23267
0.801923 0.327108 0.23508
0.822675 0.327443 0.23772
0.843351 0.327855 0.240253
0.861555 0.328817 0.242939
0.879728 0.329839 0.245762
0.0690013 0.341711 0.186984
0.104829 0.343236 0.188403
0.140505 0.344549 0.189776
0.174456 0.345815 0.191257
0.208927 0.347066 0.192828
0.238895 0.348089 0.194263
0.270024 0.349157 0.195712
0.298344 0.350011 0.197192
0.325231 0.350774 0.198825
0.352483 0.351446 0.200412
0.379339 0.35198 0.202106
0.406485 0.352544 0.20383
0.432609 0.352911 0.2056
0.458976 0.353292 0.207507
0.484627 0.353704 0.209369
0.510033 0.354147 0.211276
0.535164 0.354498 0.213184
0.559075 0.354711 0.215076
0.582864 0.355108 0.21706
0.606287 0.355474 0.219074
0.629816 0.355871 0.221103
0.652644 0.356252 0.223087
0.675212 0.356634 0.225208
0.697963 0.356954 0.227314
0.720485 0.357229 0.229603
0.742916 0.357565 0.231891
0.764599 0.357824 0.234134
0.786236 0.35816 0.236484
0.80705 0.358862 0.239002
0.827741 0.359747 0.241733
0.847105 0.360861 0.244511
0.864988 0.362173 0.247364
0.882673 0.363607 0.250385
0.0501106 0.367132 0.190082
0.0820935 0.368826 0.191516
0.117021 0.370138 0.193088
0.153841 0.371344 0.194507
0.19057 0.372549 0.195956
0.227161 0.3738 0.197528
0.264637 0.375128 0.199161
0.292882 0.376013 0.200763
0.321935 0.376944 0.202258
0.350408 0.377844 0.203937
0.37882 0.378698 0.205676
0.406943 0.379492 0.207553
0.434272 0.380148 0.209277
0.46183 0.380819 0.211032
0.488106 0.38146 0.212879
0.51487 0.382101 0.21474
0.539986 0.382589 0.216739
0.56463 0.383017 0.218616
0.589044 0.38349 0.220554
0.612985 0.384054 0.222629
0.636927 0.384649 0.224826
0.65951 0.385229 0.226856
0.682292 0.385824 0.22887
0.704707 0.386496 0.231128
0.727062 0.387274 0.233448
0.748989 0.388067 0.235966
0.770397 0.388739 0.238285
0.79173 0.389487 0.24065
0.812039 0.390692 0.243412
0.832456 0.391897 0.246159
0.850675 0.393301 0.249134
0.868284 0.394766 0.252018
0.885359 0.396506 0.254994
0.0323339 0.393545 0.193027
0.0523079 0.395239 0.194598
0.0876783 0.396658 0.196017
0.122683 0.398093 0.197482
0.164233 0.399558 0.199023
0.210773 0.401053 0.200732
0.25301 0.402411 0.202304
0.284611 0.403494 0.203891
0.316411 0.404608 0.205493
0.34641 0.40557 0.207416
0.376745 0.406546 0.209201
0.406104 0.40737 0.210971
0.435157 0.408103 0.212711
0.463798 0.409018 0.214481
0.49192 0.409689 0.21651
0.519463 0.410483 0.218357
0.544472 0.411048 0.220218
0.569711 0.411627 0.22208
0.594232 0.41236 0.224079
0.61857 0.413123 0.226276
0.642435 0.413901 0.228336
0.665675 0.41474 0.230457
0.688792 0.415625 0.2327
0.711101 0.416434 0.235248
0.733425 0.417243 0.237644
0.755093 0.418143 0.24007
0.776547 0.419104 0.242527
0.797314 0.420233 0.245106
0.817288 0.421515 0.247974
0.836759 0.422889 0.250706
0.854185 0.424659 0.253666
0.87155 0.426474 0.256626
0.887861 0.428534 0.2598
0.00816358 0.420798 0.196063
0.0199741 0.422431 0.197559
0.0533608 0.423972 0.1991
0.0867628 0.425544 0.200763
0.141512 0.427253 0.202289
0.193454 0.428931 0.203815
0.232883 0.430381 0.205402
0.269596 0.431769 0.207156
0.306249 0.433082 0.20882
0.338704 0.434165 0.210544
0.371862 0.435233 0.212268
0.402152 0.436179 0.214008
0.432807 0.437156 0.215885
0.462303 0.437995 0.217731
0.491051 0.438819 0.219623
0.51899 0.439612 0.221546
0.545556 0.440406 0.223545
0.572259 0.44123 0.225696
0.597467 0.441886 0.227787
0.622827 0.442542 0.229923
0.647471 0.443442 0.232227
0.671641 0.444495 0.234745
0.695125 0.445426 0.237125
0.717357 0.446143 0.239475
0.739483 0.446906 0.241794
0.76083 0.448081 0.244327
0.782208 0.449256 0.247028
0.802304 0.450538 0.249668
0.821729 0.451896 0.252338
0.840162 0.453513 0.255146
0.857313 0.455436 0.258137
0.87425 0.457404 0.26128
0.889952 0.459586 0.264332
0 0.449378 0.198764
0.0166934 0.451194 0.200427
0.039292 0.45301 0.201999
0.0665751 0.454749 0.203571
0.104982 0.456306 0.205081
0.14139 0.457816 0.206729
0.193759 0.459388 0.208453
0.249363 0.46099 0.210193
0.292302 0.462196 0.211902
0.329641 0.463203 0.213596
0.36553 0.46424 0.215488
0.398093 0.465385 0.21735
0.4309 0.466545 0.219181
0.460472 0.467353 0.221042
0.490364 0.468193 0.222904
0.518578 0.469093 0.225162
0.546288 0.469978 0.227298
0.573358 0.470741 0.229435
0.599435 0.471412 0.231556
0.625818 0.472114 0.233875
0.650599 0.473136 0.23624
0.675532 0.474144 0.238605
0.698741 0.474998 0.240986
0.721447 0.475807 0.243351
0.743725 0.476829 0.245991
0.765454 0.478126 0.248631
0.787152 0.479454 0.251286
0.8065 0.480858 0.253971
0.825818 0.482261 0.256657
0.84329 0.484215 0.259785
0.860227 0.486351 0.262852
0.876432 0.488533 0.265919
0.891752 0.490684 0.26894
0.00030518 0.478187 0.201602
0.0108644 0.480339 0.203342
0.0204623 0.482261 0.204959
0.0425116 0.483848 0.206455
0.0697032 0.485283 0.208057
0.109117 0.486824 0.209628
0.172274 0.488487 0.211383
0.234333 0.49012 0.213123
0.275196 0.491173 0.214969
0.317006 0.492256 0.216678
0.354452 0.493431 0.218509
0.390814 0.494652 0.220432
0.42533 0.495766 0.222431
0.456764 0.496757 0.224598
0.488319 0.497749 0.226627
0.517082 0.498558 0.228794
0.546075 0.499352 0.230991
0.573739 0.50013 0.233188
0.601328 0.500877 0.235538
0.628077 0.501732 0.237812
0.653834 0.502708 0.240223
0.679377 0.50367 0.242618
0.702434 0.504555 0.245212
0.725658 0.50547 0.2477
0.747951 0.506691 0.250324
0.770169 0.507973 0.252995
0.790997 0.509331 0.255695
0.8103 0.510857 0.258625
0.829313 0.512474 0.261463
0.84596 0.514473 0.2645
0.862562 0.516472 0.267521
0.87805 0.5187 0.270863
0.893385 0.521004 0.274098
0.00175479 0.507485 0.204456
0.00572213 0.509483 0.206043
0.00886549 0.511269 0.207797
0.0288853 0.512779 0.209339
0.0471656 0.514275 0.210895
0.095613 0.515846 0.212604
0.157137 0.517479 0.214527
0.212573 0.518959 0.216312
0.258778 0.520165 0.218158
0.30518 0.521385 0.22002
0.344778 0.522637 0.222049
0.385016 0.523873 0.224201
0.420066 0.525002 0.226215
0.453285 0.526085 0.22826
0.485252 0.527062 0.230365
0.515068 0.527871 0.232532
0.544945 0.528679 0.234882
0.573449 0.529549 0.237171
0.601923 0.53048 0.23946
0.628977 0.53138 0.24184
0.655695 0.53225 0.244419
0.681331 0.533181 0.246921
0.705455 0.534203 0.249561
0.729534 0.535271 0.252216
0.752117 0.53637 0.254871
0.774548 0.537453 0.257649
0.794629 0.539025 0.260502
0.814038 0.54078 0.263508
0.832029 0.542611 0.266545
0.848234 0.544442 0.269581
0.864347 0.546365 0.272816
0.879545 0.548684 0.276158
0.894591 0.550973 0.279484
0 0.53666 0.207446
0 0.538354 0.209186
0.00564584 0.5402 0.210773
0.020676 0.541787 0.212421
0.0364233 0.543389 0.214252
0.0885328 0.545022 0.216083
0.137667 0.546639 0.217899
0.187472 0.548012 0.219806
0.239307 0.549294 0.221744
0.289219 0.55053 0.223865
0.334035 0.551736 0.225818
0.379126 0.552941 0.227787
0.414237 0.554147 0.229953
0.449775 0.555367 0.23212
0.48191 0.556298 0.23444
0.512917 0.557122 0.236606
0.543679 0.558038 0.23888
0.573205 0.559106 0.241306
0.602487 0.560098 0.243885
0.62977 0.56083 0.246326
0.657237 0.561578 0.248783
0.682612 0.562539 0.251453
0.707469 0.563561 0.254185
0.731624 0.564553 0.257053
0.754299 0.56553 0.259724
0.776715 0.566598 0.262455
0.796323 0.568261 0.265583
0.816007 0.569909 0.268727
0.833112 0.571725 0.272023
0.849546 0.573587 0.275166
0.865522 0.575677 0.278462
0.880583 0.577996 0.281926
0.895109 0.580392 0.285573
0 0.565789 0.210666
0 0.567391 0.212467
0.00819409 0.569284 0.214389
0.0192874 0.571023 0.216236
0.039765 0.572702 0.218067
0.0749371 0.574228 0.219837
0.1084 0.575723 0.221622
0.165301 0.57702 0.223804
0.223346 0.578302 0.225803
0.274479 0.579492 0.227756
0.32369 0.580636 0.229725
0.368505 0.581827 0.231815
0.406409 0.583047 0.234195
0.444572 0.584268 0.236408
0.4766 0.585122 0.238651
0.509239 0.585992 0.240909
0.540047 0.586938 0.243488
0.570459 0.587915 0.24593
0.6 0.588815 0.248402
0.628305 0.589639 0.250904
0.656474 0.590478 0.253437
0.682231 0.59147 0.256443
0.708385 0.592462 0.259297
0.732326 0.593454 0.262058
0.75581 0.59443 0.264805
0.777859 0.595697 0.267781
0.797894 0.597299 0.271183
0.817517 0.598901 0.274403
0.833982 0.600717 0.277638
0.850675 0.602548 0.280903
0.86595 0.604669 0.28452
0.880934 0.606821 0.287999
0.894133 0.609232 0.291569
0 0.594781 0.214572
0.000366217 0.596399 0.216281
0.00791943 0.598062 0.21825
0.014786 0.59968 0.22005
0.0324865 0.601221 0.221912
0.0525978 0.602731 0.223972
0.0863966 0.60415 0.22591
0.14609 0.605417 0.227909
0.206271 0.606683 0.229908
0.258686 0.607858 0.231968
0.311727 0.609033 0.23418
0.356451 0.610269 0.236393
0.398764 0.611551 0.238651
0.437842 0.612711 0.240955
0.471824 0.613642 0.243305
0.505318 0.614527 0.245808
0.536507 0.615412 0.24828
0.567971 0.616297 0.250767
0.59765 0.617166 0.25333
0.626917 0.618036 0.256123
0.654994 0.618936 0.258854
0.681666 0.619821 0.261692
0.707881 0.620737 0.26453
0.731914 0.621988 0.26746
0.756176 0.623056 0.270604
0.777462 0.624399 0.273732
0.797986 0.625803 0.27686
0.816831 0.62742 0.280095
0.833844 0.629297 0.28368
0.850507 0.631205 0.287114
0.865583 0.633143 0.290532
0.880659 0.635019 0.29395
0.892638 0.637705 0.297704
0 0.623652 0.218662
0.00148013 0.625269 0.220615
0.00479133 0.62681 0.222385
0.00793469 0.628305 0.224338
0.0174105 0.629786 0.226337
0.0257725 0.631251 0.228321
0.0705577 0.632547 0.230335
0.128481 0.633783 0.232349
0.183047 0.634989 0.234577
0.236149 0.636149 0.236713
0.288884 0.637308 0.238849
0.338018 0.638498 0.241108
0.38909 0.639673 0.243366
0.429053 0.640711 0.245945
0.464683 0.641749 0.248402
0.499184 0.642725 0.250874
0.531975 0.643549 0.253346
0.564752 0.644404 0.256016
0.594995 0.645411 0.258793
0.625452 0.646464 0.261585
0.653544 0.647318 0.264393
0.680674 0.648127 0.267185
0.706859 0.649104 0.270314
0.731777 0.650233 0.273457
0.756237 0.651331 0.276585
0.777081 0.652522 0.279683
0.798032 0.653727 0.28278
0.816083 0.655406 0.286412
0.833295 0.657206 0.289952
0.849577 0.658976 0.293462
0.864836 0.6607 0.29691
0.87953 0.662562 0.300603
0.890867 0.665263 0.304585
0 0.651789 0.223255
0.0011902 0.653483 0.225071
0.002533 0.654948 0.227054
0.00468452 0.656428 0.228977
0.00784314 0.657923 0.231067
0.0124361 0.659419 0.233173
0.0594644 0.660624 0.23537
0.103777 0.661845 0.237369
0.154314 0.663066 0.239536
0.207599 0.664332 0.241794
0.263142 0.665522 0.244038
0.323217 0.666575 0.246418
0.382925 0.667582 0.248692
0.420645 0.668666 0.251255
0.458503 0.669749 0.253803
0.493584 0.670588 0.256519
0.528008 0.671351 0.259068
0.561135 0.672221 0.261738
0.592371 0.673228 0.26453
0.623621 0.674174 0.267323
0.651286 0.674922 0.270359
0.679088 0.675669 0.273228
0.705028 0.676646 0.276326
0.730587 0.677684 0.279469
0.754299 0.678798 0.282658
0.775845 0.680003 0.28603
0.797116 0.681239 0.289281
0.81474 0.682979 0.292912
0.832502 0.684749 0.296559
0.848478 0.686442 0.300252
0.864088 0.688121 0.303746
0.877638 0.69012 0.307591
0.889006 0.692302 0.311803
0 0.680003 0.228244
0 0.681346 0.230106
0 0.682918 0.232151
0 0.684352 0.234257
0 0.685802 0.236606
0.0124208 0.687114 0.238727
0.0404364 0.688289 0.240833
0.0662852 0.689479 0.242939
0.11754 0.690639 0.245167
0.168414 0.691798 0.247562
0.235309 0.692882 0.249866
0.310063 0.69395 0.252216
0.371801 0.694987 0.254627
0.411978 0.69601 0.25713
0.452171 0.697017 0.259815
0.488212 0.697871 0.262455
0.52459 0.698726 0.265095
0.557671 0.699657 0.267796
0.589929 0.700618 0.270695
0.620798 0.701488 0.273503
0.649271 0.702007 0.276539
0.677546 0.702449 0.279667
0.703639 0.703136 0.283024
0.729824 0.703822 0.286549
0.752728 0.704646 0.289967
0.775036 0.705486 0.293416
0.795163 0.706554 0.297017
0.813107 0.70782 0.30074
0.830762 0.709041 0.304616
0.846647 0.71043 0.3084
0.862623 0.711833 0.312215
0.874937 0.713634 0.316228
0.886625 0.71545 0.320424
0 0.707179 0.233936
0 0.708644 0.236149
0 0.710338 0.238361
0 0.711711 0.240345
0 0.713085 0.242298
0.00483711 0.714382 0.244465
0.00767529 0.715648 0.246708
0.0276799 0.716838 0.249088
0.0770733 0.717952 0.251255
0.133349 0.71873 0.253635
0.220813 0.719478 0.256245
0.307301 0.720226 0.258824
0.35996 0.720867 0.261631
0.403616 0.721492 0.264271
0.445197 0.722087 0.267002
0.483497 0.722652 0.269856
0.521614 0.723247 0.272877
0.555215 0.723842 0.275761
0.588754 0.724483 0.27863
0.618875 0.725017 0.281773
0.648188 0.725521 0.284993
0.676249 0.72607 0.288426
0.702785 0.726665 0.291676
0.728832 0.727306 0.294926
0.751568 0.728283 0.298482
0.774182 0.729274 0.302022
0.793149 0.730266 0.30576
0.811337 0.731228 0.309285
0.828626 0.732357 0.313024
0.844953 0.733639 0.317021
0.860563 0.73492 0.321172
0.87245 0.736339 0.325139
0.884291 0.737758 0.329076
0 0.733364 0.240833
0 0.734569 0.243061
0 0.735851 0.245426
0 0.736828 0.247532
0 0.737819 0.249683
0.000106813 0.738766 0.252338
0.000213626 0.739696 0.25478
0.0376135 0.740475 0.257145
0.0869154 0.741207 0.259495
0.148074 0.741985 0.261967
0.22623 0.742809 0.264775
0.299229 0.743618 0.267399
0.347326 0.744167 0.269978
0.396384 0.744701 0.272541
0.439033 0.745327 0.275547
0.480095 0.746014 0.278462
0.51838 0.746685 0.281346
0.553323 0.747204 0.28423
0.58761 0.747692 0.28719
0.617639 0.748074 0.290715
0.6477 0.748455 0.293996
0.675273 0.748821 0.297215
0.702296 0.749218 0.300435
0.727382 0.749783 0.303807
0.750484 0.7505 0.307515
0.772717 0.751217 0.31104
0.791196 0.75201 0.314672
0.80972 0.752804 0.318303
0.826673 0.753857 0.322332
0.843351 0.754955 0.326223
0.857862 0.756207 0.33019
0.869932 0.75758 0.334203
0.881971 0.758999 0.338231
0 0.756909 0.249149
0 0.758114 0.251606
0 0.759136 0.253788
0 0.760067 0.256153
0 0.760998 0.258442
0 0.761975 0.260899
0.0037232 0.762737 0.263416
0.0484932 0.763241 0.265827
0.0917525 0.763775 0.268421
0.153857 0.764584 0.271092
0.219928 0.765286 0.273793
0.27982 0.76585 0.276448
0.335012 0.766262 0.279286
0.390372 0.766705 0.281956
0.434272 0.767208 0.284871
0.478828 0.767712 0.287739
0.517128 0.7682 0.290654
0.553353 0.768704 0.293767
0.586923 0.769146 0.296788
0.617243 0.769497 0.299901
0.647227 0.769879 0.303014
0.674678 0.770321 0.306249
0.702205 0.770764 0.309636
0.72639 0.771313 0.313024
0.749554 0.771893 0.316442
0.770611 0.772519 0.320043
0.789502 0.773007 0.324071
0.808103 0.77351 0.327901
0.825101 0.774166 0.331853
0.84213 0.774823 0.33579
0.85536 0.775784 0.33994
0.867735 0.776791 0.344244
0.879911 0.777844 0.348409
0 0.77911 0.258778
0 0.780026 0.261021
0 0.780835 0.263554
0 0.781674 0.265919
0 0.782406 0.268315
0 0.783108 0.27068
0.0157321 0.78378 0.273259
0.0523384 0.784436 0.275715
0.090135 0.785107 0.278202
0.146502 0.785763 0.280797
0.200763 0.786435 0.28336
0.261707 0.786999 0.286213
0.326497 0.787549 0.288884
0.3841 0.788067 0.291554
0.431785 0.788357 0.294362
0.479408 0.788464 0.297444
0.517006 0.788632 0.300526
0.554772 0.788785 0.303578
0.587015 0.788815 0.306706
0.617975 0.78883 0.30985
0.647547 0.788876 0.313283
0.675532 0.788968 0.316686
0.70312 0.789075 0.320089
0.726589 0.789319 0.323629
0.750103 0.789563 0.327138
0.769909 0.790021 0.33109
0.788952 0.790509 0.33489
0.807034 0.791058 0.338689
0.824155 0.791623 0.342473
0.84062 0.792233 0.346487
0.853254 0.79324 0.350607
0.865934 0.794247 0.354726
0.878172 0.795178 0.358785
0 0.799924 0.268879
0 0.800931 0.271031
0 0.801923 0.273655
0 0.802686 0.276188
0 0.803037 0.278767
0 0.803403 0.281147
0.0209506 0.803815 0.283742
0.0467536 0.804242 0.286381
0.0792554 0.804608 0.289021
0.121584 0.804898 0.291783
0.165576 0.805158 0.294377
0.242161 0.805402 0.297169
0.321523 0.805646 0.299962
0.379995 0.805737 0.302907
0.43357 0.805753 0.305669
0.480323 0.805859 0.308537
0.519051 0.806088 0.311574
0.556939 0.806271 0.31458
0.588388 0.806241 0.31783
0.619944 0.80621 0.320867
0.648859 0.806302 0.324224
0.677455 0.806424 0.327688
0.703517 0.806592 0.331136
0.727275 0.806622 0.334813
0.750332 0.806683 0.338369
0.769558 0.806973 0.342229
0.788769 0.807248 0.346044
0.806363 0.807553 0.349966
0.823804 0.807874 0.353719
0.838773 0.808423 0.357717
0.851606 0.809155 0.361944
0.864363 0.809873 0.366125
0.876722 0.810529 0.370367
0 0.818448 0.280446
0 0.819074 0.283055
0 0.819913 0.285771
0 0.820478 0.288212
0 0.820813 0.290593
0.00137331 0.821149 0.292943
0.0152285 0.821576 0.29546
0.0264897 0.822003 0.298146
0.0528725 0.822278 0.300649
