YOYO-Client/Yoyo/Assets.xcassets/Alpine.dataset/Alpine.cube
TITLE "Alpine"
LUT_3D_SIZE 5
0.174212 0.161852 0.154208
0.307591 0.161227 0.165957
0.467109 0.138827 0.177127
0.657588 0.0679484 0.19176
0.844099 0.00892653 0.210666
0.0946822 0.317815 0.183993
0.329015 0.325109 0.19556
0.527932 0.327794 0.20914
0.71371 0.327459 0.225742
0.879728 0.329839 0.245762
0 0.53666 0.207446
0.239307 0.549294 0.221744
0.543679 0.558038 0.23888
0.754299 0.56553 0.259724
0.895109 0.580392 0.285573
0 0.756909 0.249149
0.0917525 0.763775 0.268421
0.517128 0.7682 0.290654
0.749554 0.771893 0.316442
0.879911 0.777844 0.348409
0 0.890333 0.350149
0.0856184 0.888762 0.368673
0.554009 0.885359 0.389487
0.758358 0.882261 0.414343
0.870954 0.882567 0.44332
0.168978 0.166491 0.274128
0.320485 0.16173 0.288808
0.492454 0.131853 0.304875
0.674189 0.0523995 0.324971
0.854688 0.00624094 0.349569
0.0825666 0.323995 0.322744
0.328511 0.332174 0.338781
0.527428 0.33608 0.35787
0.71577 0.335897 0.380377
0.882704 0.338766 0.406867
0 0.54493 0.377951
0.222858 0.557229 0.39585
0.544244 0.56556 0.416175
0.750408 0.5738 0.439033
0.888029 0.589166 0.465522
0 0.762753 0.445441
0.0944381 0.768917 0.463218
0.516838 0.772946 0.48278
0.748638 0.775479 0.50547
0.876051 0.781292 0.532204
0 0.891844 0.536263
0.10399 0.890089 0.551232
0.552605 0.886366 0.568505
0.755169 0.883207 0.588739
0.866529 0.883253 0.612192
0.130327 0.168643 0.444083
0.313649 0.163912 0.463416
0.510674 0.122377 0.484337
0.713741 0.0442969 0.508507
0.880354 0.00103761 0.535912
0.0375372 0.330709 0.509377
0.317845 0.339467 0.528679
0.547143 0.3393 0.549142
0.748882 0.334661 0.571847
0.898024 0.341634 0.597421
0 0.553613 0.573846
0.19617 0.565103 0.590494
0.540551 0.573465 0.609339
0.749386 0.581552 0.630182
0.883757 0.59704 0.653666
0 0.768536 0.639368
0.0816052 0.77406 0.654521
0.512612 0.777966 0.670848
0.744808 0.779324 0.688853
0.867216 0.785306 0.709209
0 0.893385 0.712566
0.11577 0.891585 0.723522
0.549432 0.887556 0.7346
0.750607 0.884581 0.74789
0.861021 0.884184 0.762097
0.048127 0.169924 0.642298
0.29308 0.164843 0.660822
0.507729 0.123308 0.680552
0.721096 0.0441749 0.70161
0.903059 0.00631724 0.724758
0.00392157 0.338079 0.703914
0.293065 0.34699 0.720348
0.543282 0.347127 0.736538
0.757855 0.340948 0.753292
0.918425 0.341924 0.772168
0 0.563058 0.755444
0.182666 0.574533 0.766781
0.535302 0.582208 0.778714
0.760418 0.588556 0.791623
0.900236 0.601419 0.805295
0 0.774609 0.795605
0.029099 0.780224 0.804166
0.511421 0.783139 0.812436
0.742077 0.783825 0.820569
0.866316 0.78941 0.830488
0 0.895766 0.83241
0.128023 0.893538 0.837064
0.551278 0.88925 0.84242
0.748775 0.88629 0.849546
0.857679 0.886076 0.856626
0 0.171496 0.812604
0.26685 0.166949 0.824292
0.505455 0.125551 0.835645
0.724697 0.0503853 0.845563
0.906386 0.0139773 0.856901
0 0.347555 0.847456
0.273182 0.35642 0.855055
0.543389 0.357534 0.862547
0.76109 0.352804 0.870619
0.919722 0.356466 0.879423
0 0.574792 0.870451
0.165927 0.585382 0.875547
0.537224 0.592905 0.88043
0.762051 0.599573 0.886107
0.900038 0.612421 0.892683
0 0.782132 0.885847
0.0254063 0.787305 0.889723
0.519966 0.7888 0.893645
0.743557 0.789471 0.897124
0.869291 0.794415 0.9019
0 0.898512 0.902266
0.145388 0.895979 0.904311
0.559716 0.891875 0.906783
0.751278 0.888441 0.910048
0.857328 0.888289 0.913619
