YOYO-Client/Yoyo/Assets.xcassets/Alpine.dataset/Alpine.cube
TITLE "Alpine"
LUT_3D_SIZE 9
0.174212 0.161852 0.154208
0.239399 0.162814 0.160067
0.307591 0.161227 0.165957
0.382055 0.154711 0.17142
0.467109 0.138827 0.177127
0.560861 0.109224 0.183764
0.657588 0.0679484 0.19176
0.752956 0.0354009 0.200595
0.844099 0.00892653 0.210666
0.157549 0.23267 0.16968
0.243717 0.235233 0.175341
0.325078 0.236316 0.181247
0.407462 0.234455 0.187198
0.496681 0.230213 0.193576
0.591104 0.222324 0.200931
0.685588 0.211368 0.209033
0.77879 0.19057 0.218402
0.864439 0.176867 0.228962
0.0946822 0.317815 0.183993
0.223163 0.322301 0.189624
0.329015 0.325109 0.19556
0.429603 0.326802 0.201801
0.527932 0.327794 0.20914
0.622126 0.327703 0.217075
0.71371 0.327459 0.225742
0.801923 0.327108 0.23508
0.879728 0.329839 0.245762
0.00816358 0.420798 0.196063
0.141512 0.427253 0.202289
0.306249 0.433082 0.20882
0.432807 0.437156 0.215885
0.545556 0.440406 0.223545
0.647471 0.443442 0.232227
0.739483 0.446906 0.241794
0.821729 0.451896 0.252338
0.889952 0.459586 0.264332
0 0.53666 0.207446
0.0364233 0.543389 0.214252
0.239307 0.549294 0.221744
0.414237 0.554147 0.229953
0.543679 0.558038 0.23888
0.657237 0.561578 0.248783
0.754299 0.56553 0.259724
0.833112 0.571725 0.272023
0.895109 0.580392 0.285573
0 0.651789 0.223255
0.00784314 0.657923 0.231067
0.154314 0.663066 0.239536
0.382925 0.667582 0.248692
0.528008 0.671351 0.259068
0.651286 0.674922 0.270359
0.754299 0.678798 0.282658
0.832502 0.684749 0.296559
0.889006 0.692302 0.311803
0 0.756909 0.249149
0 0.760998 0.258442
0.0917525 0.763775 0.268421
0.335012 0.766262 0.279286
0.517128 0.7682 0.290654
0.647227 0.769879 0.303014
0.749554 0.771893 0.316442
0.825101 0.774166 0.331853
0.879911 0.777844 0.348409
0 0.836118 0.292714
0 0.837293 0.303136
0.0435035 0.83769 0.313497
0.332998 0.837674 0.324407
0.529 0.837415 0.336141
0.655604 0.836713 0.348745
0.751354 0.836271 0.362554
0.82295 0.836835 0.377508
0.87451 0.838605 0.393637
0 0.890333 0.350149
0 0.88986 0.359411
0.0856184 0.888762 0.368673
0.383108 0.887251 0.378561
0.554009 0.885359 0.389487
0.673045 0.883391 0.401373
0.758358 0.882261 0.414343
0.821683 0.882063 0.428397
0.870954 0.882567 0.44332
0.173617 0.164187 0.208392
0.243015 0.164034 0.214755
0.313573 0.161746 0.221592
0.389471 0.154482 0.228138
0.474067 0.139193 0.234867
0.567483 0.109819 0.242603
0.663935 0.0639811 0.251987
0.758984 0.0350652 0.262181
0.849363 0.00798047 0.273579
0.153475 0.234791 0.227924
0.243015 0.237018 0.234073
0.32343 0.238621 0.24123
0.407828 0.237415 0.248737
0.499123 0.23331 0.256443
0.594369 0.225315 0.265049
0.689403 0.21445 0.274327
0.782925 0.195132 0.285039
0.86804 0.186908 0.297154
0.0897993 0.320836 0.247944
0.22208 0.325292 0.254658
0.328573 0.328954 0.261845
0.428641 0.330999 0.269261
0.525979 0.332326 0.277775
0.620722 0.332265 0.286885
0.713237 0.332097 0.29691
0.802976 0.331899 0.307958
0.880949 0.334768 0.320424
0.0030518 0.424933 0.267338
0.140673 0.431571 0.274784
0.304982 0.437247 0.282506
0.434119 0.441169 0.29044
0.545464 0.444587 0.299397
0.646006 0.448264 0.309255
0.73698 0.452171 0.31989
0.819989 0.457084 0.331518
0.888975 0.464652 0.344411
0 0.540673 0.288182
0.0412604 0.547539 0.295796
0.236088 0.553155 0.304051
0.415152 0.5579 0.312917
0.544915 0.561852 0.322667
0.658473 0.56556 0.333288
0.753902 0.569543 0.344793
0.831357 0.575998 0.357885
0.892363 0.584772 0.372152
0 0.65565 0.312947
0.00541695 0.661601 0.321401
0.153841 0.666606 0.330068
0.38233 0.671061 0.339925
0.528817 0.674708 0.350454
0.651713 0.678233 0.362234
0.754376 0.682109 0.374807
0.831968 0.687922 0.388571
0.8869 0.695094 0.403571
0 0.759793 0.34612
0 0.763928 0.35555
0.0924849 0.766369 0.364981
0.333684 0.768704 0.37554
0.517403 0.770581 0.386648
0.647334 0.772152 0.398413
0.749477 0.773861 0.411139
0.824445 0.775921 0.425254
0.878248 0.779477 0.440375
0 0.837552 0.39089
0 0.838621 0.400229
0.0430762 0.839002 0.409888
0.333333 0.839017 0.419974
0.530495 0.838849 0.4309
0.655421 0.837736 0.442008
0.750423 0.837201 0.454231
0.821271 0.837812 0.467658
0.873228 0.83949 0.48188
0 0.891081 0.443366
0 0.890455 0.451499
0.0964828 0.889509 0.460121
0.382956 0.887907 0.469108
0.553933 0.885878 0.478828
0.671855 0.883864 0.489204
0.757092 0.882643 0.500572
0.820096 0.882551 0.513588
0.869032 0.882918 0.52694
0.168978 0.166491 0.274128
0.242741 0.165881 0.281254
0.320485 0.16173 0.288808
0.404242 0.15169 0.296544
0.492454 0.131853 0.304875
0.582422 0.10312 0.314321
0.674189 0.0523995 0.324971
0.766567 0.0345617 0.336599
0.854688 0.00624094 0.349569
0.143511 0.237568 0.298131
0.241703 0.239567 0.305364
0.330465 0.23975 0.313237
0.420279 0.237644 0.321859
0.512444 0.233371 0.331029
0.603952 0.225818 0.340795
0.696529 0.216037 0.3514
0.788937 0.198779 0.363622
0.872328 0.190188 0.377813
0.0825666 0.323995 0.322744
0.217563 0.328573 0.330541
0.328511 0.332174 0.338781
0.429236 0.3346 0.347616
0.527428 0.33608 0.35787
0.622827 0.336141 0.368688
0.71577 0.335897 0.380377
0.805295 0.335683 0.393027
0.882704 0.338766 0.406867
0 0.42887 0.34847
0.135912 0.435874 0.357504
0.301564 0.441627 0.366751
0.433097 0.445731 0.376425
0.542992 0.449363 0.386709
0.641947 0.453223 0.397864
0.733623 0.456916 0.409522
0.817945 0.461753 0.422248
0.887556 0.469215 0.43595
0 0.54493 0.377951
0.0388952 0.551644 0.386709
0.222858 0.557229 0.39585
0.415106 0.561898 0.405722
0.544244 0.56556 0.416175
0.65713 0.569299 0.427619
0.750408 0.5738 0.439033
0.827176 0.580438 0.451957
0.888029 0.589166 0.465522
6.10361e-05 0.659449 0.409659
0.00183108 0.665293 0.418524
0.1505 0.670222 0.427543
0.379156 0.674617 0.437049
0.528847 0.67805 0.447318
0.651453 0.681498 0.458259
0.753368 0.685328 0.470069
0.829419 0.690867 0.482811
0.883131 0.698054 0.496834
0 0.762753 0.445441
0 0.766369 0.454307
0.0944381 0.768917 0.463218
0.331426 0.771191 0.472831
0.516838 0.772946 0.48278
0.646433 0.774426 0.493523
0.748638 0.775479 0.50547
0.822889 0.777584 0.518624
0.876051 0.781292 0.532204
0 0.839078 0.488167
0 0.840055 0.496818
0.0421759 0.840436 0.505455
0.331945 0.840406 0.514595
0.528923 0.839902 0.524346
0.654826 0.838605 0.534401
0.748806 0.838193 0.545937
0.818692 0.838865 0.558083
0.871244 0.840421 0.571084
0 0.891844 0.536263
0 0.891218 0.543542
0.10399 0.890089 0.551232
0.381399 0.888426 0.559472
0.552605 0.886366 0.568505
0.670542 0.884352 0.578119
0.755169 0.883207 0.588739
0.817868 0.883009 0.600031
0.866529 0.883253 0.612192
0.158145 0.167727 0.350454
0.2374 0.167193 0.35935
0.318868 0.162722 0.368658
0.409522 0.15111 0.378439
0.508003 0.122683 0.389044
0.604425 0.0903944 0.40058
0.694469 0.0484627 0.412787
0.781582 0.0344396 0.425895
0.864225 0.00355535 0.439796
0.123705 0.239643 0.381369
0.234714 0.24184 0.390356
0.32929 0.241947 0.400076
0.428016 0.238758 0.410163
0.529885 0.23154 0.420951
0.625284 0.221164 0.432044
0.714992 0.210285 0.444007
0.801282 0.197848 0.456901
0.878904 0.190478 0.471107
0.0639048 0.327306 0.412253
0.205005 0.332067 0.421607
0.324666 0.335836 0.431189
0.436805 0.336812 0.440894
0.542306 0.336843 0.451667
0.639399 0.336233 0.462898
0.728161 0.336645 0.474632
0.812482 0.337819 0.487098
0.88661 0.341863 0.500816
0 0.433524 0.443534
0.124971 0.440269 0.452567
0.295674 0.445701 0.461906
0.432563 0.449699 0.471717
0.544671 0.453422 0.482155
0.642451 0.457115 0.493019
0.73547 0.460548 0.504692
0.819455 0.465537 0.517021
0.887968 0.47306 0.530419
0 0.549172 0.47483
0.0197604 0.555749 0.483558
0.200443 0.561395 0.492927
0.412222 0.566125 0.502541
0.542016 0.569604 0.512749
0.651194 0.573617 0.523445
0.745617 0.578164 0.534829
0.822324 0.584924 0.547341
0.883787 0.593606 0.560327
0 0.663493 0.507958
0 0.66923 0.516579
0.142794 0.673777 0.525093
0.373495 0.678004 0.534508
0.52752 0.681376 0.544152
0.650126 0.684901 0.554696
0.750698 0.689204 0.565835
0.824414 0.694469 0.578027
0.877256 0.701564 0.590814
0 0.765667 0.543801
0 0.768811 0.551904
0.0916915 0.771313 0.560403
0.325597 0.773678 0.56965
0.515404 0.775494 0.578866
0.645014 0.776684 0.588602
0.747402 0.77734 0.599344
0.820417 0.77937 0.611002
0.872419 0.7832 0.623316
0 0.840543 0.584344
3.0518e-05 0.841443 0.591989
0.0396277 0.841825 0.59997
0.330907 0.84184 0.608377
0.52697 0.841062 0.616892
0.653956 0.839673 0.626093
0.746487 0.839307 0.636194
0.815991 0.839887 0.646876
0.868452 0.841611 0.658427
0 0.892592 0.627787
0 0.891966 0.634485
0.110491 0.890913 0.641321
0.378225 0.889006 0.648371
0.550652 0.886885 0.656199
0.668421 0.884916 0.664485
0.752712 0.883803 0.673625
0.815167 0.883558 0.683391
0.863706 0.883665 0.693584
0.130327 0.168643 0.444083
0.226917 0.168215 0.45359
0.313649 0.163912 0.463416
0.408194 0.15201 0.473686
0.510674 0.122377 0.484337
0.615366 0.0825513 0.495903
0.713741 0.0442969 0.508507
0.802426 0.0217594 0.521843
0.880354 0.00103761 0.535912
0.101152 0.241901 0.477043
0.221576 0.244266 0.486488
0.323949 0.244511 0.496361
0.42681 0.241001 0.506584
0.533562 0.233005 0.517189
0.638102 0.218647 0.528756
0.736065 0.201694 0.54081
0.822217 0.187381 0.553506
0.893065 0.182467 0.567407
0.0375372 0.330709 0.509377
0.175814 0.335866 0.519005
0.317845 0.339467 0.528679
0.43476 0.340307 0.538613
0.547143 0.3393 0.549142
0.653071 0.336446 0.559991
0.748882 0.334661 0.571847
0.831327 0.335592 0.584253
0.898024 0.341634 0.597421
0.0027924 0.438056 0.54197
0.105959 0.444633 0.550973
0.285023 0.449897 0.560113
0.429114 0.45359 0.56965
0.549935 0.456077 0.579858
0.658137 0.458289 0.590387
0.752468 0.461357 0.601297
0.831998 0.466682 0.613108
0.894301 0.475364 0.625544
0 0.553613 0.573846
0.0154726 0.559915 0.582132
0.19617 0.565103 0.590494
0.406775 0.56997 0.599664
0.540551 0.573465 0.609339
0.656245 0.577005 0.619501
0.749386 0.581552 0.630182
0.823468 0.588449 0.641672
0.883757 0.59704 0.653666
0 0.667491 0.605768
0 0.672877 0.613367
0.131212 0.677577 0.621576
0.366308 0.681804 0.630243
0.524163 0.685237 0.63917
0.648371 0.688609 0.648707
0.746639 0.692821 0.658991
0.8177 0.698116 0.670039
0.872129 0.704906 0.681041
0 0.768536 0.639368
0 0.771542 0.646952
0.0816052 0.77406 0.654521
0.315206 0.776196 0.662608
0.512612 0.777966 0.670848
0.643183 0.778637 0.679393
0.744808 0.779324 0.688853
0.816785 0.78146 0.698848
0.867216 0.785306 0.709209
0 0.842161 0.676616
0.000366217 0.842954 0.682902
0.0357671 0.843397 0.689357
0.32932 0.84329 0.696239
0.524239 0.842191 0.703807
0.652522 0.840833 0.711681
0.744488 0.840452 0.719341
0.812894 0.841077 0.72752
0.864775 0.842649 0.736095
0 0.893385 0.712566
0 0.892653 0.717937
0.11577 0.891585 0.723522
0.37319 0.889693 0.728878
0.549432 0.887556 0.7346
0.666545 0.885573 0.740749
0.750607 0.884581 0.74789
0.812711 0.884047 0.754849
0.861021 0.884184 0.762097
0.0774701 0.169375 0.543282
0.208453 0.168902 0.552911
0.305135 0.164569 0.56286
0.404288 0.152285 0.573098
0.509896 0.122927 0.583474
0.616053 0.0795148 0.594491
0.720043 0.0435798 0.606546
0.815946 0.00886549 0.619196
0.896666 0.0028687 0.633127
0.0523384 0.244343 0.576593
0.198917 0.246326 0.586236
0.314336 0.246723 0.595651
0.422751 0.243153 0.60531
0.532204 0.235294 0.615427
0.639689 0.220539 0.626154
0.743053 0.202045 0.637797
0.836439 0.181277 0.649943
0.90808 0.169543 0.662837
0.0203403 0.334112 0.608454
0.147036 0.33933 0.617334
0.307332 0.343008 0.626398
0.430549 0.343969 0.636164
0.545754 0.343023 0.64593
0.655131 0.340169 0.656168
0.757412 0.336522 0.667155
0.845548 0.33492 0.67866
0.912154 0.339803 0.69073
0.00375372 0.442329 0.639475
0.0715496 0.448936 0.647929
0.27039 0.4542 0.656641
0.423819 0.458076 0.665721
0.547829 0.46067 0.674983
0.660319 0.462135 0.684321
0.761929 0.463569 0.694331
0.846098 0.467384 0.704921
0.908461 0.475547 0.716213
0 0.558358 0.669703
0.00987259 0.564538 0.677516
0.191836 0.569757 0.684916
0.400412 0.574151 0.693172
0.537652 0.577523 0.701808
0.657389 0.580667 0.710994
0.760708 0.583978 0.719997
0.836698 0.590173 0.729274
0.893202 0.598718 0.738735
0 0.671687 0.698711
0.000503548 0.677302 0.705592
0.112902 0.681773 0.712978
0.357092 0.685771 0.719707
0.520714 0.689235 0.72668
0.64741 0.692531 0.734249
0.74818 0.695705 0.742107
0.822278 0.700191 0.750652
0.874327 0.707149 0.758816
0 0.771221 0.726879
0 0.774441 0.732891
0.0465553 0.77702 0.738827
0.297017 0.779049 0.744961
0.510842 0.780621 0.750759
0.64213 0.780652 0.756909
0.742428 0.781399 0.763622
0.813825 0.783673 0.770672
0.863996 0.787442 0.77821
0 0.844068 0.756024
6.10361e-05 0.844831 0.759945
0.0341344 0.845197 0.764324
0.328145 0.844633 0.768948
0.523018 0.843427 0.774105
0.651484 0.842145 0.779583
0.74284 0.841901 0.785046
0.810315 0.842634 0.790951
0.861402 0.844053 0.797131
0 0.894469 0.780941
0 0.893812 0.784329
0.121462 0.892424 0.787991
0.370962 0.890547 0.79173
0.549508 0.888334 0.79585
0.665949 0.886473 0.800397
0.749111 0.885374 0.805432
0.811063 0.884718 0.810208
0.858976 0.885008 0.815274
0.048127 0.169924 0.642298
0.177249 0.169146 0.651316
0.29308 0.164843 0.660822
0.398398 0.152041 0.670481
0.507729 0.123308 0.680552
0.61619 0.0710155 0.691005
0.721096 0.0441749 0.70161
0.81973 0.00798047 0.712825
0.903059 0.00631724 0.724758
0.00936904 0.246311 0.674235
0.1664 0.248402 0.682994
0.302037 0.249012 0.691859
0.417182 0.245502 0.70074
0.530221 0.237842 0.709957
0.639124 0.223499 0.719585
0.743404 0.205966 0.729686
0.839002 0.183978 0.739666
0.914275 0.163729 0.750317
0.00392157 0.338079 0.703914
0.119829 0.343313 0.711971
0.293065 0.34699 0.720348
0.424887 0.347845 0.728496
0.543282 0.347127 0.736538
0.654276 0.344656 0.744732
0.757855 0.340948 0.753292
0.848554 0.338888 0.762783
0.918425 0.341924 0.772168
0 0.447135 0.731334
0.0369421 0.453635 0.738186
0.252247 0.458976 0.745144
0.417807 0.462913 0.75227
0.545022 0.465415 0.759762
0.659464 0.467033 0.766613
0.762768 0.468315 0.773739
0.848936 0.471504 0.781384
0.915221 0.477791 0.789578
0 0.563058 0.755444
0.00395209 0.569329 0.761273
0.182666 0.574533 0.766781
0.395956 0.579049 0.772625
0.535302 0.582208 0.778714
0.656168 0.585351 0.785138
0.760418 0.588556 0.791623
0.840589 0.593591 0.79823
0.900236 0.601419 0.805295
0 0.676234 0.775952
0.00111391 0.681743 0.781064
0.0936599 0.686152 0.786206
0.349844 0.690211 0.79089
0.518685 0.693553 0.795804
0.646632 0.696483 0.801022
0.749615 0.699031 0.806897
0.826459 0.702983 0.812909
0.881971 0.709194 0.818524
0 0.774609 0.795605
0 0.777661 0.799924
0.029099 0.780224 0.804166
0.293904 0.782345 0.808408
0.511421 0.783139 0.812436
0.642115 0.783108 0.816205
0.742077 0.783825 0.820569
0.816205 0.78558 0.825299
0.866316 0.78941 0.830488
0 0.846052 0.815625
0 0.846784 0.818341
0.037995 0.847456 0.821332
0.330251 0.846372 0.82417
0.523659 0.845136 0.827359
0.651652 0.843824 0.830869
0.742382 0.843442 0.834745
0.809461 0.844205 0.839033
0.860624 0.845426 0.843793
0 0.895766 0.83241
0 0.894942 0.83473
0.128023 0.893538 0.837064
0.372732 0.891478 0.839551
0.551278 0.88925 0.84242
0.666819 0.887449 0.845792
0.748775 0.88629 0.849546
0.810346 0.88574 0.85301
0.857679 0.886076 0.856626
0.0009308 0.17026 0.736736
0.138705 0.169635 0.744396
0.279011 0.16556 0.752148
0.392432 0.151736 0.759854
0.505516 0.123674 0.768048
0.615854 0.0656596 0.77615
0.722194 0.0467689 0.784024
0.821363 0.00915541 0.792065
0.904814 0.00978103 0.800671
0.0077821 0.248676 0.763256
0.123125 0.251316 0.770596
0.288716 0.25185 0.776867
0.412192 0.248081 0.783322
0.529152 0.240894 0.790005
0.639765 0.227451 0.796979
0.744411 0.210498 0.804181
0.839673 0.189563 0.811002
0.915404 0.168017 0.818494
0 0.342397 0.78558
0.102098 0.347494 0.791516
0.280888 0.3514 0.797589
0.421057 0.352438 0.803418
0.54226 0.351904 0.809049
0.654307 0.349752 0.815
0.758862 0.346441 0.821286
0.849149 0.344854 0.827802
0.918975 0.348455 0.834028
0 0.452583 0.805142
0.0358129 0.459098 0.810208
0.231952 0.464256 0.815244
0.413291 0.467933 0.820325
0.543725 0.470451 0.825559
0.66038 0.472419 0.829923
0.763455 0.473869 0.834424
0.849012 0.477409 0.839521
0.915221 0.484016 0.844938
0 0.568566 0.822217
0 0.574594 0.826062
0.170336 0.579583 0.829343
0.393805 0.58407 0.833021
0.535378 0.587366 0.836866
0.657053 0.590646 0.841123
0.760693 0.593942 0.845304
0.840497 0.598917 0.849851
0.900603 0.606455 0.854871
0 0.681285 0.834653
1.5259e-05 0.686564 0.837674
0.0918593 0.690959 0.840848
0.346441 0.695018 0.844129
0.519112 0.69836 0.847547
0.647929 0.700694 0.85127
0.749844 0.703105 0.855283
0.826276 0.707149 0.859495
0.882689 0.712993 0.863401
0 0.778286 0.846891
0 0.781292 0.84976
0.0269169 0.783703 0.852659
0.298741 0.785473 0.855787
0.514611 0.78587 0.858503
0.6439 0.785763 0.861051
0.74229 0.786542 0.864027
0.815549 0.788556 0.867384
0.869291 0.791638 0.870985
0 0.848432 0.860288
0 0.849073 0.862211
0.0492103 0.849073 0.864118
0.335317 0.84802 0.866148
0.526513 0.846876 0.868482
0.653193 0.845701 0.870878
0.74313 0.84538 0.873533
0.809384 0.845838 0.876646
0.860578 0.846952 0.879988
0 0.897017 0.872053
0 0.896132 0.873671
0.135363 0.894713 0.875273
0.378164 0.892699 0.876936
0.554513 0.890532 0.87895
0.668864 0.888701 0.881178
0.749737 0.887205 0.883757
0.810162 0.886763 0.886137
0.85745 0.887053 0.888701
0 0.171496 0.812604
0.108644 0.171023 0.818402
0.26685 0.166949 0.824292
0.388876 0.152789 0.83003
0.505455 0.125551 0.835645
0.617548 0.0694896 0.840803
0.724697 0.0503853 0.845563
0.823545 0.0122683 0.850843
0.906386 0.0139773 0.856901
0.00120546 0.252049 0.832593
0.0901198 0.255024 0.83827
0.279103 0.255482 0.842115
0.410483 0.251728 0.845991
0.529686 0.244587 0.850126
0.641855 0.232502 0.854459
0.74699 0.216312 0.859083
0.841688 0.197177 0.863844
0.916793 0.178286 0.869078
0 0.347555 0.847456
0.0745861 0.352636 0.851179
0.273182 0.35642 0.855055
0.420874 0.357488 0.858701
0.543389 0.357534 0.862547
0.656397 0.355657 0.866499
0.76109 0.352804 0.870619
0.851057 0.352087 0.875166
0.919722 0.356466 0.879423
0 0.458595 0.859663
0.0290379 0.465034 0.863005
0.207401 0.470344 0.866606
0.412711 0.473823 0.870039
0.545037 0.476234 0.873472
0.662531 0.478447 0.876265
0.765469 0.480064 0.879332
0.849928 0.484062 0.882826
0.914748 0.490974 0.886732
0 0.574792 0.870451
0 0.580713 0.873259
0.165927 0.585382 0.875547
0.392996 0.589609 0.877897
0.537224 0.592905 0.88043
0.659205 0.596216 0.883284
0.762051 0.599573 0.886107
0.841199 0.604807 0.889235
0.900038 0.612421 0.892683
0 0.686732 0.878218
0 0.691966 0.880308
0.098024 0.696117 0.882322
0.347906 0.700023 0.884504
0.521447 0.703487 0.886839
0.650156 0.705272 0.889433
0.751492 0.707637 0.89218
0.826551 0.711589 0.894942
0.882216 0.717433 0.897475
0 0.782132 0.885847
0 0.785138 0.88777
0.0254063 0.787305 0.889723
0.309987 0.788617 0.891814
0.519966 0.7888 0.893645
0.646983 0.788708 0.895171
0.743557 0.789471 0.897124
0.815381 0.791485 0.899336
0.869291 0.794415 0.9019
0 0.850889 0.894545
0 0.85153 0.895811
0.0663462 0.851102 0.897078
0.34374 0.850004 0.898314
0.531151 0.848814 0.899718
0.655879 0.847562 0.90132
0.744793 0.847257 0.903151
0.809857 0.847623 0.905257
0.860594 0.848798 0.907637
0 0.898512 0.902266
0 0.897551 0.903304
0.145388 0.895979 0.904311
0.387457 0.894011 0.90544
0.559716 0.891875 0.906783
0.672221 0.889799 0.908232
0.751278 0.888441 0.910048
0.810849 0.888014 0.911742
0.857328 0.888289 0.913619
