YOYO-Client/Yoyo/Assets.xcassets/Haze.dataset/Fuji-3513.cube
TITLE "Fuji3513"
LUT_3D_SIZE 5
0.00262455 0.0355535 0.0265507
0.0508431 0.0406043 0.0282597
0.423621 0.0576333 0
0.77406 0.41706 0.328161
0.905364 0.756893 0.65568
0 0.0735485 0.0350805
0.0847334 0.0852979 0.0423743
0.513237 0.176913 0.0134279
0.7794 0.45153 0.333394
0.906188 0.760311 0.659144
0.0227359 0.406653 0.150866
0.0466163 0.42916 0.177646
0.60528 0.486748 0.141848
0.792187 0.586755 0.381918
0.90602 0.781094 0.668788
0.5832 0.766049 0.566583
0.591897 0.768521 0.572534
0.623545 0.776257 0.587823
0.80737 0.794324 0.60763
0.896376 0.84683 0.714717
0.862989 0.913817 0.800824
0.863264 0.913954 0.801129
0.864164 0.914122 0.801312
0.869245 0.91635 0.804425
0.892027 0.925719 0.817136
0 0.0347295 0.0763561
0.0585946 0.0430762 0.077409
0.462562 0.0124666 0.115175
0.779644 0.416373 0.386877
0.905699 0.757458 0.66009
0 0.0919661 0.0924239
0.0720836 0.101946 0.102831
0.556664 0.174899 0.141482
0.784909 0.452873 0.382483
0.906447 0.760494 0.663188
0.0271916 0.424079 0.234592
0.0560006 0.444938 0.242283
0.596902 0.501122 0.260243
0.795651 0.588174 0.410101
0.906203 0.781567 0.671214
0.582162 0.767514 0.573602
0.591821 0.769711 0.580102
0.626688 0.777508 0.594141
0.8065 0.795651 0.613809
0.896239 0.846799 0.715831
0.863279 0.913909 0.800992
0.863737 0.914031 0.802014
0.864454 0.914199 0.80148
0.869245 0.91635 0.804425
0.892027 0.925719 0.817136
0 0.100023 0.360678
0.137362 0.152682 0.370718
0.532326 0.229801 0.432898
0.786923 0.457908 0.541115
0.906493 0.75906 0.678401
0.00288396 0.210178 0.417029
0.0640879 0.233509 0.419455
0.544335 0.314 0.455344
0.792416 0.481239 0.543175
0.906233 0.761898 0.678965
0.0402533 0.48806 0.502541
0.0419165 0.499962 0.501656
0.544778 0.537789 0.501625
0.80499 0.603189 0.548592
0.907134 0.7832 0.686275
0.56109 0.775006 0.61384
0.574395 0.77731 0.619074
0.634485 0.783413 0.624872
0.801358 0.802609 0.647929
0.897139 0.847822 0.722744
0.864103 0.914275 0.801938
0.864851 0.914473 0.803296
0.865751 0.914702 0.803616
0.870588 0.917113 0.805951
0.892393 0.92636 0.817884
0.457542 0.559686 0.655039
0.492683 0.563653 0.657603
0.607446 0.579339 0.658259
0.775036 0.639841 0.688014
0.901869 0.793942 0.746258
0.458457 0.574334 0.661494
0.492363 0.577462 0.663066
0.607111 0.591226 0.662821
0.774914 0.648539 0.689555
0.902159 0.796078 0.748043
0.445228 0.645304 0.683879
0.475257 0.647471 0.685725
0.600717 0.657725 0.68957
0.777325 0.698085 0.701457
0.902892 0.807279 0.749996
0.56791 0.804166 0.72491
0.576303 0.804746 0.725963
0.620417 0.809461 0.727733
0.785016 0.823056 0.736156
0.897383 0.858778 0.762798
0.869886 0.918181 0.808988
0.870314 0.918196 0.809995
0.871473 0.918456 0.810346
0.877272 0.920256 0.812772
0.895048 0.929381 0.822034
0.770626 0.856229 0.796384
0.77258 0.856565 0.796582
0.783185 0.858198 0.797818
0.828885 0.862745 0.79855
0.887877 0.889815 0.808911
0.771695 0.85716 0.796841
0.773526 0.857374 0.797009
0.783948 0.858808 0.798062
0.829053 0.863569 0.799039
0.887907 0.889982 0.808972
0.777157 0.861875 0.798306
0.778836 0.861967 0.798291
0.787594 0.863172 0.799313
0.830533 0.867597 0.800931
0.888212 0.892088 0.809491
0.805814 0.883116 0.802823
0.806745 0.883207 0.802838
0.811292 0.883619 0.803082
0.838895 0.888106 0.805341
0.891234 0.90428 0.812985
0.897887 0.936065 0.829175
0.898177 0.936156 0.829374
0.898238 0.936385 0.829465
0.899886 0.937774 0.830457
0.908797 0.946715 0.836667
