YOYO-Client/Yoyo/Assets.xcassets/Haze.dataset/Fuji-3513.cube
TITLE "Fuji3513"
LUT_3D_SIZE 9
0.00262455 0.0355535 0.0265507
0.00277714 0.0355535 0.0263828
0.0508431 0.0406043 0.0282597
0.224353 0.0606699 0.0175631
0.423621 0.0576333 0
0.641672 0.185397 0.116442
0.77406 0.41706 0.328161
0.855772 0.598444 0.51545
0.905364 0.756893 0.65568
0.00224308 0.0372931 0.0267491
0 0.0373083 0.026566
0.0545205 0.0444038 0.0288548
0.243656 0.0669261 0.0128786
0.459876 0.0771038 0.00314336
0.654047 0.219211 0.114626
0.776394 0.428 0.329503
0.856352 0.601648 0.516564
0.905653 0.757977 0.65687
0 0.0735485 0.0350805
0 0.0753185 0.0392004
0.0847334 0.0852979 0.0423743
0.287785 0.11429 0.0136873
0.513237 0.176913 0.0134279
0.67335 0.291127 0.111742
0.7794 0.45153 0.333394
0.855848 0.609583 0.516762
0.906188 0.760311 0.659144
0 0.192981 0.0568399
0 0.199466 0.0603799
0.00350958 0.218204 0.0676585
0.351659 0.271122 0.0246433
0.545235 0.339956 0.0332647
0.682918 0.395468 0.11606
0.785794 0.503304 0.345632
0.857862 0.630259 0.522622
0.906294 0.766552 0.662669
0.0227359 0.406653 0.150866
0.0239261 0.414481 0.161471
0.0466163 0.42916 0.177646
0.322881 0.461326 0.17319
0.60528 0.486748 0.141848
0.694804 0.526787 0.223682
0.792187 0.586755 0.381918
0.862379 0.67216 0.537499
0.90602 0.781094 0.668788
0.370169 0.623194 0.382406
0.378775 0.626459 0.391119
0.397604 0.631998 0.400854
0.44596 0.641779 0.411734
0.55584 0.655726 0.414298
0.724849 0.666606 0.424582
0.796597 0.692515 0.470298
0.864012 0.73901 0.571618
0.904402 0.809171 0.683101
0.5832 0.766049 0.566583
0.586618 0.76704 0.570138
0.591897 0.768521 0.572534
0.602625 0.770703 0.577188
0.623545 0.776257 0.587823
0.680339 0.785962 0.599451
0.80737 0.794324 0.60763
0.863172 0.813092 0.643275
0.896376 0.84683 0.714717
0.745205 0.859297 0.704417
0.746563 0.859648 0.706691
0.74786 0.859663 0.70605
0.75111 0.860059 0.706783
0.757565 0.860777 0.709026
0.771023 0.864103 0.715831
0.798688 0.868971 0.725093
0.860853 0.874113 0.735439
0.892485 0.887266 0.765805
0.862989 0.913817 0.800824
0.863462 0.913909 0.801648
0.863264 0.913954 0.801129
0.863584 0.913954 0.800992
0.864164 0.914122 0.801312
0.86595 0.914534 0.802045
0.869245 0.91635 0.804425
0.877531 0.919249 0.809247
0.892027 0.925719 0.817136
0.00173953 0.0356909 0.0282139
0 0.0347601 0.0283055
0.0596628 0.0429084 0.033753
0.239841 0.059968 0.0203555
0.435813 0.031693 0.0178073
0.651102 0.186831 0.157443
0.775921 0.416739 0.349111
0.856413 0.598688 0.52166
0.905486 0.757 0.657679
0.000885023 0.0398413 0.0304265
0 0.0391241 0.0309606
0.0781262 0.0500649 0.0345617
0.271229 0.0669718 0.0162661
0.471275 0.0551919 0.0287175
0.662333 0.219471 0.15404
0.778851 0.428748 0.351507
0.857023 0.601831 0.523613
0.906111 0.758282 0.660746
0 0.0798199 0.0382239
0 0.0811933 0.0416724
0.0869612 0.0905776 0.0463264
0.311879 0.116701 0.013489
0.527703 0.170382 0.0345006
0.679728 0.292103 0.145739
0.781308 0.451987 0.349554
0.856245 0.609567 0.521614
0.90631 0.760403 0.661219
0 0.205417 0.0631723
0 0.211902 0.06981
0.00277714 0.231601 0.0820935
0.357977 0.281209 0.0399939
0.552132 0.339681 0.0415961
0.688289 0.396338 0.146792
0.787198 0.503502 0.358206
0.858244 0.630503 0.525154
0.906416 0.766384 0.663233
0.0238956 0.411933 0.173098
0.0251316 0.418723 0.181704
0.0480201 0.435187 0.197833
0.315267 0.467506 0.205097
0.603342 0.491325 0.179751
0.69514 0.527916 0.233509
0.793332 0.587213 0.389288
0.862791 0.672435 0.5402
0.905989 0.781231 0.669505
0.371756 0.624628 0.389746
0.380606 0.627894 0.399405
0.401251 0.633036 0.408042
0.445518 0.643061 0.420996
0.552804 0.657313 0.425437
0.724117 0.668269 0.433722
0.796643 0.692988 0.472602
0.864118 0.739025 0.573251
0.904387 0.809262 0.683589
0.582925 0.766583 0.568246
0.58674 0.767636 0.572641
0.591928 0.768734 0.574578
0.603311 0.771252 0.579034
0.624582 0.776623 0.589364
0.680385 0.786145 0.601419
0.806989 0.794919 0.609628
0.863172 0.813199 0.643656
0.896376 0.846906 0.715221
0.745174 0.859403 0.704814
0.746929 0.859892 0.707469
0.748226 0.859861 0.706767
0.751034 0.859968 0.707088
0.757488 0.860853 0.709468
0.771252 0.863981 0.716014
0.798688 0.869062 0.72549
0.860822 0.874144 0.735668
0.89247 0.887297 0.766018
0.862989 0.913817 0.800824
0.863447 0.913954 0.801816
0.863264 0.913954 0.801129
0.863569 0.913985 0.801144
0.864164 0.914122 0.801312
0.865919 0.91458 0.802228
0.869245 0.91635 0.804425
0.877531 0.919249 0.809247
0.892027 0.925719 0.817136
0 0.0347295 0.0763561
0 0.0343938 0.0753643
0.0585946 0.0430762 0.077409
0.255161 0.0607462 0.0873579
0.462562 0.0124666 0.115175
0.662226 0.192844 0.237659
0.779644 0.416373 0.386877
0.85713 0.598932 0.530434
0.905699 0.757458 0.66009
0 0.0416571 0.0945907
0 0.0409857 0.0982528
0.0770428 0.0527504 0.0932021
0.295247 0.0696422 0.0990768
0.498726 0.0444038 0.12813
0.672511 0.219409 0.233188
0.782162 0.428244 0.388159
0.85745 0.60209 0.532555
0.905913 0.758312 0.662654
0 0.0919661 0.0924239
0 0.0940871 0.098497
0.0720836 0.101946 0.102831
0.349371 0.135424 0.113283
0.556664 0.174899 0.141482
0.691905 0.2916 0.224033
0.784909 0.452873 0.382483
0.857267 0.610071 0.530236
0.906447 0.760494 0.663188
0.00251774 0.230015 0.111101
0.00340276 0.235904 0.119844
0.00531014 0.251881 0.13373
0.362234 0.301778 0.145541
0.569024 0.340841 0.129702
0.700893 0.400778 0.220981
0.790356 0.503609 0.386419
0.858595 0.63032 0.533547
0.906416 0.766766 0.664775
0.0271916 0.424079 0.234592
0.0278019 0.43061 0.238605
0.0560006 0.444938 0.242283
0.301885 0.478508 0.271702
0.596902 0.501122 0.260243
0.697246 0.532692 0.274678
0.795651 0.588174 0.410101
0.863172 0.672816 0.54641
0.906203 0.781567 0.671214
0.366934 0.627283 0.410193
0.379583 0.63032 0.418158
0.405905 0.636194 0.42652
0.452308 0.646616 0.443
0.547814 0.660594 0.44976
0.720012 0.671107 0.454688
0.796735 0.693675 0.478798
0.864622 0.739605 0.577569
0.904601 0.809522 0.684764
0.582162 0.767514 0.573602
0.586496 0.768887 0.578653
0.591821 0.769711 0.580102
0.6047 0.77229 0.584405
0.626688 0.777508 0.594141
0.68014 0.787152 0.606668
0.8065 0.795651 0.613809
0.862882 0.813352 0.644587
0.896239 0.846799 0.715831
0.745541 0.859648 0.705653
0.74757 0.860151 0.70927
0.748669 0.860166 0.709621
0.751827 0.860288 0.70956
0.758083 0.860975 0.710689
0.772168 0.864347 0.717021
0.798932 0.869078 0.726268
0.860731 0.874311 0.736553
0.892439 0.887312 0.766232
0.863279 0.913909 0.800992
0.863737 0.914031 0.802014
0.863737 0.914031 0.802014
0.863767 0.91397 0.801678
0.864454 0.914199 0.80148
0.865919 0.91458 0.802228
0.869245 0.91635 0.804425
0.877882 0.91957 0.809537
0.892027 0.925719 0.817136
0 0.00444038 0.197345
0 0.0152743 0.202075
0.080827 0.0448157 0.197421
0.269184 0.0588388 0.223728
0.487358 0.0384527 0.278248
0.669261 0.225437 0.371618
0.784939 0.425589 0.454429
0.858747 0.598871 0.552865
0.905928 0.757977 0.664256
0 0.0128786 0.223346
0 0.0243229 0.225544
0.0876326 0.0622873 0.214054
0.290486 0.0842756 0.24744
0.516869 0.112764 0.300435
0.679133 0.250477 0.374731
0.786038 0.433356 0.452888
0.858778 0.602167 0.554162
0.906096 0.758816 0.667124
0 0.113268 0.247883
0 0.112383 0.264683
0.038468 0.133776 0.26746
0.317159 0.174395 0.284169
0.558938 0.218647 0.328649
0.697795 0.307591 0.379232
0.789883 0.453864 0.448249
0.859083 0.609918 0.55256
0.906722 0.760967 0.667536
0.0111849 0.278096 0.295155
0.0121462 0.282948 0.30515
0.0131685 0.291783 0.315297
0.31078 0.327504 0.31281
0.587381 0.364889 0.33489
0.712398 0.416709 0.378668
0.797391 0.505089 0.446723
0.860395 0.631144 0.551858
0.906996 0.767452 0.669596
0.0332494 0.448981 0.358846
0.0338293 0.453376 0.361028
0.0374304 0.4645 0.353475
0.311192 0.492454 0.362829
0.580285 0.516335 0.37464
0.704204 0.544747 0.386343
0.800366 0.589593 0.452705
0.864424 0.673625 0.562631
0.906447 0.781949 0.675425
0.32285 0.633082 0.45597
0.344869 0.636103 0.461723
0.389914 0.641535 0.466072
0.469795 0.652567 0.476448
0.544442 0.667384 0.494957
0.712383 0.677791 0.497383
0.798428 0.698772 0.50721
0.866331 0.740505 0.588357
0.904921 0.810147 0.688914
0.577935 0.770352 0.586404
0.581491 0.770962 0.59089
0.588846 0.772061 0.592752
0.604654 0.774868 0.596277
0.632822 0.779965 0.604471
0.6813 0.78938 0.617655
0.804623 0.797955 0.623987
0.862867 0.814023 0.648417
0.89662 0.847227 0.717662
0.745205 0.859876 0.708522
0.747234 0.860426 0.71194
0.748669 0.860456 0.712535
0.752224 0.86067 0.713176
0.760052 0.861814 0.714931
0.773922 0.864866 0.71989
0.799466 0.869505 0.728771
0.860349 0.874708 0.738827
0.892393 0.887388 0.766659
0.863554 0.914031 0.801297
0.864012 0.914153 0.802426
0.86424 0.914 0.802533
0.864317 0.914199 0.802441
0.865248 0.914321 0.802487
0.866499 0.914778 0.802808
0.869459 0.916487 0.804837
0.878172 0.919661 0.80975
0.892058 0.925994 0.817395
0 0.100023 0.360678
0 0.121508 0.367102
0.137362 0.152682 0.370718
0.328481 0.186435 0.386786
0.532326 0.229801 0.432898
0.680385 0.318471 0.489174
0.786923 0.457908 0.541115
0.859678 0.606455 0.594064
0.906493 0.75906 0.678401
0 0.131365 0.381018
0 0.146212 0.385824
0.120119 0.176486 0.384833
0.335241 0.211185 0.396048
0.536675 0.256306 0.439948
0.683558 0.337301 0.491936
0.78822 0.46424 0.541329
0.860258 0.609415 0.595056
0.906661 0.75993 0.681056
0.00288396 0.210178 0.417029
0.00369268 0.214267 0.421881
0.0640879 0.233509 0.419455
0.348608 0.268711 0.418341
0.544335 0.314 0.455344
0.688319 0.379294 0.497276
0.792416 0.481239 0.543175
0.861173 0.615732 0.593362
0.906233 0.761898 0.678965
0.0203403 0.33901 0.46392
0.0206302 0.339818 0.466377
0.0223087 0.352209 0.468818
0.348486 0.379065 0.467689
0.548867 0.409491 0.478737
0.698558 0.457343 0.511681
0.799786 0.523934 0.544991
0.86305 0.63241 0.593118
0.907759 0.769055 0.681804
0.0402533 0.48806 0.502541
0.0410315 0.492729 0.505623
0.0419165 0.499962 0.501656
0.188602 0.513664 0.49398
0.544778 0.537789 0.501625
0.70631 0.563516 0.518715
0.80499 0.603189 0.548592
0.866972 0.674342 0.59588
0.907134 0.7832 0.686275
0.203128 0.643244 0.530037
0.228595 0.645884 0.533883
0.291936 0.650874 0.534066
0.411368 0.661814 0.537453
0.553979 0.676524 0.547539
0.69778 0.689342 0.560616
0.800549 0.708247 0.56733
0.869001 0.743069 0.611368
0.905715 0.811368 0.697978
0.56109 0.775006 0.61384
0.56614 0.776135 0.617807
0.574395 0.77731 0.619074
0.593484 0.77969 0.620661
0.634485 0.783413 0.624872
0.685924 0.793851 0.641688
0.801358 0.802609 0.647929
0.861112 0.817243 0.663432
0.897139 0.847822 0.722744
0.74464 0.861006 0.715618
0.746181 0.861326 0.7187
0.748119 0.861463 0.719142
0.751553 0.861723 0.719753
0.761456 0.863264 0.722362
0.777447 0.865538 0.72697
0.801923 0.870756 0.736217
0.859388 0.875715 0.743893
0.892103 0.887495 0.76762
0.864103 0.914275 0.801938
0.864866 0.914427 0.803143
0.864851 0.914473 0.803296
0.865156 0.914565 0.803449
0.865751 0.914702 0.803616
0.867552 0.915328 0.804196
0.870588 0.917113 0.805951
0.878492 0.920058 0.810391
0.892393 0.92636 0.817884
0.0544747 0.352911 0.531777
0.132586 0.36025 0.534279
0.286946 0.37145 0.538552
0.434974 0.387549 0.537575
0.549081 0.414359 0.550561
0.675502 0.459571 0.584344
0.78291 0.527306 0.619638
0.857588 0.636698 0.654322
0.906249 0.768093 0.706706
0.0550393 0.363699 0.536019
0.124208 0.370809 0.53846
0.284031 0.382879 0.543923
0.435065 0.397711 0.541619
0.550149 0.424353 0.554009
0.674891 0.467155 0.58558
0.78381 0.532372 0.620569
0.858167 0.638743 0.655604
0.906706 0.768917 0.708171
0.0487984 0.392218 0.548531
0.102174 0.396063 0.549615
0.263813 0.40676 0.553124
0.435004 0.422034 0.552514
0.552666 0.446769 0.560647
0.675135 0.485481 0.589029
0.785092 0.546731 0.622858
0.859098 0.644877 0.656123
0.906981 0.770748 0.70811
0.0512551 0.447837 0.569421
0.082887 0.451194 0.570336
0.222171 0.459937 0.573571
0.43209 0.473411 0.575936
0.558068 0.492058 0.573968
0.675151 0.526101 0.598123
0.785962 0.575174 0.625452
0.861479 0.65713 0.656947
0.906859 0.775219 0.708217
0.0721904 0.545052 0.594781
0.0816968 0.545602 0.594827
0.178637 0.551324 0.59678
0.383001 0.565316 0.605875
0.560372 0.576257 0.605875
0.675883 0.600137 0.616419
0.793164 0.635813 0.635782
0.866911 0.694163 0.662333
0.907958 0.786633 0.710658
0.236194 0.668101 0.620279
0.255879 0.669841 0.622721
0.298528 0.673655 0.62446
0.388754 0.681682 0.627878
0.511391 0.694087 0.632105
0.671946 0.705806 0.637491
0.800885 0.72398 0.647684
0.869535 0.756283 0.670848
0.906264 0.813809 0.71722
0.53019 0.784161 0.662669
0.535286 0.785199 0.665293
0.54493 0.786252 0.665675
0.565438 0.787823 0.665202
0.608698 0.792325 0.666484
0.694408 0.801511 0.674479
0.793088 0.811185 0.687617
0.859129 0.823865 0.696284
0.898039 0.849348 0.734188
0.741482 0.863539 0.731029
0.743969 0.864118 0.734035
0.7458 0.864317 0.734524
0.749722 0.864851 0.735271
0.760784 0.866102 0.736965
0.780316 0.86772 0.739498
0.806897 0.87303 0.749889
0.857679 0.878325 0.756008
0.891371 0.889632 0.774197
0.865919 0.915358 0.803662
0.866361 0.915526 0.804913
0.866651 0.915602 0.805127
0.866941 0.915694 0.805325
0.867521 0.915816 0.805554
0.869032 0.916594 0.80676
0.872984 0.918029 0.80882
0.879591 0.920729 0.811704
0.892943 0.92726 0.819181
0.457542 0.559686 0.655039
0.468971 0.561456 0.657053
0.492683 0.563653 0.657603
0.542367 0.568856 0.658457
0.607446 0.579339 0.658259
0.677913 0.601526 0.665782
0.775036 0.639841 0.688014
0.851713 0.700816 0.714488
0.901869 0.793942 0.746258
0.458122 0.563836 0.657267
0.468635 0.564904 0.658122
0.493065 0.567788 0.659556
0.541619 0.572519 0.659739
0.608392 0.582681 0.660014
0.67776 0.604883 0.666362
0.775097 0.642481 0.688746
0.852384 0.702892 0.715251
0.902144 0.794659 0.747478
0.458457 0.574334 0.661494
0.467399 0.575204 0.662104
0.492363 0.577462 0.663066
0.540841 0.581064 0.662745
0.607111 0.591226 0.662821
0.680354 0.612589 0.6692
0.774914 0.648539 0.689555
0.852659 0.707332 0.716152
0.902159 0.796078 0.748043
0.455573 0.597864 0.669657
0.465019 0.598108 0.67042
0.488945 0.599847 0.671153
0.538125 0.604517 0.672221
0.606302 0.61207 0.671107
0.68249 0.631251 0.67422
0.776242 0.66421 0.693385
0.852354 0.717388 0.717235
0.902937 0.799741 0.749004
0.445228 0.645304 0.683879
0.453651 0.646097 0.684764
0.475257 0.647471 0.685725
0.523018 0.651331 0.688182
0.600717 0.657725 0.68957
0.687663 0.671168 0.686244
0.777325 0.698085 0.701457
0.855116 0.741344 0.722423
0.902892 0.807279 0.749996
0.444694 0.720684 0.702007
0.450614 0.721538 0.703227
0.46421 0.722744 0.703883
0.49836 0.726238 0.705867
0.570611 0.732189 0.709484
0.685389 0.740017 0.715358
0.780255 0.754559 0.716655
0.858351 0.783276 0.732006
0.903334 0.828565 0.754406
0.56791 0.804166 0.72491
0.570932 0.804578 0.726024
0.576303 0.804746 0.725963
0.589136 0.806195 0.726513
0.620417 0.809461 0.727733
0.68217 0.815702 0.730846
0.785016 0.823056 0.736156
0.858518 0.835462 0.74313
0.897383 0.858778 0.762798
0.746258 0.870253 0.757412
0.747387 0.870573 0.759014
0.748837 0.870726 0.759197
0.752224 0.871092 0.759564
0.760647 0.871733 0.759884
0.780224 0.873915 0.761868
0.815671 0.877562 0.766506
0.855039 0.884123 0.776272
0.890135 0.89369 0.786816
0.869886 0.918181 0.808988
0.870375 0.918318 0.809903
0.870314 0.918196 0.809995
0.870909 0.91841 0.810178
0.871473 0.918456 0.810346
0.873625 0.918975 0.810941
0.877272 0.920256 0.812772
0.882856 0.922911 0.816037
0.895048 0.929381 0.822034
0.609476 0.738293 0.744579
0.611765 0.739101 0.745312
0.619257 0.739651 0.74583
0.636042 0.741497 0.746593
0.671214 0.744549 0.747204
0.729503 0.750683 0.745876
0.786358 0.767575 0.749599
0.846952 0.794583 0.763561
0.893767 0.837858 0.781415
0.609659 0.739498 0.745281
0.611582 0.739895 0.745754
0.619577 0.7411 0.746487
0.636179 0.742382 0.746731
0.670985 0.745464 0.74757
0.72932 0.751553 0.746197
0.786435 0.768139 0.749706
0.84686 0.79527 0.763806
0.893996 0.838422 0.782071
0.60943 0.742611 0.746624
0.611337 0.742977 0.746883
0.619089 0.743709 0.74728
0.635996 0.745525 0.748043
0.670268 0.747768 0.748409
0.729091 0.754147 0.747295
0.786709 0.770031 0.749905
0.846723 0.796948 0.764172
0.893843 0.839094 0.782269
0.61033 0.749767 0.749081
0.612406 0.749828 0.749355
0.619654 0.750576 0.749767
0.637049 0.751995 0.750454
0.670008 0.75375 0.750393
0.730007 0.760357 0.750195
0.787884 0.77528 0.751736
0.846311 0.800839 0.764431
0.89395 0.841031 0.782544
0.609674 0.764691 0.752682
0.612055 0.765179 0.753124
0.618402 0.765591 0.753429
0.635447 0.767559 0.75462
0.668498 0.769726 0.755611
0.73022 0.774395 0.755688
0.789685 0.786648 0.754803
0.847974 0.811383 0.768292
0.894606 0.846494 0.784314
0.622141 0.79649 0.760815
0.62414 0.796658 0.760906
0.629969 0.797055 0.761074
0.641794 0.797787 0.761349
0.669505 0.800366 0.763485
0.728222 0.804288 0.766552
0.796216 0.812726 0.764385
0.847318 0.828595 0.772122
0.893156 0.856565 0.786099
0.676814 0.837659 0.770779
0.677775 0.837736 0.771206
0.68072 0.838102 0.771374
0.687633 0.838743 0.771725
0.703578 0.839933 0.772442
0.738872 0.843244 0.774731
0.795178 0.847669 0.778912
0.851408 0.857359 0.78233
0.893477 0.876783 0.791684
0.783123 0.883192 0.788006
0.783383 0.88333 0.788373
0.7841 0.883436 0.788418
0.786236 0.883482 0.788464
0.790295 0.88397 0.788678
0.801801 0.884764 0.789212
0.825391 0.887633 0.791577
0.860563 0.892973 0.797665
0.891691 0.902663 0.803677
0.879744 0.923156 0.816495
0.879896 0.923095 0.816999
0.879896 0.923095 0.816999
0.88014 0.923186 0.817227
0.880842 0.923506 0.817395
0.882048 0.923766 0.817838
0.884581 0.925063 0.819379
0.889479 0.928252 0.822248
0.899367 0.934157 0.827298
0.770626 0.856229 0.796384
0.771206 0.856352 0.796475
0.77258 0.856565 0.796582
0.775952 0.857084 0.797086
0.783185 0.858198 0.797818
0.799847 0.859785 0.798749
0.828885 0.862745 0.79855
0.858076 0.872786 0.800565
0.887877 0.889815 0.808911
0.770932 0.856291 0.796429
0.771252 0.856611 0.796567
0.77261 0.856809 0.796674
0.77641 0.857359 0.797253
0.783475 0.858289 0.798032
0.799893 0.860044 0.79884
0.828962 0.86302 0.798657
0.858076 0.872786 0.800565
0.887877 0.889815 0.808911
0.771695 0.85716 0.796841
0.772061 0.857206 0.796872
0.773526 0.857374 0.797009
0.776852 0.857771 0.797452
0.783948 0.858808 0.798062
0.800366 0.860609 0.799069
0.829053 0.863569 0.799039
0.858198 0.87332 0.800763
0.887907 0.889982 0.808972
0.77351 0.858503 0.797543
0.774166 0.858534 0.797528
0.775326 0.858671 0.797726
0.779065 0.859068 0.797864
0.784863 0.86009 0.798474
0.800992 0.861936 0.799558
0.829679 0.864668 0.799664
0.858457 0.874327 0.800961
0.888121 0.890501 0.809079
0.777157 0.861875 0.798306
0.777493 0.861891 0.798291
0.778836 0.861967 0.798291
0.781186 0.862181 0.798489
0.787594 0.863172 0.799313
0.801678 0.864027 0.799588
0.830533 0.867597 0.800931
0.859388 0.876966 0.801923
0.888212 0.892088 0.809491
0.7841 0.868376 0.798886
0.784451 0.868467 0.799084
0.785153 0.868544 0.79913
0.787442 0.868849 0.799329
0.792966 0.869307 0.799741
0.805234 0.870848 0.800626
0.831495 0.875105 0.803143
0.861463 0.882139 0.803876
0.889342 0.895674 0.810376
0.805814 0.883116 0.802823
0.806119 0.883162 0.803006
0.806745 0.883207 0.802838
0.807645 0.883146 0.802853
0.811292 0.883619 0.803082
0.820676 0.885298 0.803891
0.838895 0.888106 0.805341
0.863706 0.893568 0.808621
0.891234 0.90428 0.812985
0.848432 0.905135 0.809812
0.848417 0.90518 0.809979
0.848707 0.905226 0.809995
0.849012 0.905272 0.810025
0.850248 0.90544 0.810101
0.853941 0.906218 0.810559
0.862242 0.907759 0.811917
0.877607 0.911955 0.815152
0.894957 0.920531 0.821134
0.897887 0.936065 0.829175
0.898177 0.936156 0.829374
0.898177 0.936156 0.829374
0.898177 0.936156 0.829374
0.898238 0.936385 0.829465
0.898589 0.936721 0.829694
0.899886 0.937774 0.830457
0.90251 0.940124 0.832197
0.908797 0.946715 0.836667
