YOYO-Client/Yoyo/Assets.xcassets/Haze.dataset/Fuji-3513.cube
TITLE "Fuji3513"
LUT_3D_SIZE 33
0.00262455 0.0355535 0.0265507
0.00262455 0.0355535 0.0265507
0.00262455 0.0355535 0.0265507
0.00267033 0.0355383 0.0264897
0.00277714 0.0355535 0.0263828
0 0.0349126 0.026276
0.000762951 0.0351568 0.0265202
0.0170901 0.0365606 0.0273289
0.0508431 0.0406043 0.0282597
0.0793927 0.0480201 0.0288243
0.117372 0.0545663 0.0286259
0.173663 0.0586252 0.0257115
0.224353 0.0606699 0.0175631
0.268269 0.0607462 0
0.313268 0.0616464 0
0.368948 0.0605325 0
0.423621 0.0576333 0
0.478202 0.0518044 0.0115816
0.533989 0.0673075 0.0399176
0.589929 0.122332 0.0839551
0.641672 0.185397 0.116442
0.68513 0.247654 0.159243
0.719982 0.31043 0.208576
0.747066 0.364736 0.266438
0.77406 0.41706 0.328161
0.798093 0.464149 0.382071
0.819669 0.511269 0.430915
0.83711 0.554238 0.473533
0.855772 0.598444 0.51545
0.870848 0.639384 0.553353
0.884443 0.680125 0.589487
0.896071 0.720287 0.622721
0.905364 0.756893 0.65568
0.00262455 0.0355535 0.0265507
0.00262455 0.0355535 0.0265507
0.00262455 0.0355535 0.0265507
0.00267033 0.0355383 0.0264897
0.00221256 0.0354467 0.0263218
0 0.0349279 0.025864
0.000946059 0.0352636 0.0261997
0.016556 0.0365759 0.0270542
0.0498817 0.0404822 0.0278325
0.0784772 0.0478218 0.028397
0.115846 0.0544747 0.0280919
0.171603 0.0588235 0.0255894
0.222324 0.0610208 0.0180667
0.266224 0.0610971 0
0.31986 0.0634318 0
0.374929 0.062089 0
0.43122 0.0599069 0
0.484413 0.0564431 0.0140841
0.53904 0.0782635 0.041474
0.594202 0.130968 0.0844892
0.645029 0.191943 0.11722
0.686351 0.252705 0.158709
0.721233 0.314397 0.209277
0.74789 0.367651 0.266926
0.773816 0.418372 0.328145
0.798703 0.465599 0.382574
0.819898 0.512032 0.431067
0.836851 0.554696 0.473167
0.855879 0.599054 0.515755
0.870726 0.639719 0.55346
0.884535 0.680415 0.589807
0.896071 0.720333 0.622934
0.905364 0.756939 0.655863
0.00262455 0.0355535 0.0265507
0.00262455 0.0355535 0.0265507
0.00262455 0.0355535 0.0265507
0.00262455 0.0355535 0.0265507
0.00151064 0.0354009 0.0261997
0 0.0350805 0.0254978
0.000991836 0.0354467 0.0258793
0.0147555 0.0365911 0.0265202
0.0478523 0.0400092 0.0271458
0.0768139 0.047425 0.0277867
0.113298 0.0542458 0.0279698
0.169009 0.0589456 0.0260166
0.222507 0.0615549 0.0179141
0.274601 0.0627909 0
0.32845 0.0647135 0
0.382803 0.0644846 0
0.438911 0.0630198 0
0.491737 0.0639658 0.0164187
0.546227 0.0904707 0.0435492
0.598962 0.141482 0.0853285
0.647623 0.19881 0.117174
0.687251 0.256825 0.158556
0.721218 0.317891 0.209033
0.747707 0.369863 0.266926
0.77467 0.420813 0.328603
0.798917 0.467445 0.382544
0.820127 0.513405 0.431403
0.837079 0.555734 0.473579
0.855894 0.599649 0.515709
0.870619 0.64004 0.553567
0.884611 0.680995 0.590097
0.896178 0.720729 0.62327
0.90547 0.757305 0.656184
0.00262455 0.0355535 0.0265507
0.00262455 0.0355535 0.0265507
0.00262455 0.0355535 0.0265507
0.00262455 0.0355535 0.0265507
0.00148013 0.035523 0.0256657
0 0.0352636 0.024918
0.000991836 0.0357061 0.0252232
0.0117189 0.0366674 0.0258488
0.0452735 0.0395361 0.0267033
0.0766003 0.0478523 0.0279698
0.115526 0.0554208 0.0286259
0.176242 0.0607462 0.0260166
0.23209 0.0636454 0.0150454
0.284108 0.0654612 0
0.338048 0.0674449 0
0.394553 0.0679026 0
0.448951 0.068986 0.000350958
0.501091 0.0744182 0.0192721
0.553948 0.106859 0.0458534
0.604761 0.156191 0.0809339
0.650919 0.208286 0.116152
0.690166 0.26569 0.159106
0.720775 0.322744 0.208576
0.748074 0.373861 0.266941
0.77525 0.42388 0.328542
0.799023 0.469505 0.382788
0.820661 0.515404 0.431769
0.837522 0.556771 0.47396
0.856214 0.600626 0.516014
0.870604 0.640711 0.553765
0.884672 0.68127 0.590143
0.896284 0.721172 0.623865
0.905562 0.757656 0.656535
0.00224308 0.0372931 0.0267491
0.0019379 0.0372778 0.026688
0.00131228 0.037171 0.026566
7.62951e-05 0.037171 0.0266117
0 0.0373083 0.026566
0 0.0375525 0.0265965
0 0.0382086 0.0269932
0.0180972 0.0398108 0.0275883
0.0545205 0.0444038 0.0288548
0.0834058 0.0517281 0.0295109
0.125521 0.0588693 0.0294499
0.187793 0.0638285 0.0259098
0.243656 0.0669261 0.0128786
0.296803 0.0694285 0
0.350988 0.0711528 0
0.406744 0.0735637 0
0.459876 0.0771038 0.00314336
0.511482 0.0915847 0.0221561
0.561822 0.123751 0.042771
0.610651 0.169558 0.0805066
0.654047 0.219211 0.114626
0.692287 0.275639 0.157809
0.72285 0.329793 0.209873
0.748775 0.378912 0.267506
0.776394 0.428 0.329503
0.798672 0.471763 0.382345
0.821073 0.517678 0.432181
0.837842 0.558373 0.474632
0.856352 0.601648 0.516564
0.870863 0.641672 0.554192
0.885023 0.682338 0.590707
0.896391 0.721553 0.624216
0.905653 0.757977 0.65687
3.0518e-05 0.0415351 0.027863
0 0.0411688 0.0275578
0 0.0408484 0.0273594
0 0.0408179 0.0276188
0 0.0408942 0.028336
0 0.0416876 0.0294347
0 0.0423896 0.029984
0.0302586 0.0448005 0.0305486
0.06421 0.0500343 0.0315709
0.0924392 0.0578012 0.0323949
0.141527 0.0642557 0.0308385
0.200443 0.0686351 0.0263218
0.256046 0.071931 0.0107271
0.311177 0.075288 3.0518e-05
0.365957 0.0785077 0
0.418341 0.0826123 0
0.47332 0.0919966 0.00448615
0.523659 0.115145 0.0230106
0.570581 0.144183 0.0429999
0.618387 0.186358 0.0800336
0.657664 0.232547 0.113664
0.694667 0.286397 0.157565
0.72343 0.337667 0.209827
0.750683 0.385504 0.269032
0.776196 0.431815 0.329381
0.799084 0.475593 0.382834
0.820661 0.519478 0.432074
0.838483 0.560647 0.475578
0.856382 0.602838 0.516701
0.870985 0.642741 0.554482
0.885023 0.683055 0.59115
0.896574 0.721965 0.62475
0.905715 0.758312 0.657435
0 0.047013 0.0290532
0 0.04654 0.0290074
0 0.0462043 0.0290532
0 0.0463722 0.0296635
0 0.046479 0.0306706
0 0.0474403 0.032578
0.00900282 0.0485542 0.0338903
0.0438392 0.051545 0.0341955
0.0730297 0.0571603 0.0345922
0.10338 0.0645457 0.0349889
0.155383 0.0711223 0.0330053
0.215427 0.0761883 0.0278172
0.269383 0.0793317 0.00920119
0.323903 0.0839704 1.5259e-05
0.380468 0.0886549 3.0518e-05
0.43357 0.0971542 0.0011902
0.486961 0.115755 0.00814832
0.535988 0.13817 0.025391
0.582177 0.167102 0.0436561
0.626001 0.205417 0.0789044
0.663767 0.248692 0.113848
0.697292 0.299321 0.158145
0.724788 0.347433 0.210239
0.751369 0.391867 0.269963
0.775998 0.436088 0.329458
0.799878 0.479759 0.383978
0.821424 0.522484 0.43299
0.838788 0.562631 0.476173
0.856535 0.604501 0.516899
0.871229 0.644282 0.55465
0.885313 0.684153 0.59118
0.896681 0.722545 0.624842
0.905791 0.758755 0.657511
0 0.0586252 0.0314336
0 0.0588693 0.0320134
0 0.0590219 0.0326085
0 0.0586862 0.0331273
0 0.0593423 0.0348974
0 0.0603342 0.0371099
0.00895705 0.0617075 0.0382696
0.0517128 0.0641337 0.038468
0.0786755 0.0695964 0.0377203
0.111208 0.0760204 0.0375219
0.16463 0.0818494 0.0354314
0.225589 0.0870375 0.0296635
0.281819 0.0918746 0.00985733
0.338216 0.0990463 0.00204471
0.391684 0.108843 0.0024567
0.447181 0.123766 0.00531014
0.501457 0.143618 0.0109712
0.548714 0.167254 0.0274205
0.591852 0.192599 0.0435187
0.632639 0.228107 0.0750439
0.667994 0.267674 0.112215
0.699519 0.315297 0.156588
0.725887 0.35758 0.211826
0.752224 0.400946 0.271321
0.777462 0.443259 0.330983
0.801144 0.48455 0.385153
0.822171 0.527153 0.433753
0.839292 0.566369 0.476616
0.856123 0.606577 0.516533
0.870817 0.645472 0.55465
0.885466 0.685588 0.59176
0.896925 0.723507 0.625238
0.905837 0.759319 0.658045
0 0.0735485 0.0350805
0 0.0739147 0.0358282
0 0.0742962 0.0366522
0 0.0746014 0.0375372
0 0.0753185 0.0392004
0 0.0764324 0.041062
0 0.0780346 0.0424201
0.0570077 0.0804608 0.043183
0.0847334 0.0852979 0.0423743
0.11194 0.092195 0.0406043
0.167315 0.0997024 0.0382544
0.229725 0.105638 0.0314641
0.287785 0.11429 0.0136873
0.345769 0.125505 0.00474556
0.403861 0.139483 0.00660716
0.460136 0.155703 0.00962844
0.513237 0.176913 0.0134279
0.562142 0.198596 0.0295567
0.603464 0.222934 0.045182
0.640055 0.253483 0.073167
0.67335 0.291127 0.111742
0.70161 0.331167 0.155917
0.72781 0.371084 0.21442
0.754696 0.411353 0.273716
0.7794 0.45153 0.333394
0.802762 0.492363 0.387503
0.823194 0.53225 0.435264
0.839445 0.570245 0.476905
0.855848 0.609583 0.516762
0.871199 0.647959 0.5552
0.885435 0.686763 0.591913
0.896788 0.724987 0.625727
0.906188 0.760311 0.659144
0 0.0920577 0.0391852
0 0.0921492 0.0395056
0 0.092668 0.0401465
0 0.0935225 0.0413672
0 0.0944076 0.0426795
0 0.0962844 0.0450904
0 0.0986496 0.0475013
0.0183566 0.101244 0.047715
0.0906539 0.107347 0.0476844
0.125536 0.115419 0.0463264
0.161425 0.123171 0.0427253
0.224628 0.132921 0.0339666
0.289921 0.143969 0.0153201
0.351919 0.158434 0.00704967
0.413153 0.17406 0.0112306
0.468818 0.191165 0.0136416
0.525551 0.212009 0.0178836
0.573098 0.23389 0.0318456
0.611322 0.255344 0.0467994
0.647974 0.284627 0.0688792
0.677394 0.315633 0.109804
0.70399 0.350057 0.157427
0.730022 0.386313 0.21735
0.756909 0.424399 0.275746
0.780163 0.46041 0.334966
0.803098 0.499535 0.388403
0.823117 0.538064 0.436011
0.840833 0.575097 0.478157
0.856611 0.613535 0.518242
0.871336 0.65095 0.555734
0.885695 0.689403 0.592767
0.896788 0.72636 0.626383
0.906264 0.760967 0.659953
0 0.114412 0.0447547
0 0.115038 0.0450446
0 0.115541 0.0454261
0 0.116136 0.0460212
0 0.117479 0.046891
0 0.120302 0.0491951
0 0.12343 0.0522621
0.00285344 0.127626 0.0537881
0.047837 0.133074 0.0529641
0.125917 0.143313 0.0518807
0.188663 0.153689 0.0475624
0.237186 0.163699 0.0374151
0.288136 0.176638 0.0158694
0.35227 0.193683 0.00979629
0.417578 0.213581 0.0159304
0.479713 0.232181 0.0183871
0.533745 0.251575 0.0225986
0.581582 0.273014 0.0343633
0.618082 0.292958 0.0459449
0.651576 0.315724 0.0644846
0.679622 0.340154 0.106905
0.706722 0.370733 0.159289
0.731884 0.403067 0.219928
0.756878 0.436744 0.27805
0.782467 0.472648 0.338018
0.80473 0.509819 0.391363
0.823484 0.545129 0.4365
0.841108 0.581109 0.479377
0.857008 0.617868 0.519371
0.871351 0.654093 0.556527
0.885939 0.692302 0.593576
0.897108 0.728435 0.627314
0.90602 0.76228 0.660471
0 0.148974 0.0510262
0 0.150195 0.0516213
0 0.151369 0.0522927
0 0.152361 0.0529793
0 0.154742 0.0537575
0 0.157656 0.0557565
0 0.161929 0.0587015
0 0.166217 0.0599069
0.00820935 0.171252 0.0597391
0.0809339 0.179919 0.0576486
0.185733 0.192142 0.0514839
0.266575 0.204288 0.0355993
0.32607 0.220645 0.0227359
0.370886 0.240772 0.0190738
0.425193 0.259373 0.0203403
0.484398 0.27863 0.0239109
0.538781 0.296788 0.0278325
0.588022 0.315068 0.0383307
0.624094 0.330358 0.0476844
0.653925 0.346868 0.0639506
0.680949 0.366552 0.108812
0.708659 0.394003 0.165576
0.734829 0.423285 0.225605
0.760143 0.453788 0.284596
0.783505 0.486091 0.340993
0.805447 0.520241 0.393576
0.825391 0.554284 0.439551
0.842206 0.588815 0.481193
0.857145 0.623285 0.520439
0.871992 0.658122 0.558145
0.885908 0.695659 0.594354
0.897475 0.731044 0.628855
0.906111 0.76405 0.661311
0 0.192981 0.0568399
0 0.19411 0.0575113
0 0.195926 0.0583505
0 0.197803 0.0589914
0 0.199466 0.0603799
0 0.20293 0.0628672
0 0.207736 0.0655375
0 0.212299 0.0675822
0.00350958 0.218204 0.0676585
0.0222477 0.22565 0.0634775
0.145678 0.24094 0.0547189
0.270619 0.255741 0.0334173
0.351659 0.271122 0.0246433
0.411505 0.289113 0.0255741
0.45333 0.306706 0.0263066
0.495705 0.323766 0.0292973
0.545235 0.339956 0.0332647
0.589929 0.353994 0.0435492
0.625849 0.365591 0.0480201
0.655192 0.378393 0.0685893
0.682918 0.395468 0.11606
0.712428 0.418479 0.176333
0.736568 0.444068 0.233295
0.76257 0.47306 0.291142
0.785794 0.503304 0.345632
0.80618 0.533455 0.396796
0.825177 0.563668 0.440742
0.843656 0.597406 0.484138
0.857862 0.630259 0.522622
0.872587 0.66421 0.560098
0.886412 0.699489 0.59588
0.89778 0.734066 0.630076
0.906294 0.766552 0.662669
0.00257877 0.243931 0.0675822
0.00268559 0.244541 0.0688029
0.00297551 0.245991 0.0701152
0.0033875 0.248188 0.0709544
0.00375372 0.251225 0.0723583
0.00407416 0.254139 0.0743572
0.00444038 0.257542 0.0763409
0.00508125 0.263249 0.0776074
0.00573739 0.268421 0.0778973
0.0289464 0.276646 0.0753185
0.105013 0.287572 0.0646067
0.245472 0.305577 0.0393378
0.362737 0.322942 0.0298466
0.434134 0.337301 0.0283818
0.488045 0.35201 0.0334478
0.5234 0.364141 0.0397803
0.555718 0.37789 0.0453193
0.590875 0.388602 0.0497292
0.625727 0.397726 0.0495003
0.656901 0.410315 0.0783856
0.684565 0.424414 0.126879
0.712932 0.44535 0.189044
0.740475 0.469291 0.244709
0.763989 0.493843 0.299336
0.78674 0.520211 0.35169
0.808042 0.548196 0.401663
0.826596 0.576883 0.444572
0.844312 0.607904 0.486839
0.859617 0.638254 0.525231
0.873014 0.670573 0.561868
0.88574 0.703944 0.596735
0.89778 0.737789 0.630991
0.906523 0.769558 0.663722
0.00833143 0.295857 0.0819257
0.00874342 0.29691 0.0830396
0.00900282 0.298375 0.0839551
0.0090486 0.300328 0.0859998
0.00946059 0.303502 0.0885023
0.010132 0.307408 0.09131
0.0106661 0.310552 0.095201
0.0109865 0.314763 0.0994888
0.0144045 0.321141 0.101534
0.0205539 0.328679 0.0988937
0.0891585 0.339498 0.0915236
0.217746 0.352331 0.0764019
0.347173 0.367422 0.0579385
0.443565 0.381903 0.0541543
0.501793 0.391135 0.056199
0.547509 0.400687 0.0558938
0.577188 0.410925 0.0568246
0.600931 0.420981 0.0559701
0.629679 0.432609 0.0688029
0.657237 0.443702 0.0987716
0.685954 0.456458 0.147494
0.715038 0.475196 0.208331
0.741939 0.495048 0.256931
0.766598 0.517189 0.310597
0.789639 0.540887 0.360586
0.809033 0.56492 0.407355
0.828 0.591165 0.449928
0.845014 0.619272 0.490333
0.86038 0.648356 0.528511
0.874159 0.677897 0.565057
0.886137 0.710002 0.59881
0.898436 0.742519 0.633631
0.906691 0.772976 0.6654
0.0153811 0.350423 0.109804
0.0155642 0.351568 0.111376
0.0158999 0.353277 0.113405
0.0158541 0.355169 0.115557
0.0161898 0.357916 0.119188
0.016846 0.361456 0.123018
0.0172122 0.364477 0.127749
0.0175021 0.368399 0.131594
0.0186465 0.373281 0.135866
0.0492256 0.381476 0.13753
0.116487 0.390784 0.135515
0.209659 0.400015 0.125429
0.325139 0.412589 0.103395
0.430976 0.422797 0.0872206
0.50782 0.432166 0.0834821
0.558694 0.439307 0.0789044
0.596796 0.448249 0.0806134
0.621225 0.455619 0.0899825
0.640848 0.465904 0.110124
0.661402 0.476112 0.137743
0.687022 0.489143 0.178347
0.716167 0.506371 0.228794
0.743893 0.523934 0.275456
0.769818 0.543679 0.323659
0.791058 0.563561 0.369314
0.811032 0.584421 0.415
0.828962 0.607706 0.455512
0.846204 0.631983 0.49546
0.860822 0.658854 0.531884
0.875608 0.688029 0.568429
0.887541 0.717693 0.602121
0.897963 0.747402 0.635279
0.906569 0.776593 0.666789
0.0227359 0.406653 0.150866
0.0228733 0.408408 0.153674
0.0230411 0.410132 0.156024
0.0235447 0.412451 0.158602
0.0239261 0.414481 0.161471
0.0270695 0.417304 0.165408
0.033051 0.420905 0.169619
0.040528 0.425269 0.173617
0.0466163 0.42916 0.177646
0.054612 0.43508 0.180713
0.123018 0.443931 0.182544
0.231617 0.454414 0.183963
0.322881 0.461326 0.17319
0.412177 0.470451 0.158267
0.501488 0.477348 0.146273
0.563745 0.481132 0.142809
0.60528 0.486748 0.141848
0.635538 0.492134 0.145846
0.659419 0.50193 0.158694
0.675303 0.514366 0.190356
0.694804 0.526787 0.223682
0.717708 0.539651 0.255421
0.744762 0.554696 0.296941
0.769497 0.569192 0.338567
0.792187 0.586755 0.381918
0.812222 0.605737 0.42504
0.830289 0.624979 0.463355
0.847608 0.648096 0.502525
0.862379 0.67216 0.537499
0.876493 0.699275 0.5729
0.888441 0.725902 0.605447
0.897093 0.752575 0.636561
0.90602 0.781094 0.668788
0.0446174 0.465995 0.201663
0.0458228 0.467521 0.204196
0.0472114 0.469062 0.20676
0.048661 0.470314 0.209033
0.0501411 0.472068 0.211292
0.0521553 0.474388 0.214008
0.0556802 0.47657 0.21735
0.0809491 0.480522 0.221576
0.11548 0.485832 0.226276
0.162676 0.492363 0.231312
0.22153 0.499123 0.234211
0.28101 0.504997 0.234409
0.338048 0.511498 0.231998
0.406928 0.517693 0.22594
0.483513 0.523842 0.216358
0.557244 0.528252 0.211139
0.60705 0.531487 0.211887
0.643214 0.53637 0.219821
0.670222 0.54255 0.229709
0.691432 0.550011 0.241032
0.70547 0.561471 0.267247
0.722087 0.572976 0.293309
0.744015 0.584039 0.323583
0.770947 0.597757 0.360189
0.794217 0.612589 0.39791
0.81384 0.627985 0.437766
0.832502 0.645975 0.474586
0.848081 0.664424 0.509941
0.864149 0.687465 0.544625
0.876966 0.71133 0.578103
0.888792 0.735531 0.609781
0.898695 0.760601 0.640894
0.906264 0.787182 0.671977
0.143984 0.524056 0.2598
0.148775 0.52491 0.262638
0.152651 0.526192 0.265202
0.159411 0.527657 0.267445
0.167285 0.529656 0.270375
0.175738 0.531731 0.273182
0.185016 0.533776 0.275624
0.197406 0.536706 0.279835
0.211612 0.53959 0.283543
0.235187 0.543832 0.287312
0.270909 0.548424 0.290715
0.317891 0.553536 0.293248
0.375082 0.559655 0.29485
0.417746 0.565362 0.293462
0.473198 0.570779 0.289082
0.535927 0.573541 0.283711
0.59826 0.575753 0.282658
0.643442 0.579202 0.285786
0.673091 0.581918 0.291981
0.698924 0.588602 0.302998
0.71989 0.595102 0.31368
0.732692 0.605158 0.336767
0.749783 0.616373 0.358282
0.770886 0.626551 0.385031
0.794888 0.638895 0.417395
0.816312 0.652781 0.452766
0.832593 0.665888 0.485374
0.849149 0.684276 0.519249
0.864179 0.704295 0.552102
0.878157 0.72517 0.584634
0.889143 0.746899 0.614435
0.898299 0.769665 0.644862
0.906798 0.794202 0.675288
0.235309 0.575341 0.320043
0.240223 0.576577 0.323247
0.246189 0.577798 0.326619
0.25391 0.578729 0.328435
0.259907 0.580011 0.330892
0.268238 0.581476 0.333379
0.280644 0.583474 0.336751
0.294224 0.585519 0.339437
0.310613 0.588693 0.343984
0.331228 0.59205 0.348165
0.362188 0.596124 0.351644
0.384146 0.598718 0.353628
0.408255 0.601678 0.35436
0.439292 0.606577 0.355779
0.478248 0.611582 0.355917
0.519448 0.61442 0.351965
0.574304 0.617807 0.348852
0.626413 0.619745 0.349737
0.668772 0.622827 0.355352
0.700084 0.626429 0.361669
0.72546 0.631479 0.370977
0.744579 0.637293 0.380606
0.758587 0.64651 0.398352
0.774746 0.656352 0.418128
0.794888 0.666072 0.442405
0.815778 0.676707 0.469718
0.833356 0.690181 0.500801
0.850813 0.705379 0.531945
0.864713 0.720745 0.561379
0.877211 0.73901 0.591257
0.888029 0.757717 0.619989
0.898161 0.779507 0.650309
0.90602 0.80119 0.678737
0.370169 0.623194 0.382406
0.37232 0.624155 0.384619
0.374502 0.625071 0.386786
0.376608 0.625589 0.388586
0.378775 0.626459 0.391119
0.381933 0.62771 0.393408
0.386099 0.628992 0.395346
0.390478 0.630045 0.397543
0.397604 0.631998 0.400854
0.405234 0.634012 0.404059
0.414527 0.636835 0.407355
0.428016 0.638697 0.408835
0.44596 0.641779 0.411734
0.469505 0.645899 0.414099
0.493339 0.64863 0.41474
0.520653 0.651911 0.414984
0.55584 0.655726 0.414298
0.599298 0.658793 0.412406
0.648585 0.661082 0.41323
0.691081 0.663401 0.417807
0.724849 0.666606 0.424582
0.749722 0.671016 0.432593
0.76939 0.675608 0.440925
0.782696 0.683558 0.454429
0.796597 0.692515 0.470298
0.816876 0.703212 0.492027
0.834821 0.713649 0.519097
0.849958 0.725628 0.545068
0.864012 0.73901 0.571618
0.877043 0.754437 0.600259
0.888457 0.77174 0.627512
0.898405 0.790753 0.656641
0.904402 0.809171 0.683101
0.431739 0.664714 0.43621
0.43415 0.6654 0.438041
0.435782 0.666133 0.440497
0.437186 0.666499 0.441855
0.439582 0.667369 0.443366
0.442802 0.668025 0.44477
0.445747 0.669078 0.446433
0.45005 0.669825 0.447684
0.454917 0.670939 0.449409
0.461372 0.672282 0.451591
0.468849 0.673961 0.454429
0.477012 0.67599 0.457679
0.486336 0.677745 0.459373
0.499489 0.680644 0.462013
0.51426 0.683436 0.464485
0.533944 0.686656 0.467185
0.556863 0.689647 0.468376
0.585763 0.692424 0.467933
0.620295 0.694881 0.46688
0.666346 0.697017 0.467155
0.711269 0.698833 0.470146
0.746471 0.701579 0.475059
0.770733 0.705669 0.481636
0.790677 0.710948 0.4907
0.804593 0.718578 0.503349
0.81738 0.726452 0.518593
0.832822 0.735729 0.537331
0.849409 0.74667 0.559884
0.862577 0.757778 0.585412
0.876341 0.771496 0.610697
0.887831 0.786374 0.636576
0.897368 0.803082 0.663539
0.903487 0.818021 0.689509
0.493004 0.702602 0.483619
0.494072 0.702922 0.48513
0.495567 0.70341 0.486778
0.496788 0.703853 0.487388
0.498009 0.70428 0.488182
0.49984 0.704723 0.489265
0.501366 0.705333 0.490379
0.503273 0.706111 0.491508
0.506325 0.706889 0.492973
0.509224 0.707469 0.494682
0.512703 0.708476 0.496559
0.517922 0.70959 0.498482
0.523827 0.711238 0.501396
0.53106 0.713237 0.504067
0.541634 0.715358 0.50695
0.555001 0.718441 0.510506
0.573373 0.721111 0.512703
0.593286 0.724788 0.516213
0.616281 0.727352 0.517647
0.646296 0.730205 0.517662
0.687968 0.732326 0.517205
0.733837 0.73286 0.518914
0.767681 0.73521 0.524865
0.792279 0.739132 0.531136
0.8112 0.743175 0.537224
0.825437 0.750881 0.54963
0.835889 0.759686 0.563256
0.848081 0.767788 0.580148
0.862821 0.778027 0.602396
0.875532 0.789227 0.623453
0.886015 0.801724 0.647608
0.894072 0.813336 0.670985
0.902464 0.826993 0.696956
0.537377 0.736004 0.526802
0.538506 0.736461 0.528359
0.540154 0.736934 0.529931
0.540963 0.73727 0.530739
0.542199 0.73753 0.53167
0.54377 0.737789 0.532189
0.545251 0.738384 0.533074
0.546975 0.738659 0.533776
0.549645 0.739284 0.534585
0.551492 0.739315 0.535134
0.554162 0.739879 0.536385
0.558892 0.740993 0.537926
0.563989 0.742061 0.539971
0.570428 0.744015 0.542962
0.576715 0.745724 0.545281
0.583444 0.747127 0.547936
0.594446 0.74966 0.551705
0.608011 0.752209 0.554925
0.62501 0.755367 0.557977
0.645792 0.757839 0.559121
0.674998 0.7608 0.559686
0.712139 0.763668 0.560632
0.757687 0.766201 0.563653
0.789349 0.767315 0.567437
0.811551 0.769345 0.572641
0.831281 0.774777 0.580682
0.842817 0.781796 0.592813
0.850889 0.789395 0.606073
0.86157 0.797345 0.621561
0.872694 0.805371 0.639536
0.882445 0.814603 0.659693
0.892149 0.825223 0.682109
0.900435 0.837247 0.705699
0.5832 0.766049 0.566583
0.58381 0.766369 0.567712
0.584802 0.766674 0.569146
0.585565 0.766918 0.56968
0.586618 0.76704 0.570138
0.587625 0.767407 0.570733
0.588617 0.767773 0.571344
0.589868 0.768032 0.571664
0.591897 0.768521 0.572534
0.59411 0.768658 0.573129
0.596689 0.769055 0.573938
0.598657 0.769802 0.575372
0.602625 0.770703 0.577188
0.607294 0.772045 0.579568
0.613001 0.773602 0.582086
0.618387 0.775082 0.585321
0.623545 0.776257 0.587823
0.63267 0.778317 0.591257
0.644343 0.780728 0.59469
0.660822 0.78294 0.597238
0.680339 0.785962 0.599451
0.70454 0.788281 0.600778
0.737667 0.790356 0.600977
0.77705 0.792599 0.603204
0.80737 0.794324 0.60763
0.830381 0.797971 0.613474
0.846311 0.801816 0.620066
0.856458 0.80676 0.630076
0.863172 0.813092 0.643275
0.871427 0.820417 0.658152
0.880354 0.828336 0.674739
0.890013 0.837583 0.694774
0.896376 0.84683 0.714717
0.622324 0.79379 0.605341
0.622995 0.793942 0.60647
0.623728 0.794354 0.607416
0.624063 0.794308 0.607843
0.624842 0.794537 0.608331
0.62565 0.794797 0.608835
0.626886 0.794827 0.609049
0.628107 0.795117 0.609567
0.629709 0.795438 0.609857
0.631403 0.795789 0.610468
0.633783 0.796353 0.6112
0.635859 0.796857 0.612009
0.6392 0.797284 0.613001
0.642542 0.798093 0.614298
0.646967 0.79884 0.615717
0.652049 0.800076 0.617807
0.657526 0.801373 0.620172
0.664256 0.80325 0.62324
0.672358 0.804807 0.626688
0.682567 0.806912 0.629633
0.695583 0.809018 0.632181
0.71281 0.811627 0.634562
0.734539 0.813855 0.63624
0.76434 0.815961 0.636942
0.796338 0.816236 0.63859
0.825483 0.817533 0.642206
0.845243 0.82063 0.648142
0.857877 0.824201 0.655039
0.867887 0.829297 0.666102
0.873899 0.83537 0.678279
0.880079 0.843061 0.692638
0.885878 0.848768 0.707149
0.894133 0.857114 0.725887
0.667536 0.819638 0.64065
0.668269 0.819821 0.641596
0.668544 0.819913 0.642542
0.668925 0.820081 0.642985
0.669749 0.820325 0.643488
0.670115 0.820218 0.643656
0.670893 0.820386 0.643931
0.671672 0.820508 0.643961
0.672297 0.820722 0.644282
0.673365 0.820722 0.64448
0.674647 0.820844 0.64477
0.676173 0.821195 0.645319
0.678431 0.821454 0.646036
0.681102 0.821851 0.646845
0.684276 0.822477 0.648081
0.687831 0.823194 0.649653
0.691173 0.823728 0.651392
0.695186 0.824613 0.653452
0.701427 0.826215 0.65626
0.708675 0.828046 0.660121
0.717922 0.829648 0.663096
0.729961 0.831281 0.665049
0.745403 0.834089 0.667765
0.764065 0.835904 0.669062
0.78674 0.836973 0.669902
0.815076 0.837797 0.672282
0.841016 0.839796 0.676936
0.857114 0.842557 0.682368
0.868818 0.845457 0.689448
0.876387 0.848554 0.699016
0.881178 0.854612 0.710689
0.886122 0.860685 0.723491
0.891249 0.867872 0.737743
0.705867 0.840543 0.672312
0.706462 0.840772 0.673838
0.706661 0.84094 0.674815
0.70695 0.841123 0.675212
0.707271 0.841215 0.675258
