YOYO-Client/Yoyo/Assets.xcassets/Sagami.dataset/Sagami.cube
TITLE "Generated by Resolve"
LUT_3D_SIZE 9
0.10135 0.111818 0.116884
0.112688 0.110811 0.117006
0.190936 0.107866 0.115587
0.332845 0.110704 0.1084
0.487892 0.130083 0.0912184
0.634806 0.161028 0.0585641
0.773541 0.192721 0
0.902907 0.216678 0
1 0.228061 0
0.10222 0.11725 0.116335
0.119097 0.119829 0.115877
0.204807 0.132906 0.111559
0.346197 0.152193 0.100404
0.493965 0.176059 0.0796521
0.638483 0.20293 0.0399023
0.775738 0.228367 0
0.903777 0.24715 0
1 0.25417 0
0.118425 0.159243 0.112184
0.146609 0.162432 0.110277
0.229313 0.18497 0.101472
0.359213 0.222232 0.0818647
0.505928 0.253422 0.0446174
0.648936 0.278004 0
0.782589 0.296818 0
0.907515 0.308141 0
1 0.308156 0
0.164508 0.265049 0.0926528
0.203449 0.268132 0.0883345
0.274723 0.27097 0.0788281
0.385077 0.294057 0.0500191
0.514092 0.328405 0.000213626
0.649805 0.361303 0
0.792889 0.382269 0
0.91458 0.387717 0
1 0.380453 0
0.220188 0.375357 0.0607156
0.25655 0.379049 0.0518807
0.325551 0.380301 0.02916
0.410132 0.377478 0.00166323
0.533623 0.405203 0
0.66598 0.438254 0
0.79382 0.465461 0
0.917922 0.472923 0
1 0.461357 0
0.28217 0.489021 0.0191653
0.313527 0.492805 0.00538643
0.376593 0.494713 0
0.465095 0.498253 0
0.56318 0.496452 0
0.690135 0.522805 0
0.812345 0.543908 0
0.923217 0.554314 0
1 0.545205 0
0.361059 0.630182 0
0.387106 0.630732 0
0.445884 0.63238 0
0.532082 0.635157 0
0.636316 0.638804 0
0.73875 0.628641 0
0.845167 0.634028 0
0.93727 0.630869 0
1 0.620691 0
0.444572 0.771786 0
0.467597 0.771878 0
0.520745 0.772045 0
0.601633 0.772168 0
0.702388 0.772152 0
0.814649 0.770459 0
0.896971 0.73753 0
0.969619 0.715938 0
1 0.690761 0
0.514031 0.886107 0
0.533761 0.885847 0
0.580575 0.8851 0
0.654292 0.883711 0
0.749279 0.881422 0
0.859174 0.877989 0
0.960067 0.859892 0
1 0.812512 0
1 0.773312 0
0.0948806 0.115145 0.132525
0.110018 0.113313 0.131472
0.187869 0.105714 0.123522
0.328115 0.124132 0.112718
0.478492 0.162997 0.0893263
0.624201 0.209049 0.0413519
0.764721 0.236194 0
0.896803 0.251591 0
1 0.253742 0
0.0936294 0.12575 0.133516
0.115267 0.126696 0.132586
0.198276 0.133089 0.125856
0.339666 0.155978 0.110613
0.485328 0.191318 0.0828565
0.629602 0.233814 0.026215
0.768566 0.262699 0
0.898955 0.275975 0
1 0.275959 0
0.0938735 0.177874 0.137865
0.138109 0.182315 0.133577
0.226291 0.190249 0.125597
0.352789 0.219043 0.110414
0.498985 0.251087 0.0671092
0.641657 0.286687 0.000167849
0.777279 0.318807 0
0.904036 0.327886 0
1 0.323766 0
0.133577 0.27985 0.13341
0.184314 0.282979 0.128328
0.270481 0.283574 0.11574
0.380209 0.295933 0.095491
0.508232 0.325383 0.0590677
0.645716 0.358053 0
0.787503 0.388586 0
0.912612 0.400397 0
1 0.390799 0
0.19736 0.38677 0.127275
0.239353 0.389929 0.122133
0.316091 0.389914 0.106142
0.409049 0.387427 0.0773632
0.529503 0.407034 0.0195163
0.66183 0.437354 0
0.791562 0.464637 0
0.915587 0.48072 0
1 0.468071 0
0.266651 0.498711 0.123613
0.300771 0.502724 0.1178
0.367834 0.503624 0.0977646
0.46006 0.505928 0.0502937
0.560006 0.501884 0
0.687114 0.525017 0
0.810437 0.54493 0
0.922698 0.556924 0
1 0.54963 0
0.346273 0.635859 0.100603
0.37464 0.637263 0.0904707
0.435721 0.638102 0.0562753
0.524529 0.640131 0
0.631388 0.64329 0
0.735668 0.631998 0
0.842939 0.636088 0
0.936538 0.632074 0
1 0.623087 0
0.430686 0.774502 0.0296025
0.454673 0.774517 0.00630198
0.509407 0.774533 0
0.592264 0.774563 0
0.695094 0.77438 0
0.810376 0.773297 0
0.894835 0.739528 0
0.968734 0.717037 0
1 0.692546 0
0.501534 0.887098 0
0.521767 0.886824 0
0.569543 0.886107 0
0.644511 0.884749 0
0.740917 0.882506 0
0.852735 0.879072 0
0.959167 0.862837 0
1 0.814084 0
1 0.774289 0
0.00331121 0.144884 0.221317
0.0361944 0.134356 0.220951
0.169574 0.125628 0.223896
0.321477 0.110552 0.210086
0.475898 0.085069 0.155978
0.61677 0.155261 0.127565
0.759869 0.213458 0.0724651
0.895155 0.262547 0
1 0.294179 0
0.00358587 0.161563 0.222019
0.0528572 0.158038 0.222797
0.17937 0.156283 0.227481
0.332708 0.137881 0.20322
0.478294 0.150423 0.165499
0.619791 0.195758 0.134859
0.76347 0.240543 0.0698863
0.897505 0.282918 0
1 0.312016 0
0.00296025 0.210712 0.232517
0.0794995 0.213672 0.232715
0.204105 0.224033 0.23389
0.34609 0.227375 0.211551
0.486412 0.242664 0.184024
0.629679 0.267414 0.142245
0.771725 0.297993 0.0635996
0.902922 0.328573 0
1 0.352056 0
0.061387 0.297566 0.246586
0.12987 0.305577 0.246967
0.239521 0.313741 0.235904
0.363394 0.314977 0.221622
0.492424 0.337728 0.212268
0.640024 0.359319 0.164797
0.784741 0.379126 0.0633249
0.91162 0.396262 0
1 0.409522 0
0.145266 0.402502 0.255116
0.194186 0.408179 0.252735
0.28513 0.411734 0.241032
0.396948 0.411765 0.221637
0.515602 0.419593 0.205158
0.649302 0.446632 0.186206
0.784009 0.472297 0.146441
0.915633 0.479622 0
1 0.478431 0
0.225132 0.512795 0.259297
0.262608 0.519142 0.256977
0.339635 0.520928 0.245991
0.441779 0.522454 0.226383
0.548547 0.517494 0.197223
0.676341 0.534569 0.170748
0.802396 0.553674 0.133181
0.917693 0.564157 0.0344091
1 0.557443 0
0.304921 0.646922 0.256291
0.337301 0.649088 0.252522
0.406027 0.649546 0.240482
0.502602 0.651194 0.218067
0.615717 0.653498 0.178164
0.725322 0.641794 0.120058
0.834913 0.643778 0.0691844
0.931243 0.639292 0
1 0.628641 0
0.39266 0.78024 0.24509
0.419348 0.780209 0.239063
0.479133 0.780148 0.223178
0.567559 0.780041 0.191028
0.675258 0.779629 0.126436
0.795316 0.778454 0
0.887221 0.745785 0
0.963714 0.722179 0
1 0.696742 0
0.469291 0.889448 0.199527
0.490929 0.889189 0.187961
0.541344 0.888502 0.153643
0.619669 0.88719 0.057908
0.719509 0.885023 0
0.835248 0.881651 0
0.954955 0.870802 0
1 0.818067 0
1 0.77673 0
0 0.199603 0.353002
0 0.190982 0.353491
0.00688182 0.176761 0.363134
0.27451 0.183642 0.371435
0.4383 0.185641 0.35082
0.600183 0.131304 0.296727
0.751797 0.157214 0.245533
0.889601 0.226261 0.209155
1 0.26186 0.119051
0 0.219623 0.357443
0 0.214755 0.357595
0.0406348 0.208835 0.36231
0.280995 0.215961 0.371176
0.442161 0.215747 0.350958
0.605219 0.162753 0.290272
0.752834 0.207538 0.254917
0.890639 0.257832 0.215793
1 0.282887 0.117082
0 0.262165 0.361913
0 0.262776 0.362402
0.107836 0.264942 0.362478
0.296864 0.277928 0.372488
0.457115 0.265431 0.345571
0.610819 0.25658 0.298497
0.755779 0.29366 0.275563
0.893751 0.320073 0.227848
1 0.32961 0.114611
0 0.330327 0.367956
0 0.334295 0.369818
0.172351 0.342016 0.371344
0.325063 0.360647 0.378454
0.471244 0.362722 0.35639
0.617548 0.374395 0.332555
0.764721 0.390021 0.298711
0.900313 0.400656 0.241123
1 0.397375 0.114092
0.0594644 0.413703 0.378668
0.134508 0.420645 0.382818
0.235523 0.433219 0.386496
0.356863 0.447974 0.379843
0.487495 0.449516 0.367071
0.624811 0.474266 0.364492
0.772534 0.490929 0.332311
0.908354 0.492027 0.262684
1 0.476967 0.116655
0.152697 0.526284 0.398688
0.197467 0.534005 0.400137
0.283146 0.542229 0.394476
0.400595 0.550668 0.382467
0.529686 0.551263 0.36231
0.654948 0.556023 0.352743
0.784863 0.575616 0.345586
0.902831 0.587198 0.323873
1 0.568734 0.199603
0.225818 0.655375 0.404242
0.2654 0.658793 0.402533
0.344976 0.664744 0.395621
0.457008 0.669673 0.382605
0.582925 0.670817 0.360616
0.703639 0.661295 0.332036
0.81767 0.660227 0.322683
0.917617 0.657511 0.302464
1 0.645975 0.226413
0.325353 0.784161 0.407706
0.355138 0.78558 0.404257
0.421088 0.788907 0.395407
0.520394 0.78912 0.377829
0.637201 0.788357 0.348806
0.764584 0.786725 0.302785
0.869841 0.758755 0.249226
0.950149 0.735164 0.226276
1 0.709361 0.11249
0.417823 0.891615 0.399588
0.43949 0.892027 0.39321
0.492241 0.892073 0.376959
0.575616 0.89099 0.34638
0.680598 0.889052 0.292271
0.801663 0.885893 0.186114
0.935515 0.880659 0
1 0.825727 0
1 0.780789 0
0 0.262577 0.483955
0 0.256916 0.483467
0 0.248234 0.485634
0.12781 0.25185 0.499489
0.378164 0.26804 0.513039
0.548562 0.274479 0.496391
0.718166 0.251255 0.464271
0.874052 0.2159 0.399908
0.991836 0.289204 0.376257
0 0.27921 0.484611
0 0.275731 0.484337
0 0.269657 0.483543
0.150866 0.276555 0.498726
0.382925 0.292241 0.513024
0.551232 0.297765 0.4972
0.72137 0.271626 0.462409
0.875898 0.244144 0.398962
0.99202 0.312825 0.379324
0 0.315679 0.486
0 0.315801 0.48661
0 0.314855 0.485878
0.188388 0.323919 0.496254
0.394232 0.341863 0.513619
0.558663 0.346502 0.498756
0.730602 0.313298 0.455024
0.877165 0.320653 0.409735
0.992966 0.360296 0.382818
0 0.371649 0.489906
0 0.374304 0.491569
0 0.378576 0.491936
0.234195 0.388037 0.495583
0.41387 0.41149 0.516396
0.579721 0.404425 0.495445
0.744793 0.386755 0.447623
0.880613 0.416007 0.427939
0.997833 0.418235 0.37467
0 0.446235 0.497932
0 0.450584 0.500862
0.104112 0.456764 0.502876
0.287221 0.470741 0.509331
0.444389 0.497017 0.523857
0.601312 0.501076 0.504707
0.752071 0.509529 0.482139
0.887617 0.5131 0.447593
0.999603 0.500008 0.382971
0 0.536217 0.514519
0.0690623 0.541711 0.518212
0.209995 0.54995 0.521416
0.335805 0.568734 0.528099
0.478157 0.589181 0.524651
0.621714 0.590112 0.514168
0.757321 0.611811 0.519417
0.885954 0.615213 0.490654
0.999725 0.589471 0.405173
0.0752728 0.659724 0.542687
0.150454 0.662974 0.542733
0.259556 0.671061 0.542641
0.385321 0.684047 0.540017
0.525368 0.694713 0.528511
0.671168 0.694392 0.505013
0.788998 0.686503 0.501656
0.893339 0.688487 0.498421
0.988571 0.680049 0.463127
0.23415 0.7841 0.560922
0.272694 0.785779 0.559823
0.34995 0.789944 0.5561
0.455329 0.796475 0.54847
0.57966 0.8 0.531807
0.714382 0.798383 0.502358
0.838071 0.780652 0.464271
0.924956 0.757534 0.456519
1 0.735256 0.413794
0.377432 0.889723 0.578408
0.399084 0.890333 0.575402
0.449332 0.891798 0.567239
0.526406 0.894026 0.550576
0.62948 0.893629 0.519921
0.751003 0.891356 0.468269
0.888899 0.887175 0.378485
0.99292 0.842313 0.238071
1 0.792767 0.0234684
0 0.330571 0.613123
0 0.326787 0.61178
0 0.319387 0.608972
0 0.320302 0.618051
0.250156 0.334081 0.635752
0.486671 0.358129 0.657557
0.666621 0.37026 0.647364
0.82153 0.384207 0.624247
0.953323 0.396918 0.590478
0 0.34432 0.612238
0 0.341802 0.611688
0 0.3364 0.609415
0 0.33785 0.616663
0.260029 0.352209 0.63566
0.490486 0.376516 0.657725
0.668345 0.388403 0.647593
0.823148 0.399649 0.624491
0.953841 0.411261 0.590738
0 0.375402 0.612573
0 0.374685 0.612772
0 0.372396 0.611215
0 0.373419 0.613291
0.280507 0.391119 0.63534
0.499657 0.417227 0.658152
0.672847 0.429603 0.648249
0.827482 0.43389 0.624216
0.955505 0.441642 0.58938
0 0.423209 0.61529
0 0.424582 0.616251
0 0.426001 0.61561
0.00311284 0.428809 0.616587
0.309636 0.446921 0.634302
0.515862 0.478294 0.659846
0.681147 0.492088 0.650568
0.837522 0.481453 0.620371
0.959594 0.488289 0.586389
0 0.487175 0.621256
0 0.489647 0.623041
0 0.492576 0.623529
0.100175 0.499367 0.626307
0.341726 0.512978 0.633951
0.539727 0.552728 0.663767
0.703441 0.554162 0.649454
0.855177 0.539101 0.609171
0.964813 0.55639 0.590066
0 0.567407 0.633173
0 0.569863 0.634485
0 0.574548 0.636118
0.205844 0.584802 0.640787
0.398169 0.604242 0.65095
0.573922 0.638361 0.672007
0.727535 0.644343 0.658732
0.857923 0.646693 0.639124
0.968978 0.633829 0.598962
0 0.670436 0.658106
0 0.672206 0.658427
0.0778821 0.676692 0.659388
0.302388 0.685008 0.662181
0.459998 0.703822 0.671565
0.611124 0.725902 0.675319
0.746197 0.723857 0.668452
0.854322 0.735393 0.676524
0.957153 0.725521 0.644343
0.00944533 0.783612 0.68278
0.120989 0.785 0.682933
0.255406 0.788586 0.683482
0.390402 0.79498 0.685466
0.525139 0.805035 0.68864
0.655253 0.813382 0.680247
0.791119 0.810788 0.656443
0.883497 0.791547 0.654353
0.965652 0.78088 0.639979
0.334371 0.887648 0.711528
0.362524 0.887816 0.711666
0.424369 0.888258 0.712489
0.504051 0.890562 0.710384
0.593652 0.894835 0.700465
0.699977 0.896727 0.678538
0.825208 0.894499 0.636591
0.948272 0.87097 0.567071
1 0.825391 0.502892
0 0.407141 0.744274
0 0.404791 0.743114
0 0.400168 0.740566
0 0.398413 0.740963
0 0.410574 0.753613
0.382574 0.436957 0.768994
0.600076 0.474876 0.786191
0.76997 0.495323 0.780011
0.889891 0.550896 0.765423
0 0.418692 0.743908
0 0.417014 0.743236
0 0.413169 0.740932
0 0.41091 0.740108
0.00688182 0.423682 0.752819
0.389181 0.450767 0.768582
0.603433 0.489342 0.786038
0.770687 0.509255 0.779828
0.889876 0.561456 0.766094
0 0.44448 0.743954
0 0.443763 0.743801
0 0.441459 0.741878
0 0.439445 0.739879
0.0437018 0.452049 0.750591
0.404211 0.482307 0.767605
0.611444 0.521935 0.785779
0.772854 0.5411 0.779736
0.890593 0.585184 0.767559
0 0.484764 0.745266
0 0.485069 0.745647
0 0.484138 0.744244
0 0.484245 0.742977
0.110277 0.492607 0.746822
0.427649 0.529793 0.7664
0.624857 0.569894 0.786084
0.777768 0.588373 0.78024
0.894667 0.617792 0.768551
0 0.538705 0.74844
0 0.539788 0.74934
0 0.539773 0.748531
0 0.540459 0.748165
0.166445 0.547173 0.748821
0.450614 0.583291 0.764736
0.64361 0.626719 0.787884
0.78674 0.644434 0.781781
0.9037 0.655589 0.767178
0 0.607843 0.755154
0 0.608377 0.755062
0 0.609857 0.754986
0 0.613336 0.755413
0.237675 0.62182 0.757198
0.468894 0.641337 0.762692
0.66891 0.692378 0.791226
0.803586 0.700511 0.782345
0.917739 0.698512 0.761715
0 0.69015 0.76463
0 0.691249 0.764706
0 0.69424 0.765011
0.0412757 0.700435 0.766064
0.348577 0.711635 0.769162
0.535882 0.731228 0.777432
0.702174 0.76434 0.79736
0.823026 0.769833 0.790234
0.924926 0.766308 0.773144
0 0.796445 0.789364
0 0.797024 0.788998
0 0.798367 0.788022
0.266178 0.800595 0.786557
0.45034 0.804303 0.786297
0.604089 0.815305 0.793271
0.735149 0.83125 0.799878
0.839841 0.827161 0.795544
0.92221 0.831052 0.797162
0.230564 0.891737 0.809613
0.268971 0.891844 0.809323
0.345724 0.892149 0.808682
0.446738 0.892729 0.808133
0.558618 0.893889 0.808682
0.669612 0.897292 0.810132
0.773297 0.902251 0.800519
0.892744 0.900252 0.7729
0.966232 0.870115 0.752789
0 0.492119 0.864408
0 0.491783 0.863828
0 0.491325 0.862409
0 0.491966 0.859953
0 0.505043 0.86099
0.33463 0.545251 0.864134
0.544762 0.580728 0.869703
0.711269 0.625391 0.876707
0.842603 0.647684 0.873411
0 0.501549 0.864363
0 0.501411 0.863951
0 0.500984 0.862531
0 0.501701 0.860044
0 0.513985 0.860517
0.342641 0.554116 0.863615
0.549538 0.590036 0.869322
0.713771 0.633951 0.876478
0.843336 0.655131 0.873259
0 0.52221 0.864332
0 0.522347 0.864134
0 0.52221 0.862699
0 0.5234 0.860288
0 0.533684 0.859297
0.357366 0.573236 0.862562
0.560403 0.611139 0.868528
0.719814 0.653605 0.876112
0.845335 0.672343 0.872938
0 0.553368 0.864942
0 0.553948 0.864942
0 0.554253 0.863569
0 0.556298 0.861311
0 0.563592 0.858213
0.371283 0.600015 0.861112
0.576104 0.642359 0.867536
0.729671 0.683009 0.875898
0.849271 0.699321 0.872694
0 0.597253 0.866423
0 0.597192 0.866438
0 0.595972 0.865583
0 0.597253 0.863996
0 0.605722 0.860945
0.372229 0.630365 0.859464
0.593118 0.679149 0.866621
0.743008 0.718944 0.876249
0.854887 0.735943 0.872923
0 0.655879 0.868605
0 0.655848 0.868391
0 0.655894 0.867796
0 0.656535 0.866682
0 0.659327 0.864851
0.374716 0.674784 0.861067
0.609064 0.719493 0.865019
0.760281 0.7608 0.87718
0.863935 0.777035 0.874434
0 0.725963 0.871122
0 0.726436 0.870848
0 0.727794 0.870207
0 0.730571 0.868971
0.163378 0.73547 0.867124
0.4262 0.743709 0.86482
0.613764 0.760754 0.862959
0.781353 0.806439 0.878996
0.879927 0.816159 0.875914
0 0.8038 0.873625
0 0.804425 0.873381
0 0.806088 0.872755
0.0798199 0.809125 0.871641
0.355856 0.813947 0.870176
0.526314 0.82118 0.868803
0.674769 0.832731 0.869947
0.80798 0.856596 0.882536
0.900847 0.860517 0.877943
0 0.905776 0.897475
0 0.906233 0.897215
0.171023 0.906767 0.896162
0.343069 0.906126 0.893431
0.48748 0.904952 0.889677
0.617121 0.903792 0.885832
0.731594 0.905989 0.884138
0.83856 0.912505 0.883192
0.924849 0.903593 0.875441
0 0.593591 0.95346
0 0.596033 0.953048
0 0.602838 0.951949
0 0.617487 0.949752
0.139178 0.645853 0.946197
0.462333 0.690761 0.941588
0.625422 0.733639 0.937621
0.72697 0.755428 0.936538
0.819486 0.78024 0.935821
0 0.600092 0.95346
0 0.602533 0.953063
0 0.609293 0.951949
0 0.623896 0.949752
0.153353 0.651087 0.946151
0.465537 0.694957 0.941619
0.629206 0.738216 0.93756
0.729335 0.759426 0.936507
0.820951 0.783627 0.935821
0 0.614282 0.953719
0 0.616709 0.953338
0 0.623484 0.952224
0 0.638086 0.949996
0.174472 0.662867 0.946334
0.470939 0.704402 0.941817
0.637537 0.748775 0.937469
0.734829 0.768673 0.936507
0.824491 0.791608 0.935958
0 0.634546 0.954757
0 0.636957 0.95433
0 0.643732 0.953216
0 0.658228 0.950957
0.192493 0.681971 0.947295
0.473091 0.718029 0.942611
0.646326 0.763149 0.937865
0.742885 0.782834 0.936828
0.830304 0.804105 0.93637
0 0.65861 0.956954
0 0.659739 0.95671
0 0.665919 0.955657
0 0.679988 0.953368
0.151431 0.703319 0.94963
0.461173 0.733639 0.944625
0.645792 0.776272 0.939559
0.752514 0.800778 0.937682
0.838544 0.820752 0.937179
0 0.709819 0.956954
0 0.710216 0.956832
0 0.711391 0.956497
0 0.714122 0.955795
0 0.725963 0.953597
0.440894 0.757229 0.948165
0.637324 0.792065 0.942367
0.763622 0.82266 0.939101
0.849332 0.841413 0.93843
0 0.771832 0.95639
0 0.772549 0.956207
0 0.774411 0.95581
0 0.777874 0.955001
0.160952 0.783475 0.953735
0.410422 0.791394 0.951858
0.62237 0.816403 0.946609
0.77351 0.847517 0.94136
0.862852 0.866026 0.940063
0 0.839231 0.955245
0 0.839948 0.955062
0 0.84181 0.95462
0.188357 0.845106 0.953826
0.37467 0.85005 0.952621
0.518196 0.856458 0.950942
0.642878 0.86331 0.948928
0.767346 0.873304 0.945632
0.879377 0.894774 0.941955
0.213413 0.907683 0.950286
0.248096 0.908186 0.950103
0.3178 0.909499 0.94966
0.408804 0.911696 0.948928
0.508522 0.914641 0.947845
0.608942 0.918074 0.946517
0.707012 0.921614 0.945052
0.803388 0.924788 0.943603
0.897642 0.927092 0.942718
