YOYO-Client/Yoyo/Assets.xcassets/Sagami.dataset/Sagami.cube
TITLE "Generated by Resolve"
LUT_3D_SIZE 5
0.10135 0.111818 0.116884
0.190936 0.107866 0.115587
0.487892 0.130083 0.0912184
0.773541 0.192721 0
1 0.228061 0
0.118425 0.159243 0.112184
0.229313 0.18497 0.101472
0.505928 0.253422 0.0446174
0.782589 0.296818 0
1 0.308156 0
0.220188 0.375357 0.0607156
0.325551 0.380301 0.02916
0.533623 0.405203 0
0.79382 0.465461 0
1 0.461357 0
0.361059 0.630182 0
0.445884 0.63238 0
0.636316 0.638804 0
0.845167 0.634028 0
1 0.620691 0
0.514031 0.886107 0
0.580575 0.8851 0
0.749279 0.881422 0
0.960067 0.859892 0
1 0.773312 0
0.00331121 0.144884 0.221317
0.169574 0.125628 0.223896
0.475898 0.085069 0.155978
0.759869 0.213458 0.0724651
1 0.294179 0
0.00296025 0.210712 0.232517
0.204105 0.224033 0.23389
0.486412 0.242664 0.184024
0.771725 0.297993 0.0635996
1 0.352056 0
0.145266 0.402502 0.255116
0.28513 0.411734 0.241032
0.515602 0.419593 0.205158
0.784009 0.472297 0.146441
1 0.478431 0
0.304921 0.646922 0.256291
0.406027 0.649546 0.240482
0.615717 0.653498 0.178164
0.834913 0.643778 0.0691844
1 0.628641 0
0.469291 0.889448 0.199527
0.541344 0.888502 0.153643
0.719509 0.885023 0
0.954955 0.870802 0
1 0.77673 0
0 0.262577 0.483955
0 0.248234 0.485634
0.378164 0.26804 0.513039
0.718166 0.251255 0.464271
0.991836 0.289204 0.376257
0 0.315679 0.486
0 0.314855 0.485878
0.394232 0.341863 0.513619
0.730602 0.313298 0.455024
0.992966 0.360296 0.382818
0 0.446235 0.497932
0.104112 0.456764 0.502876
0.444389 0.497017 0.523857
0.752071 0.509529 0.482139
0.999603 0.500008 0.382971
0.0752728 0.659724 0.542687
0.259556 0.671061 0.542641
0.525368 0.694713 0.528511
0.788998 0.686503 0.501656
0.988571 0.680049 0.463127
0.377432 0.889723 0.578408
0.449332 0.891798 0.567239
0.62948 0.893629 0.519921
0.888899 0.887175 0.378485
1 0.792767 0.0234684
0 0.407141 0.744274
0 0.400168 0.740566
0 0.410574 0.753613
0.600076 0.474876 0.786191
0.889891 0.550896 0.765423
0 0.44448 0.743954
0 0.441459 0.741878
0.0437018 0.452049 0.750591
0.611444 0.521935 0.785779
0.890593 0.585184 0.767559
0 0.538705 0.74844
0 0.539773 0.748531
0.166445 0.547173 0.748821
0.64361 0.626719 0.787884
0.9037 0.655589 0.767178
0 0.69015 0.76463
0 0.69424 0.765011
0.348577 0.711635 0.769162
0.702174 0.76434 0.79736
0.924926 0.766308 0.773144
0.230564 0.891737 0.809613
0.345724 0.892149 0.808682
0.558618 0.893889 0.808682
0.773297 0.902251 0.800519
0.966232 0.870115 0.752789
0 0.593591 0.95346
0 0.602838 0.951949
0.139178 0.645853 0.946197
0.625422 0.733639 0.937621
0.819486 0.78024 0.935821
0 0.614282 0.953719
0 0.623484 0.952224
0.174472 0.662867 0.946334
0.637537 0.748775 0.937469
0.824491 0.791608 0.935958
0 0.65861 0.956954
0 0.665919 0.955657
0.151431 0.703319 0.94963
0.645792 0.776272 0.939559
0.838544 0.820752 0.937179
0 0.771832 0.95639
0 0.774411 0.95581
0.160952 0.783475 0.953735
0.62237 0.816403 0.946609
0.862852 0.866026 0.940063
0.213413 0.907683 0.950286
0.3178 0.909499 0.94966
0.508522 0.914641 0.947845
0.707012 0.921614 0.945052
0.897642 0.927092 0.942718
