YOYO-Client/Yoyo/Assets.xcassets/Sagami.dataset/Sagami.cube
TITLE "Generated by Resolve"
LUT_3D_SIZE 33
0.10135 0.111818 0.116884
0.10135 0.111818 0.116884
0.102434 0.111696 0.116884
0.106081 0.111315 0.117067
0.112688 0.110811 0.117006
0.123766 0.109804 0.117082
0.140154 0.109117 0.116854
0.162722 0.108507 0.116335
0.190936 0.107866 0.115587
0.223575 0.107515 0.114473
0.258579 0.107942 0.112917
0.295171 0.10898 0.110918
0.332845 0.110704 0.1084
0.372534 0.113939 0.105074
0.4121 0.118349 0.101091
0.450431 0.123674 0.0965133
0.487892 0.130083 0.0912184
0.524804 0.137163 0.0850385
0.561456 0.144991 0.0775769
0.598154 0.152819 0.068986
0.634806 0.161028 0.0585641
0.670695 0.169406 0.0459754
0.705348 0.177539 0.0304417
0.739651 0.185138 0.0140841
0.773541 0.192721 0
0.807141 0.199527 0
0.840085 0.206134 0
0.87216 0.21181 0
0.902907 0.216678 0
0.932113 0.220722 0
0.960098 0.223758 0
0.98732 0.226322 0
1 0.228061 0
0.10135 0.111818 0.116884
0.10135 0.111818 0.116884
0.10341 0.111803 0.117021
0.107179 0.111757 0.116991
0.114046 0.111803 0.116869
0.125353 0.111788 0.116823
0.141817 0.111696 0.116472
0.164401 0.111833 0.115877
0.192599 0.111971 0.115007
0.224659 0.112612 0.113771
0.259388 0.11371 0.112123
0.295827 0.11545 0.109987
0.33341 0.118059 0.107286
0.373327 0.121904 0.103792
0.41236 0.126604 0.0997177
0.45037 0.132296 0.0949721
0.487587 0.138781 0.0896773
0.524422 0.145724 0.0831922
0.561059 0.153063 0.0756237
0.59762 0.160708 0.0667887
0.634241 0.168688 0.0560006
0.67013 0.176699 0.0429847
0.704845 0.184344 0.0272679
0.739178 0.191959 0.0110781
0.773251 0.199207 0
0.807004 0.205936 0
0.839963 0.211994 0
0.872007 0.217456 0
0.902647 0.222126 0
0.931807 0.22591 0
0.959762 0.228824 0
0.98706 0.231006 0
1 0.232685 0
0.100893 0.112444 0.116991
0.102251 0.11252 0.116976
0.103883 0.112718 0.11693
0.108125 0.113069 0.116808
0.115496 0.113588 0.116747
0.126848 0.113939 0.116518
0.143801 0.114504 0.11606
0.166415 0.115389 0.115343
0.194415 0.116609 0.114336
0.226383 0.118059 0.112963
0.260853 0.119997 0.111147
0.297185 0.122698 0.108827
0.335149 0.126101 0.105913
0.374777 0.130587 0.102251
0.413291 0.135714 0.098024
0.451011 0.141451 0.0931411
0.487984 0.14789 0.0876631
0.524498 0.154864 0.0809796
0.560967 0.161929 0.073228
0.597452 0.169345 0.0642557
0.634058 0.176974 0.0530404
0.669947 0.184558 0.039353
0.704601 0.192111 0.0234226
0.73901 0.199268 0.00720226
0.773251 0.206119 0
0.807019 0.212512 0
0.839902 0.218524 0
0.871839 0.223667 0
0.902358 0.228092 0
0.93138 0.231571 0
0.959228 0.234302 0
0.986542 0.236301 0
1 0.237919 0
0.101152 0.114168 0.116777
0.1028 0.114397 0.116716
0.104891 0.114397 0.116686
0.109133 0.115038 0.116701
0.116518 0.116106 0.116579
0.128573 0.117433 0.11603
0.146639 0.118944 0.115373
0.169635 0.120851 0.114488
0.197574 0.123033 0.113298
0.229221 0.125826 0.111681
0.263523 0.128817 0.109651
0.299504 0.132555 0.107118
0.338293 0.137041 0.103822
0.37702 0.142168 0.0999924
0.414816 0.147799 0.0955367
0.452033 0.153689 0.0904097
0.488563 0.160006 0.0847181
0.52488 0.166598 0.077821
0.561135 0.173556 0.0697185
0.597513 0.180652 0.0602731
0.634134 0.188037 0.0483558
0.670039 0.195438 0.033753
0.704829 0.202411 0.0178073
0.739391 0.209323 0.00276188
0.773587 0.215808 0
0.807233 0.221775 0
0.839963 0.227314 0
0.871641 0.232242 0
0.901961 0.23624 0
0.930861 0.239368 0
0.958663 0.241703 0
0.985916 0.243549 0
1 0.244907 0
0.10222 0.11725 0.116335
0.104585 0.117418 0.116274
0.10724 0.117494 0.116228
0.110994 0.117845 0.116289
0.119097 0.119829 0.115877
0.132006 0.122332 0.11545
0.148699 0.125017 0.114977
0.174487 0.128786 0.113405
0.204807 0.132906 0.111559
0.236408 0.136904 0.109575
0.270466 0.141176 0.10721
0.307607 0.146365 0.104128
0.346197 0.152193 0.100404
0.384085 0.1579 0.0961929
0.421195 0.163806 0.0913558
0.457771 0.169726 0.0859541
0.493965 0.176059 0.0796521
0.530037 0.182467 0.0722515
0.566094 0.188998 0.0635538
0.602258 0.195865 0.0529946
0.638483 0.20293 0.0399023
0.673869 0.209628 0.024567
0.708034 0.216129 0.00888075
0.742046 0.222492 4.57771e-05
0.775738 0.228367 0
0.809018 0.234028 0
0.841642 0.239078 0
0.873396 0.243412 0
0.903777 0.24715 0
0.932708 0.249912 0
0.960281 0.251957 0
0.987137 0.253407 0
1 0.25417 0
0.104387 0.122072 0.115801
0.10692 0.122408 0.115724
0.109895 0.122652 0.115648
0.114137 0.122881 0.115541
0.121569 0.124193 0.11519
0.135103 0.128023 0.114504
0.154635 0.132677 0.113542
0.176379 0.137224 0.112367
0.203967 0.142626 0.110689
0.238087 0.148745 0.107805
0.275761 0.155764 0.104311
0.313695 0.162371 0.100511
0.351034 0.168658 0.0964523
0.387961 0.174838 0.0918288
0.42443 0.180865 0.0865949
0.460426 0.18706 0.0808423
0.496315 0.193225 0.0739605
0.532158 0.199481 0.0658274
0.567987 0.205936 0.0562142
0.604028 0.212482 0.0443732
0.640116 0.219104 0.0300908
0.675166 0.225437 0.0146639
0.709239 0.231525 0.000900282
0.743175 0.237293 0
0.776913 0.242908 0
0.810224 0.248127 0
0.842802 0.252689 0
0.87451 0.256657 0
0.904723 0.259861 0
0.933516 0.262318 0
0.960983 0.263905 0
0.987793 0.264836 0
1 0.265476 0
0.107347 0.129778 0.115175
0.110689 0.130312 0.114992
0.114382 0.130663 0.114687
0.119539 0.131121 0.114351
0.126162 0.131426 0.114046
0.138643 0.134569 0.113283
0.158358 0.140917 0.11191
0.183459 0.148104 0.110231
0.209949 0.15462 0.108263
0.240391 0.161883 0.105669
0.275547 0.170031 0.10219
0.315007 0.17847 0.0973831
0.354559 0.186526 0.0919051
0.392538 0.193698 0.0861524
0.428305 0.2 0.0805676
0.463813 0.206043 0.074052
0.499229 0.2121 0.0664378
0.5346 0.218235 0.0573434
0.570108 0.224384 0.0466621
0.605905 0.230762 0.0330968
0.641733 0.236988 0.0183108
0.676524 0.242969 0.00373846
0.710475 0.2486 0
0.744457 0.254108 0
0.778119 0.259297 0
0.811353 0.264042 0
0.843793 0.268193 0
0.875196 0.271611 0
0.905226 0.274296 0
0.93373 0.276265 0
0.960998 0.277531 0
0.987686 0.278035 0
1 0.278279 0
0.111284 0.1411 0.114214
0.115694 0.141909 0.114015
0.120012 0.142428 0.113634
0.126406 0.14287 0.113268
0.134279 0.143603 0.112779
0.143618 0.143862 0.112276
0.163287 0.150362 0.110384
0.189349 0.15967 0.10779
0.220096 0.169726 0.104509
0.249973 0.177783 0.101503
0.281804 0.185946 0.0981003
0.31577 0.1944 0.0939651
0.353048 0.203098 0.0883497
0.391928 0.21149 0.0814527
0.430106 0.219242 0.07393
0.467369 0.22623 0.0654002
0.502525 0.232319 0.0565652
0.537499 0.238285 0.0461585
0.572717 0.244266 0.0334783
0.608362 0.250385 0.0194247
0.6439 0.256397 0.00482185
0.678477 0.262028 0
0.712444 0.267445 0
0.74641 0.272465 0
0.779965 0.277256 0
0.812909 0.28159 0
0.844999 0.285161 0
0.876097 0.288106 0
0.90573 0.290349 0
0.933928 0.291905 0
0.961013 0.292561 0
0.987579 0.29276 0
1 0.292699 0
0.118425 0.159243 0.112184
0.1234 0.159777 0.111894
0.128939 0.160372 0.111513
0.136767 0.161303 0.110964
0.146609 0.162432 0.110277
0.158862 0.163821 0.109422
0.173693 0.165698 0.108278
0.199191 0.174365 0.105272
0.229313 0.18497 0.101472
0.262638 0.196155 0.0966201
0.294011 0.205249 0.0920882
0.326253 0.214038 0.087068
0.359213 0.222232 0.0818647
0.393286 0.230213 0.0757458
0.430457 0.238346 0.0673228
0.468284 0.246067 0.0570535
0.505928 0.253422 0.0446174
0.543053 0.260349 0.0301518
0.578622 0.266392 0.0160678
0.614008 0.272343 0.00332647
0.648936 0.278004 0
0.682826 0.283131 0
0.716274 0.288014 0
0.749615 0.292607 0
0.782589 0.296818 0
0.815167 0.300542 0
0.846998 0.303746 0
0.877897 0.306432 0
0.907515 0.308141 0
0.935637 0.309117 0
0.962493 0.309392 0
0.988418 0.308934 0
1 0.308156 0
0.127199 0.18114 0.109163
0.133913 0.183642 0.108431
0.140826 0.184863 0.10782
0.149905 0.185702 0.107103
0.161196 0.186481 0.106386
0.174548 0.187564 0.105333
0.189654 0.188556 0.104158
0.208606 0.191104 0.102388
0.23711 0.20058 0.0983902
0.268727 0.211276 0.0932937
0.302602 0.222446 0.0871748
0.334676 0.231617 0.0812085
0.366506 0.240284 0.0744945
0.39884 0.248829 0.0671244
0.431846 0.256794 0.0588846
0.466682 0.264637 0.0487678
0.504204 0.272511 0.033875
0.542016 0.280064 0.017731
0.580118 0.287388 0.00234989
0.617823 0.294347 0
0.652934 0.299947 0
0.686366 0.304829 0
0.719524 0.309224 0
0.752651 0.313512 0
0.785443 0.317372 0
0.817975 0.32076 0
0.849607 0.323583 0
0.880369 0.32578 0
0.909728 0.327108 0
0.937606 0.327642 0
0.96405 0.327352 0
0.989685 0.326543 0
1 0.325368 0
0.137697 0.206348 0.105074
0.145525 0.209537 0.104005
0.153323 0.21091 0.10341
0.162951 0.211475 0.102678
0.175021 0.212024 0.101564
0.189227 0.212757 0.100481
0.205447 0.213794 0.0988937
0.221942 0.213947 0.097673
0.245228 0.217929 0.0945296
0.275257 0.227604 0.0893416
0.307591 0.238239 0.0829023
0.34139 0.248936 0.0751202
0.373495 0.257923 0.0673075
0.405112 0.2663 0.0585946
0.437385 0.274922 0.0478065
0.470085 0.283497 0.0349889
0.503594 0.291402 0.0216068
0.539803 0.299168 0.0059968
0.577722 0.306828 0
0.615915 0.314229 0
0.653162 0.320882 0
0.688807 0.326467 0
0.722545 0.331029 0
0.755459 0.335027 0
0.788174 0.338567 0
0.820386 0.341619 0
0.851789 0.344045 0
0.882155 0.345769 0
0.911086 0.346654 0
0.938537 0.346654 0
0.964675 0.345861 0
0.990051 0.344656 0
1 0.343038 0
0.149706 0.233021 0.099855
0.1579 0.236591 0.0987411
0.166064 0.238087 0.0977035
0.176303 0.238682 0.096849
0.18883 0.239002 0.0958267
0.203586 0.239536 0.0944533
0.220249 0.240314 0.0926223
0.238743 0.241398 0.0904555
0.256138 0.240284 0.0890211
0.283406 0.24622 0.0840772
0.314092 0.255787 0.0771649
0.346365 0.265873 0.0690623
0.379873 0.276036 0.0591745
0.412055 0.284855 0.048188
0.443534 0.292897 0.0358587
0.475547 0.301259 0.0214542
0.508064 0.309804 0.00627146
0.541176 0.318318 0
0.576028 0.326146 0
0.613596 0.333883 0
0.650843 0.340764 0
0.687266 0.346868 0
0.7234 0.352438 0
0.758511 0.357076 0
0.791485 0.360571 0
0.823316 0.363241 0
0.854231 0.36524 0
0.884108 0.366476 0
0.912535 0.366781 0
0.939529 0.366308 0
0.96527 0.365133 0
0.990433 0.363455 0
1 0.361547 0
0.164508 0.265049 0.0926528
0.172076 0.266621 0.091722
0.180056 0.267414 0.0908217
0.190494 0.267781 0.0897841
0.203449 0.268132 0.0883345
0.218631 0.268544 0.0866865
0.235874 0.2692 0.0843366
0.254597 0.270054 0.0818341
0.274723 0.27097 0.0788281
0.293538 0.269398 0.0766918
0.322469 0.275685 0.0699168
0.353017 0.284596 0.0611887
0.385077 0.294057 0.0500191
0.418296 0.3037 0.0361181
0.450614 0.312383 0.0213779
0.482033 0.320211 0.0069276
0.514092 0.328405 0.000213626
0.546944 0.337011 0
0.580438 0.345892 0
0.614542 0.354238 0
0.649805 0.361303 0
0.686351 0.36759 0
0.722469 0.373236 0
0.758099 0.378164 0
0.792889 0.382269 0
0.826062 0.38526 0
0.856855 0.386923 0
0.886366 0.387778 0
0.91458 0.387717 0
0.941512 0.386908 0
0.967269 0.385397 0
0.991791 0.38323 0
1 0.380453 0
0.17734 0.291646 0.085771
0.186618 0.296254 0.0837873
0.195193 0.297932 0.0825818
0.205509 0.298268 0.0811322
0.218357 0.298009 0.0796521
0.233249 0.297902 0.0776684
0.250324 0.298039 0.0751659
0.268986 0.298329 0.0720226
0.289097 0.298787 0.0684672
0.3093 0.298695 0.0647135
0.330068 0.297398 0.061387
0.359579 0.303853 0.0519265
0.390204 0.312398 0.0397192
0.422217 0.321492 0.0246738
0.455528 0.330983 0.00788891
0.488365 0.339803 6.10361e-05
0.520119 0.347677 0
0.552682 0.356008 0
0.585946 0.364599 0
0.619318 0.373266 0
0.652186 0.381338 0
0.685954 0.388235 0
0.721599 0.39408 0
0.757351 0.39913 0
0.79237 0.403388 0
0.826505 0.406699 0
0.859373 0.408988 0
0.890028 0.41004 0
0.917891 0.409583 0
0.944244 0.40824 0
0.969177 0.406088 0
0.993149 0.403388 0
1 0.40029 0
0.19115 0.319554 0.0778058
0.200198 0.324025 0.0757458
0.208576 0.325689 0.0743267
0.218708 0.325917 0.0727855
0.231403 0.325536 0.0708934
0.24593 0.325322 0.0683604
0.262974 0.325307 0.0653086
0.281514 0.32549 0.0615244
0.301549 0.325826 0.0568093
0.322789 0.326421 0.0514534
0.342428 0.324742 0.0470588
0.366049 0.324971 0.0406348
0.396109 0.33167 0.0272984
0.426947 0.340169 0.0121157
0.459236 0.349157 0.00077821
0.492805 0.358633 0
0.526055 0.367468 0
0.558175 0.375357 0
0.590814 0.383505 0
0.623438 0.391562 0
0.655924 0.399466 0
0.688594 0.407385 0
0.721538 0.414282 0
0.755871 0.419791 0
0.791135 0.424186 0
0.825483 0.427588 0
0.858488 0.429953 0
0.889952 0.431144 0
0.919341 0.430976 0
0.945785 0.429374 0
0.970397 0.426795 0
0.994369 0.42385 0
1 0.420233 0
0.205249 0.346853 0.0696574
0.213993 0.351202 0.0674601
0.221973 0.35285 0.0657664
0.2318 0.353017 0.0638895
0.244236 0.352682 0.0616617
0.258549 0.352499 0.0586404
0.275303 0.352529 0.0545663
0.293706 0.352804 0.0498665
0.313802 0.353155 0.0438544
0.335042 0.353719 0.0363622
0.357321 0.354467 0.0280156
0.376318 0.351263 0.0238041
0.402564 0.353063 0.0136416
0.4327 0.35993 0.00137331
0.463844 0.368246 0
0.4963 0.37702 0
0.530098 0.386358 0
0.563714 0.395331 0
0.596002 0.403113 0
0.628016 0.41062 0
0.660212 0.418173 0
0.69276 0.425849 0
0.725322 0.433509 0
0.75787 0.440162 0
0.790784 0.445197 0
0.824735 0.448753 0
0.857649 0.45098 0
0.888975 0.452003 0
0.918364 0.451713 0
0.945998 0.450309 0
0.972244 0.448081 0
0.996017 0.444739 0
1 0.440681 0
0.220188 0.375357 0.0607156
0.227543 0.377615 0.0588388
0.234989 0.378668 0.0570535
0.244587 0.379004 0.0547494
0.25655 0.379049 0.0518807
0.27097 0.379202 0.0481117
0.287388 0.379446 0.0428931
0.305653 0.379828 0.0364385
0.325551 0.380301 0.02916
0.346639 0.380835 0.0207523
0.368856 0.381476 0.01149
0.391516 0.381949 0.00337224
0.410132 0.377478 0.00166323
0.438636 0.38088 0
0.469078 0.38793 0
0.500664 0.396292 0
0.533623 0.405203 0
0.567971 0.414771 0
0.601984 0.423728 0
0.633967 0.431083 0
0.66598 0.438254 0
0.698177 0.445518 0
0.730327 0.452705 0
0.76228 0.459709 0
0.79382 0.465461 0
0.824933 0.469596 0
0.856703 0.472129 0
0.887984 0.473075 0
0.917922 0.472923 0
0.946014 0.471504 0
0.972335 0.469017 0
0.997284 0.46566 0
1 0.461357 0
0.234302 0.401526 0.0523384
0.242145 0.40531 0.049958
0.249516 0.406882 0.0476844
0.258732 0.407065 0.0450141
0.270024 0.406806 0.0413367
0.283787 0.406653 0.0364996
0.299702 0.406683 0.0306859
0.317494 0.406744 0.0236973
0.336797 0.407019 0.0157168
0.357595 0.407401 0.0065156
0.379492 0.407935 0.000610361
0.402335 0.408637 0
0.424582 0.408133 0
0.444923 0.404379 0
0.474693 0.408652 0
0.505867 0.416388 0
0.538445 0.425193 0
0.57232 0.434531 0
0.606714 0.443763 0
0.640421 0.452201 0
0.67245 0.459251 0
0.70428 0.466072 0
0.736049 0.47274 0
0.76759 0.479255 0
0.798749 0.48542 0
0.829404 0.490135 0
0.85919 0.493263 0
0.888792 0.495003 0
0.91812 0.494545 0
0.945602 0.492729 0
0.971908 0.489998 0
0.996796 0.486473 0
1 0.482063 0
0.249409 0.429374 0.0431525
0.256977 0.433051 0.0409094
0.264179 0.434531 0.0384527
0.272862 0.434592 0.03505
0.283711 0.434211 0.0307774
0.296773 0.433967 0.0255283
0.312108 0.433936 0.0191348
0.329519 0.434012 0.0112764
0.348608 0.434256 0.00335698
0.368994 0.434699 0
0.390784 0.435325 0
0.413596 0.436118 0
0.437324 0.437079 0
0.458122 0.434577 0
0.481483 0.432837 0
0.512535 0.438025 0
0.544503 0.446235 0
0.577569 0.45507 0
0.610925 0.463645 0
0.644282 0.471855 0
0.677089 0.479332 0
0.708782 0.485924 0
0.740246 0.492226 0
0.771588 0.498329 0
0.802533 0.504128 0
0.832776 0.509453 0
0.862196 0.512795 0
0.890394 0.514763 0
0.917388 0.515419 0
0.944854 0.51397 0
0.971374 0.511223 0
0.996246 0.507408 0
1 0.502754 0
0.265095 0.458228 0.0325475
0.272557 0.461753 0.0296941
0.279423 0.463096 0.0271763
0.287678 0.463111 0.0238804
0.297963 0.46276 0.0192264
0.310796 0.462562 0.0132143
0.325841 0.462608 0.00616464
0.342916 0.462913 0.00062562
0.361715 0.463386 0
0.382055 0.463996 0
0.4038 0.464729 0
0.426535 0.465583 0
0.450355 0.46656 0
0.474845 0.467628 0
0.494575 0.463355 0
0.520882 0.463523 0
0.552621 0.469245 0
0.584741 0.477272 0
0.617212 0.485191 0
0.649729 0.492805 0
0.682078 0.49987 0
0.713863 0.506401 0
0.745159 0.512398 0
0.776242 0.518135 0
0.806867 0.523537 0
0.836759 0.528389 0
0.865522 0.532357 0
0.893217 0.534035 0
0.919799 0.534844 0
0.945159 0.534951 0
0.970748 0.532723 0
0.995529 0.528725 0
1 0.523766 0
0.28217 0.489021 0.0191653
0.288655 0.491371 0.0169223
0.294881 0.492378 0.0141299
0.303181 0.492683 0.0102998
0.313527 0.492805 0.00538643
0.326116 0.49305 0.000991836
0.341009 0.493507 0
0.357855 0.494057 0
0.376593 0.494713 0
0.396902 0.495506 0
0.418524 0.4963 0
0.441306 0.497246 0
0.465095 0.498253 0
0.489723 0.499306 0
0.514427 0.499825 0
0.533578 0.494072 0
0.56318 0.496452 0
0.594919 0.502052 0
0.626703 0.509377 0
0.658518 0.516335 0
0.690135 0.522805 0
0.721263 0.528679 0
0.751736 0.533944 0
0.782223 0.539071 0
0.812345 0.543908 0
0.841764 0.54818 0
0.870115 0.551843 0
0.897322 0.55404 0
0.923217 0.554314 0
0.947845 0.553887 0
0.971405 0.552956 0
0.994629 0.550347 0
1 0.545205 0
0.300649 0.522622 0.00410468
0.307027 0.525109 0.00231937
0.313283 0.526192 0.000595102
0.321035 0.526406 0
0.331197 0.526345 0
0.34342 0.526513 0
0.358038 0.526894 0
0.374578 0.527398 0
0.39295 0.528038 0
0.413062 0.528756 0
0.434623 0.529656 0
0.45742 0.530663 0
0.481422 0.531777 0
0.50634 0.533028 0
0.532097 0.534417 0
0.556634 0.533989 0
0.57734 0.528542 0
0.608331 0.531334 0
0.63978 0.536629 0
0.670985 0.542947 0
0.701869 0.548638 0
0.732128 0.553674 0
0.761517 0.557931 0
0.790112 0.561517 0
0.81883 0.565148 0
0.847425 0.568627 0
0.875029 0.571527 0
0.901366 0.573648 0
0.926513 0.573617 0
0.950759 0.572732 0
0.973877 0.571405 0
0.995621 0.569772 0
1 0.566888 0
0.319905 0.557122 0
0.325994 0.559442 0
0.331914 0.560327 0
0.339315 0.560357 0
0.34902 0.560082 0
0.360845 0.560052 0
0.374929 0.560311 0
0.391119 0.560708 0
0.409354 0.561257 0
0.429129 0.561975 0
0.450568 0.562844 0
0.473274 0.563867 0
0.497261 0.565042 0
0.522148 0.566247 0
0.547997 0.567498 0
0.574502 0.56878 0
0.596933 0.565621 0
0.619821 0.561227 0
0.650752 0.563485 0
0.681285 0.567926 0
0.711284 0.572869 0
0.740826 0.577157 0
0.769604 0.580774 0
0.797513 0.583703 0
0.82443 0.585901 0
0.851545 0.588266 0
0.878874 0.590677 0
0.904982 0.592477 0
0.9299 0.592905 0
0.95375 0.591669 0
0.976471 0.589868 0
0.997833 0.587747 0
1 0.585519 0
0.340047 0.593301 0
0.345052 0.593866 0
0.350622 0.594446 0
0.357809 0.5944 0
0.367208 0.594232 0
0.378882 0.594278 0
0.392813 0.594644 0
0.408774 0.595087 0
0.426612 0.595682 0
0.446296 0.596429 0
0.467521 0.597284 0
0.49012 0.598169 0
0.513832 0.599161 0
0.538643 0.600198 0
0.564309 0.601221 0
0.590723 0.602258 0
0.617807 0.603281 0
0.638117 0.597223 0
0.663417 0.594202 0
0.693614 0.595438 0
0.723293 0.599176 0
0.752361 0.602899 0
0.780591 0.605844 0
0.807874 0.607996 0
0.833921 0.609323 0
0.858671 0.609857 0
0.883604 0.61059 0
0.909178 0.611688 0
0.933532 0.612116 0
0.956939 0.610513 0
0.979202 0.608301 0
0.999878 0.605753 0
1 0.603128 0
0.361059 0.630182 0
0.365454 0.630274 0
0.370565 0.630365 0
0.377813 0.630503 0
0.387106 0.630732 0
0.398749 0.631022 0
0.412512 0.631373 0
0.428229 0.631846 0
0.445884 0.63238 0
0.465263 0.632975 0
0.486168 0.633646 0
0.508476 0.634348 0
0.532082 0.635157 0
0.556771 0.635981 0
0.582467 0.636866 0
0.609018 0.637842 0
0.636316 0.638804 0
0.66331 0.638941 0
0.682429 0.630869 0
0.709728 0.628794 0
0.73875 0.628641 0
0.766842 0.630991 0
0.794034 0.632792 0
0.820203 0.633799 0
0.845167 0.634028 0
0.868772 0.633448 0
0.89102 0.632105 0
0.913573 0.631113 0
0.93727 0.630869 0
0.960159 0.629328 0
0.982071 0.626719 0
1 0.623789 0
1 0.620691 0
0.382025 0.66688 0
0.386755 0.667521 0
0.392035 0.667948 0
0.398718 0.66775 0
0.407675 0.667552 0
0.41883 0.667521 0
0.432181 0.667796 0
0.447608 0.668086 0
0.464836 0.668406 0
0.483955 0.66894 0
0.504723 0.669581 0
0.52694 0.670283 0
0.550423 0.671061 0
0.575158 0.671885 0
0.600885 0.672755 0
0.627543 0.673671 0
0.655024 0.674586 0
0.683146 0.675456 0
0.709239 0.67393 0
0.727687 0.664332 0
0.755199 0.661753 0
0.782452 0.660121 0
0.808392 0.660517 0
0.833341 0.660273 0
0.857145 0.659281 0
0.879667 0.657542 0
0.900877 0.655146 0
0.920897 0.652247 0
0.941253 0.649805 0
0.963516 0.648081 0
0.985031 0.64506 0
1 0.641733 0
1 0.6383 0
0.403174 0.702968 0
0.407523 0.703029 0
0.412299 0.70309 0
0.418982 0.703166 0
0.427863 0.703288 0
0.438834 0.703456 0
0.451957 0.703593 0
0.467002 0.703853 0
0.483879 0.704097 0
0.502647 0.704372 0
0.522896 0.704692 0
0.544671 0.705043 0
0.567758 0.70544 0
0.592004 0.705837 0
0.617319 0.706264 0
0.643595 0.706722 0
0.670695 0.70721 0
0.698558 0.707698 0
0.727047 0.708217 0
0.75021 0.703365 0
0.77026 0.694514 0
0.796857 0.690654 0
0.822385 0.687922 0
0.846494 0.686656 0
0.869383 0.684642 0
0.891051 0.681971 0
0.911498 0.678721 0
0.9308 0.674968 0
0.948974 0.670817 0
0.967239 0.666835 0
0.988113 0.663355 0
1 0.659632 0
1 0.655818 0
0.424063 0.738094 0
0.428168 0.73814 0
0.432883 0.73817 0
0.439429 0.738201 0
0.44802 0.738293 0
0.45864 0.738354 0
0.471366 0.738476 0
0.48603 0.738628 0
0.502663 0.738766 0
