YOYO-Client/Yoyo/Assets.xcassets/Blossom.dataset/Blossom.cube
TITLE "Blossom"
LUT_3D_SIZE 9
0 0 0
0.0338293 0 0
0.1402 0 0
0.330877 0 0
0.541176 0 0
0.717159 0 0
0.862745 0 0
0.9897 0 0
1 0 0
0 0.045594 0
0.0338293 0.0495155 0
0.170459 0.0308843 0
0.364706 0 0
0.559808 0 0
0.727947 0 0
0.866178 0 0
0.992706 0 0
1 0 0
0 0.184314 0
0 0.18909 0
0.182101 0.222797 0
0.430396 0.177447 0
0.599512 0.101961 0
0.749386 0.0143435 0
0.877455 0 0
0.995712 0.0161746 0
1 0.144121 0
0 0.371084 0
0 0.374014 0
0 0.385657 0
0.403555 0.431922 0
0.657115 0.400977 0
0.779416 0.338231 0
0.892653 0.317647 0
0.998718 0.325978 0
1 0.360784 0
0 0.529412 0
0 0.533333 0
0 0.532845 0
0.0649577 0.558572 0
0.602945 0.605875 0
0.815686 0.599756 0
0.914702 0.551965 0
1 0.527199 0
1 0.533333 0
0 0.666178 0
0 0.66862 0
0 0.666178 0
0 0.671626 0
0.4103 0.703182 0
0.757839 0.745159 0
0.9299 0.74963 0
1 0.719615 0
1 0.696574 0
0 0.797055 0
0 0.797055 0
0 0.793133 0
0 0.793133 0
0.18529 0.800977 0
0.628428 0.827085 0
0.882353 0.855634 0
1 0.855756 0
1 0.836271 0
0 0.912749 0
0 0.912749 0
0 0.912261 0
0 0.908522 0
0.00416571 0.908339 0
0.526772 0.912261 0
0.802945 0.926955 0
0.978439 0.935286 0
1 0.930877 0
0 1 0
0 1 0
0 1 0
0 1 0
0.190188 1 0
0.526955 1 0
0.759808 1 0
0.93579 1 0
1 1 0
0 0 0.045594
0.049012 0 0.0451667
0.144121 0 0.0343175
0.334798 0 0.0316777
0.540932 0 0.0183871
0.713237 0 0
0.855879 0 0
0.986282 0 0
1 0 0
0 0.049012 0.049012
0.0372625 0.0529488 0.045594
0.176959 0.0417334 0.0416724
0.369711 0 0.0299229
0.559808 0 0.00927749
0.724025 0 0
0.862257 0 0
0.988785 0 0
1 0 0
0 0.206378 0.0339513
0 0.20441 0.0261082
0.19939 0.226322 0.00170901
0.424857 0.179294 0
0.597543 0.123461 0
0.745464 0.0529488 0
0.873533 0.0191196 0
0.992279 0.0562448 0
1 0.162615 0
0 0.386465 0
0 0.386801 0
0 0.388281 0
0.414466 0.431922 0
0.652445 0.397055 0
0.774685 0.342153 0
0.888731 0.325185 0
0.995285 0.333806 0
1 0.366979 0
0 0.541176 0
0 0.544854 0
0 0.540932 0
0.106188 0.559319 0
0.608698 0.606867 0
0.813886 0.598535 0
0.910964 0.551476 0
0.998291 0.528954 0
1 0.535286 0
0 0.675303 0
0 0.676631 0
0 0.674022 0
0 0.674022 0
0.419852 0.703929 0
0.760845 0.748531 0
0.928801 0.74963 0
1 0.715679 0
1 0.694118 0
0 0.800977 0
0 0.803922 0
0 0.800885 0
0 0.797055 0
0.209064 0.800977 0
0.630518 0.828916 0
0.882353 0.855634 0
1 0.855756 0
1 0.836271 0
0 0.916671 0
0 0.916671 0
0 0.916182 0
0 0.912261 0
0.00634775 0.908339 0
0.526772 0.912261 0
0.802457 0.926955 0
0.978439 0.93872 0
1 0.93138 0
0 1 0
0 1 0
0 1 0
0 1 0
0.198047 1 0
0.525673 1 0
0.759808 1 0
0.93579 1 0
1 1 0
0 0 0.20882
0.0139773 0 0.217517
0.212741 0 0.20882
0.361761 0 0.166674
0.548531 0 0.157351
0.713237 0 0.143755
0.858824 0 0.12549
0.986282 0 0.0882277
1 0 0.00881972
0 0.0377508 0.207477
0.00300603 0.0386206 0.215808
0.229282 0.014313 0.218662
0.381018 0 0.183154
0.563729 0 0.169909
0.724514 0 0.150469
0.8636 0 0.12488
0.988785 0 0.0753643
1 0 0
0 0.207599 0.22475
0 0.216327 0.226474
0.219608 0.227512 0.226535
0.419852 0.208576 0.204654
0.596078 0.172671 0.177691
0.745464 0.131777 0.147555
0.873533 0.104601 0.107851
0.991638 0.116701 0.034287
1 0.188235 0
0 0.422553 0.229908
0 0.421942 0.224369
0.0226139 0.409796 0.197543
0.433539 0.433997 0.184192
0.639704 0.394919 0.156313
0.768017 0.358892 0.105882
0.887739 0.345586 0.03888
0.993988 0.352041 0
1 0.378561 0
0 0.569116 0.18677
0 0.568139 0.181064
0 0.560662 0.156985
0.201221 0.562737 0.108034
0.617639 0.607843 0.110536
0.807111 0.594919 0.0761578
0.903426 0.549996 0
0.995285 0.532662 0
1 0.537255 0
0 0.693019 0.139712
0 0.695094 0.131807
0 0.689342 0.0973068
0 0.684108 0.0257877
0.436027 0.704479 0
0.764218 0.748531 0.0210422
0.92488 0.74902 0.00827039
1 0.713771 0
1 0.692653 0
0 0.80882 0.0441138
0 0.811765 0.0294041
0 0.808026 0
0 0.803464 0
0.247059 0.802945 0
0.631373 0.826108 0
0.879957 0.855634 0
1 0.855756 0.00192264
1 0.834073 0
0 0.920104 0
0 0.920104 0
0 0.918746 0
0 0.913359 0
0.0438697 0.908339 0
0.523384 0.911955 0
0.798535 0.926955 0
0.974517 0.93872 0
1 0.930877 0
0 1 0
0 1 0
0 1 0
0 1 0
0.2 1 0
0.519738 1 0
0.752697 1 0
0.931868 1 0
1 1 0
0 0 0.426474
0 0 0.436271
0.241169 0 0.454292
0.466667 0 0.439765
0.589212 0 0.367895
0.7299 0 0.341176
0.862745 0 0.325978
0.986282 0 0.306859
1 0 0.287739
0 0.0196078 0.424018
0 0.00833143 0.435355
0.252323 0 0.455619
0.475196 0 0.443626
0.595682 0 0.376715
0.734005 0 0.352453
0.866178 0 0.331502
0.985718 0 0.309804
1 0 0.284306
0 0.170092 0.427451
0 0.178927 0.431861
0.222553 0.191363 0.447547
0.476539 0.195727 0.448234
0.60325 0.191302 0.397543
0.742153 0.173785 0.368429
0.871687 0.152819 0.341787
0.98819 0.146883 0.307713
1 0.193622 0.267643
0 0.404837 0.437751
0 0.413046 0.440681
0.14081 0.424384 0.444602
0.444526 0.438727 0.449714
0.617395 0.414954 0.416175
0.757351 0.392737 0.380804
0.880507 0.376471 0.3402
0.988235 0.368627 0.291661
1 0.382849 0.233326
0 0.603922 0.450492
0 0.606378 0.450645
0 0.602762 0.440375
0.33817 0.585718 0.411765
0.621576 0.614343 0.418631
0.785809 0.58677 0.393866
0.891356 0.55172 0.329412
0.990204 0.53637 0.261921
1 0.537255 0.167163
0 0.723522 0.422065
0 0.72462 0.417777
0 0.717449 0.396506
0.157076 0.705043 0.368627
0.45417 0.706798 0.342153
0.760876 0.751537 0.392508
0.910292 0.745647 0.391135
0.993088 0.70631 0.289219
1 0.688731 0.119921
0 0.826352 0.369238
0 0.827085 0.364172
0 0.822156 0.345281
0 0.813657 0.311894
0.299321 0.807904 0.266728
0.623529 0.825406 0.270787
0.874052 0.858091 0.370306
0.995285 0.85539 0.384924
1 0.830518 0.258091
0 0.926162 0.315679
0 0.927443 0.311086
0 0.923613 0.28365
0 0.918914 0.23859
0.0851453 0.912261 0.165133
0.510491 0.911772 0.0768902
0.786862 0.924392 0.198276
0.966354 0.93872 0.347066
1 0.930877 0.363546
0 1 0.33872
0 1 0.337438
0 1 0.309682
0 1 0.262745
0.195346 1 0.18529
0.505882 1 0.0484016
0.737743 1 0
0.921386 1 0.172915
1 1 0.291173
0 0 0.627451
0 0 0.63505
0.235294 0 0.648524
0.522301 0 0.662013
0.689219 0 0.640192
0.775006 0 0.572305
0.877943 0 0.53872
0.985779 0 0.521324
1 0 0.507851
0 0 0.624262
0 0 0.630884
0.247059 0 0.646021
0.52549 0 0.661372
0.690806 0 0.641794
0.776715 0 0.575891
0.877638 0 0.544121
0.984863 0 0.522271
1 0 0.505882
0 0.137743 0.615198
0 0.139712 0.621515
0.226108 0.136767 0.636271
0.51519 0.134493 0.657115
0.687007 0.132845 0.644358
0.772122 0.14963 0.583581
0.875486 0.175006 0.554406
0.981247 0.168627 0.525002
1 0.186282 0.500008
0 0.351476 0.612009
0 0.358663 0.616175
0.103792 0.370092 0.620096
0.448997 0.392645 0.639704
0.663233 0.417655 0.645594
0.757321 0.415229 0.597055
0.870222 0.399023 0.564218
0.976715 0.377447 0.525093
1 0.375982 0.488975
0 0.578439 0.618631
0 0.586282 0.623529
0.000732433 0.591913 0.627451
0.403922 0.603555 0.635904
0.622553 0.621576 0.647059
0.75491 0.596323 0.612253
0.870588 0.569604 0.566674
0.975128 0.543877 0.512749
1 0.536278 0.45687
0 0.746075 0.638239
0 0.748531 0.640589
0 0.748531 0.636759
0.346807 0.745098 0.626963
0.525734 0.728801 0.595346
0.753979 0.75668 0.621103
0.88481 0.735973 0.596017
0.975494 0.696086 0.509804
1 0.680888 0.426963
0 0.849515 0.611276
0 0.84921 0.610239
0 0.845106 0.595102
0.106432 0.834257 0.564706
0.394125 0.822797 0.531365
0.6103 0.824628 0.514275
0.862379 0.858824 0.594858
0.976898 0.852445 0.60061
1 0.823041 0.495094
0 0.935546 0.561761
0 0.935515 0.557839
0 0.931441 0.535668
0 0.925734 0.504906
0.217395 0.918746 0.468757
0.500648 0.911772 0.428428
0.762249 0.923095 0.463233
0.952453 0.938293 0.572061
1 0.930877 0.596078
0 1 0.562753
0 1 0.558816
0 1 0.543145
0 1 0.517159
0.230396 1 0.484321
0.501717 1 0.438239
0.710781 1 0.406867
0.902449 1 0.466178
1 1 0.543145
0 0 0.786267
0 0 0.790204
0.274876 0 0.797421
0.542641 0 0.809812
0.740688 0 0.817655
0.858335 0 0.799512
0.926467 0 0.750118
0.997848 0 0.714214
1 0 0.702937
0 0 0.782849
0 0 0.785962
0.286595 0 0.794736
0.545281 0 0.808026
0.740688 0 0.817334
0.85655 0 0.801648
0.922057 0 0.752529
0.99379 0 0.715572
1 0 0.701473
0 0.0692454 0.774014
0 0.0591897 0.77879
0.273503 0.0304265 0.786954
0.531945 0.00183108 0.801724
0.729717 0.0402533 0.813718
0.848325 0.079408 0.801343
0.913725 0.122698 0.752178
0.986084 0.19295 0.718624
1 0.221439 0.700008
0 0.305943 0.762188
0 0.31078 0.765743
0.146426 0.318624 0.771923
0.470161 0.335637 0.788724
0.694331 0.377447 0.807843
0.824506 0.403922 0.798962
0.891783 0.405921 0.751476
0.973037 0.403616 0.720455
1 0.393683 0.694606
0 0.525246 0.759564
0 0.530388 0.763485
0 0.534859 0.764706
0.373037 0.544121 0.770596
0.617639 0.572915 0.790204
0.7897 0.607111 0.798321
0.863233 0.594919 0.757351
0.955642 0.565682 0.719203
1 0.546563 0.685298
0 0.719539 0.766598
0 0.724086 0.769604
0 0.725917 0.772976
0.364706 0.733074 0.777859
0.581918 0.745556 0.78674
0.752255 0.764813 0.800443
0.850004 0.737255 0.764736
0.946563 0.705577 0.71667
1 0.685725 0.668132
0 0.856489 0.781369
0 0.858824 0.783337
0 0.858824 0.783337
0.339513 0.857069 0.78088
0.534188 0.851774 0.773037
0.664149 0.838239 0.745098
0.848585 0.861555 0.776959
0.949996 0.844419 0.755077
1 0.813733 0.674998
0 0.94461 0.769116
0 0.946563 0.768811
0 0.942901 0.761364
0.102327 0.937392 0.747127
0.404715 0.928588 0.718135
0.561212 0.918318 0.68333
0.736187 0.918151 0.669612
0.934646 0.938231 0.756924
1 0.930877 0.769909
0 1 0.761761
0 1 0.760479
0 1 0.750973
0 1 0.733333
0.352941 1 0.708827
0.532784 1 0.679408
0.692164 1 0.644602
0.875975 1 0.67126
1 1 0.740688
0 0 0.905882
0.111513 0 0.908827
0.372793 0 0.912749
0.587747 0 0.918502
0.771572 0 0.925978
0.905516 0 0.928435
0.987259 0 0.915938
1 0 0.882841
1 0 0.855879
0 0 0.90454
0.149752 0 0.905776
0.381369 0 0.908919
0.589212 0 0.916671
0.767651 0 0.924514
0.90312 0 0.928252
0.983795 0 0.915434
1 0 0.882246
1 0 0.855268
0 0 0.900252
0.147646 0 0.901228
0.37084 0 0.90515
0.576959 0 0.912749
0.756374 0 0.922057
0.891661 0.00578317 0.924514
0.972122 0.0926528 0.912505
1 0.14728 0.880735
1 0.246815 0.853925
0 0.246571 0.88983
0 0.248035 0.891295
0.284688 0.246571 0.896605
0.519036 0.256474 0.904219
0.716915 0.299016 0.914946
0.863233 0.372061 0.920592
0.94902 0.400519 0.908919
0.997421 0.40415 0.876799
1 0.426352 0.853437
0 0.468635 0.878431
0 0.471077 0.881376
0 0.47451 0.881865
0.383886 0.483574 0.887556
0.631617 0.511269 0.899992
0.816907 0.568566 0.911955
0.91519 0.593256 0.90367
0.969055 0.586282 0.872053
1 0.583337 0.849027
0 0.669245 0.874998
0 0.671687 0.877455
0 0.673533 0.877455
0.300984 0.676539 0.877455
0.5402 0.685298 0.881376
0.743145 0.718135 0.89424
0.877607 0.749996 0.898985
0.934966 0.734478 0.870665
1 0.710292 0.845228
0 0.832349 0.875242
0 0.835294 0.878187
0 0.835294 0.878187
0.339681 0.838697 0.880644
0.553063 0.843015 0.884565
0.718135 0.851804 0.88922
0.848585 0.867277 0.899687
0.922637 0.839796 0.871077
1 0.819608 0.837263
0 0.94313 0.886152
0 0.945708 0.888731
0.121843 0.943008 0.888365
0.379049 0.942641 0.888365
0.545892 0.93872 0.885298
0.677226 0.933471 0.877287
0.770748 0.91986 0.851835
0.926513 0.938231 0.882612
1 0.927321 0.874022
0 1 0.892149
0 1 0.893141
0.0230411 1 0.88922
0.319982 1 0.885298
0.486275 1 0.875975
0.616663 1 0.857359
0.722545 1 0.831373
0.853803 1 0.824018
1 1 0.870588
0.356863 0 0.993133
0.406378 0 0.993133
0.503548 0 0.993133
0.660792 0 0.996567
0.814466 0 1
0.938231 0 1
1 0 0.996567
1 0 0.988785
1 0 0.970092
0.320592 0 0.993133
0.386221 0 0.993133
0.511986 0 0.993133
0.66421 0 0.996567
0.812009 0 0.999573
0.933852 0 0.999573
1 0 0.996567
1 0 0.988357
1 0 0.970092
0.32549 0 0.989212
0.387259 0 0.989334
0.507286 0 0.993133
0.652949 0 0.993133
0.798962 0 0.996567
0.922011 0 0.996567
1 0.0393378 0.993133
1 0.161898 0.984863
1 0.236027 0.96875
0.22237 0.134737 0.98529
0.307576 0.129534 0.98529
0.445151 0.114443 0.985473
0.605097 0.112383 0.989212
0.761273 0.168566 0.9906
0.89276 0.274891 0.993133
0.987137 0.372137 0.989212
1 0.408026 0.980941
1 0.431678 0.962249
0 0.410788 0.974014
0 0.412497 0.975738
0.249271 0.410605 0.975738
0.483909 0.413565 0.977691
0.680522 0.436027 0.981369
0.839887 0.495399 0.981369
0.950484 0.565927 0.981369
1 0.590204 0.973526
1 0.598047 0.954406
0 0.617334 0.962249
0 0.619608 0.964401
0 0.617151 0.964401
0.292958 0.617151 0.964401
0.545251 0.625086 0.965682
0.758389 0.659312 0.969604
0.903777 0.718746 0.973526
0.979965 0.740688 0.965682
1 0.73695 0.949996
0 0.793622 0.95404
0 0.796567 0.954406
0 0.796201 0.954406
0.228779 0.793622 0.95404
0.490684 0.793622 0.953918
0.671702 0.797635 0.953918
0.840253 0.82565 0.95848
0.949187 0.85716 0.96144
0.999146 0.846204 0.946075
0 0.926955 0.950484
0 0.926955 0.953918
0.019501 0.926955 0.95349
0.356619 0.926696 0.950484
0.540719 0.923033 0.950484
0.694423 0.923033 0.950484
0.824018 0.930068 0.953597
0.932754 0.941421 0.960525
0.995651 0.923476 0.942641
0.136278 1 0.957839
0.227512 1 0.957839
0.342153 1 0.957839
0.46569 1 0.957839
0.589212 1 0.957839
0.70312 1 0.953918
0.796445 1 0.949996
0.872541 1 0.93431
0.996078 1 0.949996
0.572549 0 1
0.599023 0 1
0.65687 0 1
0.747051 0 1
0.866667 0 1
0.973037 0 1
1 0 1
1 0 1
1 0 1
0.54461 0 1
0.572061 0 1
0.638483 0 1
0.749996 0 1
0.866178 0 1
0.972549 0 1
1 0 1
1 0 1
1 0 1
0.531365 0 1
0.565805 0 1
0.639216 0 1
0.744244 0 1
0.858824 0 1
0.961273 0 1
1 0 1
1 0.136278 1
1 0.25098 1
0.486275 0 1
0.524697 0 1
0.60209 0 1
0.709316 0 1
0.828916 0 1
0.935286 0.0759747 1
1 0.287129 1
1 0.392645 1
1 0.437247 1
0.317647 0.335286 1
0.37525 0.333577 1
0.482353 0.327947 1
0.618875 0.328679 1
0.760784 0.352941 1
0.885542 0.419364 1
0.981369 0.508339 1
1 0.577447 1
1 0.603922 1
0 0.570092 1
0 0.570092 1
0.210788 0.567651 1
0.445594 0.570092 1
0.644114 0.579904 1
0.809873 0.61416 1
0.930877 0.671077 1
1 0.726955 1
1 0.74461 1
0 0.760784 1
0 0.760784 1
0 0.759808 1
0.270832 0.756863 1
0.514214 0.756374 1
0.701961 0.766659 1
0.864958 0.794858 1
0.973037 0.839704 1
1 0.854902 1
0 0.907835 1
0 0.907835 1
0 0.904418 1
0.268009 0.903929 1
0.497551 0.900496 1
0.667643 0.899992 1
0.80441 0.899992 1
0.930877 0.915679 1
1 0.934798 1
0 1 1
0.110292 1 1
0.285298 1 1
0.439704 1 1
0.578424 1 1
0.703914 1 1
0.81471 1 1
0.911269 1 1
1 1 1
