YOYO-Client/Yoyo/Assets.xcassets/Blossom.dataset/Blossom.cube
TITLE "Blossom"
LUT_3D_SIZE 33
0 0 0
0 0 0
0.00759899 0 0
0.0153201 0 0
0.0338293 0 0
0.0530709 0 0
0.0762188 0 0
0.106371 0 0
0.1402 0 0
0.182727 0 0
0.23064 0 0
0.278187 0 0
0.330877 0 0
0.384924 0 0
0.438972 0 0
0.490929 0 0
0.541176 0 0
0.587503 0 0
0.633829 0 0
0.676219 0 0
0.717159 0 0
0.755764 0 0
0.790448 0 0
0.825116 0 0
0.862745 0 0
0.894484 0 0
0.928435 0 0
0.959319 0 0
0.9897 0 0
1 0 0
1 0 0
1 0 0
1 0 0
0 0.0037995 0
0 0.0037995 0
0.00759899 0.0037995 0
0.0188754 0.00390631 0
0.0343023 0.00724804 0
0.0568856 0.00772107 0
0.0793164 0.00772107 0
0.109346 0.00383001 0
0.144121 0 0
0.189334 0 0
0.23566 0 0
0.282063 0 0
0.334676 0 0
0.388724 0 0
0.442771 0 0
0.492943 0 0
0.543084 0 0
0.591363 0 0
0.635966 0 0
0.678553 0 0
0.717159 0 0
0.755764 0 0
0.790448 0 0
0.825116 0 0
0.862745 0 0
0.894484 0 0
0.928435 0 0
0.959319 0 0
0.9897 0 0
1 0 0
1 0 0
1 0 0
1 0 0
0 0.0115206 0
0 0.0115206 0
0.00737011 0.0149691 0
0.0188754 0.015198 0
0.0343175 0.015198 0
0.0569924 0.0154421 0
0.0831311 0.012253 0
0.113161 0.0115206 0
0.15172 0.004654 0
0.193133 0 0
0.23946 0 0
0.288441 0 0
0.33872 0 0
0.39263 0 0
0.446571 0 0
0.496803 0 0
0.545098 0 0
0.591424 0 0
0.637644 0 0
0.678553 0 0
0.717159 0 0
0.755764 0 0
0.792966 0 0
0.827939 0 0
0.862745 0 0
0.897551 0 0
0.928435 0 0
0.959319 0 0
0.9897 0 0
1 0 0
1 0 0
1 0 0
1 0 0
0 0.0267185 0
0 0.0267185 0
0.000350958 0.0267185 0
0.0153201 0.0267185 0
0.0377508 0.0267185 0
0.0605325 0.0267185 0
0.0868849 0.0238346 0
0.118059 0.0200198 0
0.15845 0.0123751 0
0.200855 0.00210575 0
0.247181 0 0
0.296071 0 0
0.349889 0 0
0.400244 0 0
0.452079 0 0
0.502327 0 0
0.54902 0 0
0.595346 0 0
0.63975 0 0
0.682261 0 0
0.72108 0 0
0.758099 0 0
0.794247 0 0
0.828946 0 0
0.86363 0 0
0.897551 0 0
0.928435 0 0
0.959319 0 0
0.9897 0 0
1 0 0
1 0 0
1 0 0
1 0 0
0 0.045594 0
0 0.045594 0
0 0.045594 0
0.00444038 0.0460365 0
0.0338293 0.0495155 0
0.0666972 0.0490883 0
0.0980392 0.0458381 0
0.131609 0.0386053 0
0.170459 0.0308843 0
0.215442 0.016907 0
0.264118 0.00215152 0
0.31458 0 0
0.364706 0 0
0.41622 0 0
0.466667 0 0
0.513481 0 0
0.559808 0 0
0.606134 0 0
0.648524 0 0
0.689342 0 0
0.727947 0 0
0.763119 0 0
0.797787 0 0
0.832471 0 0
0.866178 0 0
0.900984 0 0
0.931868 0 0
0.962737 0 0
0.992706 0 0
1 0 0
1 0 0
1 0 0
1 0 0
0 0.0681315 0
0 0.0687572 0
0 0.0687572 0
0 0.0717479 0
0.0120546 0.0760967 0
0.0559548 0.0798962 0
0.104891 0.079408 0
0.144121 0.0722972 0
0.185199 0.0621042 0
0.231205 0.0501259 0
0.277699 0.0319829 0
0.327947 0.0100252 0
0.376944 0 0
0.427085 0 0
0.475364 0 0
0.521691 0 0
0.568017 0 0
0.612787 0 0
0.655024 0 0
0.69424 0 0
0.732235 0 0
0.767315 0 0
0.800977 0 0
0.83534 0 0
0.87013 0 0
0.901473 0 0
0.932357 0 0
0.963241 0 0
0.993133 0 0
1 0 0
1 0 0
1 0 0
1 0 0
0 0.0982834 0
0 0.0990158 0
0 0.0990158 0
0 0.0990158 0
0 0.10573 0
0.0173037 0.113466 0
0.0853285 0.120485 0
0.152804 0.118013 0
0.203616 0.109743 0
0.250004 0.0981308 0
0.293141 0.0835737 0
0.342031 0.0648356 0
0.390158 0.0411994 0
0.439948 0.0128481 0
0.486686 0 0
0.533333 0 0
0.577325 0 0
0.620218 0 0
0.662745 0 0
0.700053 0 0
0.736034 0 0
0.771191 0 0
0.804395 0 0
0.83917 0 0
0.870588 0 0
0.904662 0 0
0.935546 0 0
0.963241 0 0
0.993133 0 0
1 0 0
1 0 0
1 0 0
1 0 0
0 0.132967 0
0 0.136858 0
0 0.136889 0
0 0.136889 0
0 0.140703 0
0 0.148043 0
0.0325628 0.159686 0
0.127703 0.166735 0
0.206531 0.166888 0
0.265309 0.15613 0
0.314611 0.140688 0
0.361883 0.125246 0
0.405142 0.107347 0
0.451469 0.0872511 0
0.49865 0.0627604 0
0.544121 0.0347601 0
0.587381 0.00613413 0
0.627939 0 0
0.666545 0 0
0.70515 0 0
0.742275 0 0
0.775067 0 0
0.80824 0 0
0.842771 0 0
0.87451 0 0
0.905394 0 0
0.936278 0 0
0.966537 0 0
0.993133 0 0
1 0 0
1 0 0
1 0.000671397 0
1 0.0582132 0
0 0.184314 0
0 0.18526 0
0 0.188052 0
0 0.188235 0
0 0.18909 0
0 0.195468 0
0 0.204166 0
0.0676738 0.215808 0
0.182101 0.222797 0
0.269795 0.222126 0
0.333577 0.212253 0
0.38407 0.196811 0
0.430396 0.177447 0
0.472801 0.15848 0
0.516182 0.140444 0
0.558572 0.122759 0
0.599512 0.101961 0
0.639979 0.0792554 0
0.677211 0.0555123 0
0.714611 0.0363928 0
0.749386 0.0143435 0
0.781888 0 0
0.815015 0 0
0.846571 0 0
0.877455 0 0
0.908339 0 0
0.939223 0 0
0.966171 0 0
0.995712 0.0161746 0
1 0.0425574 0
1 0.0685588 0
1 0.105577 0
1 0.144121 0
0 0.228672 0
0 0.236393 0
0 0.236515 0
0 0.236515 0
0 0.236515 0
0 0.239994 0
0 0.247028 0
0.00172427 0.256367 0
0.115618 0.268009 0
0.237751 0.27776 0
0.326665 0.275105 0
0.396338 0.266316 0
0.447791 0.248966 0
0.491783 0.229694 0
0.533837 0.212497 0
0.572915 0.193744 0
0.61207 0.178302 0
0.651225 0.162875 0
0.687495 0.15024 0
0.722911 0.137621 0
0.755962 0.125002 0
0.788602 0.113725 0
0.819486 0.104906 0
0.850675 0.100786 0
0.882078 0.0999924 0
0.912139 0.101106 0
0.9402 0.109895 0
0.970459 0.118853 0
0.996567 0.132845 0
1 0.149493 0
1 0.166247 0
1 0.187747 0
1 0.215808 0
0 0.274998 0
0 0.28011 0
0 0.282841 0
0 0.282841 0
0 0.282841 0
0 0.282841 0
0 0.287251 0
0 0.294972 0
0.0165408 0.30753 0
0.171496 0.320195 0
0.291691 0.328679 0
0.384543 0.327871 0
0.45536 0.320317 0
0.508461 0.304662 0
0.551278 0.285832 0
0.591058 0.268421 0
0.626963 0.250492 0
0.662287 0.23563 0
0.695827 0.222553 0
0.730632 0.21091 0
0.761517 0.203189 0
0.792401 0.195468 0
0.823285 0.190448 0
0.855055 0.187747 0
0.885054 0.187747 0
0.913237 0.189563 0
0.943389 0.193622 0
0.970459 0.201343 0
0.996567 0.209064 0
1 0.218387 0
1 0.231128 0
1 0.246693 0
1 0.269856 0
0 0.318746 0
0 0.32517 0
0 0.326589 0
0 0.329168 0
0 0.326589 0
0 0.326589 0
0 0.329168 0
0 0.336156 0
0 0.34522 0
0.0687266 0.359686 0
0.230137 0.371206 0
0.348226 0.379263 0
0.440955 0.381872 0
0.513298 0.374319 0
0.564828 0.35993 0
0.607721 0.34313 0
0.642405 0.324453 0
0.675242 0.308339 0
0.707469 0.293477 0
0.738354 0.2804 0
0.769238 0.2701 0
0.800122 0.262379 0
0.830198 0.257649 0
0.859312 0.255879 0
0.888853 0.255879 0
0.917159 0.255879 0
0.944121 0.2598 0
0.971084 0.264332 0
0.996567 0.26949 0
1 0.277211 0
1 0.288853 0
1 0.300649 0
1 0.317403 0
0 0.371084 0
0 0.373968 0
0 0.374014 0
0 0.374014 0
0 0.374014 0
0 0.374014 0
0 0.374014 0
0 0.378561 0
0 0.385657 0
0 0.395468 0
0.133669 0.409812 0
0.289509 0.422171 0
0.403555 0.431922 0
0.495811 0.433448 0
0.567315 0.428336 0
0.616785 0.416419 0
0.657115 0.400977 0
0.690684 0.382925 0
0.721569 0.366171 0
0.751858 0.350729 0
0.779416 0.338231 0
0.80734 0.32871 0
0.834806 0.322789 0
0.864576 0.317647 0
0.892653 0.317647 0
0.9196 0.317647 0
0.946563 0.317647 0
0.972915 0.321569 0
0.998718 0.325978 0
1 0.333562 0
1 0.340047 0
1 0.349218 0
1 0.360784 0
0 0.410056 0
0 0.417823 0
0 0.419486 0
0 0.419486 0
0 0.419486 0
0 0.417899 0
0 0.417899 0
0 0.419135 0
0 0.422431 0
0 0.431296 0
0.0229953 0.442878 0
0.208316 0.457603 0
0.34667 0.469123 0
0.457542 0.478752 0
0.546075 0.482643 0
0.615091 0.479286 0
0.662745 0.469612 0
0.701717 0.456489 0
0.734676 0.438437 0
0.763027 0.421698 0
0.790051 0.406851 0
0.81709 0.395285 0
0.842527 0.386023 0
0.868833 0.378759 0
0.895857 0.375494 0
0.922896 0.373159 0
0.949935 0.373465 0
0.97438 0.377081 0
1 0.379171 0
1 0.385077 0
1 0.390692 0
1 0.398413 0
1 0.410056 0
0 0.450248 0
0 0.457969 0
0 0.461906 0
0 0.460456 0
0 0.458091 0
0 0.458091 0
0 0.458091 0
0 0.458091 0
0 0.459373 0
0 0.466545 0
0 0.474266 0
0.0933394 0.488487 0
0.276127 0.500648 0
0.403601 0.513115 0
0.508598 0.523033 0
0.59321 0.528679 0
0.658335 0.527199 0
0.707225 0.518685 0
0.742397 0.506615 0
0.773281 0.491173 0
0.801617 0.475731 0
0.825864 0.460883 0
0.851759 0.449317 0
0.876097 0.44007 0
0.901534 0.432776 0
0.926726 0.430274 0
0.951232 0.427207 0
0.976867 0.427482 0
1 0.429191 0
1 0.432837 0
1 0.436866 0
1 0.442527 0
1 0.452445 0
0 0.488853 0
0 0.496574 0
0 0.498421 0
0 0.498527 0
0 0.496696 0
0 0.496696 0
0 0.496696 0
0 0.496696 0
0 0.496696 0
0 0.500023 0
0 0.508492 0
0 0.517998 0
0.182773 0.530877 0
0.340459 0.543145 0
0.459434 0.555642 0
0.556619 0.566308 0
0.637812 0.571206 0
0.698894 0.57145 0
0.74583 0.565805 0
0.781003 0.55465 0
0.810422 0.539223 0
0.836301 0.526497 0
0.860655 0.512261 0
0.883818 0.501839 0
0.906981 0.492027 0
0.930556 0.484764 0
0.955154 0.480858 0
0.978302 0.479164 0
1 0.479164 0
1 0.479164 0
1 0.479286 0
1 0.485054 0
1 0.492775 0
0 0.529412 0
0 0.533272 0
0 0.533333 0
0 0.533333 0
0 0.533333 0
0 0.533333 0
0 0.533333 0
0 0.531365 0
0 0.532845 0
0 0.534737 0
0 0.539956 0
0 0.547677 0
0.0649577 0.558572 0
0.265385 0.570153 0
0.400854 0.583703 0
0.511391 0.596323 0
0.602945 0.605875 0
0.67837 0.61268 0
0.736645 0.614832 0
0.782483 0.608209 0
0.815686 0.599756 0
0.843931 0.588174 0
0.869001 0.574639 0
0.892958 0.562493 0
0.914702 0.551965 0
0.937865 0.540749 0
0.958694 0.53492 0
0.98027 0.529107 0
1 0.527199 0
1 0.52549 0
1 0.525612 0
1 0.527504 0
1 0.533333 0
0 0.564218 0
0 0.568078 0
0 0.56997 0
0 0.56997 0
0 0.568368 0
0 0.568139 0
0 0.568139 0
0 0.566049 0
0 0.566049 0
0 0.567544 0
0 0.57084 0
0 0.575341 0
0 0.584436 0
0.167514 0.595239 0
0.335714 0.607721 0
0.458579 0.621439 0
0.560601 0.632959 0
0.64535 0.643503 0
0.716976 0.652201 0
0.773419 0.653559 0
0.816495 0.649561 0
0.848524 0.642267 0
0.876097 0.631251 0
0.89926 0.619608 0
0.922423 0.607965 0
0.943297 0.59939 0
0.964477 0.588602 0
0.985824 0.582971 0
1 0.57734 0
1 0.575372 0
1 0.571817 0
1 0.573892 0
1 0.577813 0
0 0.599023 0
0 0.602869 0
0 0.602945 0
0 0.602945 0
0 0.602945 0
0 0.601083 0
0 0.599344 0
0 0.599023 0
0 0.599023 0
0 0.599023 0
0 0.600198 0
0 0.605509 0
0 0.611521 0
0.0590829 0.620264 0
0.264179 0.630884 0
0.4 0.644602 0
0.511513 0.656123 0
0.606012 0.669734 0
0.686046 0.679164 0
0.75111 0.686885 0
0.804318 0.689219 0
0.846815 0.686244 0
0.878187 0.679652 0
0.903685 0.671931 0
0.926223 0.661585 0
0.94902 0.65037 0
0.968627 0.642329 0
0.989731 0.633204 0
1 0.625498 0
1 0.621698 0
1 0.616281 0
1 0.612497 0
1 0.616419 0
0 0.631495 0
0 0.63537 0
0 0.637751 0
0 0.637751 0
0 0.635416 0
0 0.633829 0
0 0.633829 0
0 0.633829 0
0 0.632074 0
0 0.631495 0
0 0.633097 0
0 0.636393 0
0 0.640192 0
0 0.647913 0
0.178042 0.656947 0
0.341161 0.667765 0
0.460227 0.679286 0
0.561517 0.692042 0
0.648402 0.703639 0
0.721691 0.712261 0
0.784039 0.719982 0
0.833875 0.724025 0
0.874388 0.721691 0
0.905272 0.71667 0
0.930022 0.710536 0
0.952834 0.698894 0
0.974014 0.691173 0
0.993378 0.682841 0
1 0.671809 0
1 0.664088 0
1 0.658793 0
1 0.655024 0
1 0.655024 0
0 0.666178 0
0 0.66862 0
0 0.66862 0
0 0.66862 0
0 0.66862 0
0 0.66862 0
0 0.66862 0
0 0.666178 0
0 0.666178 0
0 0.666178 0
0 0.666178 0
0 0.667781 0
0 0.671626 0
0 0.675471 0
0.0752728 0.682597 0
0.280354 0.692409 0
0.4103 0.703182 0
0.51606 0.714748 0
0.609064 0.726314 0
0.689952 0.736889 0
0.757839 0.745159 0
0.817411 0.752331 0
0.863478 0.756374 0
0.901396 0.755276 0
0.9299 0.74963 0
0.953063 0.74522 0
0.975769 0.735042 0
0.994629 0.727321 0
1 0.719615 0
1 0.711894 0
1 0.704173 0
1 0.696574 0
1 0.696574 0
0 0.699504 0
0 0.703349 0
0 0.703426 0
0 0.703426 0
0 0.703426 0
0 0.701259 0
0 0.700862 0
0 0.699504 0
0 0.699504 0
0 0.699504 0
0 0.699504 0
0 0.699504 0
0 0.701961 0
0 0.70576 0
0 0.712139 0
0.210437 0.71986 0
0.361151 0.727581 0
0.473915 0.738506 0
0.570718 0.750103 0
0.656245 0.759625 0
0.729412 0.770214 0
0.794507 0.777935 0
0.84686 0.784436 0
0.892287 0.788357 0
0.928069 0.785779 0
0.95552 0.781857 0
0.978683 0.777462 0
0.996689 0.77084 0
1 0.763119 0
1 0.755398 0
1 0.747677 0
1 0.740032 0
1 0.736156 0
0 0.73431 0
0 0.73431 0
0 0.73431 0
0 0.73431 0
0 0.73431 0
0 0.73431 0
0 0.73431 0
0 0.732204 0
0 0.730388 0
0 0.730388 0
0 0.730388 0
0 0.730388 0
0 0.730388 0
0 0.73431 0
0 0.737697 0
0.112169 0.743587 0
0.307103 0.750729 0
0.426795 0.759716 0
0.528191 0.770092 0
0.618143 0.778912 0
0.696086 0.789456 0
0.766659 0.798108 0
0.824506 0.804898 0
0.874754 0.811521 0
0.916182 0.815442 0
0.949416 0.812741 0
0.977447 0.80882 0
0.996689 0.804288 0
1 0.797787 0
1 0.790066 0
1 0.782361 0
1 0.777325 0
1 0.773526 0
0 0.765194 0
0 0.765194 0
0 0.765194 0
0 0.765194 0
0 0.765194 0
0 0.765194 0
0 0.765194 0
0 0.76434 0
0 0.761975 0
0 0.761273 0
0 0.761273 0
0 0.761273 0
0 0.761273 0
0 0.764752 0
0 0.766781 0
0.0395209 0.770611 0
0.250004 0.774441 0
0.381735 0.781613 0
0.487373 0.789334 0
0.580636 0.799878 0
0.66128 0.807599 0
0.735058 0.816419 0
0.798306 0.82414 0
0.854292 0.830762 0
0.90074 0.835386 0
0.93872 0.838605 0
0.970459 0.838071 0
0.995758 0.834241 0
1 0.830274 0
1 0.823651 0
1 0.81593 0
1 0.808331 0
1 0.80441 0
0 0.797055 0
0 0.797055 0
0 0.797055 0
0 0.796963 0
0 0.797055 0
0 0.797055 0
0 0.793866 0
0 0.793133 0
0 0.793133 0
0 0.793133 0
0 0.793133 0
0 0.793133 0
0 0.793133 0
0 0.793133 0
0 0.793133 0
0 0.797055 0
0.18529 0.800977 0
0.338231 0.806287 0
0.448768 0.812192 0
0.543236 0.818265 0
0.628428 0.827085 0
0.704295 0.836637 0
0.772549 0.843381 0
0.830274 0.850278 0
0.882353 0.855634 0
0.92488 0.858824 0
0.959808 0.861219 0
0.990066 0.858824 0
1 0.855756 0
1 0.851865 0
1 0.846876 0
1 0.840192 0
1 0.836271 0
0 0.830884 0
0 0.830884 0
0 0.830884 0
0 0.830884 0
0 0.830137 0
0 0.83003 0
0 0.826963 0
0 0.826963 0
0 0.826963 0
0 0.826963 0
0 0.826368 0
0 0.826108 0
0 0.826108 0
0 0.826108 0
0 0.826108 0
0 0.826963 0
0.12108 0.830457 0
0.308461 0.833951 0
0.422309 0.839582 0
0.517647 0.845197 0
0.603433 0.851102 0
0.680644 0.857969 0
0.749371 0.86569 0
0.812375 0.8701 0
0.866056 0.876448 0
0.911711 0.880339 0
0.950408 0.884062 0
0.981979 0.884062 0
1 0.88368 0
1 0.880644 0
1 0.876844 0
1 0.870069 0
1 0.866178 0
0 0.857847 0
0 0.857847 0
0 0.857847 0
0 0.857847 0
0 0.857206 0
0 0.857114 0
0 0.85452 0
0 0.853925 0
0 0.853925 0
0 0.853925 0
0 0.853925 0
0 0.853925 0
0 0.853925 0
0 0.853925 0
0 0.853925 0
0 0.853925 0
0.0653239 0.857114 0
0.268238 0.858946 0
0.3897 0.862425 0
0.486763 0.866239 0
0.574014 0.870344 0
0.652583 0.876234 0
0.722545 0.881132 0
0.787015 0.887953 0
0.84387 0.892653 0
0.893141 0.896452 0
0.935546 0.899641 0
0.97084 0.903426 0
0.999359 0.903426 0
1 0.900175 0
1 0.89633 0
1 0.892409 0
1 0.891661 0
0 0.88481 0
0 0.88481 0
0 0.88481 0
0 0.88481 0
0 0.884184 0
0 0.884184 0
0 0.884184 0
0 0.881605 0
0 0.880888 0
