YOYO-Client/Yoyo/Assets.xcassets/Blossom.dataset/Blossom.cube
TITLE "Blossom"
LUT_3D_SIZE 5
0 0 0
0.1402 0 0
0.541176 0 0
0.862745 0 0
1 0 0
0 0.184314 0
0.182101 0.222797 0
0.599512 0.101961 0
0.877455 0 0
1 0.144121 0
0 0.529412 0
0 0.532845 0
0.602945 0.605875 0
0.914702 0.551965 0
1 0.533333 0
0 0.797055 0
0 0.793133 0
0.18529 0.800977 0
0.882353 0.855634 0
1 0.836271 0
0 1 0
0 1 0
0.190188 1 0
0.759808 1 0
1 1 0
0 0 0.20882
0.212741 0 0.20882
0.548531 0 0.157351
0.858824 0 0.12549
1 0 0.00881972
0 0.207599 0.22475
0.219608 0.227512 0.226535
0.596078 0.172671 0.177691
0.873533 0.104601 0.107851
1 0.188235 0
0 0.569116 0.18677
0 0.560662 0.156985
0.617639 0.607843 0.110536
0.903426 0.549996 0
1 0.537255 0
0 0.80882 0.0441138
0 0.808026 0
0.247059 0.802945 0
0.879957 0.855634 0
1 0.834073 0
0 1 0
0 1 0
0.2 1 0
0.752697 1 0
1 1 0
0 0 0.627451
0.235294 0 0.648524
0.689219 0 0.640192
0.877943 0 0.53872
1 0 0.507851
0 0.137743 0.615198
0.226108 0.136767 0.636271
0.687007 0.132845 0.644358
0.875486 0.175006 0.554406
1 0.186282 0.500008
0 0.578439 0.618631
0.000732433 0.591913 0.627451
0.622553 0.621576 0.647059
0.870588 0.569604 0.566674
1 0.536278 0.45687
0 0.849515 0.611276
0 0.845106 0.595102
0.394125 0.822797 0.531365
0.862379 0.858824 0.594858
1 0.823041 0.495094
0 1 0.562753
0 1 0.543145
0.230396 1 0.484321
0.710781 1 0.406867
1 1 0.543145
0 0 0.905882
0.372793 0 0.912749
0.771572 0 0.925978
0.987259 0 0.915938
1 0 0.855879
0 0 0.900252
0.37084 0 0.90515
0.756374 0 0.922057
0.972122 0.0926528 0.912505
1 0.246815 0.853925
0 0.468635 0.878431
0 0.47451 0.881865
0.631617 0.511269 0.899992
0.91519 0.593256 0.90367
1 0.583337 0.849027
0 0.832349 0.875242
0 0.835294 0.878187
0.553063 0.843015 0.884565
0.848585 0.867277 0.899687
1 0.819608 0.837263
0 1 0.892149
0.0230411 1 0.88922
0.486275 1 0.875975
0.722545 1 0.831373
1 1 0.870588
0.572549 0 1
0.65687 0 1
0.866667 0 1
1 0 1
1 0 1
0.531365 0 1
0.639216 0 1
0.858824 0 1
1 0 1
1 0.25098 1
0.317647 0.335286 1
0.482353 0.327947 1
0.760784 0.352941 1
0.981369 0.508339 1
1 0.603922 1
0 0.760784 1
0 0.759808 1
0.514214 0.756374 1
0.864958 0.794858 1
1 0.854902 1
0 1 1
0.285298 1 1
0.578424 1 1
0.81471 1 1
1 1 1
