YOYO-Client/Yoyo/Assets.xcassets/Potala.dataset/Potala.cube
TITLE "Potala"
LUT_3D_SIZE 33
0 0 0
0 0 0
0 0 0
0.0110323 0 0
0.0299077 0 0
0.0563668 0 0
0.0872511 0 0
0.128191 0 0
0.177447 0 0
0.235416 0 0
0.296071 0 0
0.357839 0 0
0.419608 0 0
0.481376 0 0
0.543145 0 0
0.598901 0 0
0.647059 0 0
0.693385 0 0
0.734066 0 0
0.772671 0 0
0.807355 0 0
0.840681 0 0
0.871565 0 0
0.90135 0 0
0.928435 0 0
0.95552 0 0
0.982605 0 0
1 0 0
1 0 0
1 0 0
1 0 0
1 0 0
1 0 0
0 0 0
0 0 0
0.00367742 0 0
0.0113832 0 0
0.0303807 0 0
0.0601968 0 0
0.0911574 0 0
0.132006 0 0
0.181369 0 0
0.239307 0 0
0.299992 0 0
0.361761 0 0
0.423529 0 0
0.489097 0 0
0.54699 0 0
0.600671 0 0
0.65098 0 0
0.69546 0 0
0.737865 0 0
0.772671 0 0
0.809812 0 0
0.840681 0 0
0.871565 0 0
0.90135 0 0
0.929412 0 0
0.95552 0 0
0.982605 0 0
1 0 0
1 0 0
1 0 0
1 0 0
1 0 0
1 0 0
0 0.00367742 0
0 0.00367742 0
0.00367742 0.00367742 0
0.0149538 0.00367742 0
0.0370336 0.00367742 0
0.0640116 0 0
0.0948501 0 0
0.136034 0 0
0.188968 0 0
0.245899 0 0
0.307591 0 0
0.36936 0 0
0.431128 0 0
0.492897 0 0
0.552453 0 0
0.6065 0 0
0.654658 0 0
0.69926 0 0
0.737987 0 0
0.776486 0 0
0.809812 0 0
0.840681 0 0
0.871565 0 0
0.902388 0 0
0.929412 0 0
0.956313 0 0
0.982605 0 0
1 0 0
1 0 0
1 0 0
1 0 0
1 0 0
1 0 0
0 0.0113985 0
0 0.0149538 0
0 0.0149538 0
0.0146181 0.0181735 0
0.0408484 0.0149538 0
0.0678264 0.0146334 0
0.101839 0.00784314 0
0.143511 0.00077821 0
0.196689 0 0
0.257115 0 0
0.315312 0 0
0.379416 0 0
0.442634 0 0
0.502205 0 0
0.560174 0 0
0.612131 0 0
0.658457 0 0
0.70106 0 0
0.741756 0 0
0.778698 0 0
0.811139 0 0
0.844602 0 0
0.874006 0 0
0.902449 0 0
0.929412 0 0
0.956374 0 0
0.982605 0 0
1 0 0
1 0 0
1 0 0
1 0 0
1 0 0
1 0 0
0 0.0338293 0
0 0.0338293 0
0 0.0372625 0
0.00399786 0.0408484 0
0.0372625 0.0441749 0
0.0749523 0.0413062 0
0.115785 0.0340734 0
0.164691 0.019852 0
0.217777 0.00257877 0
0.275624 0 0
0.337255 0 0
0.399023 0 0
0.462257 0 0
0.520516 0 0
0.574762 0 0
0.623056 0 0
0.669367 0 0
0.71017 0 0
0.748775 0 0
0.785779 0 0
0.817151 0 0
0.848035 0 0
0.877852 0 0
0.905882 0 0
0.932845 0 0
0.958953 0 0
0.982605 0 0
1 0 0
1 0 0
1 0 0
1 0 0
1 0 0
1 0 0
0 0.06421 0
0 0.06421 0
0 0.0675212 0
0 0.0681315 0
0.00968948 0.0754864 0
0.0637064 0.0820783 0
0.123644 0.079408 0
0.177691 0.0680095 0
0.23505 0.048188 0
0.295216 0.0171359 0
0.356985 0 0
0.418967 0 0
0.477211 0 0
0.532723 0 0
0.584909 0 0
0.631495 0 0
0.677821 0 0
0.718379 0 0
0.755535 0 0
0.790066 0 0
0.821576 0 0
0.852247 0 0
0.879408 0 0
0.908751 0 0
0.933333 0 0
0.959442 0 0
0.982605 0 0
1 0 0
1 0 0
1 0 0
1 0 0
1 0 0
1 0 0
0 0.102205 0
0 0.105394 0
0 0.106081 0
0 0.10901 0
0 0.113481 0
0.0124361 0.124392 0
0.103593 0.134691 0
0.186389 0.131502 0
0.252628 0.116915 0
0.31519 0.0973831 0
0.376455 0.0656596 0
0.434806 0.0267796 0
0.492653 0 0
0.546273 0 0
0.59649 0 0
0.643137 0 0
0.685542 0 0
0.724605 0 0
0.760784 0 0
0.793866 0 0
0.825498 0 0
0.855634 0 0
0.883101 0 0
0.910094 0 0
0.936278 0 0
0.959442 0 0
0.985779 0 0
1 0 0
1 0 0
1 0 0
1 0 0
1 0 0
1 0 0
0 0.150851 0
0 0.154772 0
0 0.154772 0
0 0.158618 0
0 0.162127 0
0 0.173297 0
0.0318456 0.185534 0
0.156497 0.196384 0
0.25304 0.192615 0
0.326711 0.177325 0
0.392401 0.157137 0
0.451591 0.132357 0
0.506493 0.102068 0
0.559686 0.0654765 0
0.608454 0.0260471 0
0.652689 0 0
0.695216 0 0
0.731991 0 0
0.766796 0 0
0.798535 0 0
0.829404 0 0
0.858381 0 0
0.88603 0 0
0.913115 0 0
0.937041 0 0
0.963363 0 0
0.986526 0 0
1 0 0
1 0 0
1 0 0
1 0 0
1 0 0
1 0 0
0 0.216663 0
0 0.217639 0
0 0.21857 0
0 0.221286 0
0 0.222431 0
0 0.229786 0
0 0.242222 0
0.0816815 0.256123 0
0.223285 0.263966 0
0.328222 0.260197 0
0.403616 0.245594 0
0.46862 0.225589 0
0.524025 0.203433 0
0.575738 0.18027 0
0.622065 0.158511 0
0.664927 0.132906 0
0.705882 0.105394 0
0.740566 0.0801099 0
0.773953 0.0637827 0
0.805386 0.0493629 0
0.835904 0.0330816 0
0.863233 0.0215 0
0.889281 0.0117647 0
0.91606 0.00881971 0
0.939223 0.0124971 0
0.963149 0.0189364 0
0.985534 0.033463 0
1 0.0479744 0
1 0.062501 0
1 0.0770275 0
1 0.0886091 0
1 0.104326 0
1 0.129412 0
0 0.27071 0
0 0.278431 0
0 0.278553 0
0 0.281376 0
0 0.282475 0
0 0.285786 0
0 0.294408 0
0 0.305394 0
0.143755 0.317891 0
0.288426 0.324819 0
0.392874 0.32105 0
0.468757 0.309316 0
0.529412 0.290318 0
0.582147 0.271077 0
0.628916 0.253422 0
0.672053 0.235996 0
0.710658 0.219547 0
0.747433 0.205509 0
0.779416 0.191302 0
0.8103 0.179049 0
0.840757 0.171328 0
0.866789 0.164569 0
0.893111 0.15993 0
0.917037 0.15993 0
0.9402 0.163027 0
0.963363 0.165805 0
0.986526 0.173526 0
1 0.181415 0
1 0.190066 0
1 0.198901 0
1 0.207965 0
1 0.223316 0
1 0.239948 0
0 0.324758 0
0 0.332479 0
0 0.332601 0
0 0.333715 0
0 0.333822 0
0 0.336095 0
0 0.340932 0
0 0.349615 0
0.0220645 0.363241 0
0.215717 0.375097 0
0.349294 0.382361 0
0.451087 0.379782 0
0.526711 0.368383 0
0.584924 0.35172 0
0.632837 0.336278 0
0.676509 0.320836 0
0.715068 0.306737 0
0.750362 0.294484 0
0.783337 0.282841 0
0.814221 0.272801 0
0.842863 0.263478 0
0.869902 0.259678 0
0.893874 0.25626 0
0.917037 0.253193 0
0.9402 0.254414 0
0.963363 0.257374 0
0.985779 0.262257 0
1 0.266361 0
1 0.271656 0
1 0.27805 0
1 0.283406 0
1 0.295018 0
1 0.307851 0
0 0.372305 0
0 0.380026 0
0 0.383978 0
0 0.38407 0
0 0.38407 0
0 0.38407 0
0 0.387259 0
0 0.39498 0
0 0.403708 0
0.105364 0.415686 0
0.283803 0.427329 0
0.411856 0.433707 0
0.506859 0.432853 0
0.577386 0.425299 0
0.630274 0.41091 0
0.675883 0.398032 0
0.715679 0.383948 0
0.752453 0.37171 0
0.784466 0.361273 0
0.814221 0.350973 0
0.843626 0.343267 0
0.87071 0.338109 0
0.893874 0.33254 0
0.9196 0.329046 0
0.9402 0.329046 0
0.963363 0.329335 0
0.983688 0.330877 0
1 0.33431 0
1 0.338231 0
1 0.34229 0
1 0.346319 0
1 0.355398 0
1 0.367041 0
0 0.429908 0
0 0.431373 0
0 0.432837 0
0 0.432837 0
0 0.432837 0
0 0.432837 0
0 0.434043 0
0 0.437385 0
0 0.445106 0
0.00105287 0.456046 0
0.199084 0.465934 0
0.351751 0.477577 0
0.469673 0.483818 0
0.557702 0.484428 0
0.623682 0.476219 0
0.672007 0.465736 0
0.715679 0.453437 0
0.751675 0.441917 0
0.785779 0.432105 0
0.816663 0.421927 0
0.844541 0.412741 0
0.87071 0.40798 0
0.89633 0.401221 0
0.919478 0.397421 0
0.9402 0.393988 0
0.963043 0.392157 0
0.982605 0.392157 0
1 0.394842 0
1 0.396384 0
1 0.4 0
1 0.402548 0
1 0.4065 0
1 0.414221 0
0 0.468879 0
0 0.4766 0
0 0.478309 0
0 0.478309 0
0 0.478309 0
0 0.478309 0
0 0.478309 0
0 0.478309 0
0 0.483421 0
0 0.490562 0
0.0801251 0.500984 0
0.280446 0.509926 0
0.415671 0.519097 0
0.521233 0.524422 0
0.602701 0.527703 0
0.663981 0.524025 0
0.710597 0.514336 0
0.749279 0.503914 0
0.784024 0.494331 0
0.815808 0.484642 0
0.844221 0.475975 0
0.87071 0.468803 0
0.893874 0.462135 0
0.917037 0.457191 0
0.9402 0.453346 0
0.962493 0.451591 0
0.982162 0.451591 0
1 0.451591 0
1 0.451591 0
1 0.453193 0
1 0.455619 0
1 0.461036 0
1 0.464958 0
0 0.509071 0
0 0.514656 0
0 0.516915 0
0 0.516915 0
0 0.516915 0
0 0.515053 0
0 0.514702 0
0 0.514702 0
0 0.518196 0
0 0.522072 0
0 0.529168 0
0.191623 0.540047 0
0.352605 0.548531 0
0.472053 0.557961 0
0.56817 0.563973 0
0.644312 0.567895 0
0.700374 0.564218 0
0.744244 0.558694 0
0.781125 0.548775 0
0.814221 0.539345 0
0.842252 0.531624 0
0.869261 0.523903 0
0.893874 0.516716 0
0.917037 0.512383 0
0.939651 0.508583 0
0.959442 0.50515 0
0.980072 0.501717 0
0.998138 0.501366 0
1 0.499504 0
1 0.499504 0
1 0.501366 0
1 0.503548 0
1 0.509071 0
0 0.543755 0
0 0.549447 0
0 0.551598 0
0 0.551598 0
0 0.549767 0
0 0.549508 0
0 0.549508 0
0 0.549508 0
0 0.549508 0
0 0.553429 0
0 0.560052 0
0.085008 0.567773 0
0.285863 0.576638 0
0.417166 0.585046 0
0.523781 0.593942 0
0.610422 0.599512 0
0.680018 0.60441 0
0.73431 0.602579 0
0.775128 0.597848 0
0.808209 0.590555 0
0.839094 0.581735 0
0.866789 0.574014 0
0.891783 0.568139 0
0.914946 0.561517 0
0.936278 0.557137 0
0.958984 0.553674 0
0.978286 0.549752 0
0.996689 0.549142 0
1 0.54583 0
1 0.545632 0
1 0.543755 0
1 0.545892 0
1 0.551598 0
0 0.578424 0
0 0.580392 0
0 0.582361 0
0 0.582361 0
0 0.582361 0
0 0.582361 0
0 0.580392 0
0 0.580392 0
0 0.580392 0
0 0.583764 0
0 0.587625 0
0 0.592767 0
0.212253 0.600488 0
0.359991 0.608209 0
0.474876 0.618997 0
0.56997 0.627573 0
0.650004 0.633326 0
0.713787 0.639216 0
0.766293 0.63946 0
0.805203 0.633707 0
0.835782 0.625986 0
0.862867 0.620218 0
0.889952 0.614466 0
0.913115 0.606744 0
0.936278 0.602945 0
0.95552 0.599145 0
0.974762 0.595346 0
0.993378 0.592157 0
1 0.589944 0
1 0.588052 0
1 0.586282 0
1 0.586282 0
1 0.590204 0
0 0.607355 0
0 0.611276 0
0 0.613352 0
0 0.613352 0
0 0.611536 0
0 0.611276 0
0 0.611276 0
0 0.611276 0
0 0.611276 0
0 0.611276 0
0 0.612711 0
0 0.617273 0
0.116838 0.623652 0
0.3028 0.631373 0
0.425864 0.639094 0
0.527703 0.64889 0
0.614343 0.657542 0
0.687617 0.666178 0
0.747677 0.669062 0
0.794125 0.6701 0
0.831495 0.666545 0
0.859663 0.66154 0
0.88603 0.655024 0
0.911269 0.649729 0
0.932357 0.64448 0
0.955108 0.640101 0
0.974411 0.636637 0
0.993378 0.632715 0
1 0.632486 0
1 0.628794 0
1 0.628687 0
1 0.626963 0
1 0.628794 0
0 0.636515 0
0 0.640375 0
0 0.642161 0
0 0.642161 0
0 0.640436 0
0 0.640436 0
0 0.638239 0
0 0.638239 0
0 0.638239 0
0 0.638239 0
0 0.638239 0
0 0.641566 0
0.0433509 0.646815 0
0.245624 0.651514 0
0.377661 0.659571 0
0.482277 0.668254 0
0.57377 0.677699 0
0.652811 0.68542 0
0.720592 0.693141 0
0.773739 0.69926 0
0.819608 0.69926 0
0.854658 0.6963 0
0.882109 0.692454 0
0.907469 0.686534 0
0.930083 0.682109 0
0.951598 0.678309 0
0.972625 0.674922 0
0.990066 0.671061 0
1 0.667399 0
1 0.665476 0
1 0.663371 0
1 0.661768 0
1 0.661768 0
0 0.665202 0
0 0.667521 0
0 0.669123 0
0 0.669123 0
0 0.66772 0
0 0.667521 0
0 0.665629 0
0 0.665202 0
0 0.665202 0
0 0.665202 0
0 0.665202 0
0 0.666728 0
0 0.669978 0
0.189487 0.673777 0
0.334234 0.681498 0
0.442649 0.689219 0
0.535164 0.696941 0
0.618265 0.704662 0
0.689708 0.712383 0
0.75053 0.720104 0
0.801709 0.723903 0
0.842771 0.726345 0
0.877089 0.724025 0
0.90367 0.720104 0
0.926833 0.716182 0
0.949493 0.712261 0
0.970092 0.708339 0
0.988113 0.704417 0
1 0.700496 0
1 0.698009 0
1 0.696422 0
1 0.692653 0
1 0.692653 0
0 0.692164 0
0 0.694606 0
0 0.694606 0
0 0.694606 0
0 0.694606 0
0 0.694606 0
0 0.694606 0
0 0.692699 0
0 0.692164 0
0 0.692164 0
0 0.692164 0
0 0.692164 0
0 0.694606 0
0.125124 0.697536 0
0.293629 0.703273 0
0.405509 0.708461 0
0.499504 0.716182 0
0.583749 0.723903 0
0.658091 0.731624 0
0.724987 0.739345 0
0.779904 0.746136 0
0.827832 0.750011 0
0.866636 0.752667 0
0.898528 0.750973 0
0.924514 0.748165 0
0.9449 0.744289 0
0.966445 0.740414 0
0.985763 0.736767 0
1 0.732845 0
1 0.730251 0
1 0.728771 0
1 0.725002 0
1 0.726467 0
0 0.719112 0
0 0.721691 0
0 0.721691 0
0 0.721691 0
0 0.721691 0
0 0.721691 0
0 0.721691 0
0 0.719676 0
0 0.719112 0
0 0.717769 0
0 0.717769 0
0 0.717769 0
0 0.717769 0
0.0805524 0.721691 0
0.258976 0.725017 0
0.37464 0.730266 0
0.468437 0.735424 0
0.553445 0.742504 0
0.629664 0.749508 0
0.6981 0.757229 0
0.758343 0.76495 0
0.811002 0.771786 0
0.854414 0.775662 0
0.889342 0.776593 0
0.919234 0.776593 0
0.943755 0.774014 0
0.965087 0.772183 0
0.985534 0.768353 0
1 0.766003 0
1 0.762127 0
1 0.760739 0
1 0.758297 0
1 0.756985 0
0 0.744854 0
0 0.748684 0
0 0.748775 0
0 0.748775 0
0 0.746075 0
0 0.744854 0
0 0.744854 0
0 0.744854 0
0 0.744854 0
0 0.744854 0
0 0.742153 0
0 0.742153 0
0 0.741695 0
0.0454108 0.744854 0
0.226963 0.746365 0
0.343755 0.75021 0
0.438849 0.75465 0
0.523278 0.761151 0
0.599313 0.767697 0
0.668986 0.772671 0
0.73312 0.780392 0
0.786145 0.788113 0
0.83505 0.791913 0
0.876478 0.798535 0
0.908583 0.799756 0
0.938598 0.799756 0
0.961761 0.799252 0
0.98204 0.795407 0
1 0.791913 0
1 0.789105 0
1 0.785214 0
1 0.78407 0
1 0.78407 0
0 0.768017 0
0 0.771939 0
0 0.771939 0
0 0.771939 0
0 0.771939 0
0 0.768627 0
0 0.768017 0
0 0.768017 0
0 0.768017 0
0 0.768017 0
0 0.768017 0
0 0.768017 0
0 0.768017 0
0.0100404 0.768017 0
0.198901 0.768017 0
0.317891 0.77142 0
0.411826 0.773342 0
0.49482 0.778683 0
0.57229 0.784314 0
0.641947 0.790448 0
0.706493 0.795834 0
0.762997 0.803555 0
0.815808 0.807355 0
0.858213 0.815076 0
0.896819 0.818173 0
0.930022 0.82182 0
0.957961 0.822705 0
0.978134 0.818998 0
0.996567 0.818509 0
1 0.81471 0
1 0.811154 0
1 0.807233 0
1 0.807233 0
0 0.792157 0
0 0.795102 0
0 0.795102 0
0 0.795102 0
0 0.795102 0
0 0.792615 0
0 0.792157 0
0 0.792157 0
0 0.792157 0
0 0.792157 0
0 0.792157 0
0 0.792157 0
0 0.789334 0
0 0.788235 0
0.176898 0.790448 0
0.299107 0.792157 0
0.39118 0.794125 0
0.473289 0.797452 0
0.548775 0.801282 0
0.617868 0.805508 0
0.681376 0.812253 0
0.741787 0.818967 0
0.794614 0.823774 0
0.840925 0.830396 0
0.882353 0.835294 0
0.917159 0.838453 0
0.948043 0.842161 0
0.97438 0.842161 0
0.993988 0.839216 0
1 0.838849 0
1 0.835294 0
1 0.835203 0
1 0.832349 0
0 0.822187 0
0 0.822187 0
0 0.822187 0
0 0.822187 0
0 0.821424 0
0 0.818265 0
0 0.818265 0
0 0.818265 0
0 0.818265 0
0 0.818265 0
0 0.81767 0
0 0.815396 0
0 0.814343 0
0 0.814343 0
0.178302 0.814343 0
0.294331 0.815961 0
0.383032 0.817838 0
0.463325 0.819699 0
0.535302 0.823529 0
0.60267 0.827344 0
0.666865 0.831174 0
0.724804 0.838056 0
0.779141 0.842161 0
0.827573 0.848768 0
0.869856 0.853681 0
0.90779 0.857481 0
0.941833 0.86128 0
0.969604 0.864454 0
0.992386 0.864454 0
1 0.864179 0
1 0.861341 0
1 0.860441 0
1 0.857481 0
0 0.841428 0
0 0.845319 0
0 0.844648 0
0 0.841718 0
0 0.841428 0
0 0.841428 0
0 0.841428 0
0 0.841428 0
0 0.840864 0
0 0.837507 0
0 0.837507 0
0 0.837507 0
0 0.837507 0
0 0.837507 0
0.173037 0.837507 0
0.285512 0.837507 0
0.371817 0.837507 0
0.447181 0.840681 0
0.518456 0.841428 0
0.583825 0.844907 0
0.645594 0.848524 0
0.706004 0.852705 0
0.760052 0.857603 0
0.809064 0.861402 0
0.854414 0.868132 0
0.893019 0.872923 0
0.930877 0.876722 0
0.961273 0.879896 0
0.985138 0.883818 0
1 0.883528 0
1 0.880644 0
1 0.879896 0
1 0.879896 0
0 0.864576 0
0 0.864576 0
0 0.864576 0
0 0.864576 0
0 0.864576 0
0 0.864576 0
0 0.864576 0
0 0.861524 0
0 0.860655 0
