YOYO-Client/Yoyo/Assets.xcassets/Potala.dataset/Potala.cube
TITLE "Potala"
LUT_3D_SIZE 5
0 0 0
0.177447 0 0
0.647059 0 0
0.928435 0 0
1 0 0
0 0.216663 0
0.223285 0.263966 0
0.705882 0.105394 0
0.939223 0.0124971 0
1 0.129412 0
0 0.578424 0
0 0.580392 0
0.650004 0.633326 0
0.936278 0.602945 0
1 0.590204 0
0 0.792157 0
0 0.792157 0
0.39118 0.794125 0
0.882353 0.835294 0
1 0.832349 0
0 0.992157 0
0 0.988235 0
0.480385 0.980392 0
0.816663 0.980392 0
1 0.992157 0
0 0 0.235294
0.257115 0 0.239216
0.639216 0 0.162737
0.913725 0 0.0874952
1 0 0
0 0.251225 0.252201
0.272801 0.264393 0.256931
0.674754 0.198413 0.196201
0.917403 0.161517 0.101717
1 0.234318 0
0 0.60882 0.188235
0 0.600732 0.168139
0.662745 0.636027 0.142153
0.920958 0.609308 0.159319
1 0.598047 0
0 0.803922 0.0833295
0 0.8 0.0362097
0.425116 0.794125 0
0.878431 0.835294 0.0805829
1 0.832349 0.0117647
0 0.996078 0
0 0.992157 0
0.478431 0.984314 0
0.80882 0.980392 0
1 0.992157 0
0 0 0.625483
0.260288 0 0.650004
0.742153 0 0.641184
0.901961 0 0.551965
1 0 0.490196
0 0.124514 0.608331
0.269612 0.114946 0.630762
0.732601 0.197787 0.642649
0.888609 0.257969 0.558831
1 0.149996 0.474022
0 0.622553 0.609812
0.183337 0.628428 0.617639
0.661768 0.642161 0.635294
0.876478 0.599023 0.571084
1 0.565682 0.466667
0 0.827451 0.567651
0.213596 0.824994 0.562493
0.505394 0.808331 0.526955
0.861891 0.839216 0.579538
1 0.832349 0.579416
0 1 0.521569
0 1 0.505882
0.450004 0.992157 0.454902
0.768627 0.984314 0.401953
1 0.996078 0.513726
0 0 0.850004
0.335302 0 0.857847
0.796567 0 0.874998
0.983337 0 0.862501
1 0.137255 0.81471
0 0 0.838239
0.394797 0 0.846876
0.78407 0 0.869123
0.962936 0.25742 0.858152
1 0.35613 0.810788
0 0.481865 0.81471
0 0.477455 0.818631
0.645838 0.502937 0.841917
0.906859 0.616785 0.849882
1 0.602945 0.801953
0 0.827451 0.816419
0.185962 0.827451 0.819547
0.58529 0.829664 0.827207
0.852262 0.845228 0.848157
1 0.803922 0.789212
0.118624 1 0.818631
0.312993 1 0.818631
0.537255 1 0.807843
0.736522 0.992889 0.764706
1 1 0.807843
0.576471 0 1
0.664714 0 1
0.860777 0 1
1 0 1
1 0.196078 1
0.477455 0 1
0.619364 0 1
0.87451 0 1
1 0 1
1 0.371572 1
0.211765 0.294118 1
0.453437 0.260288 1
0.772549 0.249012 1
0.989212 0.47451 1
1 0.619608 0.99411
0 0.779416 0.992157
0 0.767895 0.993133
0.321569 0.73138 0.998535
0.850004 0.736278 1
1 0.830396 0.992157
0 1 0.988235
0.0235294 1 0.988235
0.488228 1 0.988235
0.756863 1 0.992157
1 1 0.992157
