YOYO-Client/Yoyo/Assets.xcassets/Potala.dataset/Potala.cube
TITLE "Potala"
LUT_3D_SIZE 9
0 0 0
0.0299077 0 0
0.177447 0 0
0.419608 0 0
0.647059 0 0
0.807355 0 0
0.928435 0 0
1 0 0
1 0 0
0 0.0338293 0
0.0372625 0.0441749 0
0.217777 0.00257877 0
0.462257 0 0
0.669367 0 0
0.817151 0 0
0.932845 0 0
1 0 0
1 0 0
0 0.216663 0
0 0.222431 0
0.223285 0.263966 0
0.524025 0.203433 0
0.705882 0.105394 0
0.835904 0.0330816 0
0.939223 0.0124971 0
1 0.062501 0
1 0.129412 0
0 0.429908 0
0 0.432837 0
0 0.445106 0
0.469673 0.483818 0
0.715679 0.453437 0
0.844541 0.412741 0
0.9402 0.393988 0
1 0.396384 0
1 0.414221 0
0 0.578424 0
0 0.582361 0
0 0.580392 0
0.212253 0.600488 0
0.650004 0.633326 0
0.835782 0.625986 0
0.936278 0.602945 0
1 0.589944 0
1 0.590204 0
0 0.692164 0
0 0.694606 0
0 0.692164 0
0 0.694606 0
0.499504 0.716182 0
0.779904 0.746136 0
0.924514 0.748165 0
1 0.732845 0
1 0.726467 0
0 0.792157 0
0 0.795102 0
0 0.792157 0
0 0.789334 0
0.39118 0.794125 0
0.681376 0.812253 0
0.882353 0.835294 0
0.993988 0.839216 0
1 0.832349 0
0 0.888731 0
0 0.888731 0
0 0.884932 0
0 0.884504 0
0.366171 0.880888 0
0.62089 0.884321 0
0.825498 0.899504 0
0.970581 0.91519 0
1 0.919112 0
0 0.992157 0
0 0.992157 0
0 0.988235 0
0.290196 0.985779 0
0.480385 0.980392 0
0.651957 0.976471 0
0.816663 0.980392 0
0.954894 0.984314 0
1 0.992157 0
0 0 0.0411688
0.0480964 0 0.0411688
0.177447 0 0.0273289
0.423041 0 0.0147097
0.639216 0 0
0.79559 0 0
0.917647 0 0
1 0 0
1 0 0
0 0.0416114 0.0446021
0.0446174 0.0446632 0.0446632
0.222126 0.0130007 0.0369268
0.458335 0 0.01944
0.658061 0 0
0.805386 0 0
0.921767 0 0
1 0 0
1 0 0
0 0.239704 0.00943008
0 0.240787 0.00300603
0.247395 0.264179 0
0.516365 0.214664 0
0.691966 0.151598 0
0.824186 0.097322 0
0.929442 0.0852674 0
1 0.127047 0
1 0.193988 0
0 0.442954 0
0 0.444465 0
0 0.446967 0
0.481605 0.482902 0
0.710384 0.45539 0
0.836896 0.421073 0
0.934264 0.404883 0
1 0.40795 0
1 0.427939 0
0 0.587991 0
0 0.589975 0
0 0.587869 0
0.25594 0.600488 0
0.655756 0.633326 0
0.833326 0.625986 0
0.93193 0.603922 0
1 0.593622 0
1 0.592157 0
0 0.699687 0
0 0.702144 0
0 0.698299 0
0.00535592 0.696071 0
0.510781 0.716182 0
0.782361 0.746136 0
0.920729 0.748165 0
1 0.734127 0
1 0.726467 0
0 0.797055 0
0 0.799023 0
0 0.796078 0
0 0.792157 0
0.404593 0.794125 0
0.685298 0.812253 0
0.882353 0.835294 0
0.993988 0.839216 0
1 0.832349 0
0 0.892653 0
0 0.892653 0
0 0.888731 0
0.00291447 0.88481 0
0.37763 0.880888 0
0.623041 0.884321 0
0.825498 0.899504 0
0.970214 0.91519 0
1 0.919112 0
0 0.992157 0
0 0.992157 0
0 0.992157 0
0.295583 0.988235 0
0.482353 0.982361 0
0.651957 0.978622 0
0.816663 0.980392 0
0.954406 0.984314 0
1 0.992157 0
0 0 0.235294
0 0 0.251835
0.257115 0 0.239216
0.438727 0 0.186404
0.639216 0 0.162737
0.794125 0 0.128557
0.913725 0 0.0874952
1 0 0.0102998
1 0 0
0 0.0230411 0.231373
0 0.0225986 0.246189
0.279164 0 0.249912
0.45623 0 0.207233
0.654475 0 0.173831
0.801465 0 0.135958
0.916182 0 0.0906844
1 0 0.00514229
1 0 0
0 0.251225 0.252201
0 0.257847 0.253925
0.272801 0.264393 0.256931
0.499474 0.237095 0.228397
0.674754 0.198413 0.196201
0.807996 0.168414 0.155032
0.917403 0.161517 0.101717
1 0.181765 0.0019379
1 0.234318 0
0 0.473533 0.223896
0 0.47393 0.227939
0.114336 0.464698 0.213077
0.50016 0.483818 0.201755
0.698772 0.459861 0.203067
0.820706 0.434241 0.190768
0.919478 0.423743 0.141909
1 0.423529 0.0379644
1 0.437751 0
0 0.60882 0.188235
0 0.60882 0.187808
0 0.600732 0.168139
0.321202 0.600916 0.12488
0.662745 0.636027 0.142153
0.827024 0.627451 0.140078
0.920958 0.609308 0.159319
0.998718 0.597787 0.118563
1 0.598047 0
0 0.711147 0.152941
0 0.71162 0.150134
0 0.707469 0.122911
0.192142 0.700694 0.0610361
0.524392 0.716182 0.00459297
0.782361 0.747051 0.100572
0.916671 0.748531 0.105638
0.99443 0.736461 0.103243
1 0.730388 0.0646982
0 0.803922 0.0833295
0 0.803677 0.0755169
0 0.8 0.0362097
0.0614328 0.796078 0
0.425116 0.794125 0
0.685023 0.812253 0
0.878431 0.835294 0.0805829
0.989334 0.839216 0.084596
1 0.832349 0.0117647
0 0.892653 0
0 0.896086 0
0 0.892149 0
0.0291142 0.888243 0
0.390936 0.882597 0
0.620935 0.884321 0
0.822217 0.899504 0
0.966293 0.91519 0.0422827
1 0.919112 0.00808728
0 0.996078 0
0 0.996078 0
0 0.992157 0
0.287739 0.988235 0
0.478431 0.984314 0
0.646571 0.980392 0
0.80882 0.980392 0
0.947921 0.984802 0
1 0.992157 0
0 0 0.457847
0 0 0.469429
0.279896 0 0.491051
0.540261 0 0.472053
0.663722 0 0.403189
0.782361 0 0.367163
0.905272 0 0.332357
1 0 0.287922
1 0 0.233829
0 0.00128176 0.451164
0 0 0.464973
0.298451 0 0.491249
0.549706 0 0.476661
0.667155 0 0.412009
0.785962 0 0.375982
0.907088 0 0.33872
1 0 0.288243
1 0 0.228428
0 0.178561 0.454902
0 0.186221 0.458824
0.260319 0.196597 0.476478
0.547494 0.227222 0.479698
0.661097 0.23389 0.427451
0.794614 0.199145 0.387457
0.909102 0.162097 0.342672
1 0.158572 0.289204
1 0.200366 0.220218
0 0.469673 0.460288
0 0.474876 0.464775
0.196765 0.480079 0.467628
0.506325 0.485222 0.473793
0.667887 0.461799 0.444633
0.793194 0.442557 0.409369
0.898909 0.428 0.368338
0.991852 0.420417 0.314641
1 0.425986 0.24062
0 0.632593 0.434806
0 0.634562 0.43946
0.22562 0.629908 0.442649
0.424964 0.618143 0.43061
0.662745 0.637873 0.438605
0.807843 0.626719 0.44387
0.900313 0.610788 0.427634
0.984314 0.597635 0.380392
1 0.59411 0.306859
0 0.7299 0.41323
0 0.731441 0.415686
0.113405 0.724651 0.405356
0.342214 0.716258 0.389364
0.536309 0.71664 0.367437
0.777859 0.749737 0.41416
0.902907 0.748531 0.422324
0.979904 0.736461 0.415869
1 0.726467 0.379843
0 0.811765 0.371084
0 0.813748 0.370138
0 0.809674 0.358511
0.24062 0.803693 0.334798
0.448951 0.796078 0.300313
0.677775 0.810788 0.311528
0.871412 0.837507 0.390936
0.97789 0.84007 0.403326
1 0.832349 0.383703
0 0.899992 0.320592
0 0.899992 0.318517
0 0.896086 0.299992
0.120058 0.892149 0.264775
0.403037 0.88481 0.212833
0.60853 0.884321 0.175799
0.810773 0.896941 0.255833
0.958495 0.91519 0.363882
1 0.919112 0.372061
0 1 0.323033
0 1 0.323033
0 0.996078 0.299016
0.26421 0.992157 0.259373
0.46421 0.988235 0.196078
0.631434 0.982849 0.0934462
0.794614 0.980392 0.071931
0.939223 0.986954 0.218631
1 0.992157 0.300496
0 0 0.625483
0 0 0.63505
0.260288 0 0.650004
0.584314 0 0.663966
0.742153 0 0.641184
0.819364 0 0.58407
0.901961 0 0.551965
0.9897 0 0.524758
1 0 0.490196
0 0 0.618875
0 0 0.627176
0.283818 0 0.644297
0.591516 0 0.662257
0.742885 0 0.642771
0.817243 0 0.587747
0.8981 0 0.555398
0.987259 0 0.524025
1 0 0.486519
0 0.124514 0.608331
0 0.124575 0.615442
0.269612 0.114946 0.630762
0.576471 0.129229 0.654536
0.732601 0.197787 0.642649
0.804166 0.232227 0.590692
0.888609 0.257969 0.558831
0.98677 0.213596 0.521508
1 0.149996 0.474022
0 0.388479 0.606378
0 0.392645 0.6103
0.1337 0.396384 0.613596
0.49633 0.417868 0.632593
0.701106 0.464454 0.638483
0.780392 0.46569 0.597787
0.882231 0.437247 0.561944
0.982361 0.396139 0.510689
1 0.372061 0.452445
0 0.622553 0.609812
0 0.627451 0.613733
0.183337 0.628428 0.617639
0.465812 0.632959 0.625498
0.661768 0.642161 0.635294
0.776715 0.621439 0.608331
0.876478 0.599023 0.571084
0.967163 0.577935 0.524514
1 0.565682 0.466667
0 0.74902 0.593622
0.00192264 0.75024 0.598032
0.291112 0.746807 0.598032
0.466697 0.741634 0.6
0.588968 0.731868 0.58677
0.770901 0.753429 0.607385
0.883268 0.747555 0.612192
0.960632 0.732113 0.590356
1 0.719356 0.542153
0 0.827451 0.567651
0 0.828428 0.568811
0.213596 0.824994 0.562493
0.377386 0.817151 0.548287
0.505394 0.808331 0.526955
0.665324 0.808331 0.517159
0.861891 0.839216 0.579538
0.962936 0.84007 0.589029
1 0.832349 0.579416
0 0.906126 0.526467
0 0.907591 0.524269
0 0.903929 0.511269
0.243961 0.898283 0.491905
0.428428 0.892149 0.465446
0.596414 0.887739 0.435782
0.791669 0.896574 0.468132
0.946563 0.91519 0.55024
1 0.919112 0.566171
0 1 0.521569
0 1 0.517891
0 1 0.505882
0.258335 0.996078 0.485786
0.450004 0.992157 0.454902
0.611276 0.988235 0.419364
0.768627 0.984314 0.401953
0.921569 0.988235 0.452445
1 0.996078 0.513726
0 0 0.750973
0 0 0.754711
0.274022 0 0.764584
0.584314 0 0.775494
0.783825 0 0.784802
0.8804 0 0.766659
0.936156 0 0.727321
0.993133 0 0.697063
1 0.0387274 0.681865
0 0 0.744793
0 0 0.749203
0.310704 0 0.758236
0.591669 0 0.772931
0.783001 0 0.783429
0.877806 0 0.766476
0.929885 0 0.726833
0.988724 0.0743877 0.696117
1 0.165072 0.6804
0 0.0362707 0.73431
0 0.0192569 0.738842
0.317891 0 0.748898
0.580941 0 0.765194
0.769848 0.0814984 0.778744
0.864286 0.213596 0.764965
0.916548 0.258732 0.725978
0.974914 0.300633 0.69575
1 0.297429 0.675364
0 0.314214 0.720592
0 0.317159 0.723522
0.194369 0.322911 0.730999
0.509377 0.341085 0.748241
0.726925 0.405631 0.768627
0.834806 0.457496 0.761273
0.89012 0.468132 0.723232
0.957839 0.461082 0.694118
1 0.416175 0.664714
0 0.559075 0.718868
0 0.560296 0.720836
0.00550851 0.559075 0.724025
0.400977 0.559075 0.728405
0.644358 0.580636 0.748898
0.8 0.628214 0.757351
0.862257 0.619852 0.724514
0.947066 0.581277 0.685878
1 0.53431 0.638972
0 0.735851 0.725002
0 0.738293 0.727459
0.21062 0.738293 0.730755
0.439155 0.741085 0.735286
0.620829 0.746319 0.743908
0.769436 0.757336 0.756405
0.855253 0.73579 0.729412
0.939651 0.710292 0.691295
1 0.692088 0.647059
0.00355535 0.839216 0.713115
0.138598 0.839353 0.71606
0.31397 0.838331 0.716518
0.473213 0.834455 0.717357
0.60589 0.83064 0.71899
0.701823 0.819959 0.70547
0.853193 0.841703 0.731899
0.945586 0.838849 0.735912
1 0.828428 0.717159
0 0.911772 0.693141
0.0383307 0.913054 0.694423
0.249378 0.911772 0.690684
0.396567 0.907652 0.686076
0.5205 0.901289 0.669612
0.626657 0.892958 0.646571
0.766171 0.892882 0.639216
0.933242 0.915679 0.706188
1 0.919112 0.720287
0 1 0.693629
0 1 0.693629
0.146929 1 0.685786
0.338231 1 0.672496
0.473533 0.998779 0.652445
0.604349 0.992157 0.625498
0.740688 0.988235 0.597055
0.898711 0.988418 0.624018
1 0.996078 0.6804
0 0 0.850004
0.0475471 0 0.853437
0.335302 0 0.857847
0.598535 0 0.865324
0.796567 0 0.874998
0.923033 0 0.877455
0.983337 0 0.862501
1 0 0.834806
1 0.137255 0.81471
0 0 0.846082
0.00825513 0 0.850004
0.372885 0 0.853925
0.6103 0 0.861997
0.795102 0 0.873045
0.918853 0 0.877409
0.978271 0 0.86128
1 0.0602731 0.833997
1 0.227451 0.813855
0 0 0.838239
0.166674 0 0.842161
0.394797 0 0.846876
0.607172 0 0.857572
0.78407 0 0.869123
0.903426 0.110018 0.873533
0.962936 0.25742 0.858152
1 0.30573 0.829908
1 0.35613 0.810788
0 0.23444 0.826841
0 0.232715 0.830716
0.310048 0.226322 0.835508
0.546334 0.23444 0.845167
0.739208 0.301961 0.858396
0.872786 0.4047 0.867521
0.937835 0.458915 0.854017
0.978759 0.473838 0.825483
1 0.48481 0.809308
0 0.481865 0.81471
0 0.481437 0.816663
0 0.477455 0.818631
0.390936 0.47776 0.825742
0.645838 0.502937 0.841917
0.824201 0.57377 0.857847
0.906859 0.616785 0.849882
0.952697 0.615503 0.821256
1 0.602945 0.801953
0 0.682841 0.812253
0 0.685298 0.81471
0 0.681376 0.81471
0.295766 0.677073 0.817884
0.537804 0.672923 0.821759
0.747936 0.700374 0.839109
0.876722 0.743633 0.846815
0.927443 0.731319 0.820584
1 0.694118 0.792523
0 0.827451 0.816419
0 0.827543 0.819364
0.185962 0.827451 0.819547
0.414252 0.826474 0.823011
0.58529 0.829664 0.827207
0.729015 0.833585 0.834409
0.852262 0.845228 0.848157
0.92369 0.823774 0.821469
1 0.803922 0.789212
0.080766 0.9196 0.815198
0.208865 0.919997 0.816052
0.337011 0.919112 0.816052
0.471748 0.917067 0.816052
0.596811 0.915007 0.815686
0.703914 0.908339 0.814542
0.783825 0.898863 0.796292
0.923354 0.919112 0.827665
1 0.919112 0.83566
0.118624 1 0.818631
0.207355 1 0.818631
0.312993 1 0.818631
0.427817 1 0.815076
0.537255 1 0.807843
0.637751 1 0.791669
0.736522 0.992889 0.764706
0.868635 0.992157 0.757351
1 1 0.807843
0.322545 0 0.938231
0.379416 0 0.93872
0.492653 0 0.942153
0.639399 0 0.946075
0.822065 0 0.949996
0.947555 0 0.953918
1 0 0.950484
1 0 0.938231
1 0.174014 0.923033
0.250919 0 0.937804
0.325612 0 0.93872
0.457801 0 0.942153
0.65742 0 0.942641
0.823743 0 0.949569
0.945586 0 0.953429
1 0 0.949889
1 0.0915541 0.937438
1 0.251957 0.919539
0.286763 0 0.934676
0.364385 0 0.934798
0.502602 0 0.937591
0.664439 0 0.942153
0.81593 0 0.946258
0.930388 0 0.949142
1 0.162219 0.946441
1 0.307729 0.93431
1 0.374014 0.918135
0.200305 0.0669718 0.926955
0.297063 0.0527352 0.928435
0.449454 0.0225223 0.930877
0.619669 0 0.934798
0.776959 0.0787366 0.939803
0.899687 0.271931 0.943343
0.980392 0.405386 0.942382
1 0.469825 0.930663
1 0.501472 0.913909
0 0.400488 0.915434
0 0.398596 0.917403
0.174884 0.390692 0.919112
0.471412 0.382605 0.923033
0.685298 0.401099 0.928679
0.84387 0.476967 0.934554
0.946075 0.568139 0.936522
0.998505 0.611795 0.926467
1 0.625483 0.909316
0 0.625177 0.903426
0 0.62388 0.905882
0 0.614359 0.906065
0.133272 0.601282 0.907347
0.506523 0.593317 0.911269
0.749996 0.624643 0.9196
0.900984 0.69546 0.928786
0.970199 0.732387 0.922713
1 0.731868 0.904906
0 0.796689 0.896574
0 0.796567 0.899504
0 0.792645 0.899504
0.0415503 0.786755 0.899504
0.431128 0.777508 0.900374
0.635782 0.766659 0.900496
0.830121 0.789212 0.914183
0.945373 0.834852 0.922225
0.996567 0.823041 0.903426
0 0.915618 0.899931
0 0.91519 0.902998
0.14818 0.914763 0.902998
0.375311 0.911772 0.902998
0.538811 0.909346 0.903426
0.6804 0.907408 0.905211
0.811276 0.911269 0.911269
0.925841 0.92491 0.924865
1 0.903929 0.900435
0.188235 1 0.91078
0.253437 1 0.91078
0.346075 1 0.91078
0.460472 1 0.907347
0.576226 1 0.907347
0.686946 1 0.906859
0.783825 1 0.902571
0.864713 0.996078 0.883818
1 1 0.907347
0.576471 0 1
0.603433 0 1
0.664714 0 1
0.756374 0 1
0.860777 0 1
0.988724 0 1
1 0 1
1 0 1
1 0.196078 1
0.548531 0 1
0.575982 0 1
0.644114 0 1
0.739223 0 1
0.871809 0 1
0.984802 0 1
1 0 1
1 0 1
1 0.26128 1
0.477455 0 1
0.521569 0 1
0.619364 0 1
0.74902 0 1
0.87451 0 1
0.976959 0 1
1 0 1
1 0.21532 1
1 0.371572 1
0.480888 0 1
0.522057 0 1
0.609934 0 1
0.728374 0 1
0.848524 0 1
0.952514 0 1
1 0.262623 1
1 0.41146 1
1 0.498039 0.998535
0.211765 0.294118 1
0.305882 0.284566 1
0.453437 0.260288 1
0.617395 0.234073 1
0.772549 0.249012 1
0.899992 0.34583 1
0.989212 0.47451 1
1 0.567651 1
1 0.619608 0.99411
0 0.573037 1
0 0.567956 1
0 0.552941 1
0.313115 0.532906 1
0.604166 0.51667 1
0.805951 0.547494 1
0.937255 0.623163 1
1 0.694606 1
1 0.731365 0.992157
0 0.779416 0.992157
0 0.775494 0.992157
0 0.767895 0.993133
0 0.752941 0.996078
0.321569 0.73138 0.998535
0.627451 0.713359 1
0.850004 0.736278 1
0.980392 0.797055 0.999634
1 0.830396 0.992157
0 0.9196 0.984802
0 0.916182 0.984802
0 0.913115 0.984802
0 0.908339 0.988235
0.295094 0.900496 0.988235
0.544121 0.887434 0.992157
0.727459 0.872175 0.996078
0.91519 0.880385 0.996078
1 0.91519 0.992157
0 1 0.988235
0 1 0.988235
0.0235294 1 0.988235
0.320592 1 0.988235
0.488228 1 0.988235
0.629404 1 0.992157
0.756863 1 0.992157
0.880385 1 0.992157
1 1 0.992157
