YOYO-Client/Yoyo/Assets.xcassets/Sahara.dataset/Sahara.cube
TITLE "Sahara"
LUT_3D_SIZE 9
0.0881056 0.0524147 0.0440528
0.171084 0.0580301 0.0372473
0.254658 0.0783856 0.0429694
0.347799 0.0996567 0.0484627
0.448249 0.12282 0.0565805
0.549661 0.153994 0.0687572
0.652262 0.194354 0.0853132
0.756786 0.25452 0.11252
0.867796 0.382528 0.18732
0.0659037 0.154101 0.0991531
0.201587 0.153384 0.0679026
0.286503 0.155184 0.0704204
0.370398 0.168353 0.0738689
0.463706 0.186328 0.0800641
0.561944 0.210224 0.0903182
0.663325 0.241566 0.104356
0.768704 0.295811 0.13077
0.877379 0.41416 0.205234
0.0555581 0.249699 0.141649
0.191959 0.255528 0.108751
0.320104 0.253147 0.0948806
0.410285 0.25565 0.103304
0.49546 0.269825 0.111696
0.586557 0.291844 0.122835
0.683574 0.320775 0.136828
0.787457 0.367437 0.163012
0.8907 0.464485 0.234302
0.0871748 0.343297 0.181125
0.199619 0.349386 0.156695
0.326177 0.351614 0.134096
0.4448 0.352285 0.128832
0.534951 0.358938 0.139345
0.619287 0.376486 0.152041
0.709148 0.402502 0.16907
0.808988 0.44683 0.200488
0.908339 0.531228 0.274327
0.140703 0.437797 0.22501
0.228779 0.442405 0.206653
0.343435 0.445563 0.18407
0.462089 0.448631 0.168978
0.565484 0.453635 0.168414
0.655558 0.464668 0.181872
0.742626 0.485634 0.201694
0.836484 0.528405 0.23975
0.929824 0.610346 0.324819
0.216007 0.530205 0.279088
0.28249 0.534615 0.264485
0.37966 0.538186 0.242405
0.482292 0.542947 0.224628
0.586069 0.548577 0.214252
0.684657 0.556222 0.21706
0.776699 0.572168 0.237751
0.866331 0.613184 0.283375
0.948379 0.6916 0.384649
0.291386 0.625711 0.344015
0.3402 0.629725 0.332555
0.416678 0.635111 0.314092
0.510842 0.639826 0.294438
0.610574 0.645014 0.280125
0.708553 0.65182 0.273167
0.803677 0.66511 0.28397
0.890806 0.701122 0.340932
0.965103 0.768566 0.46276
0.354742 0.736996 0.4486
0.396612 0.74107 0.440452
0.462211 0.745846 0.42533
0.548104 0.750561 0.407752
0.643214 0.755245 0.393378
0.738308 0.760861 0.384894
0.827665 0.768612 0.382696
0.910689 0.790234 0.422721
0.977676 0.840452 0.563882
0.497642 0.846571 0.670466
0.524727 0.84863 0.665217
0.570855 0.851911 0.655299
0.634287 0.856504 0.642695
0.708812 0.861906 0.629847
0.786389 0.866911 0.616983
0.864576 0.872679 0.610651
0.9281 0.883436 0.617166
0.984085 0.905547 0.696727
0.0717632 0.0749523 0.119875
0.175326 0.0724804 0.102937
0.266148 0.090425 0.0926833
0.353109 0.107469 0.0864424
0.449363 0.131228 0.0890516
0.548791 0.161776 0.0940871
0.65066 0.200763 0.104555
0.756344 0.261524 0.128527
0.867094 0.38761 0.201236
0.0461891 0.161212 0.175677
0.197009 0.15697 0.125414
0.292988 0.157549 0.110842
0.378775 0.173709 0.111864
0.468147 0.192752 0.113436
0.56347 0.2168 0.11632
0.663371 0.247608 0.123705
0.769192 0.302831 0.146929
0.877089 0.419409 0.219089
0.0278172 0.251408 0.209552
0.177142 0.262623 0.168841
0.320027 0.259663 0.139147
0.414755 0.261082 0.14081
0.500023 0.2757 0.145449
0.589441 0.297566 0.14963
0.684947 0.325978 0.156756
0.788251 0.37293 0.179736
0.890715 0.469551 0.247944
0.0531319 0.344778 0.233387
0.182864 0.35491 0.204425
0.319036 0.358526 0.172686
0.446723 0.358099 0.161746
0.538216 0.36376 0.170611
0.621607 0.381109 0.17969
0.710658 0.406485 0.189792
0.810224 0.451453 0.216922
0.90869 0.535698 0.287465
0.1149 0.438697 0.265934
0.212467 0.446372 0.24509
0.333654 0.450752 0.216907
0.458747 0.453788 0.196521
0.567422 0.458045 0.193973
0.658061 0.468177 0.2065
0.744518 0.489067 0.221851
0.8383 0.53254 0.256077
0.930877 0.614389 0.338231
0.195254 0.531273 0.312016
0.267262 0.536995 0.295521
0.369574 0.541924 0.270085
0.476905 0.547173 0.248524
0.585382 0.552544 0.235569
0.6869 0.559747 0.238041
0.778836 0.574929 0.256001
0.868238 0.616785 0.29868
0.949889 0.695369 0.397192
0.275944 0.626749 0.370138
0.327367 0.631754 0.357961
0.407904 0.637842 0.33753
0.505226 0.643214 0.315282
0.608499 0.648371 0.29839
0.709209 0.654932 0.290105
0.805768 0.667796 0.299794
0.89279 0.704097 0.354116
0.966659 0.77171 0.473625
0.349371 0.738476 0.464714
0.391241 0.742306 0.455482
0.459739 0.747951 0.440284
0.546288 0.753323 0.422187
0.642435 0.757656 0.406012
0.738674 0.762951 0.396078
0.82974 0.771145 0.394125
0.912474 0.792615 0.433402
0.977966 0.841962 0.570565
0.500877 0.848356 0.680522
0.526925 0.850065 0.674403
0.572045 0.853178 0.663935
0.635386 0.858076 0.651881
0.710018 0.863478 0.638193
0.787625 0.868437 0.624323
0.866087 0.874174 0.617288
0.929366 0.884901 0.623621
0.984298 0.906508 0.700832
0.0797894 0.0937667 0.179873
0.146883 0.10724 0.203937
0.252705 0.113664 0.203662
0.3523 0.138354 0.18233
0.457633 0.164752 0.174212
0.549279 0.189456 0.163272
0.644755 0.217472 0.153826
0.749203 0.271946 0.165789
0.86247 0.394644 0.23154
0.0659648 0.161349 0.222873
0.162387 0.179416 0.230594
0.29044 0.169589 0.195956
0.391546 0.184329 0.178363
0.477516 0.202197 0.170138
0.565621 0.226261 0.167849
0.659663 0.257343 0.169345
0.763516 0.312016 0.185565
0.87274 0.42594 0.249561
0.0419165 0.244633 0.276036
0.152071 0.26302 0.272312
0.310842 0.262013 0.222904
0.418509 0.262837 0.202701
0.508629 0.279408 0.200626
0.594659 0.3037 0.203143
0.684138 0.333135 0.205692
0.784329 0.380377 0.22005
0.886854 0.475456 0.27863
0.0275273 0.340505 0.330388
0.150484 0.352392 0.305119
0.300145 0.363455 0.259922
0.442741 0.362554 0.23154
0.539574 0.367803 0.230243
0.62385 0.385885 0.234882
0.710369 0.411978 0.240757
0.807385 0.457099 0.258305
0.905531 0.540887 0.318273
0.068101 0.432822 0.358709
0.171099 0.442817 0.334646
0.306371 0.453895 0.298024
0.444709 0.459098 0.263249
0.566613 0.462257 0.251621
0.65951 0.472099 0.261067
0.743694 0.492775 0.273289
0.836378 0.536828 0.298116
0.928405 0.618158 0.36817
0.143969 0.525979 0.39057
0.224247 0.533349 0.372274
0.338125 0.543984 0.341894
0.457313 0.550866 0.310094
0.577737 0.55639 0.2878
0.687236 0.562661 0.286961
0.779324 0.577539 0.304234
0.867231 0.619257 0.338201
0.949645 0.697566 0.423713
0.236027 0.621225 0.430961
0.291783 0.628397 0.418753
0.378378 0.637842 0.396948
0.483925 0.645396 0.369863
0.596521 0.651423 0.346685
0.705669 0.657496 0.333471
0.80592 0.669474 0.342229
0.892729 0.705196 0.385901
0.966934 0.773129 0.493477
0.32369 0.733913 0.505318
0.367605 0.738827 0.496025
0.439155 0.745907 0.479606
0.530526 0.75317 0.459434
0.630762 0.758587 0.439612
0.732784 0.763928 0.425376
0.828275 0.77174 0.420523
0.912474 0.792782 0.4551
0.978195 0.842298 0.583261
0.496056 0.847654 0.693049
0.520211 0.849012 0.686412
0.564889 0.851987 0.675486
0.629114 0.857191 0.663371
0.704509 0.862654 0.648173
0.784207 0.867872 0.632715
0.864485 0.873472 0.623255
0.929 0.884199 0.628656
0.984619 0.906264 0.706783
0.0987716 0.11957 0.237675
0.154589 0.131884 0.256214
0.225727 0.145922 0.288945
0.328115 0.156298 0.29247
0.435996 0.181399 0.269795
0.545342 0.219715 0.260761
0.651255 0.261753 0.256336
0.747311 0.312184 0.254795
0.855726 0.413718 0.294087
0.0912337 0.182925 0.283406
0.164187 0.195712 0.292607
0.239796 0.206989 0.306279
0.361242 0.203143 0.296925
0.471672 0.226184 0.271504
0.57586 0.25893 0.262974
0.664561 0.290394 0.25417
0.75993 0.338659 0.25864
0.865965 0.437736 0.301472
0.0829633 0.242878 0.315618
0.159777 0.260288 0.328893
0.271748 0.275334 0.324742
0.41181 0.273106 0.288441
0.518135 0.289876 0.269276
0.60206 0.312673 0.260792
0.685786 0.341741 0.258228
0.780133 0.389258 0.272038
0.880766 0.483375 0.325032
0.0818647 0.32578 0.368719
0.15079 0.341756 0.377676
0.273716 0.361578 0.360372
0.43212 0.364111 0.315694
0.539269 0.370413 0.294987
0.629175 0.390265 0.290929
0.713298 0.417502 0.29337
0.805066 0.464897 0.312886
0.900175 0.547433 0.364553
0.0723888 0.426688 0.431373
0.153872 0.435843 0.425605
0.273274 0.448234 0.396826
0.428351 0.460349 0.351324
0.56231 0.464424 0.324651
0.658717 0.47541 0.323598
0.74406 0.497169 0.330083
0.834348 0.543267 0.355749
0.923949 0.624338 0.413046
0.127993 0.51986 0.468071
0.196857 0.526314 0.456184
0.301167 0.537728 0.429129
0.434531 0.550637 0.393378
0.56791 0.558328 0.358816
0.687221 0.565072 0.350057
0.779293 0.580453 0.362905
0.865049 0.62324 0.395575
0.947845 0.701167 0.46421
0.210803 0.614359 0.501656
0.260212 0.620615 0.49041
0.34522 0.630838 0.468986
0.459495 0.64387 0.440436
0.580865 0.652079 0.410742
0.701137 0.659434 0.390753
0.806653 0.670954 0.396292
0.892409 0.706813 0.43653
0.966949 0.774868 0.525048
0.296345 0.727642 0.563485
0.337713 0.731609 0.553979
0.408255 0.7393 0.537896
0.504585 0.749874 0.516899
0.612955 0.757748 0.493553
0.723461 0.763821 0.472969
0.826352 0.772152 0.464012
0.912474 0.792874 0.49218
0.978744 0.842969 0.60502
0.485924 0.845533 0.712825
0.509453 0.846983 0.706477
0.552926 0.849729 0.695399
0.616632 0.854871 0.682292
0.695033 0.861219 0.667063
0.778088 0.866819 0.648936
0.861463 0.872557 0.636149
0.928374 0.883101 0.639445
0.985367 0.906279 0.718288
0.122576 0.14995 0.293645
0.171649 0.159747 0.309636
0.23209 0.172107 0.335103
0.306828 0.184054 0.368887
0.413596 0.19646 0.369772
0.524987 0.227283 0.34931
0.631662 0.277867 0.340749
0.749126 0.345449 0.350072
0.853895 0.447379 0.386694
0.122087 0.207523 0.338842
0.180163 0.216541 0.347341
0.245319 0.227481 0.360388
0.321401 0.234577 0.387274
0.444739 0.236469 0.378683
0.551995 0.26862 0.353887
0.661418 0.315465 0.347158
0.764797 0.374319 0.353353
0.863462 0.469413 0.392294
0.115602 0.264912 0.375586
0.181781 0.279896 0.386969
0.261631 0.293919 0.391623
0.345815 0.302937 0.399283
0.486946 0.302968 0.379553
0.599374 0.336828 0.359442
0.69453 0.37261 0.349248
0.783368 0.41828 0.356237
0.876341 0.50396 0.39913
0.123354 0.32369 0.402213
0.180041 0.337102 0.411627
0.262028 0.356069 0.421027
0.398367 0.369574 0.404379
0.536034 0.379339 0.370321
0.634028 0.398444 0.351827
0.716915 0.424475 0.345159
0.804517 0.472236 0.362539
0.895582 0.55555 0.415412
0.131685 0.411444 0.45211
0.182879 0.422522 0.457755
0.262379 0.439536 0.463752
0.407965 0.458152 0.435813
0.553277 0.466087 0.401144
0.657206 0.478584 0.385138
0.746792 0.501823 0.3832
0.834806 0.550256 0.407675
0.919432 0.631739 0.463905
0.157031 0.510613 0.51017
0.204044 0.519188 0.512612
0.285863 0.530175 0.503731
0.409491 0.544991 0.472877
0.558267 0.557885 0.434485
0.684504 0.566674 0.416693
0.777935 0.583413 0.419806
0.863874 0.628656 0.449332
0.943969 0.707744 0.513588
0.211353 0.608789 0.561868
0.254597 0.614038 0.554925
0.327047 0.622354 0.538521
0.434089 0.635981 0.511788
0.567147 0.64979 0.480217
0.696941 0.659342 0.452155
0.807492 0.672358 0.45243
0.892134 0.709529 0.489784
0.966522 0.778256 0.568582
0.290242 0.721096 0.620417
0.326192 0.725078 0.612863
0.38645 0.731914 0.597711
0.476829 0.741924 0.576913
0.592676 0.754437 0.553491
0.713634 0.762661 0.527916
0.825422 0.771908 0.512612
0.91342 0.793652 0.540413
0.979553 0.844495 0.636439
0.478691 0.842512 0.742214
0.500633 0.844266 0.736919
0.53959 0.846983 0.725948
0.599252 0.851377 0.711879
0.67892 0.858213 0.695476
0.7682 0.865324 0.676036
0.857572 0.871855 0.659434
0.928191 0.882368 0.658976
0.986618 0.906859 0.735256
0.152865 0.187121 0.354528
0.196124 0.195254 0.367514
0.251255 0.205875 0.38703
0.316075 0.215747 0.417273
0.396048 0.225177 0.444114
0.501534 0.242817 0.444389
0.613718 0.281544 0.428382
0.723354 0.351278 0.427771
0.851331 0.469474 0.472343
0.156207 0.234882 0.392294
0.20444 0.242176 0.399893
0.263386 0.252262 0.412451
0.328115 0.261891 0.4336
0.413596 0.266865 0.463325
0.529854 0.278599 0.454231
0.635447 0.31873 0.434028
0.748837 0.385214 0.436591
0.862394 0.494377 0.47863
0.153613 0.293523 0.433783
0.210834 0.30631 0.441733
0.279362 0.317021 0.446433
0.34873 0.327428 0.454459
0.435599 0.330144 0.480812
0.568063 0.338674 0.460365
0.672908 0.382254 0.44213
0.784131 0.441871 0.449317
0.876539 0.530861 0.485496
0.161608 0.349233 0.462699
0.21146 0.360494 0.470466
0.285664 0.376944 0.477867
0.369558 0.389731 0.476341
0.465248 0.394949 0.484428
0.604639 0.412772 0.457969
0.718547 0.451011 0.444755
0.809277 0.498497 0.450492
0.894224 0.578012 0.494026
0.17435 0.407584 0.481178
0.217792 0.416983 0.486992
0.287648 0.43122 0.494255
0.376471 0.449241 0.500435
0.534066 0.4692 0.478996
0.656764 0.485405 0.451652
0.750042 0.508522 0.439139
0.836164 0.558343 0.459052
0.91606 0.640024 0.513451
0.203784 0.496239 0.529824
0.243336 0.504372 0.533928
0.306127 0.517372 0.539132
0.390127 0.534051 0.541436
0.54551 0.555978 0.509331
0.677806 0.568399 0.48571
0.777493 0.587427 0.476921
0.864729 0.636164 0.502098
0.940581 0.715785 0.564752
0.248661 0.596231 0.588357
0.279866 0.603143 0.590967
0.331899 0.613901 0.593118
0.41738 0.625834 0.580453
0.547387 0.643107 0.551186
0.692027 0.658106 0.519799
0.807172 0.673747 0.511788
0.891936 0.713893 0.543481
0.963531 0.783505 0.619165
0.302205 0.714046 0.663828
0.330571 0.718715 0.663096
0.383261 0.725063 0.654429
0.460151 0.73373 0.636728
0.569284 0.746441 0.614527
0.703014 0.759579 0.587533
0.824842 0.771191 0.565042
0.914595 0.794842 0.590463
0.980179 0.846937 0.677729
0.475532 0.839185 0.775464
0.495476 0.840558 0.771054
0.531228 0.843198 0.762509
0.583886 0.847547 0.749859
0.659419 0.853727 0.733669
0.753613 0.862318 0.714061
0.851392 0.870588 0.693507
0.928115 0.881605 0.687816
0.988327 0.90811 0.757595
0.190097 0.232685 0.419852
0.228367 0.239216 0.429603
0.280324 0.248463 0.44535
0.339193 0.257465 0.468971
0.411185 0.264378 0.500801
0.485985 0.275593 0.518318
0.590631 0.297566 0.518303
0.707881 0.3523 0.507729
0.83505 0.46714 0.535561
0.195544 0.270298 0.448386
0.237125 0.276356 0.45507
0.290837 0.28452 0.465904
0.350515 0.29369 0.483711
0.422934 0.301183 0.515175
0.503075 0.310109 0.534218
0.6168 0.329397 0.527443
0.727443 0.38381 0.51371
0.851316 0.495628 0.545464
0.198917 0.329625 0.490852
0.246845 0.339071 0.496208
0.307622 0.347311 0.500511
0.371267 0.356695 0.509041
0.439857 0.364263 0.530358
0.525628 0.365347 0.55198
0.652003 0.38265 0.53579
0.759457 0.439399 0.524285
0.873838 0.542535 0.561913
0.208331 0.382452 0.522286
0.253574 0.392035 0.528145
0.321065 0.4056 0.532799
0.39144 0.415152 0.533059
0.45948 0.423621 0.539773
0.552148 0.422354 0.559823
0.684108 0.44773 0.536492
0.801938 0.509712 0.537514
0.895232 0.600015 0.575967
0.225391 0.435187 0.543023
0.264164 0.442863 0.548135
0.32668 0.454749 0.554101
0.404822 0.470329 0.557336
0.483879 0.481971 0.554452
0.600626 0.48809 0.556954
0.735042 0.527398 0.539925
0.838575 0.580285 0.544884
0.91487 0.660243 0.589731
0.246326 0.489876 0.554589
0.280674 0.496452 0.55816
0.336233 0.507317 0.563272
0.409567 0.52221 0.568933
0.495033 0.540627 0.574731
0.670634 0.57142 0.552285
0.781033 0.593133 0.53341
0.8663 0.643305 0.55288
0.93814 0.723949 0.613199
0.289601 0.583322 0.607828
0.318059 0.58938 0.610727
0.365988 0.599344 0.614847
0.432273 0.613382 0.620005
0.520439 0.630076 0.618189
0.683558 0.655283 0.587823
0.804623 0.676417 0.574212
0.892134 0.719768 0.597162
0.960418 0.79028 0.668833
0.342229 0.703441 0.682673
0.36553 0.707942 0.684199
0.405524 0.715694 0.686793
0.461646 0.725704 0.688182
0.552178 0.736629 0.673365
0.68777 0.752865 0.648371
0.823941 0.770001 0.621317
0.915328 0.796841 0.64242
0.979889 0.851377 0.725216
0.490242 0.834821 0.792828
0.505257 0.836362 0.793057
0.53228 0.839078 0.792386
0.578622 0.843229 0.785565
0.645106 0.848981 0.771435
0.738079 0.857481 0.753414
0.844068 0.86804 0.731731
0.928618 0.880842 0.723003
0.990494 0.909972 0.784451
0.236393 0.289494 0.49044
0.270344 0.294957 0.497551
0.319707 0.302922 0.509957
0.37406 0.310872 0.52755
0.435126 0.318425 0.555367
0.50692 0.324926 0.581399
0.579065 0.336004 0.592721
0.690288 0.365637 0.594614
0.823117 0.459709 0.602441
0.24181 0.319783 0.51194
0.278569 0.324529 0.516793
0.329091 0.331136 0.525612
0.383841 0.339208 0.540017
0.445579 0.347753 0.565713
0.519677 0.353155 0.593759
0.595071 0.36289 0.604623
0.714046 0.391485 0.601633
0.837201 0.486198 0.609995
0.251331 0.373495 0.548867
0.291707 0.379004 0.551934
0.346441 0.386084 0.55642
0.403128 0.394659 0.565148
0.463218 0.402518 0.581491
0.538262 0.404456 0.610712
0.618891 0.408255 0.620188
0.748592 0.437583 0.610086
0.858366 0.531151 0.622568
0.265812 0.423362 0.580377
0.305928 0.43154 0.584604
0.363806 0.442298 0.588037
0.424048 0.448905 0.589639
0.484916 0.456016 0.597086
0.557244 0.45713 0.621744
0.64744 0.458152 0.630198
0.78027 0.498787 0.616175
0.885496 0.597009 0.642588
0.287739 0.470787 0.604166
0.321538 0.47718 0.608164
0.375677 0.487144 0.612284
0.443687 0.500511 0.614435
0.509071 0.50901 0.613474
0.578119 0.513848 0.628779
0.688792 0.517723 0.633005
0.818204 0.57731 0.627604
0.912398 0.6757 0.668406
0.307393 0.520256 0.619226
0.33666 0.525902 0.62298
0.385687 0.535363 0.628092
0.450721 0.547326 0.631952
0.525963 0.562203 0.633387
0.600183 0.572045 0.632654
0.739132 0.598627 0.633921
0.861448 0.661494 0.640986
0.935073 0.740154 0.687816
0.329076 0.575692 0.629847
0.35494 0.58085 0.632502
0.399313 0.589517 0.636484
0.461128 0.601755 0.641413
0.533608 0.616632 0.646769
0.629328 0.638346 0.652125
0.802029 0.680827 0.637903
0.893187 0.727611 0.652811
0.957702 0.797787 0.716228
0.381384 0.691829 0.699992
0.403616 0.696086 0.701854
0.441901 0.703426 0.704936
0.494972 0.713436 0.708843
0.562783 0.726085 0.71368
0.663783 0.741207 0.705959
0.821149 0.768139 0.68217
0.914839 0.800137 0.697353
0.978637 0.857084 0.768475
0.51635 0.829526 0.803342
0.530755 0.830869 0.80351
0.555749 0.833509 0.803937
0.592126 0.837751 0.805112
0.642267 0.843931 0.80531
0.725658 0.851575 0.790295
0.836378 0.863981 0.770794
0.929961 0.880354 0.75996
0.992874 0.912779 0.816175
0.303944 0.375586 0.581445
0.331044 0.379782 0.585519
0.373816 0.386297 0.593301
0.423255 0.393744 0.605051
0.477928 0.4009 0.624063
0.543008 0.404852 0.653147
0.615137 0.408927 0.674235
0.691447 0.418723 0.683131
0.816083 0.462379 0.69308
0.308309 0.398016 0.596109
0.336889 0.400931 0.598428
0.381277 0.406394 0.604273
0.43212 0.413428 0.614694
0.487739 0.420905 0.632364
0.553979 0.424735 0.661738
0.627817 0.427665 0.68336
0.706188 0.436011 0.690974
0.831754 0.483223 0.698955
0.321736 0.43653 0.621469
0.352773 0.440284 0.62388
0.399008 0.445624 0.627634
0.451316 0.452018 0.634943
0.506722 0.458579 0.648188
0.570932 0.460838 0.674281
0.646281 0.460716 0.696193
0.728603 0.467201 0.702388
0.852628 0.520317 0.706935
0.339239 0.479484 0.649287
0.370825 0.486366 0.652674
0.418677 0.493736 0.655268
0.472557 0.498726 0.657542
0.528084 0.504448 0.66508
0.589181 0.507027 0.684825
0.666865 0.504387 0.708354
0.756909 0.510246 0.712947
0.874022 0.577539 0.716381
0.361425 0.522667 0.674083
0.390173 0.528359 0.67718
0.436881 0.536919 0.680049
0.495552 0.547585 0.681956
0.552834 0.552956 0.683314
0.610834 0.55697 0.694453
0.690654 0.553307 0.718273
0.794232 0.565438 0.720775
0.896574 0.656413 0.733211
0.386343 0.567559 0.69456
0.411856 0.572168 0.697414
0.454856 0.579461 0.700603
0.511925 0.589105 0.702235
0.576425 0.601526 0.701656
0.634485 0.607706 0.70341
0.71487 0.606088 0.723156
0.830716 0.639872 0.726329
0.926772 0.744091 0.761151
0.410086 0.616358 0.708888
0.431891 0.619852 0.710658
0.470359 0.626352 0.713649
0.523095 0.63505 0.71632
0.586725 0.646265 0.717906
0.658 0.660136 0.717464
0.744198 0.668391 0.726406
0.874388 0.732601 0.742977
0.952682 0.809415 0.785916
0.427604 0.682322 0.72256
0.44741 0.685695 0.723766
0.482826 0.691676 0.72604
0.533593 0.700969 0.729931
0.597482 0.712077 0.733944
0.674876 0.72668 0.739559
0.799207 0.759518 0.747082
0.913161 0.806287 0.760037
0.976425 0.86389 0.811902
0.551766 0.822187 0.816098
0.565103 0.823377 0.816358
0.588159 0.825376 0.816648
0.622293 0.829175 0.817884
0.668864 0.835279 0.820371
0.729046 0.843976 0.823987
0.823392 0.855833 0.813107
0.930282 0.879667 0.803372
0.994522 0.917266 0.854597
