YOYO-Client/Yoyo/Assets.xcassets/Sahara.dataset/Sahara.cube
TITLE "Sahara"
LUT_3D_SIZE 33
0.0881056 0.0524147 0.0440528
0.11194 0.049073 0.0372473
0.132784 0.0505531 0.0357977
0.15227 0.0539864 0.0363012
0.171084 0.0580301 0.0372473
0.19089 0.0628672 0.0387884
0.211429 0.0680095 0.0404059
0.232715 0.0731518 0.0417639
0.254658 0.0783856 0.0429694
0.277043 0.0835584 0.0441444
0.300023 0.0888075 0.0454108
0.323674 0.0942245 0.0468452
0.347799 0.0996567 0.0484627
0.37261 0.10515 0.0502632
0.397986 0.110521 0.0521401
0.423316 0.11635 0.0542153
0.448249 0.12282 0.0565805
0.473106 0.129778 0.0591897
0.498421 0.137301 0.062089
0.523919 0.145357 0.0652781
0.549661 0.153994 0.0687572
0.575158 0.162997 0.0723888
0.600626 0.172595 0.0763104
0.626566 0.18323 0.080766
0.652262 0.194354 0.0853132
0.677867 0.206195 0.0901961
0.703609 0.218997 0.0955367
0.729717 0.23389 0.102068
0.756786 0.25452 0.11252
0.784741 0.281102 0.12697
0.812772 0.311299 0.143832
0.841306 0.346075 0.164248
0.867796 0.382528 0.18732
0.0857557 0.0831311 0.0610971
0.115679 0.0742962 0.0479744
0.138979 0.0716869 0.0436866
0.159396 0.0729076 0.043122
0.178622 0.0756695 0.0437629
0.198032 0.0794537 0.0449531
0.218296 0.0837568 0.0462959
0.239231 0.0883803 0.0475166
0.260716 0.093019 0.0485237
0.282795 0.0978103 0.0496223
0.305455 0.102693 0.050782
0.328939 0.107713 0.0520943
0.352514 0.112627 0.0534676
0.376669 0.117617 0.0549935
0.401297 0.122576 0.0565042
0.426169 0.128008 0.058381
0.451026 0.134127 0.0606699
0.475792 0.140459 0.0630808
0.500633 0.14725 0.0656901
0.526146 0.154818 0.0687419
0.55172 0.162799 0.0719921
0.577203 0.171283 0.0754864
0.602411 0.180285 0.0792096
0.628122 0.190356 0.0834363
0.654108 0.201297 0.0879988
0.679683 0.212894 0.0928664
0.70547 0.22536 0.0981155
0.731762 0.240162 0.104677
0.758999 0.261036 0.115404
0.786847 0.287312 0.129839
0.814817 0.317189 0.146654
0.84332 0.351812 0.167254
0.869612 0.38793 0.190448
0.0789807 0.107286 0.0754864
0.115282 0.106035 0.0629282
0.144915 0.100725 0.0552224
0.167636 0.0985428 0.0525978
0.187427 0.0988479 0.0521553
0.20705 0.101045 0.0528572
0.226978 0.104158 0.0538186
0.247517 0.107912 0.0548867
0.268696 0.112016 0.0559091
0.290333 0.116197 0.0568399
0.312367 0.120577 0.0577249
0.334981 0.125078 0.0587625
0.357824 0.129595 0.0598764
0.381567 0.134325 0.0612039
0.405447 0.138796 0.0624857
0.429892 0.143923 0.06421
0.454612 0.149691 0.0663767
0.479408 0.155718 0.0687266
0.504173 0.161883 0.0711681
0.529152 0.168551 0.0738842
0.554543 0.175799 0.0769055
0.579767 0.183612 0.0802014
0.604929 0.191943 0.0837415
0.630854 0.201617 0.087892
0.656596 0.211917 0.0923018
0.6822 0.223011 0.0970016
0.708278 0.235157 0.102144
0.734554 0.249653 0.108705
0.761868 0.27042 0.11957
0.789944 0.296651 0.134127
0.818006 0.32639 0.151171
0.846403 0.360525 0.171984
0.871992 0.395377 0.19469
0.0723125 0.130434 0.0878157
0.108873 0.132677 0.0764935
0.144213 0.131121 0.0665446
0.173144 0.127214 0.0616007
0.196139 0.12517 0.0603647
0.216495 0.125444 0.0606394
0.236378 0.127169 0.0614633
0.256458 0.129702 0.0623789
0.277089 0.132967 0.0632792
0.298146 0.136568 0.0641489
0.319493 0.140383 0.0649424
0.341283 0.14435 0.0657664
0.363638 0.148516 0.0667887
0.386847 0.152895 0.0679484
0.410391 0.157229 0.0692302
0.434379 0.161975 0.0708629
0.45861 0.167285 0.0728618
0.482994 0.17293 0.0750896
0.507698 0.17879 0.0775006
0.532555 0.185107 0.0801556
0.557733 0.191913 0.0830701
0.582895 0.199191 0.0862745
0.608347 0.207141 0.0897536
0.633936 0.215854 0.0935683
0.659419 0.225284 0.097673
0.685191 0.235843 0.102251
0.711269 0.247395 0.107225
0.737697 0.261555 0.113756
0.765164 0.282139 0.124743
0.793088 0.307744 0.139162
0.821134 0.336828 0.156237
0.849393 0.37026 0.177172
0.874525 0.404059 0.199542
0.0659037 0.154101 0.0991531
0.101747 0.156649 0.0887312
0.138735 0.157931 0.0782635
0.173281 0.156268 0.0709087
0.201587 0.153384 0.0679026
0.224948 0.151583 0.0676432
0.246082 0.151675 0.0684825
0.266331 0.152972 0.0694438
0.286503 0.155184 0.0704204
0.306798 0.1579 0.0712902
0.327504 0.161105 0.0721141
0.348699 0.164569 0.0729076
0.370398 0.168353 0.0738689
0.393133 0.172457 0.0750896
0.416388 0.176623 0.0764172
0.439887 0.181155 0.0780346
0.463706 0.186328 0.0800641
0.487877 0.191791 0.0822919
0.51223 0.197543 0.0847028
0.536965 0.203632 0.0873732
0.561944 0.210224 0.0903182
0.587335 0.217411 0.0935836
0.612558 0.224933 0.0969711
0.637797 0.232837 0.100496
0.663325 0.241566 0.104356
0.688823 0.251255 0.108629
0.714778 0.262028 0.113298
0.741344 0.275792 0.119829
0.768704 0.295811 0.13077
0.796597 0.320668 0.145083
0.824582 0.348928 0.162203
0.852766 0.381582 0.183261
0.877379 0.41416 0.205234
0.0603494 0.178332 0.110323
0.096025 0.180804 0.100649
0.132448 0.182361 0.0906233
0.168902 0.183017 0.0816815
0.202335 0.181491 0.0761273
0.23035 0.178836 0.0742962
0.254429 0.177356 0.0747387
0.276066 0.177218 0.0758373
0.296483 0.178256 0.0770581
0.316503 0.180041 0.0781567
0.336797 0.182589 0.0791943
0.357473 0.18558 0.0801404
0.378729 0.189029 0.0812848
0.400916 0.192828 0.0825818
0.42356 0.196796 0.0839704
0.446632 0.201251 0.0856794
0.470146 0.206332 0.0878004
0.493843 0.211673 0.0900435
0.517968 0.217365 0.0925612
0.542367 0.223362 0.0952926
0.56733 0.229953 0.0983291
0.592401 0.236957 0.101579
0.617365 0.244175 0.10486
0.642496 0.251789 0.108309
0.667964 0.26009 0.112062
0.693324 0.269032 0.116045
0.719158 0.27895 0.120394
0.74551 0.292134 0.126833
0.772885 0.311589 0.137789
0.800839 0.335592 0.152071
0.828641 0.362799 0.169192
0.856596 0.39443 0.19028
0.880446 0.425345 0.211612
0.0564279 0.202533 0.121416
0.0917983 0.204868 0.112276
0.127977 0.206546 0.102525
0.163607 0.207156 0.0934462
0.199008 0.207645 0.0860761
0.23154 0.206058 0.0818799
0.25977 0.203815 0.0808728
0.284199 0.202258 0.0816358
0.306157 0.202121 0.0831006
0.326909 0.203052 0.0846571
0.347311 0.204974 0.0861677
0.367742 0.207477 0.0874952
0.388586 0.210498 0.0888685
0.410025 0.213916 0.0903182
0.432288 0.217777 0.0918898
0.454932 0.222187 0.0937362
0.477516 0.226917 0.0957809
0.500893 0.232212 0.0981308
0.52459 0.237858 0.100755
0.548806 0.243854 0.103578
0.573327 0.25034 0.10663
0.597986 0.257145 0.109819
0.622629 0.264225 0.1131
0.647822 0.271778 0.116579
0.673091 0.279927 0.120302
0.698268 0.288441 0.124132
0.723949 0.297704 0.128237
0.750317 0.310475 0.134722
0.777691 0.329229 0.145693
0.805341 0.351888 0.159808
0.832868 0.377768 0.176852
0.860655 0.408362 0.197955
0.883818 0.437705 0.218769
0.0547341 0.226276 0.131823
0.0892348 0.228489 0.123384
0.12488 0.230304 0.114015
0.159762 0.231006 0.104891
0.194568 0.231601 0.0974136
0.22916 0.231952 0.0913558
0.261326 0.23032 0.0880293
0.28954 0.228244 0.0875563
0.31429 0.227024 0.0888228
0.336721 0.227008 0.0907301
0.357977 0.22826 0.0927749
0.378637 0.230228 0.0946059
0.399222 0.23267 0.0962844
0.420356 0.235737 0.0980087
0.442191 0.239414 0.099794
0.464027 0.24358 0.101747
0.486076 0.248142 0.103838
0.508812 0.253254 0.106249
0.532052 0.258732 0.108919
0.555795 0.264698 0.111803
0.579767 0.271015 0.11487
0.603967 0.277729 0.11809
0.628641 0.284886 0.121462
0.653361 0.292256 0.124895
0.678325 0.300252 0.128618
0.703502 0.308736 0.132509
0.729015 0.317693 0.136538
0.75523 0.330053 0.143114
0.782635 0.348028 0.154162
0.809934 0.369177 0.168139
0.83714 0.393591 0.185
0.864637 0.422858 0.205905
0.88719 0.450736 0.226291
0.0555581 0.249699 0.141649
0.089128 0.251957 0.134157
0.123705 0.253712 0.125383
0.157763 0.25481 0.116548
0.191959 0.255528 0.108751
0.225574 0.255985 0.102449
0.259861 0.256123 0.0972152
0.291783 0.254841 0.0946517
0.320104 0.253147 0.0948806
0.3449 0.252186 0.0965896
0.367636 0.252415 0.0988022
0.389273 0.25362 0.101106
0.410285 0.25565 0.103304
0.431327 0.258259 0.105348
0.452567 0.261494 0.107286
0.47361 0.265202 0.109316
0.49546 0.269825 0.111696
0.517388 0.274632 0.114137
0.539956 0.279881 0.116793
0.562997 0.285649 0.119722
0.586557 0.291844 0.122835
0.610422 0.298528 0.126146
0.63473 0.305592 0.129625
0.659083 0.312993 0.13315
0.683574 0.320775 0.136828
0.708858 0.32932 0.140871
0.73431 0.338201 0.144991
0.760464 0.350484 0.151873
0.787457 0.367437 0.163012
0.81442 0.387106 0.176837
0.841291 0.409979 0.193378
0.868589 0.43801 0.214206
0.8907 0.464485 0.234302
0.0592813 0.273152 0.151324
0.0916609 0.275257 0.144625
0.124437 0.276936 0.136522
0.157778 0.278401 0.12842
0.191043 0.279225 0.120592
0.22417 0.279866 0.113909
0.257588 0.280217 0.108309
0.291432 0.280491 0.103883
0.322957 0.27953 0.101976
0.350805 0.278141 0.102724
0.375784 0.277485 0.104738
0.398917 0.277806 0.107195
0.42089 0.279225 0.109758
0.442542 0.281498 0.112276
0.463203 0.283818 0.114305
0.484138 0.287587 0.116732
0.504997 0.291539 0.119005
0.526452 0.296147 0.121569
0.548531 0.301289 0.124407
0.570993 0.306874 0.127382
0.59379 0.31281 0.13051
0.617151 0.31931 0.133867
0.640925 0.326284 0.137423
0.66511 0.333761 0.141146
0.689387 0.341543 0.145006
0.714366 0.349874 0.149157
0.73962 0.358373 0.153368
0.765606 0.37055 0.160662
0.792279 0.386908 0.172076
0.819028 0.405753 0.185916
0.845853 0.427573 0.202457
0.872938 0.454429 0.223316
0.894636 0.479667 0.243259
0.0662089 0.296635 0.161334
0.0961013 0.298573 0.15523
0.127886 0.30042 0.147906
0.160113 0.302098 0.140307
0.192416 0.302922 0.13286
0.224994 0.303609 0.126055
0.257893 0.304082 0.120195
0.291142 0.30457 0.115312
0.323903 0.304631 0.111452
0.354421 0.304067 0.110079
0.381888 0.303044 0.111116
0.406958 0.302556 0.113237
0.430564 0.303426 0.115923
0.452766 0.304936 0.118608
0.474052 0.306966 0.12108
0.494362 0.30985 0.1234
0.515038 0.313542 0.125948
0.536339 0.317983 0.128756
0.557671 0.32282 0.131594
0.579614 0.328237 0.134691
0.60177 0.333989 0.137911
0.624582 0.34023 0.141314
0.647944 0.347127 0.145037
0.671473 0.354269 0.148882
0.695613 0.361913 0.152956
0.720027 0.369757 0.157153
0.744945 0.378103 0.1617
0.770916 0.390402 0.16965
0.797452 0.406653 0.181415
0.824186 0.42533 0.195575
0.850782 0.446326 0.212222
0.877638 0.471901 0.233066
0.898787 0.495659 0.25272
0.076051 0.320119 0.171267
0.103716 0.321859 0.165805
0.133593 0.323537 0.159121
0.164065 0.32488 0.151843
0.195636 0.326299 0.144915
0.227253 0.326787 0.137926
0.259556 0.327352 0.13196
0.291951 0.327535 0.126711
0.324468 0.327947 0.122499
0.356512 0.328496 0.119677
0.386389 0.328176 0.118715
0.413428 0.327474 0.119844
0.438315 0.327474 0.122118
0.461448 0.328099 0.12459
0.483635 0.329976 0.127337
0.504509 0.332723 0.130022
0.525383 0.33611 0.132692
0.546197 0.339956 0.135424
0.567117 0.344442 0.138308
0.588586 0.349569 0.141497
0.610361 0.355184 0.144915
0.632654 0.361212 0.148577
0.655451 0.367849 0.152514
0.678584 0.374884 0.15671
0.702098 0.382162 0.161013
0.726238 0.389776 0.165469
0.750912 0.398199 0.170459
0.776761 0.410605 0.178897
0.803174 0.42678 0.190967
0.829664 0.445136 0.205356
0.856062 0.465751 0.22237
0.882719 0.490517 0.243595
0.903456 0.513008 0.263188
0.0871748 0.343297 0.181125
0.112718 0.345144 0.176272
0.140398 0.346807 0.17026
0.169329 0.348104 0.163455
0.199619 0.349386 0.156695
0.230213 0.349935 0.149905
0.262211 0.350652 0.143908
0.294118 0.350958 0.138445
0.326177 0.351614 0.134096
0.358099 0.352346 0.130587
0.389212 0.352728 0.128084
0.418357 0.352667 0.127504
0.4448 0.352285 0.128832
0.46949 0.352514 0.131182
0.492271 0.353796 0.133822
0.513924 0.35613 0.13666
0.534951 0.358938 0.139345
0.555795 0.362402 0.142168
0.576745 0.366598 0.145205
0.597879 0.371252 0.148455
0.619287 0.376486 0.152041
0.641169 0.382376 0.155947
0.663478 0.388663 0.160098
0.686 0.395346 0.164462
0.709148 0.402502 0.16907
0.733013 0.410071 0.173938
0.757382 0.418479 0.179355
0.782986 0.431067 0.188312
0.808988 0.44683 0.200488
0.835172 0.464836 0.215106
0.861402 0.485283 0.232609
0.887877 0.509483 0.254353
0.908339 0.531228 0.274327
0.098558 0.366842 0.191272
0.121965 0.368444 0.186801
0.148028 0.370153 0.181338
0.175463 0.371496 0.175097
0.204578 0.372671 0.168582
0.234409 0.373526 0.162127
0.265538 0.374212 0.156085
0.297124 0.374701 0.15053
0.328878 0.375357 0.145922
0.360357 0.375967 0.142061
0.391546 0.376516 0.138857
0.421805 0.37702 0.136812
0.45005 0.377096 0.136477
0.476265 0.377356 0.13814
0.499825 0.378149 0.140551
0.52224 0.379873 0.143374
0.543938 0.382162 0.146181
0.565087 0.385214 0.149081
0.586236 0.388968 0.152193
0.607431 0.393347 0.155627
0.628687 0.398245 0.159335
0.650187 0.403708 0.163363
0.672114 0.409735 0.167712
0.694179 0.416144 0.17229
0.716899 0.42298 0.177142
0.740597 0.43061 0.182422
0.764736 0.4392 0.188388
0.789563 0.451331 0.197513
0.815229 0.466987 0.210071
0.841108 0.484642 0.22501
0.867155 0.505074 0.243198
0.893446 0.529168 0.265797
0.91368 0.550469 0.286336
0.110124 0.390707 0.201984
0.131762 0.391974 0.197711
0.156542 0.393637 0.192676
0.182727 0.395026 0.186969
0.210742 0.396124 0.18085
0.239719 0.397238 0.174731
0.270008 0.398001 0.168704
0.300847 0.398444 0.163027
0.332143 0.398886 0.158068
0.363317 0.399283 0.15378
0.394415 0.399985 0.150301
0.42504 0.400778 0.147539
0.454185 0.401419 0.14583
0.481315 0.40206 0.145922
0.505867 0.402686 0.147616
0.529366 0.40383 0.150256
0.551949 0.405631 0.153079
0.573816 0.408392 0.15613
0.595331 0.411719 0.15935
0.616724 0.415717 0.162905
0.637812 0.420066 0.166613
0.659175 0.425162 0.170764
0.680873 0.43093 0.175311
0.702617 0.436957 0.180056
0.725109 0.443702 0.185214
0.74844 0.451133 0.190829
0.772152 0.459678 0.197238
0.796689 0.471885 0.206882
0.82211 0.487373 0.219883
0.847669 0.504967 0.235355
0.873411 0.525399 0.254292
0.899382 0.54934 0.277745
0.919142 0.570138 0.298772
0.123812 0.414405 0.213184
0.143664 0.415473 0.209216
0.166949 0.416953 0.204532
0.192111 0.418448 0.199313
0.218769 0.419425 0.19353
0.246616 0.420569 0.187686
0.275929 0.421332 0.18172
0.306111 0.421927 0.175998
0.336797 0.422293 0.170748
0.367666 0.422721 0.166201
0.39855 0.423438 0.162417
0.428916 0.424231 0.159274
0.458061 0.425223 0.156847
0.485145 0.426184 0.155383
0.510781 0.427115 0.155642
0.535546 0.428199 0.157748
0.559152 0.429541 0.160464
0.581674 0.431754 0.163455
0.603754 0.434592 0.166705
0.625345 0.438056 0.170153
0.646754 0.442176 0.174044
0.668177 0.446952 0.178332
0.689723 0.452232 0.182971
0.711421 0.458091 0.187961
0.733669 0.46453 0.193362
0.756619 0.471748 0.199283
0.779995 0.480308 0.206226
0.804181 0.492515 0.216434
0.829129 0.507744 0.229694
0.85452 0.525521 0.24593
0.87982 0.545968 0.265599
0.905257 0.569574 0.289799
0.924559 0.589975 0.311452
0.140703 0.437797 0.22501
0.158618 0.438819 0.221424
0.180072 0.440177 0.21709
0.203754 0.44152 0.212192
0.228779 0.442405 0.206653
0.255543 0.443565 0.201053
0.283513 0.444297 0.195209
0.313283 0.44509 0.189517
0.343435 0.445563 0.18407
0.373892 0.446174 0.17937
0.404166 0.446784 0.175235
0.433783 0.447532 0.17174
0.462089 0.448631 0.168978
0.488792 0.449805 0.166735
0.515175 0.451102 0.165484
0.540963 0.452567 0.166262
0.565484 0.453635 0.168414
0.588754 0.455161 0.17116
0.611536 0.457725 0.174426
0.633585 0.460731 0.177829
0.655558 0.464668 0.181872
0.677073 0.46891 0.186099
0.698665 0.473854 0.190829
0.720455 0.479454 0.196048
0.742626 0.485634 0.201694
0.76524 0.492653 0.207919
0.788312 0.501259 0.215427
0.812039 0.513481 0.226215
0.836484 0.528405 0.23975
0.861372 0.546014 0.256474
0.886107 0.5664 0.27686
0.911086 0.590051 0.302129
0.929824 0.610346 0.324819
0.15906 0.460945 0.237583
0.17557 0.462089 0.234318
0.195071 0.463264 0.230304
0.216815 0.464271 0.225498
0.24036 0.465385 0.220371
0.266041 0.466499 0.214939
0.293004 0.467369 0.209277
0.321935 0.468147 0.20351
0.351492 0.468879 0.198093
0.381308 0.469398 0.193042
0.410742 0.469871 0.188495
0.439048 0.470649 0.184649
0.466209 0.471901 0.181659
0.492958 0.473335 0.179309
0.519448 0.474815 0.177401
0.545647 0.476493 0.176349
0.570764 0.477531 0.177005
0.595178 0.479042 0.179507
0.618677 0.481132 0.18262
0.641459 0.483909 0.186099
0.663798 0.487282 0.189944
0.685573 0.491051 0.19411
0.707347 0.495628 0.198901
0.729381 0.500984 0.204318
0.751644 0.507042 0.210269
0.773953 0.513787 0.216785
0.796689 0.522469 0.224857
0.820127 0.534768 0.23624
0.84419 0.549523 0.250233
0.868254 0.566613 0.267231
0.892409 0.586877 0.288334
0.916762 0.610727 0.314916
0.934813 0.631128 0.338949
0.176944 0.483986 0.250721
0.192508 0.485084 0.247684
0.210712 0.486152 0.24387
0.23125 0.487221 0.23946
0.25333 0.488258 0.234516
0.277638 0.489433 0.229404
0.304189 0.49044 0.22388
0.331823 0.491295 0.218036
0.360433 0.491981 0.21239
0.388983 0.492561 0.207141
0.417288 0.493309 0.202487
0.444404 0.494316 0.198474
0.47097 0.495659 0.195224
0.497642 0.497108 0.192554
0.523903 0.498527 0.190295
0.550027 0.500053 0.18854
0.57554 0.501305 0.187243
0.600763 0.503075 0.188632
0.625055 0.504646 0.191302
0.648386 0.507057 0.194553
0.671321 0.510063 0.198367
0.693462 0.513512 0.202518
0.715648 0.517723 0.207355
0.738048 0.52285 0.21294
0.760403 0.528618 0.21912
0.782605 0.535256 0.226001
0.804913 0.54377 0.234516
0.827985 0.555886 0.246265
0.851484 0.570291 0.260655
0.875334 0.587701 0.278614
0.898894 0.608026 0.300649
0.92221 0.631479 0.328344
0.939315 0.651377 0.35314
0.196094 0.507164 0.264469
0.209674 0.508141 0.261707
0.226505 0.509163 0.258183
0.246357 0.510246 0.253925
0.267597 0.511452 0.249409
0.290654 0.512642 0.244373
0.316136 0.513558 0.238651
0.34258 0.514275 0.232822
0.369894 0.515038 0.227146
0.397101 0.515648 0.221729
0.42388 0.516869 0.217227
0.45005 0.518074 0.213123
0.476158 0.519265 0.209537
0.502541 0.520607 0.2065
0.52871 0.521843 0.203784
0.55462 0.523201 0.201572
0.580484 0.524849 0.200183
0.605951 0.52668 0.199176
0.630793 0.528511 0.20087
0.6551 0.530556 0.203922
0.678508 0.533227 0.207492
0.701305 0.536507 0.211627
0.723873 0.540261 0.216388
0.746319 0.544808 0.221912
0.76875 0.550378 0.228275
0.790982 0.556893 0.235523
0.813138 0.565454 0.244572
0.835966 0.577478 0.256886
0.858961 0.591562 0.271717
0.882094 0.60885 0.290272
0.904936 0.628916 0.313222
0.927443 0.652323 0.342687
0.943847 0.671717 0.36849
0.216007 0.530205 0.279088
0.228779 0.531121 0.276265
0.244297 0.532158 0.27277
0.262592 0.533516 0.268971
0.28249 0.534615 0.264485
0.304768 0.53579 0.259495
0.32871 0.53666 0.253925
0.354269 0.53756 0.248234
0.37966 0.538186 0.242405
0.40502 0.539391 0.237461
0.430594 0.540658 0.232853
0.45626 0.541619 0.228382
0.482292 0.542947 0.224628
0.508446 0.54432 0.221302
0.534249 0.545419 0.218296
0.560082 0.546899 0.216037
0.586069 0.548577 0.214252
0.611017 0.549935 0.212619
0.635889 0.551659 0.211673
0.660731 0.55375 0.213626
0.684657 0.556222 0.21706
0.708019 0.559075 0.221042
0.73109 0.562432 0.225635
0.75407 0.566964 0.231342
0.776699 0.572168 0.237751
0.79884 0.5785 0.245258
0.821225 0.587457 0.255207
0.843778 0.599207 0.267979
0.866331 0.613184 0.283375
0.88864 0.629984 0.302449
0.910536 0.649424 0.326452
0.93257 0.672923 0.358068
0.948379 0.6916 0.384649
0.235966 0.553292 0.293858
0.247639 0.554116 0.291234
0.262135 0.555123 0.287968
0.279301 0.556252 0.284138
0.298222 0.557458 0.27985
0.319081 0.558633 0.274952
0.341802 0.559838 0.269581
0.364782 0.560998 0.264332
0.388342 0.561959 0.258961
0.412558 0.563149 0.253895
0.437522 0.564385 0.249104
0.462898 0.565316 0.24445
0.488701 0.566659 0.240513
0.514427 0.567956 0.237034
0.540078 0.568994 0.233692
0.565789 0.570336 0.2309
0.591379 0.571878 0.228733
0.61677 0.573388 0.227054
0.641306 0.57496 0.225849
0.665858 0.576928 0.225284
0.690379 0.579461 0.227436
0.714366 0.581842 0.231006
0.738033 0.585092 0.235721
0.761334 0.589349 0.241413
0.784329 0.594491 0.248081
0.80676 0.601022 0.256168
0.82884 0.609674 0.266423
0.851026 0.620996 0.279438
0.873243 0.634897 0.29575
0.894697 0.65124 0.315984
0.916121 0.670207 0.341421
0.937392 0.692668 0.373938
0.952911 0.711345 0.402335
0.255116 0.576654 0.30927
0.266621 0.577508 0.306737
0.280537 0.578576 0.3037
0.296193 0.579522 0.299962
0.313863 0.580713 0.295827
0.332891 0.581872 0.291279
0.353414 0.583246 0.286488
0.374884 0.584344 0.281224
0.397345 0.585718 0.276127
0.42089 0.586908 0.27097
0.44538 0.58793 0.265934
0.470405 0.589059 0.26125
0.495872 0.590478 0.257191
0.521111 0.591623 0.253361
0.546441 0.592676 0.249851
0.571954 0.593881 0.246815
0.597436 0.595239 0.244343
0.62324 0.597147 0.242695
0.64741 0.598474 0.240925
0.671672 0.600107 0.239734
0.695979 0.602625 0.239857
0.720714 0.60528 0.242329
0.744823 0.608392 0.246754
0.768231 0.612131 0.252216
0.791257 0.616846 0.258824
0.813855 0.623484 0.267414
0.836072 0.63238 0.278401
0.857984 0.643473 0.292088
0.879576 0.656931 0.309483
0.900633 0.672786 0.331167
0.921462 0.690776 0.357336
0.942123 0.712413 0.390982
0.957198 0.730648 0.42089
0.274525 0.600641 0.325612
0.285069 0.601434 0.323232
0.297734 0.602472 0.320394
0.311833 0.603479 0.316991
0.327657 0.604608 0.313176
0.345251 0.60592 0.30901
0.364446 0.60737 0.304494
0.385107 0.608637 0.299367
0.406973 0.609918 0.294255
0.430091 0.611048 0.289097
0.454108 0.612284 0.284138
0.478416 0.613458 0.279393
0.503273 0.614649 0.274998
0.528176 0.615778 0.270878
0.553124 0.616892 0.267155
0.578531 0.618112 0.26392
0.603983 0.619638 0.261357
0.62948 0.621439 0.259388
0.653742 0.622797 0.257343
0.677943 0.624292 0.255879
0.702007 0.626581 0.255344
0.726513 0.629282 0.25568
0.7505 0.63212 0.258412
0.774319 0.635737 0.263661
0.797803 0.64062 0.27071
0.820478 0.647044 0.279637
0.842603 0.655558 0.291279
0.864378 0.666331 0.306249
0.885359 0.678981 0.324575
0.905974 0.693843 0.346899
0.926345 0.711284 0.374334
0.946654 0.732128 0.4094
0.961257 0.749752 0.44094
0.291386 0.625711 0.344015
0.300938 0.62652 0.341863
0.312383 0.627482 0.339239
0.325414 0.62858 0.336126
0.3402 0.629725 0.332555
0.356939 0.631113 0.328664
0.375494 0.632395 0.324102
0.395422 0.633967 0.319265
0.416678 0.635111 0.314092
0.439551 0.636194 0.308904
0.462562 0.637293 0.303822
0.486595 0.638544 0.29897
0.510842 0.639826 0.294438
0.535561 0.641154 0.290318
0.560388 0.642313 0.286458
0.585473 0.643549 0.282994
0.610574 0.645014 0.280125
0.635538 0.646769 0.277852
0.660319 0.64831 0.275807
0.684642 0.649927 0.274113
0.708553 0.65182 0.273167
0.732525 0.654169 0.272404
0.756146 0.656901 0.273075
0.780072 0.660441 0.276921
0.803677 0.66511 0.28397
0.82649 0.671138 0.293507
0.848585 0.679118 0.305913
0.87013 0.689235 0.321798
0.890806 0.701122 0.340932
0.911131 0.714992 0.363836
0.931182 0.731929 0.392767
0.951202 0.752117 0.430014
0.965103 0.768566 0.46276
0.305592 0.652155 0.364996
0.31458 0.653101 0.363119
0.325307 0.653956 0.360555
0.337942 0.654948 0.357488
0.352422 0.656199 0.354208
0.368551 0.657404 0.350317
0.386389 0.658839 0.346044
0.405783 0.660426 0.341421
0.426505 0.661402 0.336217
0.448844 0.662547 0.331121
0.471138 0.66363 0.325887
0.494926 0.66511 0.321218
0.518837 0.666392 0.316579
0.543282 0.667857 0.312398
0.567773 0.668986 0.308339
0.592508 0.670069 0.304601
0.617441 0.671519 0.301534
0.642252 0.673198 0.299062
0.666972 0.67483 0.297047
0.691295 0.67628 0.295125
0.715526 0.678187 0.29395
0.738888 0.679957 0.292882
0.762112 0.682628 0.292683
0.785626 0.685893 0.294286
0.809003 0.689998 0.299702
0.831922 0.695506 0.309209
0.85417 0.702892 0.322362
0.875441 0.71223 0.33872
0.89601 0.723293 0.358526
0.916259 0.736706 0.382864
0.93611 0.752789 0.413428
0.955352 0.771634 0.452033
0.96875 0.786938 0.486015
0.319966 0.680049 0.388876
0.328191 0.680613 0.386755
0.338445 0.681544 0.384344
0.350698 0.682689 0.381643
0.364797 0.68394 0.378576
0.380331 0.685039 0.374823
0.397375 0.686442 0.370764
0.416312 0.6878 0.366217
0.436728 0.688945 0.361395
0.458488 0.690181 0.356558
0.480613 0.691691 0.351659
0.503883 0.692912 0.346944
0.52752 0.694102 0.342321
0.551339 0.695201 0.337728
0.57554 0.696361 0.333562
0.59997 0.69752 0.329946
0.624872 0.698863 0.326863
0.649805 0.700481 0.324422
0.673899 0.701732 0.322103
0.698039 0.703105 0.32015
0.722408 0.705043 0.318853
0.74583 0.706905 0.317937
0.768719 0.709087 0.317556
0.791562 0.712016 0.317662
0.814252 0.715312 0.319875
0.836988 0.720134 0.327443
0.859159 0.726909 0.340398
0.880507 0.7355 0.357336
0.901106 0.745846 0.377997
0.92105 0.758389 0.403525
0.940597 0.77351 0.435904
0.959091 0.790814 0.475731
0.972198 0.805112 0.510872
