YOYO-Client/Yoyo/Assets.xcassets/Sahara.dataset/Sahara.cube
TITLE "Sahara"
LUT_3D_SIZE 5
0.0881056 0.0524147 0.0440528
0.254658 0.0783856 0.0429694
0.448249 0.12282 0.0565805
0.652262 0.194354 0.0853132
0.867796 0.382528 0.18732
0.0555581 0.249699 0.141649
0.320104 0.253147 0.0948806
0.49546 0.269825 0.111696
0.683574 0.320775 0.136828
0.8907 0.464485 0.234302
0.140703 0.437797 0.22501
0.343435 0.445563 0.18407
0.565484 0.453635 0.168414
0.742626 0.485634 0.201694
0.929824 0.610346 0.324819
0.291386 0.625711 0.344015
0.416678 0.635111 0.314092
0.610574 0.645014 0.280125
0.803677 0.66511 0.28397
0.965103 0.768566 0.46276
0.497642 0.846571 0.670466
0.570855 0.851911 0.655299
0.708812 0.861906 0.629847
0.864576 0.872679 0.610651
0.984085 0.905547 0.696727
0.0797894 0.0937667 0.179873
0.252705 0.113664 0.203662
0.457633 0.164752 0.174212
0.644755 0.217472 0.153826
0.86247 0.394644 0.23154
0.0419165 0.244633 0.276036
0.310842 0.262013 0.222904
0.508629 0.279408 0.200626
0.684138 0.333135 0.205692
0.886854 0.475456 0.27863
0.068101 0.432822 0.358709
0.306371 0.453895 0.298024
0.566613 0.462257 0.251621
0.743694 0.492775 0.273289
0.928405 0.618158 0.36817
0.236027 0.621225 0.430961
0.378378 0.637842 0.396948
0.596521 0.651423 0.346685
0.80592 0.669474 0.342229
0.966934 0.773129 0.493477
0.496056 0.847654 0.693049
0.564889 0.851987 0.675486
0.704509 0.862654 0.648173
0.864485 0.873472 0.623255
0.984619 0.906264 0.706783
0.122576 0.14995 0.293645
0.23209 0.172107 0.335103
0.413596 0.19646 0.369772
0.631662 0.277867 0.340749
0.853895 0.447379 0.386694
0.115602 0.264912 0.375586
0.261631 0.293919 0.391623
0.486946 0.302968 0.379553
0.69453 0.37261 0.349248
0.876341 0.50396 0.39913
0.131685 0.411444 0.45211
0.262379 0.439536 0.463752
0.553277 0.466087 0.401144
0.746792 0.501823 0.3832
0.919432 0.631739 0.463905
0.211353 0.608789 0.561868
0.327047 0.622354 0.538521
0.567147 0.64979 0.480217
0.807492 0.672358 0.45243
0.966522 0.778256 0.568582
0.478691 0.842512 0.742214
0.53959 0.846983 0.725948
0.67892 0.858213 0.695476
0.857572 0.871855 0.659434
0.986618 0.906859 0.735256
0.190097 0.232685 0.419852
0.280324 0.248463 0.44535
0.411185 0.264378 0.500801
0.590631 0.297566 0.518303
0.83505 0.46714 0.535561
0.198917 0.329625 0.490852
0.307622 0.347311 0.500511
0.439857 0.364263 0.530358
0.652003 0.38265 0.53579
0.873838 0.542535 0.561913
0.225391 0.435187 0.543023
0.32668 0.454749 0.554101
0.483879 0.481971 0.554452
0.735042 0.527398 0.539925
0.91487 0.660243 0.589731
0.289601 0.583322 0.607828
0.365988 0.599344 0.614847
0.520439 0.630076 0.618189
0.804623 0.676417 0.574212
0.960418 0.79028 0.668833
0.490242 0.834821 0.792828
0.53228 0.839078 0.792386
0.645106 0.848981 0.771435
0.844068 0.86804 0.731731
0.990494 0.909972 0.784451
0.303944 0.375586 0.581445
0.373816 0.386297 0.593301
0.477928 0.4009 0.624063
0.615137 0.408927 0.674235
0.816083 0.462379 0.69308
0.321736 0.43653 0.621469
0.399008 0.445624 0.627634
0.506722 0.458579 0.648188
0.646281 0.460716 0.696193
0.852628 0.520317 0.706935
0.361425 0.522667 0.674083
0.436881 0.536919 0.680049
0.552834 0.552956 0.683314
0.690654 0.553307 0.718273
0.896574 0.656413 0.733211
0.410086 0.616358 0.708888
0.470359 0.626352 0.713649
0.586725 0.646265 0.717906
0.744198 0.668391 0.726406
0.952682 0.809415 0.785916
0.551766 0.822187 0.816098
0.588159 0.825376 0.816648
0.668864 0.835279 0.820371
0.823392 0.855833 0.813107
0.994522 0.917266 0.854597
