YOYO-Client/Yoyo/Assets.xcassets/Breeze.dataset/Fuji-Color-200.cube
TITLE "Generated by Resolve"
LUT_3D_SIZE 9
0 0 0
0.00343328 0.00784314 0.0112764
0.079408 0.0156863 0.030396
0.230396 0 0.054902
0.458824 0 0.0843214
0.642649 0 0.11519
0.78529 0 0.146075
0.907347 0 0.184802
1 0 0.258824
0 0.0534371 0.0343175
0 0.064271 0.015198
0.0999924 0.0686198 0.0339513
0.287251 0.0372473 0.0612802
0.488487 0 0.0899519
0.655879 0 0.114702
0.790692 0 0.145586
0.905882 0 0.183886
0.999023 0.0377508 0.251957
0 0.187259 0.0862745
0 0.182361 0.0681315
0 0.235294 0.010544
0.393622 0.252934 0.0284276
0.561273 0.171572 0.0789197
0.695094 0.0884871 0.111269
0.808087 0.0220645 0.142153
0.908339 0.0481575 0.182971
0.997055 0.19118 0.246082
0 0.355886 0.141665
0 0.35491 0.129412
0 0.345953 0.0780652
0.0358434 0.434379 0
0.616175 0.467643 0
0.747555 0.386328 0.0686198
0.835294 0.32549 0.127443
0.918318 0.309499 0.175799
0.99559 0.347066 0.237247
0 0.4804 0.190188
0 0.488487 0.184802
0 0.471077 0.147066
0 0.489219 0.0654459
0.254902 0.587259 0
0.739467 0.622797 0
0.851957 0.576471 0.113725
0.924514 0.528923 0.179171
0.992157 0.517647 0.247059
0 0.590204 0.246082
0 0.597543 0.244907
0 0.587747 0.221073
0 0.58291 0.169604
0 0.62182 0.0720531
0.459861 0.695094 0
0.817395 0.728923 0.153429
0.920104 0.711452 0.240192
0.983337 0.682353 0.300984
0 0.699016 0.327459
0 0.699382 0.325612
0 0.692897 0.304906
0 0.688243 0.268635
0 0.695094 0.209796
0.00772107 0.730388 0.147066
0.613474 0.784558 0.159564
0.875486 0.813107 0.310903
0.969604 0.809812 0.403922
0 0.796078 0.446082
0 0.796078 0.438666
0 0.792157 0.423529
0 0.791363 0.399512
0 0.787747 0.353674
0.0109102 0.796872 0.307851
0.43505 0.826474 0.296696
0.736706 0.864713 0.356313
0.924514 0.892149 0.491173
0.309804 0.905882 0.647059
0.322057 0.905882 0.647059
0.324514 0.901961 0.635294
0.339712 0.901961 0.619608
0.358816 0.898039 0.590188
0.420096 0.898039 0.555398
0.53431 0.906859 0.537255
0.68481 0.925978 0.553429
0.843137 0.956863 0.623529
0 0.0112764 0.0652018
0.0102998 0.00784314 0.076524
0.108827 0.0235294 0.0730449
0.271077 0.00164797 0.103426
0.4701 0 0.124514
0.630884 0 0.14197
0.769482 0 0.165194
0.895582 0 0.203494
1 0 0.266178
0 0.0715648 0.0754864
0 0.082475 0.0838788
0.121569 0.0838788 0.094728
0.311879 0.0637217 0.113954
0.492409 0 0.129656
0.644587 0 0.145403
0.778607 0 0.168627
0.897124 0 0.203311
0.997543 0.0261692 0.266178
0 0.238239 0.145098
0 0.227924 0.136156
0.0261997 0.254749 0.0958572
0.404227 0.244465 0.113725
0.553429 0.175189 0.129839
0.682368 0.106981 0.148531
0.797055 0.045594 0.171664
0.903426 0.0621347 0.204685
0.995102 0.190066 0.263233
0 0.39443 0.193927
0 0.389212 0.183032
0 0.363775 0.137255
0.141238 0.439216 0.0559396
0.623377 0.458 0.0911116
0.739712 0.375601 0.13341
0.829374 0.321569 0.167208
0.913085 0.309133 0.204715
0.994125 0.34902 0.2598
0 0.511025 0.232349
0 0.515435 0.228916
0 0.492348 0.193133
0 0.499016 0.127947
0.326833 0.58909 0.00857557
0.745159 0.620096 0.115282
0.850004 0.571084 0.171267
0.92105 0.525002 0.213947
0.988479 0.517647 0.2701
0 0.6103 0.28481
0 0.619654 0.284916
0 0.605982 0.259312
0 0.593133 0.207965
0 0.624506 0.135637
0.492348 0.695094 0.0775006
0.822828 0.728923 0.216785
0.920104 0.707835 0.279408
0.983337 0.681376 0.32665
0 0.708827 0.360174
0 0.713726 0.360845
0 0.706584 0.33959
0 0.696986 0.300053
0 0.699016 0.243259
0.0738994 0.733013 0.192645
0.631617 0.784558 0.214374
0.879088 0.812741 0.34728
0.969604 0.810788 0.427939
0 0.803922 0.4701
0 0.803494 0.469551
0 0.799512 0.453819
0 0.795544 0.423041
0 0.79118 0.376715
0.0233616 0.799023 0.330388
0.458991 0.826474 0.323919
0.74374 0.864713 0.382788
0.925002 0.892653 0.514214
0.352453 0.905882 0.662257
0.372061 0.909804 0.666178
0.368139 0.905882 0.654414
0.375799 0.901961 0.632837
0.387747 0.898039 0.601968
0.439216 0.898039 0.570581
0.545098 0.906859 0.551598
0.688731 0.925978 0.564706
0.847059 0.956863 0.634806
0 0.0343175 0.201953
0 0.030396 0.222065
0.194369 0 0.233341
0.389212 0 0.187747
0.5402 0 0.196078
0.667643 0 0.217029
0.787259 0 0.233326
0.899504 0 0.260288
1 0 0.315679
0 0.105882 0.196567
0 0.103639 0.212741
0.237003 0.0740215 0.244846
0.405737 0.0406806 0.199451
0.548043 0 0.21207
0.672068 0 0.223178
0.789792 0 0.233585
0.897551 0 0.2598
0.997055 0.0977951 0.315694
0 0.263233 0.219608
0 0.274846 0.228092
0.260227 0.278737 0.238849
0.425498 0.246815 0.229404
0.565682 0.203311 0.225498
0.686671 0.157809 0.226841
0.799634 0.120897 0.238849
0.899504 0.123812 0.262257
0.995102 0.219608 0.311772
0 0.462257 0.289708
0 0.462867 0.294209
0.134615 0.422309 0.264698
0.349248 0.455085 0.219181
0.639887 0.440192 0.235294
0.735088 0.367834 0.236408
0.823529 0.330419 0.247181
0.906859 0.321309 0.267506
0.988357 0.359808 0.312627
0 0.560784 0.325978
0 0.563241 0.326406
0 0.536278 0.295583
0 0.51986 0.239155
0.449516 0.59411 0.207111
0.760784 0.615442 0.259068
0.849012 0.561761 0.271565
0.916671 0.5196 0.286641
0.984314 0.513726 0.323522
0 0.642527 0.361273
0 0.646876 0.364614
0 0.632624 0.339712
0 0.613855 0.292851
0.0283055 0.631128 0.237995
0.560662 0.697551 0.232654
0.834775 0.728923 0.326955
0.917647 0.702373 0.355398
0.979416 0.676341 0.380392
0 0.723278 0.419608
0 0.728435 0.42092
0 0.718624 0.400549
0 0.707652 0.36434
0 0.702083 0.311391
0.282109 0.732967 0.275212
0.667826 0.78529 0.312322
0.886244 0.812741 0.424872
0.969604 0.809812 0.479652
0.0137179 0.810422 0.514336
0.0124361 0.810788 0.513832
0.0108186 0.806867 0.497887
0.0138247 0.799161 0.468132
0.0210727 0.791669 0.424018
0.21796 0.798718 0.38056
0.504936 0.826474 0.380179
0.758938 0.864713 0.439216
0.928923 0.895216 0.558831
0.409812 0.909804 0.685298
0.425498 0.912871 0.689219
0.421561 0.909804 0.677455
0.425498 0.905882 0.659312
0.435294 0.901961 0.629908
0.475853 0.899138 0.597543
0.567651 0.906859 0.577691
0.700496 0.925978 0.590814
0.854902 0.956863 0.657847
0 0.0769665 0.3897
0 0.0717479 0.406378
0.173404 0.00355535 0.453437
0.553002 0 0.460288
0.680888 0 0.357351
0.749996 0 0.296086
0.831373 0 0.318135
0.917342 0 0.34902
1 0.0818647 0.399512
0 0.149996 0.385779
0 0.148638 0.40766
0.223529 0.11078 0.4533
0.565255 0 0.457847
0.680797 0 0.35491
0.746944 0 0.30753
0.830274 0 0.328084
0.913314 0 0.351141
0.998047 0.145586 0.39559
0 0.304051 0.38088
0 0.308339 0.387381
0.268635 0.298222 0.415778
0.567117 0.249134 0.438529
0.66421 0.207233 0.349081
0.737194 0.20351 0.334798
0.821942 0.189792 0.343099
0.906508 0.188373 0.352102
0.992157 0.254047 0.387747
0 0.460227 0.37052
0.107958 0.470527 0.381796
0.337621 0.471504 0.387121
0.532967 0.468635 0.396994
0.641398 0.425238 0.371786
0.731807 0.38584 0.354971
0.819608 0.359258 0.349508
0.902449 0.34461 0.354406
0.983825 0.374945 0.38529
0.211032 0.614221 0.426474
0.305638 0.622065 0.440681
0.399268 0.607538 0.440253
0.440955 0.570809 0.403922
0.584558 0.603555 0.377813
0.770336 0.598535 0.397757
0.840253 0.547189 0.38291
0.907591 0.513481 0.37818
0.976471 0.513726 0.399512
0.279957 0.684306 0.474449
0.325734 0.687739 0.481865
0.350484 0.673075 0.464714
0.359808 0.650141 0.425925
0.39173 0.640681 0.370123
0.645167 0.701122 0.387686
0.845853 0.725856 0.453925
0.913725 0.692088 0.447623
0.975494 0.666606 0.45098
0.250614 0.74461 0.511894
0.285618 0.747921 0.515877
0.289311 0.74023 0.498863
0.291417 0.725978 0.465797
0.30074 0.712077 0.413718
0.442695 0.731991 0.383932
0.715679 0.78529 0.435447
0.895582 0.812741 0.521248
0.969604 0.804044 0.544121
0.283879 0.818631 0.582345
0.306035 0.820584 0.584161
0.301762 0.814527 0.568994
0.301366 0.806867 0.541985
0.307256 0.798383 0.499352
0.381857 0.798535 0.456016
0.563485 0.822873 0.455528
0.781537 0.864775 0.515679
0.937072 0.896086 0.620096
0.487251 0.916182 0.724025
0.497734 0.917647 0.727947
0.495094 0.913725 0.716793
0.497551 0.909804 0.700496
0.504173 0.905882 0.676219
0.529412 0.901961 0.642649
0.601465 0.909804 0.619974
0.718318 0.925978 0.629099
0.862745 0.956863 0.695094
0 0.139208 0.592157
0 0.133577 0.605631
0.142153 0.0857862 0.632349
0.526955 0 0.662745
0.773526 0 0.638239
0.863722 0 0.533333
0.908827 0 0.447059
0.953918 0 0.429908
1 0.15491 0.478431
0 0.211276 0.58407
0 0.205173 0.595865
0.202701 0.17525 0.620584
0.535698 0.0211032 0.651957
0.773526 0 0.633463
0.859464 0 0.5299
0.902144 0 0.445655
0.948074 0.0516823 0.43508
1 0.204166 0.482109
0 0.3402 0.54902
0 0.3402 0.561578
0.275364 0.327443 0.583337
0.537255 0.286641 0.620401
0.762493 0.222309 0.616663
0.842649 0.170336 0.518196
0.882719 0.211154 0.447913
0.933822 0.240192 0.448341
0.998535 0.293141 0.488243
0.0294194 0.480644 0.520592
0.184558 0.487251 0.529015
0.351415 0.483085 0.530205
0.529839 0.477974 0.559075
0.73431 0.458091 0.584558
0.801251 0.419608 0.498283
0.851469 0.405203 0.469368
0.913725 0.381033 0.467887
0.986526 0.39559 0.487739
0.225483 0.605875 0.509804
0.318135 0.613855 0.521569
0.435294 0.612741 0.524514
0.571817 0.612741 0.531991
0.692653 0.612741 0.544121
0.760784 0.579904 0.516182
0.828672 0.544366 0.492164
0.896452 0.513359 0.473411
0.972549 0.512749 0.484321
0.446815 0.711513 0.559564
0.493233 0.7178 0.572061
0.543816 0.712505 0.577264
0.602029 0.702205 0.577447
0.621073 0.67451 0.540444
0.723751 0.70692 0.539437
0.848951 0.711696 0.561212
0.90573 0.669612 0.529747
0.968872 0.649271 0.523033
0.499504 0.775494 0.617655
0.521019 0.778439 0.625177
0.536278 0.771206 0.616663
0.548531 0.756619 0.596078
0.55024 0.736034 0.553674
0.582666 0.733822 0.507347
0.762371 0.787869 0.554894
0.904173 0.811093 0.613733
0.969604 0.793133 0.609796
0.493385 0.836027 0.668879
0.507347 0.837507 0.672053
0.506615 0.831861 0.660777
0.508339 0.821973 0.639216
0.50956 0.811399 0.604044
0.523934 0.802457 0.554971
0.625483 0.82237 0.543328
0.808057 0.864988 0.602457
0.948531 0.896086 0.690929
0.572549 0.92549 0.774517
0.578683 0.92549 0.776471
0.578439 0.922057 0.768627
0.582361 0.918379 0.756863
0.587259 0.913725 0.738231
0.600732 0.909804 0.708339
0.641672 0.910292 0.675975
0.739223 0.929412 0.679164
0.878431 0.960784 0.741176
0 0.220096 0.731365
0 0.212253 0.735302
0.193011 0.182849 0.745586
0.476036 0.0803235 0.763729
0.724514 0 0.783581
0.890684 0 0.766659
0.96997 0 0.695094
1 0 0.601465
1 0.151476 0.570596
0 0.273533 0.720592
0 0.268772 0.726131
0.241062 0.248035 0.736156
0.491356 0.187747 0.755398
0.725155 0.0249332 0.7776
0.88658 0 0.764706
0.963241 0 0.689586
0.997086 0 0.599344
1 0.213718 0.568627
0 0.379294 0.691173
0.133043 0.378973 0.698039
0.314549 0.367071 0.709072
0.51133 0.34226 0.731746
0.721325 0.300984 0.759991
0.874083 0.271336 0.750973
0.946838 0.228214 0.677211
0.982849 0.245838 0.593484
1 0.317769 0.571572
0.184375 0.500496 0.650065
0.268132 0.504097 0.65539
0.385901 0.500298 0.663645
0.531456 0.496132 0.687678
0.701961 0.490959 0.726955
0.847318 0.477791 0.731029
0.914336 0.434699 0.657252
0.954208 0.416358 0.583215
1 0.429404 0.579904
0.308339 0.610544 0.632593
0.367742 0.615686 0.638636
0.452384 0.612497 0.639216
0.56228 0.61326 0.644358
0.682353 0.618631 0.67451
0.81796 0.619883 0.705394
0.87451 0.578927 0.634195
0.916823 0.545922 0.59118
0.979904 0.528923 0.596567
0.431373 0.704417 0.630396
0.473045 0.707057 0.639216
0.532067 0.706859 0.642206
0.614359 0.708186 0.648951
0.702937 0.711757 0.661219
0.788128 0.715084 0.67657
0.837659 0.684749 0.643076
0.893568 0.649943 0.608942
0.96318 0.632288 0.601465
0.568627 0.790204 0.680888
0.591714 0.793133 0.688228
0.621103 0.793133 0.692164
0.667582 0.791012 0.700862
0.713237 0.784985 0.704173
0.726833 0.761273 0.667277
0.808606 0.792401 0.677089
0.908827 0.797055 0.695583
0.965682 0.770092 0.669612
0.610971 0.855207 0.744121
0.623301 0.85864 0.747814
0.637385 0.854902 0.747555
0.656367 0.850599 0.744488
0.668223 0.839368 0.727764
0.666972 0.821561 0.685985
0.696574 0.818631 0.643626
0.838239 0.868788 0.69926
0.958328 0.896086 0.763546
0.653925 0.937255 0.824994
0.657847 0.937255 0.82678
0.663233 0.934798 0.826474
0.672618 0.933883 0.822553
0.67892 0.929412 0.809552
0.682841 0.923033 0.787259
0.694118 0.917647 0.748531
0.767651 0.9299 0.740688
0.895582 0.964706 0.799023
0.00195315 0.308827 0.830396
0.130144 0.301106 0.830396
0.312016 0.283085 0.837247
0.497917 0.243137 0.848524
0.686275 0.174014 0.866667
0.853437 0.0629892 0.880385
0.966674 0.0132296 0.86569
1 0 0.81532
1 0.147051 0.750973
0.0965744 0.349508 0.822065
0.200687 0.346731 0.826474
0.343542 0.331991 0.830762
0.510781 0.30222 0.844068
0.689891 0.257359 0.862562
0.850858 0.206668 0.876295
0.962158 0.176715 0.860792
1 0.133059 0.811337
1 0.220706 0.749142
0.233082 0.435538 0.80589
0.293599 0.434562 0.808057
0.394553 0.426719 0.815503
0.534066 0.412589 0.827451
0.691539 0.393622 0.848402
0.840864 0.372305 0.864988
0.947433 0.354162 0.852506
1 0.314458 0.802853
1 0.338231 0.742641
0.323278 0.537621 0.775006
0.372305 0.540749 0.781018
0.449516 0.535256 0.786465
0.556863 0.534798 0.801099
0.686275 0.532113 0.825055
0.8215 0.526833 0.848142
0.924422 0.511299 0.839216
0.988846 0.469047 0.789883
1 0.457237 0.731243
0.389212 0.628428 0.748531
0.429419 0.632349 0.752453
0.489342 0.630396 0.75465
0.576959 0.630396 0.763973
0.679652 0.634318 0.79118
0.799023 0.638239 0.824018
0.902449 0.629404 0.826474
0.96054 0.588113 0.772
1 0.563729 0.715679
0.460914 0.710292 0.740688
0.492287 0.71429 0.745586
0.5364 0.714214 0.746197
0.603922 0.712383 0.749889
0.683146 0.712383 0.756619
0.774502 0.7196 0.786267
0.87892 0.722698 0.810056
0.928176 0.684306 0.74963
0.978058 0.653559 0.714214
0.546807 0.78529 0.744854
0.570245 0.788968 0.750729
0.603677 0.788968 0.754467
0.657938 0.79118 0.75996
0.721447 0.792157 0.767529
0.789212 0.796078 0.777722
0.856001 0.799329 0.78854
0.897032 0.766827 0.752941
0.957839 0.742885 0.732113
0.65037 0.865202 0.792523
0.665034 0.868635 0.799023
0.686885 0.868635 0.802457
0.718502 0.872053 0.807584
0.758572 0.872053 0.815198
0.79202 0.865202 0.816175
0.796078 0.838239 0.77705
0.876478 0.873411 0.796887
0.968627 0.888731 0.826108
0.711772 0.945098 0.863722
0.719478 0.945098 0.867643
0.731121 0.94583 0.867643
0.747051 0.947921 0.871565
0.766674 0.947555 0.875486
0.775494 0.942153 0.867521
0.775494 0.932601 0.840192
0.806378 0.933822 0.811154
0.922545 0.968627 0.860792
0.384802 0.434318 0.911269
0.41471 0.430823 0.914702
0.481987 0.422187 0.917769
0.579904 0.40264 0.922545
0.694606 0.369604 0.932113
0.817655 0.329412 0.942153
0.931868 0.293507 0.948653
1 0.285786 0.937804
1 0.301472 0.911772
0.406317 0.467643 0.910353
0.43769 0.464759 0.910842
0.497124 0.456321 0.914702
0.587045 0.440055 0.918624
0.69752 0.41323 0.928191
0.816236 0.377005 0.939025
0.927581 0.347601 0.945586
1 0.341054 0.934264
1 0.347066 0.907347
0.446571 0.531365 0.899382
0.472938 0.530282 0.900496
0.524514 0.524727 0.904082
0.600977 0.513191 0.91078
0.698955 0.495766 0.918807
0.810391 0.470726 0.930739
0.916915 0.452537 0.938231
1 0.442969 0.929534
1 0.435416 0.902937
0.488228 0.604898 0.883818
0.511925 0.60766 0.885298
0.552834 0.602853 0.889036
0.61648 0.596872 0.895399
0.699077 0.585931 0.904418
0.798901 0.573343 0.918624
0.903441 0.562387 0.929107
0.986877 0.552789 0.922545
1 0.532357 0.894606
0.510048 0.673777 0.860792
0.532876 0.677455 0.866178
0.5682 0.675303 0.867887
0.624842 0.669612 0.875334
0.696574 0.664454 0.885664
0.784802 0.659312 0.902602
0.885542 0.657359 0.919112
0.969818 0.649271 0.914946
1 0.620829 0.886275
0.527459 0.738231 0.848707
0.547555 0.740688 0.852445
0.578073 0.73727 0.852445
0.626657 0.73431 0.852628
0.689799 0.731868 0.859312
0.768444 0.732158 0.87892
0.866972 0.737789 0.905074
0.953918 0.735363 0.90724
1 0.704906 0.87451
0.566171 0.800488 0.842649
0.583719 0.803433 0.845594
0.609934 0.803433 0.845594
0.648875 0.801373 0.849515
0.701045 0.798291 0.850492
0.762753 0.793576 0.852567
0.843137 0.803372 0.87718
0.938247 0.812146 0.900069
0.988724 0.780392 0.858335
0.634318 0.868193 0.849943
0.649012 0.868635 0.853376
0.667643 0.868635 0.856428
0.701961 0.869062 0.85687
0.74461 0.869062 0.860792
0.796567 0.872541 0.865202
0.857847 0.876478 0.873899
0.921416 0.886625 0.887968
0.968627 0.857359 0.865629
0.733333 0.94902 0.894606
0.741176 0.94902 0.898528
0.75552 0.94902 0.898528
0.778622 0.952941 0.902449
0.806134 0.952941 0.908339
0.841184 0.956863 0.915679
0.872541 0.960784 0.922545
0.879896 0.953002 0.906859
0.957351 0.980392 0.926467
0.619608 0.611765 0.980392
0.627451 0.608331 0.980392
0.650004 0.6 0.980392
0.68481 0.581857 0.984314
0.741176 0.55491 0.988235
0.816175 0.520104 0.992157
0.900984 0.485298 1
0.989212 0.462745 1
1 0.47451 0.996078
0.624994 0.628916 0.975982
0.632898 0.625498 0.976471
0.652445 0.61471 0.979904
0.687556 0.59823 0.980392
0.740688 0.573037 0.984314
0.814404 0.541665 0.991852
0.900496 0.510292 0.999512
0.985718 0.490196 1
1 0.493141 0.99559
0.638239 0.658824 0.972549
0.644114 0.658824 0.972549
0.662745 0.65098 0.975494
0.694606 0.63566 0.976471
0.744121 0.61471 0.980392
0.811887 0.590692 0.987625
0.893141 0.562737 0.995346
0.977935 0.543008 0.999023
1 0.544121 0.99118
0.651469 0.703929 0.967163
0.660471 0.701778 0.967163
0.675853 0.696086 0.968261
0.702998 0.686702 0.970153
0.746807 0.6701 0.97377
0.807782 0.649943 0.980392
0.884932 0.627939 0.988235
0.966171 0.61207 0.994614
1 0.607843 0.988235
0.660777 0.750973 0.958831
0.668635 0.750988 0.958831
0.683818 0.745098 0.960784
0.710292 0.737255 0.962737
0.748043 0.727459 0.966659
0.800977 0.712993 0.973281
0.874998 0.697551 0.982361
0.954406 0.687739 0.988235
1 0.6804 0.984314
0.658335 0.798047 0.950484
0.665995 0.798047 0.950484
0.681498 0.794125 0.950484
0.710292 0.790204 0.954406
0.748775 0.782361 0.958328
0.798047 0.774502 0.964706
0.863233 0.766049 0.974014
0.942641 0.760113 0.984314
1 0.756374 0.981857
0.652949 0.843137 0.94313
0.660655 0.843137 0.94313
0.675486 0.840925 0.946075
0.704417 0.839216 0.947051
0.742641 0.837263 0.949996
0.793133 0.833204 0.953918
0.853925 0.827451 0.96495
0.930877 0.831373 0.977813
1 0.835294 0.981369
0.673533 0.899504 0.942153
0.677882 0.899504 0.942153
0.693141 0.896086 0.942153
0.718624 0.899504 0.945586
0.752941 0.899504 0.949508
0.796567 0.899504 0.953429
0.850004 0.896086 0.957351
0.919112 0.899931 0.97261
1 0.911269 0.984314
0.741176 0.964706 0.952941
0.745098 0.964706 0.952941
0.756863 0.964706 0.952941
0.778927 0.964706 0.956863
0.80589 0.968627 0.960784
0.844602 0.968627 0.964706
0.888243 0.976471 0.972549
0.938231 0.984314 0.98088
1 0.996078 1
