YOYO-Client/Yoyo/Assets.xcassets/Breeze.dataset/Fuji-Color-200.cube
TITLE "Generated by Resolve"
LUT_3D_SIZE 33
0 0 0
0 0 0
0 0.00367742 0.00367742
0 0.00392157 0.00747692
0.00343328 0.00784314 0.0112764
0.0144656 0.0117647 0.0150759
0.0330816 0.0149538 0.0196078
0.0562448 0.0156863 0.0265965
0.079408 0.0156863 0.030396
0.109316 0.0156863 0.0352941
0.146807 0.0129854 0.0419165
0.185412 0.00526436 0.0496376
0.230396 0 0.054902
0.285298 0 0.0611582
0.347051 0 0.0728008
0.404898 0 0.0805219
0.458824 0 0.0843214
0.509071 0 0.0920272
0.559319 0 0.0997482
0.601709 0 0.107469
0.642649 0 0.11519
0.681254 0 0.122911
0.715938 0 0.126711
0.750607 0 0.134432
0.78529 0 0.146075
0.81912 0 0.153796
0.850004 0 0.162249
0.880262 0 0.173159
0.907347 0 0.184802
0.930877 0 0.196811
0.957595 0 0.212253
0.984802 0 0.227939
1 0 0.258824
0 0.00772107 0.0037995
0 0.00772107 0.0037995
0 0.0116274 0.00392157
0 0.0155489 0.00747692
0.000106813 0.0155642 0.0112764
0.0144656 0.0194858 0.0150759
0.0299992 0.0226749 0.0196078
0.0523537 0.0234073 0.0265965
0.079408 0.0234073 0.030396
0.109316 0.0234073 0.038117
0.144121 0.0195163 0.0419165
0.185412 0.0129854 0.0496376
0.230396 0.00289921 0.0572824
0.289143 0 0.0650797
0.347051 0 0.0728008
0.402823 0 0.0805219
0.456855 0 0.0843214
0.509071 0 0.0920272
0.555398 0 0.0997482
0.600122 0 0.107469
0.640269 0 0.11519
0.677455 0 0.119081
0.714748 0 0.126711
0.749538 0 0.134432
0.784314 0 0.14313
0.816144 0 0.153796
0.850004 0 0.162249
0.877058 0 0.173159
0.904036 0 0.184802
0.930526 0 0.19646
0.95404 0 0.208347
0.984802 0 0.227817
1 0 0.258824
0 0.0191196 0.0115206
0 0.0191196 0.00772107
0 0.0228122 0.00415045
0 0.0266117 0.00784314
0 0.0304265 0.0117342
0.010544 0.0308843 0.0150759
0.0292058 0.0308843 0.0196078
0.0523232 0.0311284 0.0265965
0.0793469 0.0311284 0.030396
0.111955 0.0311284 0.038117
0.146807 0.0272068 0.0431373
0.187823 0.0207065 0.0496376
0.238819 0.00662242 0.0573587
0.294636 0 0.0650797
0.352453 0 0.0728008
0.406744 0 0.0805219
0.460655 0 0.0881056
0.509071 0 0.0920272
0.555398 0 0.0997482
0.600122 0 0.107469
0.638727 0 0.11519
0.677333 0 0.11899
0.714702 0 0.126711
0.749508 0 0.134432
0.784314 0 0.142153
0.815198 0 0.153796
0.846281 0 0.161517
0.876967 0 0.173159
0.903426 0 0.181582
0.927184 0 0.193118
0.953689 0 0.208331
0.98088 0 0.224262
1 0 0.254902
0 0.0310063 0.0192416
0 0.0345617 0.0188907
0 0.0345617 0.0116426
0 0.0384833 0.0113985
0 0.0458381 0.0148775
0.0069276 0.0463264 0.0156863
0.02916 0.0460212 0.0196078
0.0551003 0.0463264 0.0265965
0.0823529 0.0424964 0.0313726
0.115785 0.0424048 0.038117
0.150729 0.039704 0.0458381
0.197803 0.0319829 0.0496376
0.251713 0.0180362 0.0573587
0.305974 0.00288396 0.0650797
0.360174 0 0.0728008
0.412329 0 0.0805219
0.462562 0 0.0882429
0.512627 0 0.0920272
0.555398 0 0.0997482
0.600122 0 0.107469
0.638727 0 0.113725
0.677333 0 0.11899
0.715816 0 0.126711
0.750515 0 0.134432
0.784314 0 0.142153
0.817975 0 0.153796
0.846082 0 0.161517
0.876341 0 0.173159
0.900328 0 0.181369
0.926589 0 0.192889
0.949996 0 0.204776
0.977447 0 0.223896
1 0 0.251347
0 0.0534371 0.0343175
0 0.0534371 0.030396
0 0.0534371 0.0264744
0 0.0538796 0.0189975
0 0.064271 0.015198
0.000411994 0.071931 0.0189975
0.0273899 0.0759747 0.022797
0.0649424 0.0720531 0.0273442
0.0999924 0.0686198 0.0339513
0.137133 0.0647135 0.0415503
0.180301 0.0585794 0.0458381
0.233707 0.0508583 0.0535592
0.287251 0.0372473 0.0612802
0.339269 0.0155642 0.0684977
0.391913 0 0.0762188
0.440208 0 0.0839399
0.488487 0 0.0899519
0.533349 0 0.0954604
0.577905 0 0.103182
0.616983 0 0.109514
0.655879 0 0.114702
0.691051 0 0.122423
0.724666 0 0.130144
0.756985 0 0.137865
0.790692 0 0.145586
0.821576 0 0.153307
0.851804 0 0.161761
0.879332 0 0.172671
0.905882 0 0.183886
0.929366 0 0.195789
0.955642 0 0.207355
0.982238 0 0.226322
0.999023 0.0377508 0.251957
0 0.0732891 0.0425269
0 0.0766003 0.0419318
0 0.0766003 0.0380255
0 0.0732891 0.0311284
0 0.0771344 0.0234073
0 0.0888685 0.0195163
0.00248722 0.10219 0.0201114
0.0573739 0.106874 0.0265965
0.107378 0.102815 0.0318303
0.156252 0.0984512 0.038117
0.205264 0.0922866 0.0460212
0.255604 0.0823835 0.0535592
0.307362 0.0704662 0.0612802
0.357595 0.0523384 0.0690013
0.406378 0.0267185 0.0767224
0.454414 0.00309758 0.0844434
0.499077 0 0.0885481
0.543755 0 0.0959487
0.58471 0 0.10367
0.623652 0 0.107836
0.660395 0 0.11519
0.695583 0 0.122911
0.727504 0 0.130632
0.761273 0 0.138354
0.792157 0 0.146075
0.823041 0 0.153796
0.853925 0 0.162249
0.880888 0 0.173159
0.907347 0 0.184802
0.93051 0 0.196445
0.954498 0 0.208331
0.98088 0 0.227817
1 0.0904402 0.254902
0 0.0990158 0.0541695
0 0.0997482 0.0534524
0 0.0997482 0.0495613
0 0.0961318 0.045655
0 0.0992599 0.0382391
0 0.106493 0.0273289
0 0.121813 0.0202029
0.0150912 0.143099 0.0203403
0.107973 0.150912 0.0272068
0.174228 0.148898 0.0349279
0.228656 0.138476 0.042649
0.279896 0.127443 0.05037
0.32987 0.115434 0.0612802
0.378805 0.100298 0.0690013
0.426719 0.0823529 0.0735332
0.469856 0.0580606 0.0808576
0.514214 0.027451 0.0882429
0.555047 0.00169375 0.0959487
0.595346 0 0.102281
0.630762 0 0.107469
0.667887 0 0.11519
0.700603 0 0.122911
0.733577 0 0.129641
0.764462 0 0.135164
0.795529 0 0.146075
0.82623 0 0.153796
0.853925 0 0.161654
0.880888 0 0.173159
0.907347 0 0.18201
0.93051 0 0.192889
0.953674 0 0.208331
0.980789 0.00199893 0.223926
1 0.129656 0.251713
0 0.125978 0.0658122
0 0.129046 0.0649577
0 0.129046 0.0620737
0 0.129046 0.0574807
0 0.129046 0.0505074
0 0.133211 0.0420386
0 0.144976 0.0311284
0 0.170459 0.0202792
0.0403449 0.192981 0.0140383
0.167636 0.204898 0.0202182
0.245396 0.201617 0.0285344
0.305638 0.187991 0.0395819
0.356909 0.172549 0.0509041
0.403555 0.157107 0.0620127
0.447669 0.13994 0.0697337
0.490196 0.120226 0.0774548
0.529656 0.10013 0.0851759
0.568261 0.0757 0.0920272
0.605524 0.0451057 0.0997482
0.640803 0.0182803 0.107469
0.675608 0 0.112139
0.706493 0 0.119554
0.739193 0 0.126711
0.771313 0 0.134432
0.8 0 0.142367
0.829358 0 0.153796
0.857114 0 0.161517
0.883467 0 0.173159
0.907347 0 0.180987
0.93022 0 0.192599
0.950805 0.0015259 0.20441
0.976959 0.0735485 0.223896
1 0.168261 0.25098
0 0.187259 0.0862745
0 0.188235 0.0834211
0 0.18529 0.082414
0 0.182635 0.0758526
0 0.182361 0.0681315
0 0.182361 0.0604105
0 0.190265 0.0465705
0 0.208209 0.0288243
0 0.235294 0.010544
0.0953078 0.264607 0.00195315
0.248585 0.27451 0.00361639
0.333944 0.268376 0.0133211
0.393622 0.252934 0.0284276
0.442618 0.232227 0.0450294
0.485115 0.211704 0.0577859
0.524147 0.190814 0.0697337
0.561273 0.171572 0.0789197
0.596567 0.150759 0.0881056
0.6318 0.130877 0.0958267
0.663233 0.112474 0.103548
0.695094 0.0884871 0.111269
0.723033 0.0662394 0.11899
0.750988 0.0481575 0.126711
0.778653 0.0336461 0.134432
0.808087 0.0220645 0.142153
0.835142 0.0147097 0.152819
0.862013 0.0187533 0.160723
0.885176 0.0307927 0.172183
0.908339 0.0481575 0.182971
0.931502 0.0658122 0.194491
0.95465 0.0943618 0.206378
0.977813 0.137987 0.22092
0.997055 0.19118 0.246082
0 0.221942 0.0997482
0 0.237461 0.0997482
0 0.240436 0.0997482
0 0.237888 0.0932784
0 0.232731 0.0847028
0 0.229786 0.0768444
0 0.230671 0.0620127
0 0.240925 0.0457008
0 0.26125 0.0203403
0 0.291417 0.00158694
0.13431 0.317754 0
0.307164 0.328939 0
0.398581 0.325292 0.00137331
0.458778 0.308125 0.011841
0.506859 0.287007 0.0311131
0.546792 0.26508 0.0506142
0.58352 0.243015 0.065507
0.616907 0.223194 0.0785534
0.647791 0.202335 0.0890974
0.679332 0.18529 0.0979629
0.706737 0.167529 0.108461
0.7337 0.152087 0.116182
0.760662 0.139467 0.123903
0.787625 0.12874 0.131624
0.813886 0.120226 0.142153
0.840925 0.117281 0.150118
0.865476 0.118013 0.161517
0.890929 0.126833 0.170779
0.913741 0.136156 0.181369
0.934432 0.148882 0.192889
0.957427 0.169558 0.208331
0.980758 0.197955 0.223896
1 0.245472 0.248157
0 0.260533 0.108583
0 0.279896 0.112505
0 0.282673 0.111345
0 0.279042 0.107713
0 0.272801 0.100008
0 0.26508 0.0899977
0 0.264454 0.0774548
0 0.268757 0.0620127
0 0.280644 0.039704
0 0.305989 0.00979629
0.002533 0.337743 0
0.18146 0.366598 0
0.358633 0.37911 0
0.455283 0.376104 0
0.516716 0.363729 0.00207523
0.564828 0.342275 0.0150301
0.602823 0.319112 0.0388495
0.636271 0.295949 0.0596017
0.665446 0.275196 0.076463
0.693019 0.256367 0.0874952
0.720073 0.237003 0.0990463
0.744915 0.221988 0.108461
0.77023 0.210437 0.119249
0.795346 0.199634 0.127825
0.821317 0.192889 0.138231
0.845716 0.189929 0.147768
0.868879 0.189197 0.158328
0.892027 0.193088 0.169436
0.915038 0.198535 0.181033
0.934432 0.207477 0.192645
0.954818 0.21944 0.20441
0.976883 0.24155 0.221195
1 0.281376 0.247059
0 0.295216 0.120226
0 0.31458 0.126635
0 0.318746 0.1243
0 0.316411 0.120455
0 0.311391 0.112871
0 0.30367 0.103792
0 0.29987 0.0928969
0 0.300496 0.0774548
0 0.310292 0.0590677
0 0.325978 0.0317388
0 0.353185 0.00241093
0.0203403 0.386648 0
0.233722 0.415076 0
0.406775 0.430076 0
0.507164 0.427573 0
0.568154 0.415702 0
0.615015 0.396323 0.00404364
0.649149 0.373159 0.025864
0.679438 0.349996 0.0516365
0.706432 0.329229 0.0710155
0.73164 0.309911 0.08748
0.755642 0.292744 0.0990463
0.781369 0.27953 0.112383
0.80589 0.268391 0.124025
0.829038 0.259464 0.134646
0.852201 0.255024 0.145953
0.874891 0.251957 0.155505
0.89575 0.252171 0.167071
0.91519 0.253483 0.177447
0.934432 0.257603 0.188968
0.953674 0.266911 0.201831
0.976837 0.28394 0.219974
1 0.318746 0.247059
0 0.355886 0.141665
0 0.363149 0.140764
0 0.362402 0.140688
0 0.360037 0.134676
0 0.35491 0.129412
0 0.34963 0.121691
0 0.343389 0.110048
0 0.342641 0.0953384
0 0.345953 0.0780652
0 0.35584 0.0542153
0 0.374762 0.0181735
0 0.401968 0
0.0358434 0.434379 0
0.286076 0.462974 0
0.455421 0.478828 0
0.555184 0.477653 0
0.616175 0.467643 0
0.659678 0.45005 0.000686656
0.695094 0.428183 0.0142214
0.722057 0.408942 0.0430304
0.747555 0.386328 0.0686198
0.769863 0.367056 0.0865187
0.791424 0.349996 0.101961
0.813901 0.336034 0.115938
0.835294 0.32549 0.127443
0.858457 0.317769 0.140887
0.877699 0.311986 0.152483
0.899001 0.310552 0.164462
0.918318 0.309499 0.175799
0.937636 0.311009 0.189944
0.95465 0.317403 0.201465
0.973892 0.329168 0.219364
0.99559 0.347066 0.237247
0 0.381857 0.149752
0 0.40502 0.157473
0 0.41149 0.157595
0 0.407874 0.153826
0 0.400366 0.146319
0 0.392645 0.136645
0 0.384924 0.126955
0 0.378805 0.112261
0 0.377935 0.0968185
0 0.382361 0.0746319
0 0.394369 0.0460822
0 0.416297 0.00877394
0 0.443503 0
0.0731975 0.474388 0
0.330114 0.503471 0
0.494545 0.519265 0
0.595041 0.520653 0
0.655375 0.513344 0
0.696452 0.499748 0
0.730266 0.481468 0.0102083
0.755764 0.459678 0.0415808
0.778927 0.438911 0.0676432
0.801358 0.419608 0.088716
0.821317 0.40351 0.10576
0.842161 0.390204 0.121202
0.863218 0.382483 0.136294
0.88426 0.374762 0.150484
0.903548 0.369238 0.163348
0.922545 0.369238 0.177447
0.941909 0.369238 0.190417
0.957595 0.371084 0.20441
0.976837 0.378973 0.219974
0.997665 0.399878 0.243137
0 0.412741 0.161273
0 0.435904 0.169055
0 0.44181 0.17084
0 0.440192 0.16556
0 0.432837 0.157839
0 0.425116 0.150118
0 0.417395 0.139208
0 0.409674 0.127703
0 0.40882 0.112261
0 0.40882 0.0955825
0 0.417151 0.0730449
0 0.432502 0.0379644
0 0.454902 0.00331121
0 0.484321 0
0.133104 0.515953 0
0.372824 0.542046 0
0.530388 0.556741 0
0.627878 0.560052 0
0.686244 0.553658 0
0.725734 0.541665 0
0.757351 0.524514 0.0116732
0.782727 0.50515 0.0465858
0.805188 0.487297 0.0737774
0.826352 0.470344 0.0952163
0.84773 0.455451 0.114031
0.867048 0.444236 0.131121
0.886351 0.434318 0.146563
0.905653 0.426596 0.162005
0.922545 0.422797 0.175036
0.941909 0.41915 0.188968
0.957351 0.417258 0.202213
0.976715 0.42298 0.219974
0.996078 0.438483 0.243137
0 0.443626 0.172793
0 0.464775 0.180575
0 0.470954 0.182483
0 0.467521 0.178744
0 0.463233 0.173281
0 0.456001 0.16556
0 0.44828 0.15465
0 0.444083 0.14313
0 0.439704 0.131151
0 0.439704 0.114855
0 0.444892 0.095552
0 0.454536 0.0686198
0 0.471122 0.0270848
0 0.494591 0
0 0.524636 0
0.179385 0.552453 0
0.413474 0.575677 0
0.562371 0.590433 0
0.655863 0.592645 0
0.712367 0.589212 0
0.751522 0.578973 0.000686656
0.78114 0.564828 0.0268254
0.807599 0.549386 0.064332
0.830243 0.532113 0.0895857
0.850004 0.51902 0.111772
0.870863 0.505547 0.128069
0.888487 0.493965 0.146563
0.907103 0.484565 0.162005
0.922545 0.474754 0.173526
0.938155 0.467231 0.188602
0.955398 0.463478 0.200488
0.972854 0.467521 0.219913
0.992157 0.477089 0.243137
0 0.4804 0.190188
0 0.490074 0.194049
0 0.493996 0.192157
0 0.490562 0.188602
0 0.488487 0.184802
0 0.484627 0.179049
0 0.480766 0.169726
0 0.474937 0.160113
0 0.471077 0.147066
0 0.469184 0.133577
0 0.471931 0.115434
0 0.479042 0.0949111
0 0.489219 0.0654459
0 0.508949 0.0201572
0 0.532113 0
0.0177157 0.559197 0
0.254902 0.587259 0
0.454292 0.607599 0
0.5935 0.622187 0
0.68333 0.625498 0
0.739467 0.622797 0
0.775982 0.615625 0.0237736
0.805631 0.602701 0.0637217
0.830762 0.589944 0.0915389
0.851957 0.576471 0.113725
0.872297 0.561883 0.133089
0.890074 0.549874 0.148531
0.907103 0.538598 0.163973
0.924514 0.528923 0.179171
0.941909 0.521202 0.192889
0.957351 0.515557 0.208331
0.972793 0.513726 0.223835
0.992157 0.517647 0.247059
0 0.505394 0.199756
0 0.520836 0.207477
0 0.525002 0.207599
0 0.525002 0.207599
0 0.519463 0.200244
0 0.513848 0.192523
0 0.509697 0.184802
0 0.50396 0.177081
0 0.500099 0.165438
0 0.496223 0.150973
0 0.495705 0.135546
0 0.499001 0.116808
0 0.507301 0.0929732
0 0.522057 0.0622263
0 0.541787 0.0166323
0 0.566064 0
0.0479133 0.593072 0
0.314839 0.617273 0
0.494194 0.637446 0
0.622827 0.65124 0
0.708614 0.656489 0
0.762646 0.653071 0.0196689
0.797879 0.647181 0.0715648
0.828916 0.63888 0.099855
0.852079 0.627298 0.125368
0.873167 0.617151 0.144732
0.892058 0.605631 0.162005
0.911025 0.5944 0.177447
0.926467 0.583093 0.19266
0.941909 0.575372 0.2065
0.957351 0.567773 0.221942
0.974884 0.564034 0.237446
0.992157 0.566049 0.260655
0 0.534554 0.215198
0 0.54786 0.222919
0 0.554025 0.223041
0 0.550408 0.219486
0 0.546532 0.215686
0 0.540536 0.207965
0 0.53669 0.200244
0 0.531014 0.192523
0 0.527138 0.181308
0 0.523278 0.169726
0 0.520592 0.15491
0 0.523919 0.138018
0 0.529168 0.119356
0 0.540108 0.0948959
0 0.555901 0.0622263
0 0.57438 0.0146792
0 0.599756 0
0.120546 0.622919 0
0.364263 0.643397 0
0.524315 0.662837 0
0.643198 0.674418 0
0.726574 0.679652 0.00648508
0.780194 0.678965 0.0672007
0.816663 0.676341 0.108095
0.844785 0.669062 0.13579
0.869245 0.660044 0.158083
0.890272 0.650568 0.173846
0.909575 0.640787 0.192279
0.926467 0.629404 0.20441
0.941909 0.619974 0.217929
0.955642 0.610193 0.229664
0.971084 0.604654 0.24509
0.988235 0.604654 0.264454
0 0.561639 0.23064
0 0.574823 0.238361
0 0.57882 0.238483
0 0.577325 0.234928
0 0.571374 0.230838
0 0.567514 0.223407
0 0.563668 0.216983
0 0.559823 0.208316
0 0.556374 0.200244
0 0.552575 0.189044
0 0.551476 0.17586
0 0.551476 0.160418
0 0.554788 0.143526
0 0.563027 0.123278
0 0.573007 0.0977951
0 0.587747 0.062974
0 0.607477 0.0154421
0 0.626719 0
0.190036 0.64918 0
0.409049 0.667521 0
0.555489 0.682963 0
0.666667 0.697063 0
0.745846 0.701717 0.0460975
0.799588 0.703273 0.110246
0.835447 0.702235 0.146685
0.863722 0.697307 0.173526
0.886458 0.689586 0.192889
0.90576 0.681865 0.207965
0.922545 0.670222 0.219852
0.937987 0.662135 0.231006
0.953429 0.650858 0.242649
0.968872 0.643259 0.254536
0.984314 0.643259 0.277699
0 0.590204 0.246082
0 0.597467 0.250904
0 0.6 0.25098
0 0.6 0.25098
0 0.597543 0.244907
0 0.595102 0.240909
0 0.592645 0.23505
0 0.590204 0.228473
0 0.587747 0.221073
0 0.584512 0.20943
0 0.583825 0.19826
0 0.579904 0.184543
0 0.58291 0.169604
0 0.586755 0.150835
0 0.594705 0.130144
0 0.607599 0.103227
0 0.62182 0.0720531
0 0.638483 0.0260777
0.0355993 0.658915 0.0041352
0.28661 0.677333 0
0.459861 0.695094 0
0.589471 0.710536 0
0.692409 0.720836 0.0292515
0.766964 0.727871 0.105272
0.817395 0.728923 0.153429
0.852399 0.728389 0.187869
0.878187 0.724544 0.208576
0.90074 0.718013 0.227207
0.920104 0.711452 0.240192
0.935683 0.701457 0.255406
0.952453 0.6925 0.267155
0.967895 0.686229 0.280262
0.983337 0.682353 0.300984
0 0.621073 0.266789
0 0.628794 0.270665
0 0.628916 0.270878
0 0.628916 0.26949
0 0.625315 0.265614
0 0.623865 0.259556
0 0.621561 0.254414
0 0.61973 0.247745
0 0.616144 0.239307
0 0.613962 0.23125
0 0.611887 0.220035
0 0.609308 0.206271
0 0.610925 0.191302
0 0.614221 0.17586
0 0.620584 0.158968
0 0.628305 0.139681
0 0.641917 0.117159
0 0.656001 0.0895857
0 0.672572 0.0538796
0.141558 0.690806 0.0151522
0.365713 0.70721 0.00167849
0.510384 0.723384 0.00138857
0.625986 0.736706 0.0427863
0.718273 0.747555 0.106981
0.78735 0.752697 0.160388
0.837552 0.755642 0.20238
0.870832 0.755154 0.234928
0.896773 0.752667 0.258824
0.917769 0.748821 0.275608
0.936645 0.742275 0.289464
0.952087 0.734554 0.30106
0.967559 0.726955 0.314168
0.984314 0.726955 0.336034
0 0.646815 0.28603
0 0.654536 0.289906
0 0.654658 0.29012
0 0.654658 0.288731
0 0.650736 0.282445
0 0.647425 0.277577
0 0.646815 0.273274
0 0.642893 0.266056
0 0.640864 0.258335
0 0.638972 0.248676
0 0.636271 0.240192
0 0.63505 0.22855
0 0.63505 0.214466
0 0.637385 0.200244
0 0.641184 0.184802
0 0.647669 0.166705
0 0.65539 0.148043
0 0.668299 0.126101
0 0.683085 0.102937
0.0153353 0.698528 0.0759899
0.237324 0.712749 0.0485237
0.41268 0.728191 0.0369573
0.545235 0.742779 0.0554665
0.649607 0.755276 0.0988022
0.736584 0.766918 0.149752
0.802838 0.771939 0.199405
0.849989 0.775235 0.238468
0.884627 0.776226 0.269917
0.908827 0.775738 0.292561
0.928923 0.769497 0.308812
0.948287 0.764218 0.320424
0.963729 0.757809 0.333425
0.979171 0.753918 0.355398
0 0.671077 0.305272
0 0.677699 0.309163
0 0.677821 0.309194
0 0.677821 0.305531
0 0.673899 0.301701
0 0.670588 0.296941
0 0.669978 0.290318
0 0.667781 0.286519
0 0.666056 0.278798
0 0.666056 0.271077
0 0.663233 0.263355
0 0.662135 0.252094
0 0.662135 0.240482
0 0.662135 0.226108
0 0.663722 0.211765
0 0.667552 0.195743
0 0.674754 0.178363
0 0.682475 0.159686
0 0.691905 0.140917
0 0.706249 0.119982
0.0663157 0.718456 0.100618
0.314244 0.733211 0.0876173
0.460777 0.748653 0.0899672
0.578058 0.762997 0.110475
0.676478 0.774914 0.14789
0.756863 0.786282 0.192279
0.818708 0.79118 0.237873
0.862501 0.794369 0.275593
0.893874 0.795331 0.303075
0.917647 0.794095 0.3234
0.936889 0.787625 0.336034
0.956008 0.783703 0.352667
0.975372 0.783703 0.374762
0 0.699016 0.327459
0 0.701869 0.333242
0 0.701961 0.332357
0 0.701961 0.329412
0 0.699382 0.325612
0 0.699016 0.320073
0 0.695277 0.316243
0 0.695094 0.311757
0 0.692897 0.304906
0 0.692164 0.297185
0 0.692164 0.289769
0 0.690227 0.279805
0 0.688243 0.268635
0 0.688243 0.255909
0 0.688792 0.242649
0 0.690776 0.227207
0 0.695094 0.209796
0 0.700465 0.194369
0 0.70956 0.178058
0 0.719448 0.161517
0.00772107 0.730388 0.147066
0.221942 0.744518 0.133944
0.387137 0.758389 0.131365
0.511513 0.77084 0.137346
0.613474 0.784558 0.159564
0.702693 0.795956 0.193286
0.775494 0.804654 0.234073
0.832258 0.811765 0.273655
0.875486 0.813107 0.310903
0.906096 0.815412 0.339345
0.930144 0.812741 0.362493
0.950332 0.812741 0.382727
0.969604 0.809812 0.403922
0 0.731991 0.363363
0 0.734951 0.367163
0 0.735042 0.367285
0 0.731991 0.363363
0 0.731228 0.358679
0 0.728069 0.352209
0 0.727367 0.348409
0 0.724819 0.343755
0 0.724147 0.336889
0 0.723522 0.329168
0 0.721172 0.321447
0 0.720226 0.313726
0 0.720226 0.304097
0 0.720226 0.292546
0 0.720226 0.280995
0 0.721843 0.267552
0 0.725673 0.254414
0 0.729503 0.242435
0 0.736767 0.227451
0 0.744488 0.21593
0 0.753353 0.20441
0.182239 0.763287 0.194247
0.3449 0.774639 0.189853
0.463478 0.786282 0.191913
0.567315 0.797909 0.203677
0.657481 0.809552 0.22475
0.734112 0.821195 0.258
0.799283 0.828916 0.29398
0.850492 0.836255 0.334539
0.892241 0.837385 0.367041
0.920592 0.840925 0.397665
0.94461 0.840925 0.42179
0.966918 0.841794 0.448768
0 0.751232 0.386526
0 0.755123 0.390341
0 0.754452 0.38677
0 0.751522 0.382971
0 0.750576 0.379171
0 0.747799 0.375372
0 0.747311 0.370977
0 0.747311 0.366918
0 0.744183 0.360601
0 0.743389 0.355352
0 0.743389 0.348531
0 0.743389 0.34081
0 0.743389 0.3299
0 0.743389 0.320287
0 0.743389 0.308751
0 0.743389 0.296818
0 0.743389 0.285298
0 0.746914 0.271687
0 0.752209 0.258335
0 0.758328 0.246815
0 0.763729 0.236759
0.0649119 0.774639 0.225864
0.279652 0.783093 0.221546
0.406378 0.794202 0.220264
0.510292 0.805631 0.228244
0.604456 0.817273 0.243992
0.685298 0.828916 0.267155
0.754162 0.836637 0.298543
0.814954 0.844999 0.335286
0.862013 0.851789 0.370092
0.90074 0.85568 0.401022
0.931517 0.856397 0.432593
0.955398 0.860288 0.46421
0 0.77438 0.4103
0 0.77438 0.413596
0 0.77438 0.413596
0 0.773831 0.409735
0 0.770459 0.402945
0 0.770459 0.399145
0 0.76997 0.395346
0 0.766537 0.391546
0 0.766537 0.387747
