YOYO-Client/Yoyo/Assets.xcassets/Breeze.dataset/Fuji-Color-200.cube
TITLE "Generated by Resolve"
LUT_3D_SIZE 5
0 0 0
0.079408 0.0156863 0.030396
0.458824 0 0.0843214
0.78529 0 0.146075
1 0 0.258824
0 0.187259 0.0862745
0 0.235294 0.010544
0.561273 0.171572 0.0789197
0.808087 0.0220645 0.142153
0.997055 0.19118 0.246082
0 0.4804 0.190188
0 0.471077 0.147066
0.254902 0.587259 0
0.851957 0.576471 0.113725
0.992157 0.517647 0.247059
0 0.699016 0.327459
0 0.692897 0.304906
0 0.695094 0.209796
0.613474 0.784558 0.159564
0.969604 0.809812 0.403922
0.309804 0.905882 0.647059
0.324514 0.901961 0.635294
0.358816 0.898039 0.590188
0.53431 0.906859 0.537255
0.843137 0.956863 0.623529
0 0.0343175 0.201953
0.194369 0 0.233341
0.5402 0 0.196078
0.787259 0 0.233326
1 0 0.315679
0 0.263233 0.219608
0.260227 0.278737 0.238849
0.565682 0.203311 0.225498
0.799634 0.120897 0.238849
0.995102 0.219608 0.311772
0 0.560784 0.325978
0 0.536278 0.295583
0.449516 0.59411 0.207111
0.849012 0.561761 0.271565
0.984314 0.513726 0.323522
0 0.723278 0.419608
0 0.718624 0.400549
0 0.702083 0.311391
0.667826 0.78529 0.312322
0.969604 0.809812 0.479652
0.409812 0.909804 0.685298
0.421561 0.909804 0.677455
0.435294 0.901961 0.629908
0.567651 0.906859 0.577691
0.854902 0.956863 0.657847
0 0.139208 0.592157
0.142153 0.0857862 0.632349
0.773526 0 0.638239
0.908827 0 0.447059
1 0.15491 0.478431
0 0.3402 0.54902
0.275364 0.327443 0.583337
0.762493 0.222309 0.616663
0.882719 0.211154 0.447913
0.998535 0.293141 0.488243
0.225483 0.605875 0.509804
0.435294 0.612741 0.524514
0.692653 0.612741 0.544121
0.828672 0.544366 0.492164
0.972549 0.512749 0.484321
0.499504 0.775494 0.617655
0.536278 0.771206 0.616663
0.55024 0.736034 0.553674
0.762371 0.787869 0.554894
0.969604 0.793133 0.609796
0.572549 0.92549 0.774517
0.578439 0.922057 0.768627
0.587259 0.913725 0.738231
0.641672 0.910292 0.675975
0.878431 0.960784 0.741176
0.00195315 0.308827 0.830396
0.312016 0.283085 0.837247
0.686275 0.174014 0.866667
0.966674 0.0132296 0.86569
1 0.147051 0.750973
0.233082 0.435538 0.80589
0.394553 0.426719 0.815503
0.691539 0.393622 0.848402
0.947433 0.354162 0.852506
1 0.338231 0.742641
0.389212 0.628428 0.748531
0.489342 0.630396 0.75465
0.679652 0.634318 0.79118
0.902449 0.629404 0.826474
1 0.563729 0.715679
0.546807 0.78529 0.744854
0.603677 0.788968 0.754467
0.721447 0.792157 0.767529
0.856001 0.799329 0.78854
0.957839 0.742885 0.732113
0.711772 0.945098 0.863722
0.731121 0.94583 0.867643
0.766674 0.947555 0.875486
0.775494 0.932601 0.840192
0.922545 0.968627 0.860792
0.619608 0.611765 0.980392
0.650004 0.6 0.980392
0.741176 0.55491 0.988235
0.900984 0.485298 1
1 0.47451 0.996078
0.638239 0.658824 0.972549
0.662745 0.65098 0.975494
0.744121 0.61471 0.980392
0.893141 0.562737 0.995346
1 0.544121 0.99118
0.660777 0.750973 0.958831
0.683818 0.745098 0.960784
0.748043 0.727459 0.966659
0.874998 0.697551 0.982361
1 0.6804 0.984314
0.652949 0.843137 0.94313
0.675486 0.840925 0.946075
0.742641 0.837263 0.949996
0.853925 0.827451 0.96495
1 0.835294 0.981369
0.741176 0.964706 0.952941
0.756863 0.964706 0.952941
0.80589 0.968627 0.960784
0.888243 0.976471 0.972549
1 0.996078 1
