YOYO-Client/Yoyo/Assets.xcassets/Taipei.dataset/Taipei.cube
TITLE "Generated by Resolve"
LUT_3D_SIZE 5
0.0155184 0.0160678 0.0170901
0.230457 0.0226749 0
0.459724 0.0200504 0
0.662989 0.069749 0
0.811841 0.215335 0.0278172
0.000610361 0.182269 0.0641337
0.305455 0.171115 0.00299077
0.515877 0.172671 0.00277714
0.704952 0.22565 0.00105287
0.853101 0.327413 0.0559854
0 0.404929 0.0271763
0.302693 0.389212 0.0270085
0.635599 0.373281 0
0.801129 0.436469 0
0.930694 0.52607 0.119341
0.616129 0.725383 0.247364
0.639887 0.698741 0.186511
0.754711 0.683421 0.132158
0.882109 0.681117 0.0539864
0.99527 0.7449 0.265339
0.831769 0.902251 0.680949
0.842298 0.905425 0.685512
0.865812 0.912139 0.694713
0.908339 0.919478 0.705211
0.960098 0.92192 0.696376
0.0368048 0.0287327 0.0913863
0.171954 0.0191806 0.0717479
0.352377 0.0733043 0.100526
0.60827 0.188876 0.139773
0.777615 0.293675 0.183688
0.00263981 0.151263 0.205371
0.202045 0.221607 0.247623
0.414069 0.245426 0.196429
0.640696 0.26949 0.159121
0.823743 0.350942 0.186648
0 0.390066 0.280095
0.13875 0.408682 0.274952
0.516396 0.420661 0.227436
0.717418 0.457557 0.228595
0.907744 0.531426 0.249958
0.496742 0.722515 0.454871
0.527474 0.692164 0.414191
0.64799 0.677485 0.364096
0.80914 0.673961 0.32694
0.978332 0.739269 0.358816
0.809049 0.903838 0.736126
0.82356 0.906065 0.73138
0.851331 0.912383 0.733333
0.898695 0.920623 0.723674
0.961624 0.921721 0.697337
0.0956436 0.102312 0.230015
0.19765 0.108827 0.260166
0.35642 0.115755 0.263554
0.520531 0.26482 0.34313
0.687449 0.438132 0.440192
0.0634012 0.205676 0.331792
0.196506 0.236286 0.345403
0.367269 0.245014 0.369436
0.540581 0.355795 0.393683
0.749828 0.483467 0.451011
0.00190738 0.334279 0.411749
0.141985 0.360265 0.42887
0.395743 0.43978 0.487831
0.633677 0.50341 0.475029
0.841154 0.572656 0.489738
0.311894 0.674571 0.593484
0.367773 0.666255 0.581231
0.525887 0.688731 0.592126
0.73283 0.693767 0.582284
0.926833 0.753674 0.58761
0.735637 0.900557 0.811231
0.772702 0.908995 0.81178
0.813138 0.91574 0.805203
0.873716 0.920699 0.794766
0.947509 0.921828 0.760418
0.213565 0.300725 0.489921
0.281346 0.33431 0.510338
0.40885 0.405585 0.563745
0.549111 0.486931 0.644724
0.676219 0.560265 0.72015
0.218067 0.339101 0.525994
0.27982 0.359136 0.531228
0.405417 0.42295 0.571756
0.540658 0.495018 0.637491
0.709133 0.572534 0.71133
0.256977 0.47097 0.628275
0.315908 0.468101 0.619211
0.433783 0.500206 0.636576
0.569299 0.573205 0.681102
0.796246 0.672816 0.751308
0.257115 0.627588 0.726177
0.318959 0.611566 0.705867
0.439078 0.625956 0.710887
0.622187 0.683284 0.744945
0.867323 0.785977 0.783764
0.415503 0.845884 0.835935
0.56112 0.870466 0.842359
0.704906 0.897047 0.862791
0.816693 0.920104 0.882124
0.927565 0.931655 0.875563
0.406546 0.566339 0.775982
0.435004 0.57821 0.779919
0.500557 0.604456 0.784878
0.613062 0.668376 0.811215
0.702541 0.725139 0.836378
0.413642 0.58883 0.792538
0.437385 0.592554 0.794095
0.502724 0.622843 0.805188
0.607385 0.677775 0.82443
0.714794 0.741146 0.847059
0.438437 0.64062 0.828885
0.45861 0.640528 0.828183
0.515724 0.651453 0.831922
0.625635 0.705257 0.848005
0.748241 0.778714 0.870756
0.439063 0.719829 0.879057
0.465705 0.712688 0.875761
0.523919 0.713375 0.876112
0.64892 0.741344 0.880522
0.800961 0.833188 0.903227
0.282902 0.814481 0.902815
0.310475 0.818357 0.904875
0.400488 0.830259 0.910689
0.628702 0.860349 0.922301
0.894652 0.929625 0.95198
