YOYO-Client/Yoyo/Assets.xcassets/Taipei.dataset/Taipei.cube
TITLE "Generated by Resolve"
LUT_3D_SIZE 33
0.0155184 0.0160678 0.0170901
0.0225834 0.0142214 0.0129397
0.0446174 0.0127413 0.00712596
0.0740368 0.0154269 0.00549325
0.105409 0.0184482 0.00381476
0.136461 0.0205997 0.00190738
0.168765 0.0219272 0
0.200595 0.0227359 0
0.230457 0.0226749 0
0.259648 0.0219883 0
0.289113 0.0206607 0
0.318822 0.0188144 0
0.348516 0.0166781 0
0.37702 0.0167086 0
0.404196 0.0177768 0
0.43238 0.0189364 0
0.459724 0.0200504 0
0.487098 0.0211337 0
0.513252 0.0221714 0
0.537957 0.0236362 0
0.564187 0.0278782 0
0.588891 0.0359197 0
0.613077 0.045594 0
0.637797 0.0568704 0
0.662989 0.069749 0
0.69015 0.0868391 0
0.720043 0.116182 0
0.751827 0.150088 0.000228885
0.784176 0.184558 0.0133669
0.807416 0.210086 0.0253605
0.811704 0.214908 0.0276493
0.81178 0.215122 0.0277104
0.811841 0.215335 0.0278172
0.0124056 0.0217288 0.0178683
0.0249027 0.0210269 0.014023
0.0512856 0.0188296 0.00833143
0.0793774 0.0207828 0.00611887
0.107057 0.0234836 0.00442512
0.136324 0.0258183 0.00263981
0.16788 0.0275731 0.000717174
0.199115 0.0283818 0
0.228305 0.0283055 0
0.257328 0.0276036 0
0.286244 0.0263523 0
0.315541 0.0247196 0
0.344259 0.0224155 0
0.372183 0.0205081 0
0.398993 0.0196841 0
0.426535 0.0202182 0
0.453742 0.0212711 0
0.480766 0.0224308 0
0.506706 0.0238651 0
0.532143 0.0273899 0
0.55697 0.033875 0
0.58172 0.0420844 0
0.606226 0.0517128 0
0.630915 0.0626383 0
0.655253 0.0739757 0
0.681147 0.0877699 0
0.709697 0.111635 0
0.740658 0.142657 0
0.772656 0.175906 0.0087129
0.800031 0.205066 0.0214237
0.81413 0.220829 0.0293584
0.814282 0.22121 0.0294652
0.81445 0.221653 0.0295872
0.0071107 0.0425269 0.0231632
0.0198978 0.0424506 0.0184634
0.0622721 0.039353 0.0117494
0.0899977 0.0368658 0.00839246
0.115709 0.0379187 0.00613413
0.143481 0.0396277 0.00416571
0.173907 0.0411231 0.00210575
0.204822 0.0416571 0
0.233692 0.0411231 0
0.262516 0.040177 0
0.291051 0.0388647 0
0.319402 0.037232 0
0.347341 0.0354314 0
0.37499 0.0333257 0
0.401999 0.0323186 0
0.429114 0.0324102 0
0.455344 0.0327764 0
0.481086 0.0336004 0
0.507118 0.0354772 0
0.532418 0.0406043 0
0.557183 0.0479591 0
0.58201 0.0567025 0
0.606104 0.0661784 0
0.630259 0.0758373 0
0.654658 0.0870375 0
0.679896 0.0991684 0
0.707485 0.118624 0
0.738155 0.147295 0
0.769802 0.179065 0.00746166
0.799146 0.209537 0.020798
0.817563 0.229816 0.0318456
0.817807 0.230457 0.0320134
0.818006 0.231006 0.032166
0.00813306 0.0648966 0.0292058
0.0166629 0.0658427 0.0234684
0.0592966 0.0632944 0.0164797
0.102296 0.0603647 0.0111696
0.13048 0.0592508 0.00834669
0.156832 0.0597086 0.00631724
0.185565 0.0605936 0.00416571
0.214862 0.0604105 0.0018616
0.243503 0.0598154 0.000106813
0.271733 0.0587167 0
0.299351 0.0574655 0
0.326772 0.0562753 0
0.355016 0.0549783 0
0.382971 0.0530404 0
0.409934 0.0525978 0
0.436515 0.0529946 0
0.462486 0.0539559 0
0.48806 0.0553597 0
0.513909 0.0577096 0
0.538582 0.0628824 0
0.562875 0.0701457 0
0.587366 0.0781567 0
0.610712 0.0870527 0
0.634333 0.0958877 0
0.658839 0.10544 0
0.684062 0.11635 0
0.71136 0.13373 0
0.741405 0.160311 0
0.772137 0.189715 0.00839246
0.802304 0.219974 0.0223392
0.82179 0.24126 0.0348058
0.822034 0.241901 0.0349584
0.822278 0.242542 0.035111
0.0104677 0.0871748 0.035935
0.0164645 0.0885023 0.029099
0.0561837 0.0859388 0.024506
0.103044 0.0840925 0.0161135
0.144366 0.0819867 0.00999466
0.172885 0.0814679 0.00773632
0.1991 0.081529 0.00582895
0.226291 0.0808118 0.00369268
0.253773 0.0800641 0.002121
0.280903 0.0789349 0.000961318
0.308186 0.0780957 0
0.33579 0.0774243 0
0.364126 0.0763256 0
0.391943 0.0753185 0
0.41912 0.0753643 0
0.445151 0.0762798 0
0.471626 0.0780957 0
0.497932 0.0807507 0
0.52401 0.0843214 0
0.548669 0.0897078 0
0.572351 0.0965896 0
0.595529 0.103731 0
0.618921 0.11133 0
0.642741 0.119295 0
0.666331 0.127382 0
0.690944 0.136904 0
0.717922 0.152682 0
0.747478 0.177325 0
0.777737 0.205005 0.0104677
0.807584 0.234058 0.0252537
0.826276 0.253986 0.0378271
0.82707 0.255329 0.0383764
0.827329 0.256016 0.0385595
0.0111543 0.110719 0.0441291
0.0146181 0.112551 0.0357671
0.0536812 0.109804 0.0327153
0.0988022 0.109209 0.0219425
0.145754 0.107179 0.0140841
0.186297 0.10457 0.00822461
0.212863 0.103471 0.00633249
0.238682 0.102663 0.00466926
0.265309 0.101839 0.00364691
0.291905 0.100893 0.00282292
0.318791 0.100359 0.00198367
0.345983 0.0998398 0.00106813
0.373709 0.0991073 7.62951e-05
0.402075 0.0984817 0
0.429755 0.0991989 0
0.456001 0.100862 0
0.482475 0.103395 0
0.508812 0.106294 0
0.534279 0.109514 0
0.558389 0.115175 0
0.582086 0.122454 0
0.606073 0.130007 0
0.629343 0.137133 0
0.652155 0.143923 0
0.675425 0.151125 0
0.699992 0.159945 0
0.726558 0.17464 0
0.755383 0.197467 0.00155642
0.784955 0.223178 0.0132448
0.813825 0.250309 0.0288701
0.830884 0.268208 0.0412604
0.831937 0.269825 0.0420386
0.832181 0.270573 0.0422217
0.00872816 0.135058 0.0524605
0.0131228 0.136004 0.0445563
0.0493019 0.134279 0.0399939
0.0943465 0.132815 0.0321508
0.139879 0.132082 0.0217899
0.186633 0.129915 0.0109712
0.225132 0.126635 0.00611887
0.252949 0.125078 0.00459297
0.279103 0.124193 0.00437934
0.305837 0.123674 0.00410468
0.331762 0.122881 0.00361639
0.35816 0.122408 0.00296025
0.385306 0.121706 0.002121
0.413275 0.121294 0.0011902
0.44094 0.122454 0.000381476
0.467109 0.124529 0
0.492958 0.126848 0
0.519356 0.130068 0
0.545174 0.133822 0
0.569421 0.13991 0
0.593149 0.147631 0
0.616464 0.155184 0
0.639048 0.162234 0
0.662043 0.169238 0
0.685161 0.176043 0
0.709468 0.184237 0
0.735561 0.19794 0
0.763561 0.218921 0.00358587
0.792172 0.242527 0.0157931
0.820218 0.267811 0.0326085
0.836728 0.284947 0.045304
0.838132 0.286946 0.0463569
0.838437 0.287739 0.0465553
0.00555428 0.158831 0.0598764
0.00932326 0.159518 0.0513008
0.0446632 0.158556 0.0459144
0.090837 0.156603 0.0403601
0.134432 0.1561 0.0277714
0.180377 0.154528 0.0175326
0.225284 0.152056 0.00776684
0.264302 0.148806 0.00402838
0.294026 0.147112 0.0040589
0.320684 0.146273 0.00448615
0.346456 0.145739 0.00454719
0.372229 0.145113 0.00425727
0.398871 0.14432 0.00367742
0.426322 0.144152 0.00296025
0.452811 0.145403 0.00230411
0.478614 0.147417 0.00167849
0.504601 0.150088 0.00108339
0.530373 0.153246 0.000534066
0.555932 0.157153 3.0518e-05
0.579858 0.163424 0
0.603387 0.171283 0
0.62623 0.17908 0
0.648981 0.186709 0
0.672206 0.194141 0
0.695277 0.201083 0
0.71928 0.209186 0
0.744839 0.222324 0.00015259
0.772213 0.241947 0.0053254
0.800214 0.263951 0.0182803
0.827298 0.287572 0.036759
0.844007 0.304158 0.0497749
0.84567 0.30634 0.0510109
0.845975 0.307179 0.0512093
0.000610361 0.182269 0.0641337
0.00422675 0.182849 0.0552377
0.0399023 0.181613 0.0506447
0.0869612 0.179599 0.0469978
0.13022 0.17882 0.0375982
0.174304 0.178439 0.0245518
0.221393 0.176623 0.0126497
0.266117 0.174624 0.00447089
0.305455 0.171115 0.00299077
0.335821 0.169268 0.0040589
0.361883 0.168399 0.0047303
0.387411 0.167742 0.00491341
0.413718 0.167056 0.00471504
0.440223 0.166812 0.00425727
0.465431 0.168093 0.00378424
0.490532 0.170031 0.00329595
0.515877 0.172671 0.00277714
0.541299 0.175769 0.00225834
0.566293 0.179644 0.00181582
0.58996 0.186267 0.00161746
0.613245 0.194598 0.00157168
0.635874 0.202487 0.00148013
0.658488 0.210361 0.00138857
0.681773 0.218341 0.00125124
0.704952 0.22565 0.00105287
0.728832 0.234043 0.000900282
0.754406 0.247532 0.00169375
0.781598 0.266911 0.00666819
0.808576 0.287327 0.020737
0.834867 0.309041 0.0407568
0.850645 0.323857 0.0540475
0.852735 0.326436 0.0557412
0.853101 0.327413 0.0559854
0 0.206821 0.06598
0 0.206806 0.0568093
0.0368505 0.204852 0.0548714
0.0838788 0.202991 0.0526589
0.127565 0.202045 0.0456397
0.169848 0.202045 0.0320287
0.215396 0.200931 0.0204929
0.262592 0.199542 0.00723278
0.307652 0.196796 0.0019379
0.347204 0.192844 0.00280766
0.377035 0.190784 0.00422675
0.403662 0.18996 0.00494392
0.429404 0.189303 0.00515755
0.455055 0.189502 0.00505074
0.478874 0.190524 0.00479133
0.503487 0.192477 0.00445563
0.528206 0.195102 0.0040589
0.552972 0.19823 0.00364691
0.576959 0.201999 0.00326543
0.600519 0.209018 0.00308232
0.623468 0.217823 0.00303655
0.646311 0.226352 0.00294499
0.66862 0.234455 0.00283818
0.691341 0.242496 0.00268559
0.714824 0.25066 0.00250248
0.739208 0.260044 0.00234989
0.764614 0.273854 0.00294499
0.79118 0.292821 0.00772107
0.817044 0.311925 0.0229801
0.842603 0.332052 0.0449989
0.858671 0.34641 0.0591897
0.861295 0.349355 0.0614328
0.861646 0.350286 0.0616617
0 0.231388 0.0651713
0 0.230793 0.0565499
0.0343938 0.228122 0.0581521
0.0814984 0.226444 0.0570535
0.125261 0.225284 0.0518196
0.166979 0.224964 0.041062
0.210224 0.225193 0.023621
0.258061 0.22327 0.0129702
0.304295 0.22237 0.00215152
0.349966 0.218524 0.00077821
0.38999 0.214023 0.00299077
0.420356 0.212177 0.00437934
0.446235 0.211856 0.00500496
0.470878 0.212329 0.00526436
0.493782 0.213519 0.00527962
0.517479 0.215198 0.00515755
0.541436 0.217609 0.00491341
0.56495 0.220295 0.00462348
0.588739 0.224689 0.00433356
0.611902 0.232258 0.00419623
0.634714 0.241459 0.0041352
0.656977 0.250385 0.00404364
0.678737 0.258671 0.00390631
0.701579 0.267109 0.00373846
0.725261 0.275883 0.00355535
0.749569 0.285924 0.0033875
0.774655 0.300038 0.00378424
0.801053 0.318944 0.00839246
0.826612 0.33785 0.0255589
0.851286 0.356619 0.0493477
0.867521 0.370092 0.0644083
0.870405 0.373098 0.0671244
0.870787 0.37409 0.0673686
0 0.256275 0.0619974
0 0.25481 0.0575113
0.0281224 0.252033 0.0594949
0.0764172 0.250248 0.0593271
0.121386 0.249088 0.0556344
0.163317 0.248493 0.0474098
0.205219 0.248585 0.0330358
0.251881 0.247486 0.0200656
0.299763 0.24683 0.00460822
0.346716 0.245624 0
0.393408 0.241016 0.000579843
0.434882 0.236408 0.00309758
0.464012 0.235264 0.0043183
0.487419 0.235843 0.00489815
0.510048 0.237278 0.00518807
0.532738 0.238849 0.00531014
0.555657 0.24094 0.00529488
0.578775 0.24361 0.00515755
0.601755 0.24828 0.0049897
0.624155 0.256245 0.00486763
0.646189 0.265461 0.00477607
0.668055 0.274662 0.004654
0.69041 0.28394 0.00451667
0.713329 0.292988 0.00434882
0.736706 0.301976 0.0041352
0.760845 0.312673 0.00390631
0.785595 0.327138 0.00422675
0.811673 0.345464 0.00929274
0.836652 0.363882 0.0290532
0.860487 0.381598 0.0542458
0.876814 0.394751 0.0704356
0.880079 0.398016 0.0738079
0.880522 0.399145 0.0741436
0 0.282734 0.0540932
0 0.279942 0.055314
0.0153811 0.277485 0.0581979
0.0667277 0.275242 0.0588693
0.114504 0.273945 0.056611
0.158038 0.273472 0.0509499
0.200198 0.273289 0.0399023
0.244541 0.273487 0.0208896
0.292851 0.271748 0.00950637
0.341573 0.27158 0
0.391669 0.269383 0
0.439673 0.26453 0.000564584
0.47921 0.260288 0.00291447
0.504402 0.26009 0.00393683
0.526406 0.261326 0.00451667
0.549126 0.263249 0.00489815
0.571664 0.265446 0.00509651
0.593759 0.26775 0.00515755
0.615366 0.272618 0.00512703
0.637446 0.281163 0.00503548
0.659205 0.290852 0.00489815
0.680385 0.300237 0.00474556
0.702449 0.309743 0.00457771
0.72546 0.319387 0.00434882
0.748806 0.328817 0.00410468
0.772473 0.339727 0.00383001
0.797223 0.354467 0.00428778
0.822461 0.371725 0.0104677
0.846784 0.389303 0.0332494
0.870268 0.407004 0.0593729
0.886397 0.419959 0.077409
0.889876 0.423392 0.0816968
0.890227 0.424308 0.0819867
0 0.310506 0.0501717
0 0.307088 0.0505989
0 0.303716 0.053193
0.0559854 0.301839 0.0552071
0.106874 0.300832 0.0543832
0.152483 0.300023 0.0499733
0.194522 0.299229 0.0418555
0.239384 0.299138 0.0277409
0.286427 0.298756 0.0093843
0.338613 0.29723 0.00155642
0.389487 0.297597 0
0.441001 0.294575 0
0.485939 0.28925 0.00030518
0.519234 0.28629 0.00224308
0.542947 0.286259 0.00325017
0.565286 0.288045 0.00386053
0.587396 0.290288 0.00430304
0.609689 0.293202 0.00456245
0.630655 0.298589 0.00462348
0.651194 0.307164 0.00451667
0.673182 0.317556 0.0043183
0.694438 0.327398 0.00410468
0.715908 0.336721 0.00390631
0.73846 0.346151 0.00366217
0.761181 0.355413 0.00341802
0.784833 0.366598 0.00308232
0.809613 0.381704 0.00402838
0.834043 0.398184 0.0124514
0.857298 0.414939 0.0383459
0.880095 0.432227 0.0654612
0.896025 0.445014 0.0854963
0.899565 0.448463 0.0898604
0.899931 0.449409 0.0901656
0 0.339681 0.0436408
0 0.335851 0.0443122
0 0.33312 0.0472877
0.0541543 0.3308 0.0483101
0.106447 0.330007 0.0469215
0.151522 0.328923 0.043595
0.193896 0.328145 0.0374456
0.238834 0.327565 0.0278935
0.286961 0.327352 0.012604
0.338445 0.325612 0.00689708
0.390082 0.325277 0
0.44184 0.323949 0
0.489387 0.320333 0
0.527703 0.316533 0
0.558038 0.313634 0.0012665
0.582193 0.314488 0.00222782
0.604608 0.31664 0.0028687
0.626383 0.319615 0.00331121
0.646876 0.326207 0.00337224
0.666545 0.334997 0.00323491
0.687205 0.344701 0.00302129
0.708095 0.354452 0.00277714
0.729458 0.363912 0.00256352
0.751675 0.37319 0.00233463
0.774289 0.382361 0.00210575
0.797604 0.393561 0.00170901
0.821546 0.408209 0.00376898
0.845335 0.424231 0.0158999
0.867872 0.440589 0.0445106
0.890333 0.457786 0.0726177
0.906065 0.470329 0.0940108
0.909773 0.473991 0.0987869
0.910094 0.474769 0.0990616
0 0.371328 0.0322576
0 0.366995 0.034165
0.0103761 0.36376 0.0364385
0.0624247 0.361761 0.0370947
0.110842 0.36054 0.0365759
0.155337 0.359991 0.0345922
0.197864 0.359167 0.03093
0.242725 0.358358 0.0273899
0.291096 0.357427 0.0206912
0.341527 0.356664 0.00750744
0.395636 0.354376 0.00265507
0.446082 0.354406 0
0.493721 0.353506 0
0.533211 0.350195 0
0.568063 0.345647 0
0.596902 0.342977 0
0.620859 0.344091 0.000854505
0.642512 0.348013 0.00134279
0.662013 0.354711 0.00141909
0.681941 0.36376 0.00125124
0.701885 0.37261 0.00108339
0.722499 0.382055 0.000854505
0.743786 0.391257 0.000640879
0.765911 0.400473 0.000442512
0.787839 0.409491 0.000213626
0.810132 0.420294 0
0.83328 0.434424 0.00369268
0.856275 0.450034 0.0206302
0.878035 0.465843 0.0509804
0.900481 0.483253 0.0806897
0.916609 0.496391 0.103716
0.92018 0.499794 0.108568
0.920501 0.500587 0.108873
0 0.404929 0.0271763
0 0.399847 0.027985
0.0376745 0.396338 0.02916
0.0832532 0.394781 0.0297398
0.12697 0.39324 0.0309911
0.169024 0.392752 0.0323796
0.211795 0.391775 0.0330205
0.255879 0.390646 0.0320134
0.302693 0.389212 0.0270085
0.353079 0.388571 0.0106966
0.406394 0.386236 0.00799573
0.456168 0.385229 0
0.500099 0.385168 0
0.539483 0.383154 0
0.575296 0.379568 0
0.608637 0.375723 0
0.635599 0.373281 0
0.657206 0.376501 0
0.67689 0.383825 0
0.696162 0.39202 0
0.715908 0.40032 0
0.736965 0.409476 0
0.758312 0.418723 0
0.779782 0.427604 0
0.801129 0.436469 0
0.822919 0.447318 0
0.845212 0.461051 0.00440986
0.867201 0.476097 0.0269017
0.888411 0.491661 0.0581826
0.910887 0.509041 0.0905013
0.926757 0.521935 0.113817
0.930419 0.525383 0.119051
0.930694 0.52607 0.119341
0.0119173 0.440925 0.0319829
0.0322881 0.434989 0.0322271
0.0663462 0.431632 0.033341
0.108568 0.429465 0.0348058
0.149004 0.427787 0.036286
0.189105 0.426795 0.0376135
0.230594 0.425376 0.0382544
0.273915 0.424155 0.0373999
0.319997 0.422232 0.0328374
0.369818 0.421317 0.0189212
0.420249 0.418769 0.0130159
0.467796 0.417044 0.00267033
0.506874 0.417227 0
0.545495 0.416876 0
0.582391 0.415366 0
0.616053 0.412161 0
0.645701 0.407858 0
0.67068 0.407843 0
0.691402 0.413367 0
0.710979 0.421225 0
0.730831 0.429358 0
0.75169 0.438041 0
0.772396 0.446464 0
0.792996 0.454582 0
0.813519 0.463081 0
0.834775 0.474022 0
0.85655 0.487572 0.00704967
0.877943 0.502327 0.0352483
0.899168 0.518166 0.0676127
0.920653 0.534203 0.100481
0.936461 0.547082 0.124804
0.940246 0.550576 0.13051
0.940475 0.551171 0.130785
0.059556 0.477745 0.0392309
0.0742809 0.471855 0.0390631
0.102892 0.468284 0.0397955
0.13817 0.466163 0.0411078
0.173907 0.464439 0.0424811
0.210941 0.462928 0.0436713
0.250568 0.461769 0.0443732
0.291981 0.460105 0.0436408
0.335943 0.458106 0.0398718
0.383169 0.456519 0.0298772
0.427588 0.455634 0.00959792
0.470588 0.452766 0.0118563
0.510445 0.45156 0.00195315
0.546929 0.452537 0
0.583612 0.452369 0
0.618997 0.451408 0
0.651026 0.448661 0
0.679606 0.444755 0
0.703593 0.444999 0
0.724559 0.450645 0
0.744762 0.458396 0
0.764752 0.466239 0
0.784924 0.473976 0
0.805158 0.481453 0
0.825513 0.49015 0
0.84654 0.501457 0
0.867521 0.514382 0.0128023
0.888212 0.528695 0.0451972
0.90901 0.543938 0.0777752
0.930098 0.559625 0.111284
0.946075 0.572824 0.136965
0.950027 0.576486 0.143252
0.950347 0.57734 0.143679
0.179873 0.514549 0.0504311
0.174151 0.508705 0.0492256
0.18439 0.505302 0.0491798
0.206165 0.502876 0.0498054
0.232044 0.501015 0.0505379
0.261921 0.499657 0.0511177
0.294408 0.4981 0.0510567
0.329686 0.496345 0.0495918
0.366491 0.494392 0.045594
0.405814 0.4925 0.0369268
0.443793 0.4916 0.0191501
0.481514 0.489845 0.0154269
0.519173 0.487526 0.0100557
0.556161 0.487404 0.000610361
0.590097 0.488441 0
0.624308 0.488533 0
0.656138 0.487007 0
0.685847 0.484947 0
0.712612 0.481743 0
0.736095 0.482612 0
0.75729 0.487846 0
0.777035 0.494926 0
0.796857 0.502098 0
0.816617 0.508995 0
0.836866 0.518135 0
0.857923 0.52987 0
0.878279 0.542336 0.0228885
0.898238 0.555871 0.0556344
0.91841 0.570047 0.0890822
0.939544 0.586145 0.123217
0.955962 0.600153 0.150942
0.959899 0.603922 0.15758
0.960052 0.604379 0.157824
0.291569 0.552819 0.0693065
0.283879 0.546929 0.0663005
0.287678 0.542855 0.0641642
0.300191 0.540429 0.0631266
0.317723 0.538552 0.0621347
0.338964 0.536965 0.0609751
0.363088 0.535271 0.0585946
0.389563 0.533684 0.0547189
0.417227 0.531502 0.0487678
0.448157 0.529625 0.0389105
0.478752 0.528649 0.0213931
0.51107 0.527138 0.0161593
0.544915 0.52517 0.0156405
0.576959 0.524102 0.00602731
0.607691 0.524529 0
0.637461 0.524987 0
0.666697 0.52488 0
0.69453 0.523766 0
0.720989 0.522179 0
0.745632 0.519341 0
0.767803 0.520012 0
0.787579 0.524559 0
0.807324 0.531121 0
0.827344 0.53846 0
0.847684 0.547936 0
0.867994 0.558831 0.00454719
0.887739 0.570642 0.0348058
0.907591 0.583886 0.0674449
0.927932 0.598199 0.101946
0.949065 0.614466 0.137407
0.965042 0.627985 0.166033
0.968994 0.631632 0.173144
0.969146 0.632105 0.173404
0.382727 0.592371 0.123064
0.374487 0.585885 0.11397
0.376028 0.582055 0.107881
0.38352 0.579309 0.103014
0.39588 0.5776 0.09897
0.410346 0.575738 0.0939803
0.428031 0.573892 0.0875105
0.448081 0.571786 0.0782788
0.47097 0.569879 0.066453
0.494194 0.567819 0.0498512
0.519448 0.566613 0.0299687
0.546853 0.565255 0.02533
0.575311 0.562539 0.0255894
0.602289 0.561196 0.0141756
0.630304 0.560601 0.0039826
0.655406 0.560769 0
0.681163 0.561044 0
0.70692 0.561456 0
0.731289 0.560494 0
0.754665 0.558526 0
0.776486 0.556344 0
0.797086 0.557275 0
0.816831 0.562203 0
0.836866 0.569406 0
0.85716 0.57847 0
0.877104 0.588617 0.0165866
0.89662 0.600214 0.0493782
0.916671 0.613596 0.0830091
0.937545 0.628122 0.117494
0.957992 0.64361 0.153597
0.973388 0.656199 0.183215
0.977264 0.659815 0.190768
0.977401 0.660288 0.191104
0.468345 0.634455 0.16463
0.459174 0.627451 0.158007
0.458045 0.623011 0.152621
0.462669 0.620127 0.147829
0.470817 0.618143 0.143114
0.481041 0.616159 0.137026
0.493828 0.61445 0.129366
0.508873 0.612421 0.118944
0.52546 0.6103 0.105211
0.544411 0.608621 0.0872969
0.564996 0.60737 0.0645457
0.586725 0.604974 0.0614481
0.610269 0.601907 0.0595102
0.63267 0.600549 0.0434119
0.65655 0.599664 0.0280156
0.681056 0.598993 0.0156558
0.702922 0.59968 0.00686656
0.724269 0.59942 4.57771e-05
0.745617 0.599023 0
0.766995 0.598428 0
0.786969 0.596857 0
0.806424 0.595453 0
0.825345 0.596429 0
0.845289 0.601923 0
0.865599 0.610513 0.00207523
0.885695 0.620844 0.0340429
0.905165 0.63212 0.0666819
0.925078 0.644495 0.100954
0.945388 0.657435 0.134279
0.966217 0.673198 0.172686
0.981292 0.685374 0.204059
0.984771 0.688441 0.211383
0.984833 0.688685 0.211582
0.545937 0.680278 0.202533
0.536645 0.672496 0.194903
0.534661 0.66772 0.188724
0.537194 0.664561 0.183459
0.541817 0.661875 0.177874
0.549218 0.659968 0.171817
0.558511 0.657908 0.164248
0.569558 0.655665 0.154833
0.582803 0.653925 0.143893
0.597238 0.651835 0.129915
0.613306 0.650294 0.116518
0.630213 0.64715 0.117937
0.6495 0.643977 0.119463
0.667857 0.64271 0.108095
0.687709 0.641978 0.0960403
0.70811 0.641291 0.0822156
0.728359 0.640024 0.0668803
0.748562 0.639109 0.0521706
0.766155 0.639078 0.0383459
0.785031 0.640009 0.0270085
0.80267 0.639567 0.0153964
0.81944 0.638117 0.0031281
0.836057 0.63679 0
0.853895 0.638224 0
0.873381 0.644877 0.020325
0.893217 0.654139 0.0528878
0.91284 0.6645 0.0872358
0.932509 0.675502 0.120546
0.953185 0.688334 0.155978
0.973571 0.702968 0.195544
0.988159 0.714092 0.228016
0.99144 0.716808 0.235492
0.991531 0.717281 0.235981
0.616129 0.725383 0.247364
0.607065 0.717617 0.238132
0.604303 0.712749 0.230976
0.605737 0.709422 0.224887
0.608606 0.706676 0.218875
0.613947 0.704662 0.212451
0.620752 0.702388 0.204776
0.629969 0.700694 0.196429
0.639887 0.698741 0.186511
0.650492 0.696361 0.174273
0.662272 0.69369 0.169238
0.676112 0.691005 0.169726
0.691951 0.688411 0.170764
0.706905 0.686824 0.162554
0.721599 0.685237 0.152926
0.738109 0.684535 0.142702
0.754711 0.683421 0.132158
0.772457 0.683299 0.122713
0.789578 0.682582 0.11191
0.806622 0.681483 0.0999771
0.822095 0.681117 0.0879377
0.836927 0.680766 0.0752422
0.851881 0.6804 0.0634928
0.866423 0.679316 0.0514076
0.882109 0.681117 0.0539864
0.900236 0.687343 0.0761273
0.92018 0.69659 0.110857
0.940078 0.7066 0.144198
0.960464 0.718563 0.180911
0.980194 0.731579 0.222324
0.992859 0.742275 0.257542
0.99527 0.744778 0.265187
0.99527 0.7449 0.265339
0.678416 0.768277 0.303777
0.670375 0.760922 0.29218
0.666743 0.75584 0.283345
0.667308 0.75256 0.27631
0.669337 0.74992 0.269841
0.673609 0.747799 0.262989
0.678538 0.745754 0.255589
0.685481 0.743679 0.24683
0.692454 0.741222 0.236957
0.700603 0.738705 0.228717
0.709743 0.735698 0.226947
0.721111 0.73341 0.226505
0.732967 0.730846 0.225772
0.744427 0.728878 0.219242
0.755642 0.727199 0.210712
0.768536 0.726268 0.20238
0.782773 0.726162 0.194675
0.796841 0.725322 0.185672
0.810864 0.724361 0.176638
0.825193 0.723125 0.166812
0.840558 0.723049 0.158145
0.8551 0.722133 0.147692
0.870146 0.721508 0.137362
0.882856 0.720394 0.125078
0.894987 0.719921 0.11429
0.909377 0.721508 0.115679
0.927596 0.727611 0.13724
0.947814 0.737072 0.17229
0.967788 0.748135 0.211994
0.984176 0.760647 0.255985
0.99469 0.770291 0.292348
0.996719 0.772351 0.299657
0.996719 0.772595 0.300008
0.733486 0.810162 0.378836
0.725139 0.802258 0.362722
0.721645 0.797147 0.351278
0.721386 0.793957 0.343038
0.723003 0.791455 0.336172
0.726696 0.7897 0.329488
0.72932 0.786969 0.320485
0.733562 0.784253 0.310796
0.738521 0.781674 0.300694
0.74551 0.779492 0.296757
0.752911 0.777111 0.294224
0.760555 0.774014 0.29073
0.769284 0.771298 0.287938
0.778622 0.769009 0.283513
0.788083 0.768093 0.276646
0.798138 0.766812 0.268986
0.808804 0.76582 0.261295
0.820111 0.764752 0.252918
0.832135 0.764446 0.245441
0.844526 0.763897 0.237644
0.857038 0.763378 0.22948
0.870024 0.762783 0.220615
0.883314 0.762295 0.211536
0.896239 0.761166 0.2009
0.90898 0.760204 0.1906
0.922011 0.75906 0.180606
0.936858 0.760754 0.182498
0.953231 0.766934 0.205005
0.969818 0.777371 0.246815
0.984863 0.788846 0.293523
0.994873 0.798062 0.331716
0.996521 0.799649 0.338094
0.996521 0.799649 0.338094
0.780224 0.847822 0.478996
0.772946 0.840665 0.457099
0.769085 0.835737 0.441688
0.768521 0.832914 0.431907
0.769467 0.830747 0.423423
0.771008 0.82829 0.414084
0.772946 0.825788 0.404211
0.776135 0.823484 0.394156
0.780133 0.821347 0.384237
