YOYO-Client/Yoyo/Assets.xcassets/Taipei.dataset/Taipei.cube
TITLE "Generated by Resolve"
LUT_3D_SIZE 9
0.0155184 0.0160678 0.0170901
0.105409 0.0184482 0.00381476
0.230457 0.0226749 0
0.348516 0.0166781 0
0.459724 0.0200504 0
0.564187 0.0278782 0
0.662989 0.069749 0
0.784176 0.184558 0.0133669
0.811841 0.215335 0.0278172
0.0104677 0.0871748 0.035935
0.144366 0.0819867 0.00999466
0.253773 0.0800641 0.002121
0.364126 0.0763256 0
0.471626 0.0780957 0
0.572351 0.0965896 0
0.666331 0.127382 0
0.777737 0.205005 0.0104677
0.827329 0.256016 0.0385595
0.000610361 0.182269 0.0641337
0.13022 0.17882 0.0375982
0.305455 0.171115 0.00299077
0.413718 0.167056 0.00471504
0.515877 0.172671 0.00277714
0.613245 0.194598 0.00157168
0.704952 0.22565 0.00105287
0.808576 0.287327 0.020737
0.853101 0.327413 0.0559854
0 0.282734 0.0540932
0.114504 0.273945 0.056611
0.292851 0.271748 0.00950637
0.47921 0.260288 0.00291447
0.571664 0.265446 0.00509651
0.659205 0.290852 0.00489815
0.748806 0.328817 0.00410468
0.846784 0.389303 0.0332494
0.890227 0.424308 0.0819867
0 0.404929 0.0271763
0.12697 0.39324 0.0309911
0.302693 0.389212 0.0270085
0.500099 0.385168 0
0.635599 0.373281 0
0.715908 0.40032 0
0.801129 0.436469 0
0.888411 0.491661 0.0581826
0.930694 0.52607 0.119341
0.291569 0.552819 0.0693065
0.317723 0.538552 0.0621347
0.417227 0.531502 0.0487678
0.544915 0.52517 0.0156405
0.666697 0.52488 0
0.767803 0.520012 0
0.847684 0.547936 0
0.927932 0.598199 0.101946
0.969146 0.632105 0.173404
0.616129 0.725383 0.247364
0.608606 0.706676 0.218875
0.639887 0.698741 0.186511
0.691951 0.688411 0.170764
0.754711 0.683421 0.132158
0.822095 0.681117 0.0879377
0.882109 0.681117 0.0539864
0.960464 0.718563 0.180911
0.99527 0.7449 0.265339
0.8159 0.883101 0.604944
0.806897 0.865965 0.534463
0.813489 0.857221 0.490471
0.82884 0.847974 0.461021
0.853407 0.84004 0.438315
0.886503 0.837171 0.405325
0.925887 0.837034 0.373953
0.969909 0.839185 0.352682
0.99176 0.853346 0.431388
0.831769 0.902251 0.680949
0.835615 0.903319 0.682109
0.842298 0.905425 0.685512
0.852445 0.9084 0.690044
0.865812 0.912139 0.694713
0.885115 0.916823 0.698177
0.908339 0.919478 0.705211
0.94229 0.921324 0.705089
0.960098 0.92192 0.696376
0.0178378 0.0171054 0.0472114
0.085069 0.0133364 0.0331731
0.180179 0.0251774 0.0358434
0.298482 0.0423743 0.0395819
0.418662 0.0732433 0.0407874
0.535164 0.0969558 0.036408
0.642206 0.117693 0.0300908
0.765743 0.201236 0.0648051
0.798169 0.233158 0.0823987
0.00863661 0.0755016 0.10518
0.10103 0.109911 0.118914
0.206455 0.110735 0.0823224
0.319463 0.12285 0.0626535
0.438743 0.129625 0.0416571
0.548424 0.138537 0.0282444
0.648325 0.154284 0.0254063
0.761379 0.216754 0.055436
0.816266 0.266957 0.0836042
0 0.184497 0.169986
0.0501411 0.19765 0.148272
0.254795 0.203296 0.105028
0.365606 0.202655 0.0700542
0.483177 0.213031 0.0437629
0.59292 0.226795 0.0303044
0.687541 0.243748 0.0350652
0.791363 0.292653 0.0710918
0.843488 0.334539 0.101778
0 0.279393 0.174151
0.0334936 0.284062 0.163714
0.230777 0.291936 0.134508
0.425528 0.289296 0.0696269
0.536095 0.30016 0.0337377
0.636713 0.318944 0.0234226
0.72874 0.341543 0.0404822
0.830243 0.391272 0.0908522
0.881605 0.426413 0.127535
0 0.403922 0.166812
0 0.402991 0.136477
0.231876 0.397208 0.139544
0.428901 0.397147 0.0831311
0.59324 0.399878 0.00706493
0.683803 0.41799 0.0199435
0.774014 0.441611 0.0554665
0.873304 0.490806 0.116228
0.922988 0.525032 0.160388
0.18996 0.552621 0.190951
0.23267 0.53669 0.176867
0.348928 0.528511 0.169604
0.476616 0.524666 0.125902
0.611521 0.522362 0.0874037
0.724147 0.52221 0.0497597
0.818952 0.545647 0.0900893
0.912795 0.591516 0.151751
0.963867 0.628016 0.206348
0.566079 0.718654 0.333089
0.56022 0.699458 0.302541
0.591546 0.690105 0.276173
0.644205 0.682582 0.234775
0.712077 0.674998 0.221653
0.787976 0.672892 0.184176
0.860883 0.671489 0.148211
0.94815 0.707652 0.213474
0.990112 0.738918 0.289357
0.797772 0.875654 0.609094
0.787823 0.858061 0.542275
0.792676 0.848386 0.504219
0.809155 0.84004 0.467842
0.835615 0.830579 0.450431
0.870405 0.826856 0.415229
0.913085 0.82594 0.380468
0.960372 0.827253 0.350896
0.9897 0.845899 0.437507
0.823362 0.902525 0.702022
0.828428 0.903578 0.700832
0.835889 0.90547 0.701793
0.846403 0.908324 0.70454
0.86067 0.912047 0.707561
0.88072 0.916426 0.707485
0.905852 0.91957 0.706691
0.939345 0.921309 0.706905
0.9608 0.921874 0.695735
0.0368048 0.0287327 0.0913863
0.0935531 0.0219425 0.0924544
0.171954 0.0191806 0.0717479
0.252018 0.0303349 0.0769207
0.352377 0.0733043 0.100526
0.481468 0.136355 0.129274
0.60827 0.188876 0.139773
0.742184 0.265538 0.169284
0.777615 0.293675 0.183688
0.0176699 0.0923476 0.163394
0.0880751 0.108309 0.166247
0.184771 0.0963149 0.153002
0.25745 0.109972 0.130098
0.365621 0.139391 0.132937
0.491173 0.174228 0.138155
0.609354 0.204028 0.136614
0.73312 0.259236 0.154788
0.794537 0.299626 0.171832
0.00263981 0.151263 0.205371
0.063447 0.172763 0.217319
0.202045 0.221607 0.247623
0.310292 0.227161 0.208942
0.414069 0.245426 0.196429
0.528862 0.259892 0.179141
0.640696 0.26949 0.159121
0.76109 0.313558 0.172259
0.823743 0.350942 0.186648
0 0.24976 0.260014
0.00376898 0.267399 0.267247
0.15024 0.308446 0.27306
0.366629 0.322881 0.239933
0.461814 0.328359 0.219089
0.567437 0.346517 0.203906
0.675822 0.363745 0.192782
0.799344 0.406577 0.20621
0.864668 0.436805 0.215442
0 0.390066 0.280095
0 0.39176 0.276844
0.13875 0.408682 0.274952
0.349966 0.419806 0.2542
0.516396 0.420661 0.227436
0.613504 0.436606 0.225055
0.717418 0.457557 0.228595
0.841123 0.500267 0.243
0.907744 0.531426 0.249958
0.0827039 0.545586 0.322316
0.132403 0.53611 0.305287
0.253468 0.540276 0.287968
0.4047 0.532723 0.287617
0.536568 0.530465 0.273991
0.657053 0.532799 0.254841
0.765545 0.554116 0.268681
0.883711 0.595758 0.279789
0.950683 0.630823 0.290944
0.496742 0.722515 0.454871
0.492454 0.70309 0.428946
0.527474 0.692164 0.414191
0.58201 0.682734 0.393942
0.64799 0.677485 0.364096
0.724895 0.672679 0.353735
0.80914 0.673961 0.32694
0.921019 0.707561 0.327184
0.978332 0.739269 0.358816
0.771221 0.873182 0.657298
0.757671 0.854749 0.603769
0.761532 0.844739 0.575113
0.777264 0.835599 0.541787
0.803845 0.828473 0.509911
0.840864 0.82089 0.489769
0.88719 0.819959 0.454383
0.942504 0.822339 0.417914
0.982422 0.842924 0.481682
0.809049 0.903838 0.736126
0.815061 0.904433 0.732357
0.82356 0.906065 0.73138
0.835599 0.908721 0.73196
0.851331 0.912383 0.733333
0.87216 0.916335 0.731167
0.898695 0.920623 0.723674
0.934325 0.921111 0.720516
0.961624 0.921721 0.697337
0.0613718 0.0545968 0.150027
0.105577 0.0516213 0.157687
0.187137 0.04094 0.154116
0.262013 0.0335699 0.135698
0.332677 0.0596475 0.143191
0.42681 0.145602 0.19707
0.544137 0.240146 0.246769
0.692363 0.346746 0.297566
0.734325 0.378149 0.316686
0.0473793 0.115053 0.217227
0.0996262 0.116503 0.205219
0.174823 0.112078 0.212604
0.262776 0.103029 0.190433
0.333135 0.124315 0.182971
0.428168 0.187335 0.21677
0.548318 0.256764 0.24802
0.687251 0.340322 0.283177
0.759655 0.384436 0.304753
0.00796521 0.169711 0.261707
0.0795911 0.186191 0.270069
0.182544 0.216831 0.28893
0.286244 0.211002 0.292973
0.367178 0.23389 0.267002
0.465904 0.281453 0.278584
0.585199 0.32314 0.282307
0.717632 0.378607 0.301244
0.789914 0.41352 0.315358
0.00263981 0.230503 0.299992
0.0502022 0.242145 0.306172
0.160815 0.278721 0.334127
0.299565 0.328328 0.368078
0.42359 0.347539 0.341161
0.517845 0.372457 0.33196
0.624674 0.390692 0.315236
0.754772 0.430838 0.324651
0.830076 0.457816 0.330449
0 0.336919 0.342626
0 0.343908 0.345754
0.106538 0.379416 0.368093
0.262501 0.429709 0.388006
0.475837 0.449653 0.376654
0.566735 0.461051 0.373541
0.667018 0.48069 0.36849
0.797467 0.52166 0.377997
0.873564 0.549355 0.378195
0 0.515129 0.404654
0 0.512139 0.395941
0.166781 0.528664 0.403891
0.327779 0.542214 0.410605
0.478172 0.550958 0.404105
0.609888 0.552453 0.407202
0.714305 0.571527 0.419425
0.838422 0.611414 0.427558
0.919112 0.643717 0.41973
0.42266 0.712337 0.550744
0.426093 0.698589 0.533654
0.443809 0.702007 0.511131
0.514916 0.692058 0.504143
0.592615 0.684672 0.49427
0.673747 0.679484 0.482033
0.760906 0.681529 0.476631
0.879393 0.714595 0.479515
0.957275 0.744137 0.46537
0.723827 0.875502 0.724636
0.704875 0.856779 0.689921
0.710079 0.845487 0.669032
0.728695 0.835248 0.646906
0.757382 0.8271 0.622705
0.796597 0.821744 0.593454
0.844205 0.816266 0.579187
0.909468 0.820325 0.540871
0.969604 0.842542 0.556405
0.783383 0.906935 0.776272
0.792813 0.90724 0.772168
0.803708 0.90811 0.769787
0.818326 0.910201 0.768582
0.836515 0.913115 0.767651
0.86009 0.916732 0.764645
0.887953 0.920516 0.756558
0.924788 0.920989 0.749737
0.955657 0.921813 0.724941
0.0956436 0.102312 0.230015
0.131075 0.107027 0.235721
0.19765 0.108827 0.260166
0.276509 0.10808 0.267826
0.35642 0.115755 0.263554
0.430961 0.147738 0.270848
0.520531 0.26482 0.34313
0.646143 0.40293 0.41677
0.687449 0.438132 0.440192
0.0934005 0.143832 0.271107
0.126696 0.144671 0.264515
0.184848 0.150652 0.273411
0.263096 0.148333 0.292531
0.349432 0.153582 0.286702
0.428916 0.184771 0.29015
0.515465 0.281804 0.345953
0.636271 0.397177 0.403983
0.713939 0.450126 0.434043
0.0634012 0.205676 0.331792
0.119341 0.215747 0.335668
0.196506 0.236286 0.345403
0.26688 0.247959 0.355993
0.367269 0.245014 0.369436
0.459266 0.275883 0.3635
0.540581 0.355795 0.393683
0.668864 0.440528 0.431098
0.749828 0.483467 0.451011
0.0186923 0.26743 0.376928
0.0844434 0.272801 0.377813
0.183246 0.299535 0.397116
0.280171 0.328511 0.41619
0.381262 0.341543 0.431785
0.495323 0.371221 0.429938
0.579171 0.433783 0.43769
0.713802 0.492973 0.460044
0.795727 0.525154 0.470588
0.00190738 0.334279 0.411749
0.00572213 0.335363 0.410391
0.141985 0.360265 0.42887
0.259815 0.396704 0.458106
0.395743 0.43978 0.487831
0.539025 0.47512 0.484291
0.633677 0.50341 0.475029
0.760143 0.545022 0.487266
0.841154 0.572656 0.489738
0.00267033 0.468605 0.467918
0.0238041 0.464805 0.462104
0.158099 0.480369 0.473091
0.273548 0.509148 0.493721
0.404883 0.551766 0.519966
0.577325 0.573007 0.529839
0.685786 0.589273 0.528588
0.803922 0.628489 0.539193
0.88661 0.659083 0.535058
0.311894 0.674571 0.593484
0.317113 0.660716 0.578729
0.367773 0.666255 0.581231
0.442481 0.679789 0.589822
0.525887 0.688731 0.592126
0.623682 0.691997 0.582605
0.73283 0.693767 0.582284
0.844327 0.724575 0.598016
0.926833 0.753674 0.58761
0.646479 0.861051 0.762112
0.626291 0.843549 0.738155
0.643107 0.837583 0.731533
0.672908 0.833661 0.724819
0.701747 0.831571 0.706157
0.751293 0.823362 0.691295
0.805432 0.819455 0.671778
0.873579 0.822553 0.665492
0.950454 0.845289 0.655009
0.735637 0.900557 0.811231
0.756466 0.903532 0.812055
0.772702 0.908995 0.81178
0.787549 0.914153 0.806058
0.813138 0.91574 0.805203
0.842405 0.917998 0.802289
0.873716 0.920699 0.794766
0.913069 0.922957 0.78027
0.947509 0.921828 0.760418
0.149355 0.184573 0.34197
0.176959 0.193256 0.348119
0.230686 0.213199 0.36849
0.292515 0.233005 0.39791
0.368338 0.25153 0.432914
0.452186 0.274235 0.454246
0.535729 0.314748 0.473899
0.653727 0.444495 0.533883
0.68394 0.479835 0.557137
0.145678 0.205432 0.362325
0.168841 0.207004 0.358236
0.220371 0.222644 0.370275
0.280217 0.239902 0.392142
0.355825 0.257069 0.428321
0.443534 0.276478 0.44976
0.529015 0.315618 0.465324
0.638178 0.434562 0.51606
0.692378 0.494636 0.546822
0.147372 0.261662 0.41796
0.176547 0.263951 0.416342
0.232151 0.282429 0.425071
0.294133 0.304936 0.440314
0.364187 0.327214 0.465049
0.454475 0.342916 0.499275
0.548836 0.375952 0.510048
0.658747 0.478019 0.542901
0.717739 0.532036 0.567269
0.147906 0.328115 0.471901
0.17467 0.326513 0.466667
0.23949 0.342306 0.476234
0.309667 0.364797 0.487541
0.379309 0.390631 0.503075
0.462074 0.41294 0.531533
0.575998 0.444343 0.554894
0.68777 0.533639 0.573892
0.758053 0.582116 0.593835
0.133303 0.400488 0.518563
0.159945 0.396384 0.511666
0.228733 0.408789 0.518929
0.312627 0.427787 0.531106
0.392523 0.452232 0.545617
0.477668 0.48249 0.564019
0.616144 0.5196 0.59617
0.729397 0.594308 0.606302
0.806699 0.633967 0.619623
0.0911269 0.477913 0.556237
0.127092 0.470542 0.546761
0.20766 0.47895 0.5523
0.298116 0.495048 0.564889
0.385153 0.51545 0.582803
0.494041 0.5505 0.606836
0.671107 0.600687 0.625788
0.776013 0.650782 0.634211
0.855253 0.683574 0.639857
0.222797 0.622065 0.632197
0.238071 0.608743 0.617975
0.295171 0.612131 0.619806
0.36997 0.623743 0.628885
0.455344 0.646632 0.647028
0.564233 0.681971 0.675288
0.70164 0.706172 0.683207
0.817746 0.736538 0.690394
0.896727 0.765347 0.690349
0.523323 0.837278 0.78175
0.507408 0.817868 0.761334
0.533974 0.812161 0.756146
0.579248 0.812192 0.756695
0.638956 0.818265 0.763272
0.696818 0.821927 0.761746
0.762905 0.82359 0.751751
0.851438 0.828885 0.751034
0.927123 0.85156 0.755123
0.641291 0.886915 0.826795
0.67332 0.892287 0.827512
0.704982 0.897932 0.831342
0.741436 0.904875 0.837674
0.77937 0.912795 0.845838
0.81471 0.918624 0.846342
0.850248 0.92311 0.839414
0.895247 0.923751 0.826139
0.938109 0.925597 0.819013
0.213565 0.300725 0.489921
0.233906 0.308583 0.492775
0.281346 0.33431 0.510338
0.34406 0.368734 0.534539
0.40885 0.405585 0.563745
0.474876 0.444083 0.598932
0.549111 0.486931 0.644724
0.652323 0.537606 0.701717
0.676219 0.560265 0.72015
0.206851 0.301854 0.488838
0.221759 0.302327 0.483345
0.267018 0.323232 0.495369
0.328038 0.354238 0.516304
0.393408 0.390585 0.545083
0.460197 0.428351 0.579782
0.534035 0.467628 0.623529
0.635203 0.513375 0.674098
0.686854 0.545785 0.697124
0.218067 0.339101 0.525994
0.233204 0.337926 0.520378
0.27982 0.359136 0.531228
0.341772 0.389151 0.548302
0.405417 0.42295 0.571756
0.469337 0.458045 0.600259
0.540658 0.495018 0.637491
0.642863 0.537255 0.689509
0.709133 0.572534 0.71133
0.234028 0.403098 0.576883
0.248844 0.397223 0.567987
0.296651 0.405371 0.572519
0.356405 0.428489 0.584039
0.417578 0.459373 0.601572
0.479774 0.493172 0.624949
0.551308 0.531258 0.656565
0.659998 0.577264 0.709133
0.74902 0.616648 0.731991
0.256977 0.47097 0.628275
0.269764 0.462943 0.617136
0.315908 0.468101 0.619211
0.374594 0.477577 0.624537
0.433783 0.500206 0.636576
0.494316 0.532906 0.654078
0.569299 0.573205 0.681102
0.696406 0.62678 0.734279
0.796246 0.672816 0.751308
0.279133 0.541375 0.678035
0.290257 0.530663 0.664469
0.331899 0.532815 0.664378
0.388083 0.539315 0.667124
0.445777 0.551751 0.672282
0.507591 0.575402 0.683207
0.592462 0.619867 0.707454
0.748577 0.682094 0.758862
0.831937 0.732296 0.76585
0.257115 0.627588 0.726177
0.274891 0.612924 0.709468
0.318959 0.611566 0.705867
0.37586 0.616205 0.70631
0.439078 0.625956 0.710887
0.510262 0.640345 0.719417
0.622187 0.683284 0.744945
0.802533 0.746883 0.781704
0.867323 0.785977 0.783764
0.298634 0.788083 0.797925
0.316106 0.767376 0.779293
0.373922 0.761685 0.774151
0.444938 0.761425 0.77351
0.524483 0.768277 0.779019
0.618219 0.785443 0.793881
0.716594 0.810208 0.815274
0.826368 0.835874 0.826139
0.903655 0.859419 0.830732
0.415503 0.845884 0.835935
0.495323 0.85922 0.837476
0.56112 0.870466 0.842359
0.634455 0.883665 0.851118
0.704906 0.897047 0.862791
0.768124 0.910369 0.876387
0.816693 0.920104 0.882124
0.863416 0.927932 0.876799
0.927565 0.931655 0.875563
0.338079 0.479774 0.692958
0.345907 0.478782 0.688273
0.376532 0.494972 0.697505
0.420081 0.519097 0.710903
0.474022 0.551156 0.729351
0.53637 0.59263 0.754345
0.604486 0.641947 0.783978
0.685283 0.701595 0.818082
0.70074 0.717754 0.829282
0.314427 0.455543 0.667918
0.316258 0.446723 0.655314
0.346044 0.460227 0.661646
0.393912 0.48629 0.676616
0.453742 0.522271 0.698863
0.51783 0.564141 0.725368
0.584848 0.612222 0.756649
0.665125 0.67187 0.793805
0.699565 0.703502 0.814404
0.328618 0.483085 0.692714
0.328496 0.470405 0.67924
0.357794 0.483085 0.68542
0.403037 0.50518 0.696086
0.460609 0.536721 0.712779
0.523018 0.575021 0.734661
0.588952 0.619394 0.761273
0.668544 0.67541 0.794629
0.707958 0.708659 0.815732
0.350347 0.523491 0.725109
0.347601 0.508354 0.709392
0.371267 0.509316 0.708705
0.413092 0.524346 0.714351
0.469062 0.552911 0.727306
0.529503 0.587961 0.744961
0.596353 0.630976 0.768429
0.676875 0.685893 0.799207
0.722316 0.7205 0.819989
0.373922 0.573281 0.764035
0.368856 0.556756 0.746715
0.390585 0.555184 0.743267
0.429435 0.558282 0.74313
0.481682 0.577859 0.7505
0.54136 0.6103 0.763821
0.609751 0.652125 0.782818
0.692164 0.70634 0.809903
0.744991 0.744488 0.830991
0.395743 0.631769 0.808133
0.387472 0.614099 0.789197
0.406973 0.610056 0.783368
0.444648 0.609705 0.779797
0.494057 0.613748 0.779217
0.553323 0.636164 0.786007
0.626337 0.679286 0.800809
0.712261 0.734325 0.824384
0.773861 0.778592 0.846906
0.397253 0.703334 0.856748
0.387808 0.684642 0.83653
0.405051 0.67628 0.826871
0.443153 0.672328 0.820783
0.497566 0.672999 0.818158
0.563775 0.681346 0.816922
0.64239 0.715373 0.823377
0.735927 0.771862 0.843671
0.824384 0.821088 0.871321
0.320653 0.787457 0.893843
0.334234 0.770779 0.881621
0.345983 0.760342 0.866789
0.392233 0.753841 0.856291
0.466255 0.754147 0.851179
0.55761 0.762325 0.849439
0.650996 0.778454 0.851637
0.767147 0.824369 0.872908
0.886183 0.868193 0.900175
0.26981 0.813855 0.900053
0.239567 0.813107 0.891173
0.236698 0.815045 0.87985
0.320699 0.825956 0.872953
0.458854 0.843931 0.87631
0.611383 0.866041 0.886503
0.735973 0.889723 0.902129
0.828534 0.911681 0.91809
0.914412 0.934981 0.930312
0.406546 0.566339 0.775982
0.416007 0.570306 0.777447
0.435004 0.57821 0.779919
0.462272 0.587732 0.780575
0.500557 0.604456 0.784878
0.549737 0.630304 0.794568
0.613062 0.668376 0.811215
0.690578 0.717632 0.833326
0.702541 0.725139 0.836378
0.407187 0.57232 0.780941
0.414038 0.572961 0.780987
0.43267 0.58172 0.784436
0.461479 0.594644 0.788754
0.499168 0.613397 0.795956
0.545647 0.638529 0.806104
0.603601 0.670237 0.817578
0.678706 0.713222 0.833188
0.706279 0.730114 0.839811
0.413642 0.58883 0.792538
0.420584 0.589624 0.792721
0.437385 0.592554 0.794095
0.465629 0.605035 0.798657
0.502724 0.622843 0.805188
0.548409 0.646403 0.813672
0.607385 0.677775 0.82443
0.682994 0.720531 0.839231
0.714794 0.741146 0.847059
0.424857 0.611872 0.808804
0.43183 0.611749 0.808392
0.447318 0.613611 0.80911
0.472328 0.618235 0.810987
0.508766 0.635538 0.816968
0.552865 0.657588 0.824491
0.61413 0.689403 0.834684
0.691188 0.732448 0.848646
0.728038 0.757198 0.857435
0.438437 0.64062 0.828885
0.443458 0.639323 0.827787
0.45861 0.640528 0.828183
0.483085 0.643549 0.829313
0.515724 0.651453 0.831922
0.561135 0.67306 0.838621
0.625635 0.705257 0.848005
0.703395 0.749218 0.861021
0.748241 0.778714 0.870756
0.447242 0.675151 0.852277
0.453147 0.672007 0.850202
0.467842 0.672511 0.850248
0.492576 0.674815 0.850996
0.524025 0.67747 0.851667
0.569909 0.691066 0.855283
0.639521 0.723552 0.863279
0.720272 0.769009 0.875303
0.772763 0.803021 0.885588
0.439063 0.719829 0.879057
0.449134 0.714137 0.876249
0.465705 0.712688 0.875761
0.489555 0.712032 0.875669
0.523919 0.713375 0.876112
0.573877 0.716915 0.87628
0.64892 0.741344 0.880522
0.737346 0.791226 0.891539
0.800961 0.833188 0.903227
0.340963 0.790387 0.901152
0.377844 0.777447 0.900099
0.405676 0.772122 0.900008
0.44062 0.767697 0.900633
0.485603 0.765667 0.902419
0.550454 0.766369 0.904814
0.644022 0.779034 0.905409
0.752743 0.825391 0.911742
0.832166 0.874311 0.925261
0.282902 0.814481 0.902815
0.290181 0.815488 0.903365
0.310475 0.818357 0.904875
0.345327 0.823072 0.907225
0.400488 0.830259 0.910689
0.492332 0.841337 0.915572
0.628702 0.860349 0.922301
0.759686 0.88423 0.928801
0.894652 0.929625 0.95198
