YOYO-Client/Yoyo/Assets.xcassets/California.dataset/Kodak-Ektar-100.cube
TITLE "Generated by Resolve"
LUT_3D_SIZE 33
0 0.0117647 0.0235294
0.0037995 0.0117647 0.0235294
0.0115206 0.0117647 0.0235294
0.0267185 0.0153201 0.027451
0.045594 0.0156863 0.0308843
0.0648356 0.0196078 0.0313725
0.0879835 0.0235294 0.0345617
0.118135 0.0235294 0.0352941
0.14902 0.0235294 0.0382391
0.186648 0.0167849 0.0392157
0.225238 0.0129854 0.0419165
0.270344 0.00134279 0.0431373
0.31667 0 0.0470588
0.371572 0 0.0493935
0.427207 0 0.053193
0.479164 0 0.054902
0.529412 0 0.0588235
0.575738 0 0.0588235
0.62034 0 0.0627451
0.662867 0 0.0627451
0.701473 0 0.0627451
0.73872 0 0.0627451
0.773526 0 0.0639658
0.808331 0 0.0627451
0.839216 0 0.0627451
0.874022 0 0.0627451
0.904906 0 0.0627451
0.935164 0 0.0588235
0.962737 0 0.0583352
0.989334 0 0.0545357
1 0 0.0507362
1 0 0.0469368
1 0.0627451 0.0431373
0 0.0270848 0.027451
0 0.0272068 0.0273289
0.00772107 0.0272068 0.027451
0.0229191 0.0306554 0.0308995
0.0422675 0.0311284 0.0313725
0.0648356 0.0344549 0.035172
0.0911727 0.03505 0.0352941
0.118135 0.03505 0.0352941
0.152911 0.03505 0.0381476
0.187716 0.0311589 0.0392157
0.229129 0.024506 0.0430915
0.274144 0.0129091 0.0456245
0.32047 0.00141909 0.0470588
0.375418 0 0.0509804
0.431006 0 0.053193
0.481254 0 0.054902
0.529412 0 0.0588235
0.575738 0 0.0588235
0.62034 0 0.0606088
0.662867 0 0.0627451
0.701473 0 0.0627451
0.736156 0 0.0627451
0.770916 0 0.0627451
0.805508 0 0.0627451
0.839216 0 0.0627451
0.871046 0 0.0627451
0.904906 0 0.0620127
0.93196 0 0.0588235
0.962737 0 0.0550088
0.989334 0 0.0510872
1 0 0.0468147
1 0.000717174 0.0430152
1 0.0821088 0.0392157
0 0.0387274 0.03505
0 0.042649 0.03505
0.00390631 0.0460975 0.03505
0.0191196 0.0465705 0.03505
0.0416724 0.0497902 0.0352636
0.0648356 0.0504463 0.0352941
0.0911727 0.0504921 0.0352941
0.121813 0.0504921 0.0381628
0.152941 0.050309 0.0392157
0.19057 0.0463874 0.0418555
0.231693 0.0399481 0.0431373
0.277943 0.0294041 0.0469673
0.326711 0.0117647 0.0493629
0.380758 0 0.0509804
0.434806 0 0.053193
0.485039 0 0.054902
0.533333 0 0.0588235
0.579538 0 0.0588235
0.621958 0 0.0605325
0.662867 0 0.0627451
0.701473 0 0.0627451
0.738567 0 0.0627451
0.773358 0 0.0627451
0.808331 0 0.0627451
0.839216 0 0.0627451
0.874022 0 0.0619364
0.904906 0 0.0588235
0.931868 0 0.0582132
0.962249 0 0.0544442
0.989334 0 0.0506142
1 0 0.0433661
1 0.00167849 0.0390936
1 0.101472 0.0352941
0 0.0580911 0.042771
0 0.0616464 0.042771
0 0.0619821 0.042771
0.0113985 0.0659037 0.0392157
0.0341955 0.0694896 0.0388495
0.06421 0.0730449 0.0391546
0.0911727 0.070222 0.0392157
0.122057 0.0694896 0.0392157
0.156771 0.0694896 0.041886
0.194385 0.0666667 0.0431373
0.235538 0.0628672 0.0469368
0.284077 0.054902 0.0493935
0.334432 0.0406806 0.0509804
0.388479 0.0189975 0.0530861
0.440528 0.00155642 0.054902
0.490562 0 0.054902
0.537255 0 0.0588235
0.581552 0 0.0588235
0.624063 0 0.0588235
0.662867 0 0.0589761
0.701473 0 0.0605173
0.73872 0 0.0627451
0.774639 0 0.0627451
0.808331 0 0.0591897
0.842863 0 0.0590982
0.874022 0 0.0588235
0.904906 0 0.0581521
0.931868 0 0.0543526
0.962249 0 0.0505379
0.989334 0 0.0467231
1 0.000442512 0.0393378
1 0.0496681 0.0351873
1 0.124392 0.0313725
0 0.0877394 0.0470588
0 0.0882124 0.0504921
0 0.0882277 0.0504921
0.000442512 0.0921645 0.0465705
0.0225528 0.0995041 0.0465705
0.0626535 0.102892 0.042649
0.0973983 0.103426 0.042649
0.132738 0.0996109 0.0430304
0.170092 0.0969406 0.0431373
0.208698 0.0932631 0.0469215
0.253437 0.0894636 0.0470588
0.30576 0.0851759 0.0509804
0.356069 0.0737163 0.0531319
0.407889 0.059556 0.054902
0.458122 0.0433509 0.054902
0.504662 0.018555 0.0583352
0.550973 0.00170901 0.0588235
0.593637 0 0.0588235
0.634562 0 0.0588235
0.675196 0 0.0588235
0.711757 0 0.0588235
0.746761 0 0.0588235
0.780392 0 0.0588235
0.815198 0 0.0588235
0.846082 0 0.057969
0.876966 0 0.0552834
0.907835 0 0.0542611
0.93521 0 0.0509804
0.965194 0 0.0466316
0.991958 0.0125429 0.042771
1 0.0563363 0.03505
1 0.103777 0.0274357
1 0.153429 0.0230411
0 0.11519 0.0542916
0 0.11899 0.0542916
0 0.119112 0.0542916
0 0.119677 0.0542916
0.00450141 0.123568 0.0508583
0.0447089 0.130877 0.0475776
0.0937362 0.134798 0.0437629
0.136889 0.134325 0.0431373
0.177966 0.131716 0.0460822
0.223529 0.130266 0.0470588
0.269856 0.124071 0.0497597
0.318959 0.11986 0.0509804
0.3691 0.112139 0.0534371
0.417273 0.104051 0.054902
0.463951 0.0921645 0.054902
0.510536 0.0798657 0.0588235
0.556252 0.0653849 0.0588235
0.598978 0.0487373 0.0588235
0.639948 0.0320592 0.0588235
0.678553 0.0158236 0.0588235
0.715297 0.00207523 0.0588235
0.750484 0 0.0576791
0.782605 0 0.0555123
0.816175 0 0.054902
0.847059 0 0.0515908
0.877943 0 0.0514534
0.908827 0.00517281 0.0476692
0.939086 0.0285344 0.0437476
0.966171 0.057023 0.0394141
0.992889 0.085893 0.0325475
1 0.114992 0.0278172
1 0.150484 0.0200961
1 0.1897 0.0162966
0 0.146075 0.0620127
0 0.149874 0.0620127
0 0.149996 0.0620127
0 0.149996 0.0620127
0 0.153918 0.0620127
0.0186313 0.161151 0.0580911
0.0780804 0.168276 0.0509804
0.135912 0.17528 0.0471809
0.189456 0.175982 0.0462654
0.238972 0.172259 0.0470588
0.285298 0.165942 0.0497597
0.334188 0.161639 0.0509804
0.381857 0.153918 0.0509804
0.428626 0.146197 0.0536049
0.475242 0.138476 0.054902
0.519478 0.130755 0.054902
0.562371 0.122301 0.0556344
0.604532 0.113848 0.0556344
0.643137 0.105806 0.0556344
0.681743 0.0941939 0.0556344
0.717159 0.0869459 0.054902
0.751583 0.080766 0.054902
0.78529 0.0762188 0.0539101
0.819364 0.0728008 0.0515145
0.85098 0.0769055 0.0476081
0.881697 0.0823987 0.0463569
0.911406 0.0921492 0.0399481
0.939086 0.10515 0.0355383
0.966171 0.121324 0.0316167
0.992889 0.140749 0.0246281
1 0.161074 0.0162203
1 0.185168 0.00918593
1 0.224506 0.004654
0 0.180026 0.0697337
0 0.183948 0.0697337
0 0.187015 0.0697337
0 0.187869 0.0697337
0 0.191302 0.0697337
0.000717174 0.195102 0.0664225
0.0581216 0.202823 0.0624552
0.126665 0.210727 0.054902
0.191394 0.218265 0.0471809
0.250248 0.218387 0.0439918
0.30074 0.21387 0.0460975
0.350973 0.207965 0.0470588
0.397299 0.200244 0.0479133
0.443626 0.19559 0.0497292
0.486412 0.187869 0.0514687
0.52929 0.180148 0.0518349
0.569726 0.172854 0.0518349
0.609186 0.16556 0.0518349
0.647791 0.160906 0.0518349
0.685542 0.154437 0.0518349
0.72076 0.149386 0.0518349
0.754406 0.146075 0.0509804
0.788632 0.142748 0.0500191
0.820096 0.142153 0.0476692
0.85098 0.146075 0.0439918
0.881865 0.150195 0.0398871
0.912016 0.15552 0.0354162
0.939223 0.163363 0.0281682
0.966171 0.17499 0.0235142
0.992889 0.187747 0.0131075
1 0.203235 0.00538643
1 0.223651 0.000823987
1 0.25539 0
0 0.237263 0.0803998
0 0.238209 0.0803998
0 0.238239 0.0803998
0 0.241794 0.0803998
0 0.242161 0.0803998
0 0.245624 0.0779126
0.0452888 0.250248 0.0732891
0.123659 0.255665 0.0665446
0.193133 0.262745 0.0556344
0.261921 0.269764 0.0450599
0.323781 0.269917 0.0381781
0.374914 0.263752 0.0391852
0.421576 0.256367 0.0408026
0.464363 0.248646 0.0429236
0.50515 0.240925 0.0441138
0.547677 0.233204 0.0441138
0.586282 0.225498 0.0441138
0.621942 0.220127 0.046479
0.660533 0.213977 0.0450904
0.695216 0.210178 0.0446937
0.728801 0.206378 0.0441138
0.760296 0.202914 0.0441138
0.795102 0.2 0.0428931
0.825147 0.2 0.0401923
0.853925 0.200977 0.0362707
0.884596 0.204776 0.0323491
0.911772 0.208576 0.0276951
0.941207 0.216297 0.0230716
0.968139 0.224384 0.0160525
0.992004 0.235935 0.00720226
1 0.247547 0
1 0.266026 0
1 0.288228 0
0 0.276844 0.0851759
0 0.287373 0.0890974
0 0.291249 0.0890974
0 0.291417 0.0890974
0 0.28896 0.0890974
0 0.288609 0.0881666
0.0368353 0.292317 0.0842756
0.118868 0.295827 0.0781872
0.188357 0.303304 0.0693675
0.255818 0.308217 0.0556954
0.323751 0.314824 0.0405585
0.384573 0.314946 0.0299077
0.433204 0.310338 0.0296635
0.478874 0.30367 0.0296635
0.519249 0.295949 0.0324712
0.558328 0.288243 0.0335851
0.596933 0.280522 0.0335851
0.633112 0.272801 0.0335851
0.668498 0.267414 0.0363928
0.703304 0.261723 0.0347295
0.7346 0.257893 0.0335851
0.766171 0.254063 0.0335851
0.797055 0.251865 0.0324712
0.827939 0.251102 0.0293431
0.857023 0.252201 0.0278477
0.885786 0.255268 0.0240177
0.915038 0.260578 0.0176852
0.943008 0.264576 0.0131838
0.967636 0.272435 0.00563058
0.992889 0.281392 0.0010071
1 0.293019 0
1 0.308583 0
1 0.331746 0
0 0.318135 0.0928969
0 0.329778 0.0941176
0 0.333654 0.0968185
0 0.333822 0.0968185
0 0.331121 0.0944533
0 0.331121 0.09308
0.0296788 0.331121 0.0928969
0.116915 0.334188 0.088014
0.183642 0.337987 0.0808881
0.247303 0.345708 0.0695811
0.315679 0.351583 0.054902
0.380453 0.357229 0.0337682
0.439918 0.36051 0.0201572
0.487251 0.357717 0.018143
0.530831 0.349996 0.018143
0.56997 0.342275 0.018143
0.607965 0.334554 0.018143
0.64268 0.326833 0.0193637
0.676219 0.322347 0.0193637
0.708705 0.315312 0.0213321
0.741909 0.309071 0.0212863
0.771862 0.30515 0.0193637
0.800977 0.302068 0.018143
0.83064 0.301228 0.018143
0.858824 0.301534 0.0162356
0.887892 0.303044 0.0124056
0.915938 0.307103 0.00614939
0.943008 0.310903 0.00225834
0.966674 0.318624 0
0.992889 0.326345 0
1 0.335286 0
1 0.347189 0
1 0.370336 0
0 0.357961 0.0980392
0 0.369604 0.100618
0 0.373648 0.100618
0 0.373648 0.100618
0 0.373648 0.100618
0 0.372305 0.100618
0.0328527 0.372305 0.0985275
0.119783 0.373358 0.0966964
0.186236 0.376593 0.0898299
0.246082 0.381491 0.0811322
0.308766 0.388113 0.0664225
0.373526 0.395834 0.0484016
0.436637 0.403555 0.0260929
0.491356 0.407599 0.00735485
0.539849 0.404044 0.0019379
0.581613 0.400244 0.00205997
0.617578 0.392523 0.00270085
0.653071 0.384802 0.00270085
0.68394 0.377081 0.00270085
0.716182 0.36936 0.00270085
0.745708 0.361639 0.00270085
0.776593 0.357839 0.00270085
0.804898 0.354467 0.00270085
0.833707 0.351354 0.00270085
0.862409 0.351354 0.00134279
0.889418 0.351644 0.00105287
0.915938 0.353429 0
0.943008 0.357229 0
0.966171 0.362203 0
0.989334 0.36875 0
1 0.376562 0
1 0.389578 0
1 0.408942 0
0 0.415198 0.104417
0 0.419562 0.108217
0 0.421073 0.108186
0 0.421073 0.105882
0 0.421073 0.105882
0 0.417151 0.104646
0.0506447 0.417151 0.104417
0.135424 0.417151 0.103258
0.196201 0.418631 0.0975509
0.254902 0.422553 0.0905165
0.311055 0.42916 0.0811017
0.370443 0.436881 0.0638437
0.428367 0.444602 0.0421607
0.486885 0.450874 0.0146029
0.542 0.455299 0
0.587869 0.453605 0
0.626474 0.449027 0
0.662455 0.441306 0
0.696574 0.433585 0
0.727443 0.425864 0
0.755886 0.418143 0
0.78381 0.413367 0
0.810819 0.40708 0
0.837827 0.403235 0
0.865202 0.401465 0
0.891295 0.401465 0
0.918379 0.401465 0
0.941924 0.40415 0
0.967163 0.408331 0
0.990082 0.413458 0
1 0.419852 0
1 0.427695 0
1 0.441672 0
0 0.450858 0.108217
0 0.4663 0.112062
0 0.470359 0.112139
0 0.470466 0.112139
0 0.466545 0.112139
0 0.462989 0.112139
0.076112 0.462623 0.110246
0.150225 0.458701 0.108553
0.207233 0.458701 0.105272
0.259602 0.461967 0.101472
0.312993 0.465812 0.0905623
0.364706 0.47071 0.0779431
0.421195 0.478431 0.0615091
0.477668 0.486152 0.0329595
0.532357 0.493874 0.00648508
0.58555 0.499153 0
0.630579 0.500252 0
0.669245 0.495583 0
0.703304 0.489097 0
0.734188 0.481376 0
0.762142 0.473655 0
0.789151 0.465934 0
0.816175 0.460533 0
0.842527 0.454856 0
0.868406 0.451591 0
0.893629 0.451591 0
0.91986 0.451896 0
0.943008 0.453193 0
0.967773 0.457115 0
0.990784 0.461173 0
1 0.466789 0
1 0.474586 0
1 0.486152 0
0 0.489464 0.113725
0 0.504906 0.115938
0 0.509071 0.11754
0 0.509071 0.116091
0 0.50515 0.115938
0.0018616 0.501839 0.115938
0.0962539 0.501228 0.115938
0.162249 0.497307 0.115938
0.215503 0.497307 0.112016
0.26569 0.497307 0.108095
0.31368 0.501228 0.101472
0.363867 0.507713 0.0920272
0.415778 0.513237 0.0779431
0.469001 0.520958 0.0584573
0.523033 0.530877 0.0281987
0.577081 0.538598 0.00309758
0.625238 0.544366 0
0.669734 0.544732 0
0.705867 0.540932 0
0.737987 0.534112 0
0.766018 0.527703 0
0.793042 0.519982 0
0.82005 0.512261 0
0.845212 0.508461 0
0.870161 0.504662 0
0.896696 0.501717 0
0.91986 0.501305 0
0.943008 0.499855 0
0.966171 0.503426 0
0.989136 0.503792 0
1 0.509209 0
1 0.515373 0
1 0.528679 0
0 0.528069 0.119738
0 0.541482 0.121508
0 0.547433 0.123659
0 0.545785 0.123659
0 0.543755 0.121828
0.035462 0.540108 0.121279
0.119356 0.539834 0.119738
0.178149 0.53637 0.119738
0.228672 0.535912 0.119738
0.274479 0.535912 0.115816
0.320226 0.539834 0.111269
0.367758 0.543038 0.104189
0.41471 0.548821 0.0933852
0.464103 0.555764 0.0779431
0.515312 0.563485 0.056611
0.566308 0.571206 0.0253605
0.61648 0.578927 0.00209049
0.663844 0.585779 0
0.70454 0.586084 0
0.739712 0.583459 0
0.769116 0.575738 0
0.796918 0.570092 0
0.823285 0.564874 0
0.849042 0.559091 0
0.873533 0.555245 0
0.896696 0.553277 0
0.91986 0.549752 0
0.943008 0.549752 0
0.965911 0.549752 0
0.985412 0.549752 0
1 0.55172 0
1 0.555703 0
1 0.567285 0
0 0.570596 0.12549
0 0.57641 0.127459
0 0.58027 0.129412
0 0.580392 0.129412
0 0.578439 0.129412
0.0772717 0.576776 0.127459
0.143511 0.576471 0.127459
0.194858 0.574945 0.127459
0.241169 0.574517 0.127459
0.285542 0.574517 0.12604
0.327947 0.576471 0.122179
0.371023 0.579721 0.117037
0.415442 0.583581 0.107347
0.461036 0.588602 0.0965133
0.508461 0.596323 0.080766
0.557595 0.604044 0.0593729
0.606867 0.611765 0.0284276
0.654169 0.619486 0.0031281
0.698772 0.625238 0
0.736584 0.626657 0
0.770581 0.62475 0
0.79884 0.620218 0
0.825864 0.615076 0
0.852323 0.610666 0
0.875486 0.605386 0
0.89865 0.601526 0
0.921813 0.599634 0
0.944671 0.597726 0
0.964218 0.596078 0
0.985229 0.596078 0
1 0.596323 0
1 0.600122 0
1 0.607843 0
0 0.603433 0.135164
0 0.612985 0.13695
0 0.617029 0.139086
0.00166323 0.617029 0.139086
0.0565652 0.615427 0.139086
0.118303 0.613443 0.137331
0.169345 0.611612 0.137011
0.212131 0.611276 0.137011
0.253681 0.609186 0.135164
0.294362 0.609186 0.135164
0.334401 0.609186 0.133089
0.375494 0.611276 0.129168
0.416175 0.615198 0.122789
0.459937 0.620356 0.115068
0.503426 0.625238 0.103059
0.549889 0.632959 0.0885939
0.596323 0.641733 0.0690623
0.642649 0.650492 0.0419165
0.68806 0.657298 0.012665
0.730526 0.663096 0
0.76875 0.666178 0
0.799634 0.664088 0
0.827863 0.661433 0
0.854292 0.657572 0
0.877455 0.654169 0
0.900618 0.650248 0
0.923781 0.649516 0
0.946319 0.646326 0
0.965942 0.646326 0
0.985245 0.64448 0
1 0.64448 0
1 0.646387 0
1 0.652323 0
0 0.639948 0.14461
0 0.649882 0.148531
0.0164034 0.653788 0.152453
0.0653086 0.651926 0.152453
0.111666 0.650004 0.150729
0.152468 0.646342 0.148867
0.191424 0.646082 0.148531
0.230884 0.644358 0.148531
0.269123 0.642588 0.148531
0.306493 0.642161 0.147295
0.34461 0.642161 0.14461
0.383215 0.64387 0.14461
0.42182 0.646082 0.139315
0.461723 0.650004 0.134432
0.503426 0.656123 0.124514
0.544915 0.662135 0.115618
0.588479 0.668757 0.100984
0.632837 0.675364 0.08542
0.676493 0.683085 0.0639658
0.718959 0.690806 0.0348058
0.758572 0.695979 0.00943008
0.795834 0.700984 0
0.826032 0.700298 0
0.853056 0.698772 0
0.877455 0.696147 0
0.900618 0.694377 0
0.923781 0.692332 0
0.943008 0.690593 0
0.964187 0.688518 0
0.98349 0.687007 0
1 0.683085 0
1 0.687007 0
1 0.689219 0
0.00955215 0.673045 0.160052
0.0573129 0.680766 0.163897
0.0979934 0.68481 0.167895
0.127321 0.68481 0.165789
0.15523 0.680888 0.163973
0.185901 0.680888 0.163973
0.21912 0.678553 0.163973
0.252323 0.676966 0.163973
0.287129 0.676966 0.163973
0.321492 0.676966 0.163973
0.357839 0.676966 0.163973
0.392523 0.676966 0.161639
0.429541 0.680003 0.158587
0.467185 0.680888 0.154742
0.50515 0.686107 0.149874
0.543755 0.689967 0.142641
0.58352 0.695766 0.133028
0.625971 0.701579 0.120348
0.666835 0.708461 0.106493
0.708339 0.716182 0.0887312
0.747814 0.723903 0.0700847
0.785534 0.72874 0.0453346
0.821317 0.733089 0.0224155
0.851026 0.73579 0.0150759
0.877455 0.735195 0.0205844
0.900618 0.733455 0.0209354
0.923476 0.732723 0.024506
0.943008 0.729534 0.0221866
0.962051 0.727657 0.0166629
0.981125 0.72546 0.0110018
0.996323 0.721691 0.00627146
1 0.721767 0.00318914
1 0.725612 0.00318914
0.0970626 0.707851 0.176959
0.130892 0.712673 0.181781
0.151324 0.712749 0.181857
0.172168 0.712749 0.181857
0.195102 0.714031 0.181857
0.221805 0.711757 0.181033
0.250004 0.711757 0.18088
0.279728 0.711757 0.18088
0.310292 0.709926 0.18088
0.342229 0.709316 0.18088
0.375219 0.709316 0.182361
0.406867 0.709316 0.182361
0.441672 0.713237 0.18143
0.475868 0.713237 0.178424
0.512016 0.716091 0.17377
0.548165 0.719936 0.16997
0.58529 0.724514 0.163729
0.623896 0.72961 0.156008
0.662501 0.736034 0.14583
0.703548 0.74316 0.134661
0.742153 0.749996 0.124025
0.780758 0.756878 0.110048
0.815442 0.761517 0.0953078
0.849027 0.766369 0.0821088
0.875364 0.768505 0.07953
0.901549 0.769604 0.0816968
0.921324 0.765682 0.0831159
0.941802 0.765682 0.0843214
0.961089 0.763241 0.0833295
0.978821 0.761761 0.0791791
0.997696 0.759319 0.0745098
1 0.759396 0.0720531
1 0.763241 0.0725414
0.171572 0.740078 0.200122
0.19089 0.746441 0.203922
0.207599 0.746563 0.204044
0.222797 0.746563 0.204044
0.238315 0.746563 0.204044
0.258671 0.742641 0.204044
0.281621 0.742641 0.204044
0.3084 0.742641 0.204044
0.334432 0.742641 0.204044
0.36434 0.742641 0.204044
0.393866 0.742641 0.204044
0.42475 0.742641 0.204044
0.455634 0.742641 0.204044
0.489097 0.744183 0.204044
0.522179 0.746563 0.201831
0.556863 0.749859 0.200122
0.592828 0.755032 0.19559
0.628794 0.758831 0.191791
0.666819 0.765957 0.187991
0.704662 0.770336 0.18027
0.740185 0.777554 0.173388
0.777478 0.783551 0.163134
0.811399 0.789166 0.155886
0.846204 0.793378 0.145586
0.874174 0.799115 0.138506
0.900618 0.800412 0.138064
0.923781 0.801465 0.141909
0.94519 0.801465 0.145953
0.964508 0.801465 0.149264
0.981125 0.799878 0.149264
0.996323 0.797543 0.145342
1 0.797543 0.145464
1 0.800122 0.153185
0.224262 0.769604 0.223285
0.242405 0.773526 0.227115
0.25417 0.776226 0.227207
0.264332 0.776226 0.227314
0.276219 0.773526 0.227207
0.293873 0.772488 0.227207
0.312734 0.772305 0.22501
0.335668 0.772305 0.224506
0.358831 0.769604 0.227207
0.385565 0.769604 0.226444
0.414466 0.769604 0.227207
0.441428 0.769604 0.227207
0.471077 0.771298 0.228428
0.501961 0.772305 0.228428
0.532845 0.773526 0.228428
0.565164 0.776226 0.227787
0.597299 0.780148 0.224506
0.632105 0.782635 0.222675
0.666224 0.787991 0.218875
0.701579 0.793011 0.215076
0.736309 0.797299 0.208576
0.771023 0.8038 0.204776
0.804059 0.80882 0.198291
0.838483 0.81532 0.193606
0.868696 0.82034 0.187747
0.895735 0.82414 0.184787
0.922042 0.827207 0.184329
0.942824 0.828428 0.190448
0.961761 0.828275 0.192004
0.979904 0.827207 0.19411
0.995178 0.824506 0.191669
1 0.824506 0.191745
1 0.827207 0.198291
0.273289 0.79939 0.246448
0.288731 0.80322 0.251438
0.296574 0.803311 0.254292
0.306844 0.803311 0.254292
0.314824 0.800488 0.251469
0.329778 0.799558 0.25037
0.347509 0.79939 0.25037
0.366781 0.79939 0.25037
0.3897 0.79939 0.251469
0.412863 0.79939 0.251469
0.437964 0.79939 0.253407
0.464576 0.79939 0.25539
0.490852 0.79939 0.25539
0.517845 0.79939 0.25539
0.548287 0.79939 0.25539
0.576562 0.801984 0.25539
0.606134 0.803311 0.25539
0.637232 0.807233 0.253559
0.669612 0.808942 0.251469
0.700938 0.812741 0.248203
0.735302 0.818311 0.244724
0.767147 0.823163 0.240803
0.799878 0.828061 0.239582
0.831861 0.834684 0.236088
0.861646 0.839307 0.234073
0.891661 0.845579 0.233204
0.916457 0.84947 0.230152
0.941466 0.850813 0.229038
0.95819 0.852827 0.232959
0.977203 0.85037 0.232959
0.992645 0.85037 0.232959
1 0.85037 0.234195
1 0.85037 0.241917
0.323522 0.827451 0.277455
0.336065 0.827451 0.283238
0.342885 0.830396 0.28333
0.350607 0.827726 0.28333
0.359319 0.827451 0.280766
0.371328 0.827451 0.2804
0.385779 0.827451 0.281193
0.402213 0.827451 0.281376
0.423529 0.827451 0.281376
0.442771 0.82533 0.284184
0.465934 0.824506 0.285298
0.489097 0.824506 0.285298
0.51519 0.824506 0.286275
0.538354 0.824506 0.289799
0.565438 0.825498 0.290196
0.592065 0.827054 0.290196
0.620584 0.828428 0.287739
0.648066 0.829404 0.288228
0.678004 0.832776 0.286946
0.708339 0.836271 0.285298
0.738842 0.840192 0.284321
0.769116 0.844114 0.281376
0.799023 0.848951 0.281376
0.829633 0.852781 0.280385
0.856855 0.858824 0.279652
0.885908 0.863386 0.277455
0.912993 0.867216 0.276905
0.936156 0.870588 0.274357
0.957961 0.87451 0.273533
0.974258 0.87451 0.277821
0.992645 0.87451 0.281621
1 0.87451 0.286397
1 0.875486 0.295094
0.38468 0.857481 0.32108
0.393256 0.857481 0.32488
0.400122 0.857481 0.325002
0.403922 0.857481 0.325002
0.411643 0.857481 0.32108
0.419364 0.856748 0.32108
0.430838 0.854124 0.32108
0.444846 0.853559 0.32108
0.463233 0.853559 0.32108
0.481865 0.853559 0.32108
0.501122 0.853559 0.323186
0.524025 0.853559 0.325002
0.544411 0.853559 0.327443
0.569482 0.853559 0.328923
0.592645 0.853559 0.331502
0.617899 0.856611 0.332845
0.642893 0.857053 0.335225
0.66952 0.857481 0.336767
0.696208 0.860533 0.336767
0.723278 0.862638 0.336767
0.751522 0.86479 0.336767
0.7785 0.868376 0.336767
0.805493 0.872297 0.335805
0.834058 0.876219 0.3337
0.861128 0.88014 0.333913
0.887984 0.884062 0.334554
0.912016 0.888563 0.334554
0.935042 0.891905 0.334554
0.957092 0.895827 0.334554
0.976425 0.895918 0.334844
0.992645 0.89688 0.337865
1 0.899748 0.345708
1 0.899748 0.361151
0.427207 0.879896 0.351965
0.434928 0.880613 0.355779
0.438727 0.880644 0.355886
0.442527 0.879896 0.355886
0.446326 0.877119 0.351965
0.454047 0.876722 0.351965
0.465553 0.876722 0.348775
0.477165 0.876722 0.351263
0.491905 0.876722 0.351965
0.510536 0.876722 0.351965
0.528679 0.876722 0.354879
0.547433 0.876722 0.356359
0.568353 0.876722 0.358602
0.589578 0.876722 0.36054
0.612741 0.876722 0.364141
0.635172 0.876722 0.366155
0.658335 0.876722 0.368017
0.681498 0.878202 0.369879
0.707835 0.879896 0.371572
0.730999 0.880201 0.371572
0.755642 0.883818 0.371847
0.781247 0.885176 0.372305
0.807828 0.887968 0.372305
0.834684 0.891661 0.372503
0.85864 0.895582 0.376226
0.884932 0.899504 0.376959
0.908095 0.903426 0.377554
0.931136 0.907347 0.38088
0.953277 0.910628 0.38088
0.972549 0.911269 0.380819
0.988922 0.914504 0.380148
1 0.91519 0.384314
1 0.91519 0.399756
0.466423 0.89926 0.383459
0.473548 0.899855 0.387366
0.477363 0.899306 0.387381
0.481132 0.89926 0.38677
0.484932 0.89926 0.383459
0.492653 0.895949 0.38294
0.500374 0.895949 0.383459
0.512016 0.895949 0.383459
0.526589 0.895949 0.385931
