YOYO-Client/Yoyo/Assets.xcassets/California.dataset/Kodak-Ektar-100.cube
TITLE "Generated by Resolve"
LUT_3D_SIZE 9
0 0.0117647 0.0235294
0.045594 0.0156863 0.0308843
0.14902 0.0235294 0.0382391
0.31667 0 0.0470588
0.529412 0 0.0588235
0.701473 0 0.0627451
0.839216 0 0.0627451
0.962737 0 0.0583352
1 0.0627451 0.0431373
0 0.0877394 0.0470588
0.0225528 0.0995041 0.0465705
0.170092 0.0969406 0.0431373
0.356069 0.0737163 0.0531319
0.550973 0.00170901 0.0588235
0.711757 0 0.0588235
0.846082 0 0.057969
0.965194 0 0.0466316
1 0.153429 0.0230411
0 0.237263 0.0803998
0 0.242161 0.0803998
0.193133 0.262745 0.0556344
0.421576 0.256367 0.0408026
0.586282 0.225498 0.0441138
0.728801 0.206378 0.0441138
0.853925 0.200977 0.0362707
0.968139 0.224384 0.0160525
1 0.288228 0
0 0.415198 0.104417
0 0.421073 0.105882
0.196201 0.418631 0.0975509
0.428367 0.444602 0.0421607
0.626474 0.449027 0
0.755886 0.418143 0
0.865202 0.401465 0
0.967163 0.408331 0
1 0.441672 0
0 0.570596 0.12549
0 0.578439 0.129412
0.241169 0.574517 0.127459
0.415442 0.583581 0.107347
0.606867 0.611765 0.0284276
0.770581 0.62475 0
0.875486 0.605386 0
0.964218 0.596078 0
1 0.607843 0
0.0970626 0.707851 0.176959
0.195102 0.714031 0.181857
0.310292 0.709926 0.18088
0.441672 0.713237 0.18143
0.58529 0.724514 0.163729
0.742153 0.749996 0.124025
0.875364 0.768505 0.07953
0.961089 0.763241 0.0833295
1 0.763241 0.0725414
0.323522 0.827451 0.277455
0.359319 0.827451 0.280766
0.423529 0.827451 0.281376
0.51519 0.824506 0.286275
0.620584 0.828428 0.287739
0.738842 0.840192 0.284321
0.856855 0.858824 0.279652
0.957961 0.87451 0.273533
1 0.875486 0.295094
0.512749 0.9196 0.426474
0.527886 0.9196 0.426474
0.56434 0.916182 0.426474
0.624506 0.915679 0.433341
0.693629 0.915679 0.441169
0.775494 0.917159 0.449012
0.863111 0.926955 0.460288
0.946563 0.935225 0.472053
1 0.946075 0.488243
0.698039 0.988235 0.627451
0.705882 0.988235 0.627451
0.724514 0.984314 0.627451
0.755398 0.984314 0.631373
0.796078 0.980392 0.635294
0.846082 0.980392 0.644602
0.899992 0.981369 0.658824
0.953918 0.984314 0.67451
1 0.992157 0.698039
0 0.0196078 0.100496
0.0191196 0.0343786 0.0965744
0.121202 0.0530709 0.111391
0.303914 0.0254826 0.122545
0.513726 0 0.127947
0.681865 0 0.127947
0.824506 0 0.124514
0.951415 0 0.120531
1 0.0500038 0.116182
0 0.0916609 0.119112
0.00733959 0.0998245 0.123033
0.158343 0.103914 0.123522
0.349935 0.0931411 0.127459
0.539223 0.036759 0.127947
0.696681 0 0.124483
0.834318 0 0.124025
0.956985 0.00112917 0.116121
1 0.151965 0.107347
0 0.247547 0.148531
0 0.246937 0.149508
0.197604 0.258824 0.14139
0.40824 0.249424 0.130648
0.574502 0.222553 0.124025
0.718975 0.204532 0.120104
0.846082 0.200885 0.112261
0.963363 0.223148 0.100435
1 0.285786 0.0823529
0 0.421256 0.168139
0 0.42153 0.169604
0.213855 0.417151 0.165682
0.427451 0.436759 0.13959
0.617395 0.439704 0.112932
0.746746 0.410407 0.102815
0.859327 0.396078 0.0955978
0.963241 0.404227 0.0801709
1 0.438727 0.0514687
0 0.576471 0.187015
0.0717479 0.584314 0.189181
0.257725 0.578424 0.188724
0.421225 0.581613 0.176471
0.604898 0.609796 0.141176
0.766018 0.618875 0.103334
0.871565 0.600183 0.0915389
0.962036 0.591943 0.0713207
1 0.603922 0.0382391
0.149996 0.714397 0.232349
0.227451 0.7196 0.239399
0.327306 0.716014 0.237263
0.449516 0.713237 0.235782
0.58677 0.724514 0.222553
0.742153 0.747738 0.198596
0.874998 0.768139 0.17586
0.959503 0.762737 0.171939
1 0.760784 0.159991
0.343755 0.829404 0.324514
0.378927 0.835294 0.329641
0.438209 0.831586 0.327825
0.523033 0.828428 0.330404
0.623041 0.829404 0.329412
0.738308 0.840192 0.326146
0.856611 0.858824 0.32549
0.955032 0.87451 0.319982
1 0.875486 0.335302
0.524453 0.920104 0.460853
0.542641 0.923537 0.46421
0.575616 0.919738 0.463401
0.628428 0.9196 0.463722
0.697307 0.915679 0.468101
0.775311 0.919295 0.475486
0.862745 0.926955 0.486763
0.94313 0.935225 0.498161
1 0.946075 0.514763
0.701961 0.988235 0.642649
0.709804 0.988235 0.646632
0.728435 0.988235 0.646571
0.755398 0.984314 0.646571
0.796078 0.984314 0.647059
0.846082 0.980392 0.656184
0.899992 0.984314 0.670222
0.953918 0.984314 0.685847
1 0.992157 0.709316
0 0.0343175 0.210788
0.0211948 0.0534371 0.211765
0.143877 0.076463 0.203922
0.306371 0.0965744 0.215198
0.505882 0.0887312 0.235294
0.666178 0 0.231373
0.812009 0 0.227451
0.944121 0 0.227085
1 0.107851 0.227451
0 0.103792 0.22562
0.00354009 0.115892 0.226474
0.168383 0.141909 0.222553
0.332494 0.163684 0.235111
0.518746 0.13492 0.238727
0.677821 0.0781262 0.231373
0.820615 0.0442664 0.227451
0.949142 0.0772717 0.223041
1 0.179416 0.222065
0 0.24976 0.251713
0 0.254902 0.253681
0.203067 0.254597 0.252949
0.394369 0.24538 0.245624
0.563729 0.230884 0.237873
0.707683 0.217548 0.230854
0.838239 0.217578 0.225177
0.955825 0.238727 0.218631
1 0.293141 0.212741
0 0.430884 0.279774
0.0561532 0.432441 0.280888
0.245716 0.418814 0.273045
0.428367 0.429297 0.261738
0.605142 0.423102 0.243809
0.735592 0.397513 0.229679
0.853162 0.392248 0.221439
0.959319 0.40264 0.211719
1 0.434806 0.197421
0.0294194 0.585779 0.297551
0.161761 0.589944 0.301534
0.290318 0.580392 0.296086
0.431373 0.576471 0.289891
0.602213 0.601968 0.274022
0.757351 0.609552 0.257115
0.863844 0.591424 0.24007
0.956863 0.583337 0.222126
1 0.597055 0.203433
0.212741 0.719738 0.336767
0.270542 0.723522 0.342641
0.354803 0.717159 0.337743
0.462379 0.714702 0.334188
0.588724 0.720592 0.328923
0.738231 0.746075 0.31899
0.867399 0.764309 0.311803
0.953246 0.757259 0.29572
1 0.756863 0.274998
0.366674 0.833326 0.407843
0.401465 0.836301 0.414008
0.45362 0.832898 0.410788
0.531151 0.829404 0.407843
0.624994 0.828916 0.40882
0.73492 0.837751 0.409644
0.85214 0.858274 0.415137
0.950988 0.871565 0.414466
1 0.875486 0.417639
0.531365 0.923537 0.517647
0.549554 0.923537 0.523217
0.579904 0.923537 0.520592
0.631998 0.9196 0.519234
0.695766 0.915877 0.520592
0.773892 0.919112 0.528206
0.858824 0.926955 0.542489
0.939223 0.935225 0.552285
1 0.946075 0.568139
0.701961 0.988235 0.673533
0.709804 0.988235 0.677455
0.728435 0.988235 0.673533
0.755398 0.984314 0.673533
0.794614 0.984314 0.673533
0.842771 0.980392 0.682841
0.896086 0.984314 0.697063
0.950851 0.984802 0.709316
1 0.992157 0.732357
0 0.0652018 0.355886
0.0317388 0.0803845 0.357351
0.252445 0.11458 0.359808
0.385229 0.132845 0.354345
0.520104 0.145098 0.35024
0.679469 0.200427 0.373037
0.811765 0.195468 0.375494
0.93138 0.172549 0.371267
1 0.201953 0.373037
0 0.1299 0.370581
0.0397345 0.145098 0.375311
0.27187 0.175372 0.37763
0.399512 0.195102 0.364904
0.529412 0.207843 0.361761
0.682902 0.244114 0.380392
0.813413 0.226474 0.377707
0.931487 0.204349 0.367758
1 0.236759 0.369299
0 0.254902 0.391669
0 0.259678 0.39469
0.260044 0.272328 0.394614
0.416983 0.299825 0.383948
0.546929 0.316854 0.386831
0.687251 0.308705 0.385855
0.815808 0.284688 0.372519
0.937743 0.281422 0.363241
1 0.3196 0.361273
0 0.425986 0.411215
0.0730297 0.429709 0.415625
0.271641 0.425223 0.410376
0.42707 0.419806 0.404471
0.578958 0.407996 0.390448
0.714427 0.399588 0.379065
0.838849 0.401465 0.369482
0.949218 0.408148 0.358038
1 0.436271 0.347555
0.1402 0.602457 0.443626
0.226474 0.606561 0.449516
0.337499 0.595651 0.441978
0.450248 0.578439 0.427176
0.597421 0.592279 0.421439
0.739498 0.590936 0.405173
0.850126 0.574945 0.384863
0.949264 0.572061 0.364797
1 0.587015 0.347555
0.28333 0.731319 0.47451
0.328557 0.735485 0.4804
0.394247 0.726436 0.471794
0.482353 0.716747 0.462165
0.592645 0.714977 0.457908
0.731304 0.742153 0.458274
0.85687 0.757458 0.454292
0.943923 0.747906 0.428367
1 0.745098 0.398596
0.403433 0.840192 0.52549
0.434928 0.843137 0.531365
0.477058 0.839826 0.524605
0.542321 0.833097 0.518013
0.626963 0.828733 0.514092
0.731075 0.836301 0.51957
0.845228 0.855879 0.528954
0.940032 0.87071 0.531136
1 0.871565 0.519112
0.540871 0.927443 0.603433
0.559213 0.927443 0.606867
0.586404 0.925673 0.601328
0.632349 0.922728 0.595773
0.693324 0.9196 0.593439
0.769604 0.919112 0.601404
0.852308 0.926955 0.614801
0.932921 0.935225 0.626856
1 0.946075 0.642344
0.701961 0.988235 0.718624
0.709804 0.988235 0.722545
0.72549 0.988235 0.718624
0.754467 0.988235 0.716182
0.792157 0.984314 0.716182
0.841245 0.984314 0.723095
0.893263 0.984314 0.732479
0.949508 0.984802 0.746258
1 0.992157 0.767163
0 0.101961 0.541176
0.141421 0.111757 0.545098
0.341176 0.141176 0.54902
0.500008 0.193866 0.542641
0.593133 0.209812 0.523522
0.696818 0.228428 0.510536
0.821073 0.323033 0.535286
0.926955 0.390448 0.562997
1 0.40589 0.570596
0 0.164218 0.551965
0.148257 0.172549 0.554925
0.345586 0.196811 0.555398
0.504021 0.245747 0.548379
0.597299 0.264958 0.530388
0.697551 0.281865 0.519112
0.818998 0.363729 0.544671
0.924239 0.409033 0.562753
1 0.414954 0.567163
0 0.272053 0.557839
0.0998703 0.279225 0.560784
0.325612 0.294118 0.560296
0.504417 0.339223 0.557107
0.600488 0.362249 0.541421
0.699504 0.380636 0.535042
0.815808 0.44155 0.561151
0.92108 0.441855 0.559747
1 0.432349 0.549996
0 0.419608 0.559319
0.0944839 0.422553 0.562646
0.279469 0.423468 0.559808
0.468406 0.440192 0.559808
0.596567 0.474998 0.553674
0.696071 0.497826 0.558862
0.811215 0.502937 0.561822
0.921416 0.472541 0.538231
1 0.469123 0.522789
0.128435 0.593133 0.578424
0.219974 0.598047 0.584314
0.337255 0.594125 0.579416
0.46569 0.586648 0.572915
0.585779 0.58088 0.565194
0.710781 0.572183 0.551843
0.829419 0.567407 0.537499
0.936767 0.564706 0.51838
1 0.577447 0.502937
0.331868 0.746319 0.617899
0.373434 0.749264 0.624018
0.437186 0.743389 0.61796
0.517159 0.733822 0.608576
0.598169 0.717647 0.5897
0.721538 0.735546 0.592187
0.840436 0.741054 0.581064
0.931121 0.725002 0.547066
1 0.726223 0.521324
0.449516 0.852949 0.65687
0.475059 0.85539 0.65919
0.509071 0.850858 0.652323
0.561761 0.842649 0.639277
0.631128 0.832593 0.62475
0.724208 0.834379 0.626963
0.835904 0.855146 0.638605
0.930083 0.866178 0.638422
1 0.863722 0.61471
0.563973 0.93138 0.701228
0.578866 0.934798 0.704417
0.601465 0.931121 0.697734
0.638972 0.927443 0.689036
0.693141 0.923156 0.683207
0.764218 0.919264 0.682689
0.843503 0.924025 0.691356
0.926955 0.935225 0.705119
0.996323 0.946075 0.718379
0.707835 0.992157 0.776471
0.717403 0.992157 0.776959
0.729412 0.990692 0.776471
0.755398 0.988235 0.772549
0.792157 0.988235 0.768627
0.838239 0.984314 0.772549
0.888243 0.984314 0.778439
0.943877 0.988235 0.788479
0.998032 0.992157 0.807843
0.181369 0.1402 0.709316
0.272053 0.150179 0.709316
0.415198 0.176349 0.709316
0.564218 0.234745 0.70631
0.679408 0.304906 0.697551
0.756374 0.331365 0.686702
0.835782 0.35993 0.677943
0.922545 0.458335 0.695094
0.996078 0.576959 0.737743
0.181857 0.196567 0.711086
0.273228 0.205005 0.712261
0.414221 0.229908 0.710826
0.563531 0.280812 0.708827
0.679408 0.347066 0.701228
0.755077 0.373037 0.689219
0.833478 0.399634 0.680842
0.917708 0.488914 0.69868
0.993805 0.592645 0.737072
0.149874 0.29865 0.709316
0.250141 0.306371 0.71017
0.396902 0.325002 0.71017
0.554696 0.367163 0.710552
0.676219 0.430701 0.705394
0.750362 0.454246 0.695094
0.825711 0.477455 0.689494
0.908949 0.549996 0.707835
0.98909 0.618631 0.739223
0.056733 0.428367 0.70251
0.189761 0.431861 0.705455
0.344381 0.439704 0.705455
0.517159 0.468071 0.70692
0.663996 0.526467 0.709041
0.739208 0.555398 0.700572
0.813931 0.575418 0.700267
0.900984 0.628428 0.722057
0.98529 0.642222 0.731441
0.162997 0.582361 0.703182
0.235386 0.586282 0.704082
0.342092 0.582345 0.703929
0.465171 0.583856 0.701961
0.619852 0.606378 0.707225
0.725002 0.646357 0.707347
0.805631 0.667155 0.714702
0.898039 0.668467 0.714549
0.993866 0.640192 0.692653
0.315618 0.736339 0.721569
0.357473 0.739712 0.72433
0.425864 0.736706 0.723461
0.514626 0.735225 0.72047
0.611521 0.730388 0.718074
0.709102 0.72604 0.711131
0.815259 0.716121 0.696651
0.912932 0.706798 0.677943
1 0.709255 0.660288
0.48481 0.860792 0.762249
0.508736 0.863722 0.765194
0.544854 0.860319 0.762341
0.600488 0.858045 0.760296
0.663233 0.851713 0.752697
0.724941 0.836957 0.733303
0.824964 0.850401 0.738201
0.916899 0.854948 0.729366
0.992767 0.847547 0.702937
0.606867 0.939223 0.795102
0.621256 0.939376 0.798352
0.640284 0.93872 0.794614
0.672801 0.93547 0.79057
0.714122 0.930877 0.780392
0.765377 0.923964 0.7682
0.83566 0.92311 0.767559
0.919448 0.935225 0.781262
0.990875 0.946075 0.790509
0.730877 0.992157 0.842161
0.738231 0.992157 0.842161
0.749508 0.992157 0.838239
0.768627 0.992157 0.834867
0.798032 0.9897 0.830396
0.837324 0.988235 0.826474
0.884321 0.984314 0.827085
0.938231 0.988235 0.834623
0.996078 0.992157 0.852445
0.362753 0.195102 0.834318
0.411765 0.20589 0.834318
0.510536 0.237003 0.831373
0.636271 0.296574 0.831373
0.74902 0.38529 0.830396
0.828428 0.4636 0.823163
0.878431 0.486519 0.81471
0.930388 0.51458 0.8065
0.988235 0.60882 0.817639
0.360418 0.247059 0.833463
0.411612 0.255818 0.834318
0.509804 0.282353 0.834318
0.632715 0.336507 0.831373
0.748531 0.419486 0.830396
0.824018 0.494194 0.824643
0.875914 0.51519 0.814466
0.926101 0.539223 0.806012
0.983948 0.625986 0.820218
0.341421 0.338231 0.830396
0.393347 0.347921 0.83064
0.495094 0.370581 0.83064
0.621561 0.415686 0.83064
0.739712 0.487251 0.830396
0.816663 0.556741 0.825208
0.865446 0.57377 0.81593
0.917891 0.593957 0.809064
0.976471 0.666667 0.823529
0.283207 0.455268 0.824994
0.341527 0.462135 0.826841
0.450004 0.475456 0.826841
0.588006 0.508751 0.827527
0.718929 0.5682 0.830396
0.804898 0.630396 0.824994
0.853193 0.647028 0.81651
0.90576 0.663462 0.812268
0.968627 0.719112 0.82855
0.240681 0.590692 0.817151
0.294606 0.594614 0.81912
0.386648 0.596445 0.81912
0.517586 0.605386 0.821073
0.670588 0.640436 0.825742
0.787686 0.69926 0.828428
0.841047 0.71899 0.819364
0.897124 0.733516 0.818814
0.962249 0.777447 0.837263
0.319738 0.732479 0.817273
0.356359 0.736767 0.818631
0.418143 0.733455 0.818631
0.505394 0.732845 0.818631
0.608026 0.729534 0.818631
0.744121 0.751583 0.823102
0.828305 0.785779 0.822309
0.890074 0.803388 0.828779
0.963729 0.807843 0.833463
0.473289 0.855879 0.832349
0.496757 0.858824 0.835294
0.537255 0.855879 0.835294
0.596231 0.855634 0.835294
0.666667 0.85417 0.83505
0.741299 0.848768 0.830274
0.813657 0.840742 0.821698
0.898497 0.83003 0.808423
0.984314 0.825986 0.796323
0.643626 0.942641 0.866056
0.659083 0.946075 0.868635
0.681285 0.942641 0.86949
0.715557 0.942641 0.869261
0.757595 0.942153 0.867826
0.796521 0.937346 0.860655
0.835538 0.926314 0.841611
0.914656 0.935119 0.850111
0.984802 0.941665 0.850492
0.765682 0.993133 0.899016
0.773526 0.996078 0.899992
0.784314 0.996078 0.899992
0.803433 0.992157 0.899992
0.826474 0.992157 0.896086
0.849515 0.992157 0.888853
0.885054 0.988235 0.880385
0.938109 0.988235 0.884321
0.996078 0.996078 0.899016
0.5402 0.296086 0.923033
0.571023 0.307408 0.923033
0.638361 0.338598 0.923033
0.72665 0.399023 0.922545
0.81471 0.482353 0.918624
0.880583 0.569116 0.911086
0.923033 0.626474 0.903304
0.957839 0.6421 0.895582
0.992157 0.675975 0.895094
0.536217 0.333822 0.922972
0.567529 0.346029 0.923033
0.634424 0.375555 0.922545
0.722713 0.429343 0.922118
0.8103 0.507591 0.918135
0.877455 0.58677 0.910597
0.919112 0.643687 0.902831
0.953918 0.659373 0.895521
0.988663 0.689769 0.894606
0.52047 0.41323 0.922545
0.551644 0.422919 0.922545
0.619608 0.44596 0.922545
0.710781 0.492973 0.918761
0.798962 0.558022 0.915068
0.869123 0.628779 0.90988
0.912322 0.680919 0.902358
0.946075 0.694331 0.897719
0.983459 0.719982 0.894606
0.474998 0.512749 0.918624
0.508598 0.519921 0.918624
0.581384 0.536843 0.918624
0.679301 0.567834 0.91519
0.775494 0.618631 0.91342
0.854719 0.682536 0.909316
0.903502 0.730877 0.903243
0.938231 0.742336 0.897734
0.973037 0.763729 0.897551
0.394858 0.622065 0.911025
0.433295 0.62623 0.911269
0.50692 0.631678 0.911269
0.615198 0.647211 0.911269
0.732479 0.681132 0.911025
0.831861 0.732845 0.908827
0.893874 0.782101 0.905089
0.928679 0.795132 0.900984
0.965194 0.810544 0.900984
0.373526 0.745098 0.90312
0.406073 0.747555 0.903426
0.460456 0.74725 0.903426
0.543145 0.74461 0.904723
0.656031 0.748287 0.904723
0.787259 0.779583 0.90753
0.880888 0.829404 0.908339
0.920409 0.846784 0.904418
0.960784 0.8598 0.904418
0.471077 0.858824 0.903059
0.495201 0.858869 0.903807
0.530449 0.858824 0.903929
0.586282 0.854902 0.903929
0.655451 0.851041 0.902632
0.733867 0.844556 0.900496
0.846571 0.863783 0.905272
0.91519 0.892821 0.908339
0.960906 0.907835 0.915679
0.635294 0.942153 0.915618
0.649943 0.942153 0.915618
0.672068 0.942153 0.915618
0.705577 0.942153 0.915618
0.749508 0.93872 0.915679
0.799847 0.938293 0.915679
0.854414 0.935119 0.915511
0.907881 0.931304 0.91133
0.979538 0.923903 0.903853
0.788724 0.996078 0.942153
0.796078 0.996078 0.945586
0.807843 0.996078 0.945586
0.826169 0.996078 0.945586
0.852934 0.996078 0.946075
0.880385 0.992645 0.946075
0.910292 0.992645 0.946075
0.938659 0.992157 0.937743
0.996078 0.996078 0.946075
0.709804 0.462745 0.992157
0.725002 0.474022 0.992157
0.763729 0.497063 0.988235
0.816663 0.542153 0.984314
0.870588 0.603922 0.980392
0.919112 0.673533 0.975006
0.953918 0.73138 0.968627
0.98088 0.768627 0.960784
1 0.784314 0.956863
0.700984 0.483818 0.991669
0.720165 0.495583 0.988235
0.757961 0.518624 0.987869
0.810117 0.559991 0.984314
0.866667 0.618143 0.980392
0.916487 0.684321 0.972549
0.953918 0.742031 0.968139
0.979965 0.775921 0.960723
1 0.790692 0.956374
0.684321 0.535286 0.988235
0.701473 0.544976 0.988235
0.742153 0.563729 0.987259
0.797055 0.599145 0.984314
0.857359 0.649027 0.979904
0.908827 0.709804 0.972549
0.94902 0.762997 0.967651
0.975616 0.797055 0.960784
0.999023 0.807843 0.956863
0.645594 0.602945 0.98677
0.666178 0.609796 0.98677
0.707851 0.623407 0.984314
0.769604 0.651469 0.981308
0.836759 0.692409 0.977691
0.897063 0.742702 0.972549
0.942153 0.793011 0.968261
0.969116 0.823224 0.962936
0.992157 0.834806 0.959319
0.574517 0.682353 0.984314
0.59559 0.684321 0.984314
0.645106 0.691661 0.982361
0.71986 0.708339 0.980392
0.802945 0.737255 0.978439
0.877455 0.780636 0.974517
0.930388 0.824994 0.968627
0.962997 0.857114 0.964462
0.988235 0.864713 0.960784
0.493629 0.773526 0.977935
0.51519 0.773526 0.977935
0.563241 0.773526 0.977935
0.640192 0.775982 0.977935
0.740444 0.788235 0.977935
0.841245 0.817655 0.976471
0.915679 0.858824 0.972549
0.957351 0.889708 0.968322
0.984314 0.900984 0.966171
0.519615 0.871565 0.973526
0.533822 0.871565 0.973526
0.563729 0.868376 0.973526
0.615686 0.867033 0.973526
0.685786 0.863233 0.976471
0.779049 0.863844 0.976471
0.885298 0.88922 0.976471
0.953552 0.923903 0.973526
0.984314 0.935286 0.972549
0.639704 0.946563 0.973037
0.647059 0.946563 0.973037
0.665812 0.946563 0.973037
0.696574 0.946563 0.973037
0.7402 0.942641 0.976959
0.793133 0.942641 0.976959
0.85037 0.93872 0.980514
0.938231 0.949996 0.984314
0.988235 0.969116 0.984314
0.788235 0.996078 0.984314
0.792157 0.996078 0.984314
0.802945 0.996078 0.984314
0.822065 0.996078 0.988235
0.849012 0.996078 0.988235
0.879896 0.996078 0.988235
0.914702 0.996078 0.992157
0.953918 0.996567 0.996078
1 1 1
