YOYO-Client/Yoyo/Assets.xcassets/California.dataset/Kodak-Ektar-100.cube
TITLE "Generated by Resolve"
LUT_3D_SIZE 5
0 0.0117647 0.0235294
0.14902 0.0235294 0.0382391
0.529412 0 0.0588235
0.839216 0 0.0627451
1 0.0627451 0.0431373
0 0.237263 0.0803998
0.193133 0.262745 0.0556344
0.586282 0.225498 0.0441138
0.853925 0.200977 0.0362707
1 0.288228 0
0 0.570596 0.12549
0.241169 0.574517 0.127459
0.606867 0.611765 0.0284276
0.875486 0.605386 0
1 0.607843 0
0.323522 0.827451 0.277455
0.423529 0.827451 0.281376
0.620584 0.828428 0.287739
0.856855 0.858824 0.279652
1 0.875486 0.295094
0.698039 0.988235 0.627451
0.724514 0.984314 0.627451
0.796078 0.980392 0.635294
0.899992 0.981369 0.658824
1 0.992157 0.698039
0 0.0343175 0.210788
0.143877 0.076463 0.203922
0.505882 0.0887312 0.235294
0.812009 0 0.227451
1 0.107851 0.227451
0 0.24976 0.251713
0.203067 0.254597 0.252949
0.563729 0.230884 0.237873
0.838239 0.217578 0.225177
1 0.293141 0.212741
0.0294194 0.585779 0.297551
0.290318 0.580392 0.296086
0.602213 0.601968 0.274022
0.863844 0.591424 0.24007
1 0.597055 0.203433
0.366674 0.833326 0.407843
0.45362 0.832898 0.410788
0.624994 0.828916 0.40882
0.85214 0.858274 0.415137
1 0.875486 0.417639
0.701961 0.988235 0.673533
0.728435 0.988235 0.673533
0.794614 0.984314 0.673533
0.896086 0.984314 0.697063
1 0.992157 0.732357
0 0.101961 0.541176
0.341176 0.141176 0.54902
0.593133 0.209812 0.523522
0.821073 0.323033 0.535286
1 0.40589 0.570596
0 0.272053 0.557839
0.325612 0.294118 0.560296
0.600488 0.362249 0.541421
0.815808 0.44155 0.561151
1 0.432349 0.549996
0.128435 0.593133 0.578424
0.337255 0.594125 0.579416
0.585779 0.58088 0.565194
0.829419 0.567407 0.537499
1 0.577447 0.502937
0.449516 0.852949 0.65687
0.509071 0.850858 0.652323
0.631128 0.832593 0.62475
0.835904 0.855146 0.638605
1 0.863722 0.61471
0.707835 0.992157 0.776471
0.729412 0.990692 0.776471
0.792157 0.988235 0.768627
0.888243 0.984314 0.778439
0.998032 0.992157 0.807843
0.362753 0.195102 0.834318
0.510536 0.237003 0.831373
0.74902 0.38529 0.830396
0.878431 0.486519 0.81471
0.988235 0.60882 0.817639
0.341421 0.338231 0.830396
0.495094 0.370581 0.83064
0.739712 0.487251 0.830396
0.865446 0.57377 0.81593
0.976471 0.666667 0.823529
0.240681 0.590692 0.817151
0.386648 0.596445 0.81912
0.670588 0.640436 0.825742
0.841047 0.71899 0.819364
0.962249 0.777447 0.837263
0.473289 0.855879 0.832349
0.537255 0.855879 0.835294
0.666667 0.85417 0.83505
0.813657 0.840742 0.821698
0.984314 0.825986 0.796323
0.765682 0.993133 0.899016
0.784314 0.996078 0.899992
0.826474 0.992157 0.896086
0.885054 0.988235 0.880385
0.996078 0.996078 0.899016
0.709804 0.462745 0.992157
0.763729 0.497063 0.988235
0.870588 0.603922 0.980392
0.953918 0.73138 0.968627
1 0.784314 0.956863
0.684321 0.535286 0.988235
0.742153 0.563729 0.987259
0.857359 0.649027 0.979904
0.94902 0.762997 0.967651
0.999023 0.807843 0.956863
0.574517 0.682353 0.984314
0.645106 0.691661 0.982361
0.802945 0.737255 0.978439
0.930388 0.824994 0.968627
0.988235 0.864713 0.960784
0.519615 0.871565 0.973526
0.563729 0.868376 0.973526
0.685786 0.863233 0.976471
0.885298 0.88922 0.976471
0.984314 0.935286 0.972549
0.788235 0.996078 0.984314
0.802945 0.996078 0.984314
0.849012 0.996078 0.988235
0.914702 0.996078 0.992157
1 1 1
