YOYO-Client/Yoyo/Assets.xcassets/Joshua.dataset/Portra-400.cube
TITLE "Portra 800"
LUT_3D_SIZE 5
0.00392157 0.0627451 0.0666667
0.120592 0.0823529 0.0588235
0.472557 0.0607919 0.00981155
0.820584 0 0
1 0.054902 0
0 0.222553 0.0803998
0.152453 0.254902 0.0171511
0.518624 0.211765 0.0377508
0.83064 0.194125 0
1 0.263722 0
0 0.621561 0.188235
0 0.627451 0.162249
0.582345 0.661768 0
0.877455 0.582345 0
1 0.560784 0.00196841
0.413733 0.869612 0.485298
0.466423 0.869612 0.478431
0.607355 0.872053 0.425986
0.85417 0.885298 0.234073
1 0.854902 0.221561
0.756863 0.976471 0.768627
0.767651 0.976471 0.768627
0.798032 0.976471 0.758816
0.85687 0.980392 0.724514
0.972549 0.992157 0.639216
0 0.054902 0.184314
0.129412 0.0627451 0.187503
0.489219 0 0.192157
0.820584 0 0.129168
1 0 0.0205844
0 0.220584 0.22916
0.170336 0.230518 0.233524
0.532357 0.209934 0.19939
0.83505 0.189212 0.150988
1 0.250248 0.0421607
0.0191196 0.619608 0.358816
0.244114 0.617395 0.347921
0.590204 0.638727 0.249027
0.861769 0.566171 0.236271
1 0.560784 0.2103
0.504906 0.867399 0.583337
0.545098 0.86685 0.579416
0.644114 0.865934 0.544121
0.854902 0.881376 0.418387
1 0.851225 0.389212
0.775494 0.976471 0.795102
0.78407 0.976471 0.792157
0.811276 0.976471 0.783825
0.863722 0.980392 0.758816
0.968627 0.988235 0.692164
0 0.0470588 0.45687
0.165194 0.0661784 0.462745
0.497063 0.0509804 0.475486
0.823529 0.118624 0.492653
1 0.0392157 0.441184
0 0.187259 0.487251
0.185779 0.2065 0.492164
0.531624 0.252949 0.498772
0.826841 0.322545 0.512261
1 0.187259 0.412741
0.0382391 0.575494 0.560784
0.30515 0.578439 0.561028
0.581369 0.571572 0.552941
0.839948 0.54461 0.492897
1 0.542153 0.419608
0.615198 0.862745 0.722545
0.650004 0.862745 0.72549
0.712505 0.857847 0.714458
0.850858 0.869612 0.660777
1 0.839704 0.617639
0.817639 0.976471 0.849012
0.824994 0.976471 0.846082
0.844114 0.976471 0.844114
0.88333 0.976471 0.828916
0.968627 0.988235 0.786282
0 0.00686656 0.741176
0.236271 0.00587472 0.741176
0.556863 0.0622568 0.741176
0.828183 0.181369 0.760052
1 0.388235 0.772549
0 0.167651 0.748043
0.251957 0.176837 0.74902
0.571572 0.23566 0.74902
0.830396 0.342153 0.766674
1 0.498039 0.778439
0 0.444114 0.75491
0.164828 0.453071 0.759808
0.56495 0.495583 0.763973
0.824994 0.600855 0.777081
0.984314 0.690196 0.793133
0.527703 0.838239 0.816419
0.580392 0.837507 0.818631
0.700984 0.836393 0.815686
0.832837 0.829664 0.810422
0.995102 0.803922 0.761517
0.847059 0.972549 0.902937
0.857847 0.975494 0.905882
0.886275 0.976471 0.91078
0.915679 0.976471 0.910048
0.972549 0.984314 0.884321
0.486275 0.0901961 0.968627
0.566659 0.120592 0.968627
0.739208 0.233341 0.962737
0.907835 0.406867 0.951965
1 0.545098 0.945098
0.477455 0.234318 0.968627
0.558572 0.253925 0.968627
0.735286 0.33431 0.962737
0.899992 0.478431 0.94902
1 0.600977 0.945098
0.374517 0.464714 0.968627
0.481376 0.475975 0.968627
0.696086 0.523522 0.964706
0.882841 0.625498 0.952453
0.996078 0.723537 0.945098
0.236271 0.762753 0.960784
0.346075 0.759075 0.960784
0.572549 0.753918 0.964706
0.834318 0.786023 0.960784
0.980392 0.857847 0.952941
0.796078 0.976471 0.968627
0.807843 0.976471 0.968627
0.849012 0.976471 0.968627
0.91078 0.976471 0.972549
0.980392 0.980392 0.976471
