YOYO-Client/Yoyo/Assets.xcassets/Joshua.dataset/Portra-400.cube
TITLE "Portra 800"
LUT_3D_SIZE 33
0.00392157 0.0627451 0.0666667
0.00392157 0.0627451 0.0666667
0.00392157 0.0627451 0.0666667
0.00784314 0.0663005 0.0666667
0.015198 0.0666667 0.0666667
0.033463 0.0699779 0.0666667
0.0598001 0.0737774 0.0634775
0.0906844 0.0775769 0.0627451
0.120592 0.0823529 0.0588235
0.152453 0.0862745 0.054902
0.189944 0.0901961 0.0509804
0.22855 0.0941176 0.0470588
0.269612 0.0941176 0.0406806
0.318257 0.091783 0.0329595
0.370092 0.084062 0.0252384
0.422431 0.0763409 0.0175174
0.472557 0.0607919 0.00981155
0.522667 0.0376287 0.00209049
0.571084 0.0127413 0
0.617395 0 0
0.662257 0 0
0.704784 0 0
0.743389 0 0
0.781979 0 0
0.820584 0 0
0.855268 0 0
0.893141 0 0
0.924025 0 0
0.958831 0 0
0.985779 0 0
1 0 0
1 0.000488289 0
1 0.054902 0
0.00392157 0.0665446 0.0704662
0.00392157 0.0666667 0.0666667
0.00392157 0.0666667 0.0666667
0.00784314 0.0666667 0.0666667
0.015198 0.0699931 0.0666667
0.033463 0.0737926 0.0666667
0.0598001 0.0775921 0.0634775
0.0877241 0.0814984 0.0627451
0.120623 0.086244 0.0588235
0.155184 0.0901656 0.054902
0.189944 0.0940871 0.0509804
0.22855 0.0979171 0.0470588
0.273457 0.0979171 0.0406806
0.322103 0.0940414 0.0329595
0.372305 0.0879835 0.0252384
0.424201 0.0802014 0.0193027
0.474449 0.0665446 0.00981155
0.524697 0.0453498 0.00209049
0.571084 0.0204623 0
0.617395 0 0
0.662257 0 0
0.704784 0 0
0.743389 0 0
0.781979 0 0
0.820584 0 0
0.858335 0 0
0.893141 0 0
0.924025 0 0
0.958328 0 0
0.985779 0 0
1 0 0
1 0.00489815 0
1 0.0741436 0
0.000244144 0.0666667 0.0705882
0.0037995 0.0666667 0.0703441
0.00392157 0.0701152 0.0666667
0.00784314 0.0703441 0.0666667
0.015198 0.0738079 0.0666667
0.0301518 0.0775769 0.0666667
0.0598001 0.0814221 0.0634775
0.0867628 0.0862287 0.0627451
0.120592 0.090135 0.0588235
0.155276 0.0966964 0.054902
0.189944 0.0979629 0.0509804
0.232395 0.101717 0.0470588
0.277211 0.101717 0.0406806
0.325963 0.0978866 0.0329595
0.376226 0.0919051 0.0289158
0.428077 0.084062 0.0213169
0.478309 0.0722972 0.0135958
0.526482 0.0547799 0.00404364
0.574762 0.0298009 0
0.619593 0.00669871 0
0.66363 0 0
0.704784 0 0
0.744533 0 0
0.784634 0 0
0.820584 0 0
0.858335 0 0
0.893141 0 0
0.924025 0 0
0.954894 0 0
0.985779 0 0
1 0 0
1 0.0313878 0
1 0.0897078 0
0 0.0741436 0.0705882
0 0.0741436 0.0670329
0.00369268 0.0741436 0.0666667
0.00747692 0.0780652 0.0666667
0.0190738 0.0819409 0.0666667
0.0370031 0.0858473 0.0666667
0.0604715 0.0897536 0.0634775
0.0903944 0.0936751 0.0627451
0.121569 0.097673 0.0588235
0.156268 0.101595 0.0559091
0.193866 0.105516 0.0522011
0.234806 0.105516 0.0482795
0.281239 0.105516 0.0429084
0.331243 0.105516 0.0368811
0.379934 0.099382 0.02916
0.430076 0.0916609 0.0214389
0.480201 0.0818036 0.0137331
0.528679 0.0663767 0.00601205
0.575006 0.049012 0
0.621317 0.0254978 0
0.665949 0.00222782 0
0.708339 0 0
0.747311 0 0
0.785901 0 0
0.823529 0 0
0.859113 0 0
0.893141 0 0
0.924025 0 0
0.954894 0 0
0.985779 0 0
1 0.0192111 0
1 0.0659495 0
1 0.112627 0
0 0.0887312 0.0666667
0 0.0887312 0.0666667
0 0.0892195 0.0666667
0.00404364 0.0926528 0.0666667
0.0220645 0.100008 0.0632334
0.0476234 0.107301 0.0628214
0.0747539 0.108339 0.0627451
0.101091 0.111391 0.0593118
0.132235 0.112627 0.0588235
0.166049 0.112749 0.0550393
0.204166 0.11667 0.0522011
0.249271 0.116991 0.0484016
0.295583 0.116854 0.0446021
0.342199 0.114626 0.0368811
0.392157 0.110811 0.0328679
0.440787 0.103304 0.0253605
0.488975 0.0950942 0.0176394
0.538964 0.0852827 0.00943008
0.58529 0.0698863 0.0019379
0.628183 0.0539712 0
0.673045 0.0338293 0
0.711803 0.0170443 0
0.750729 0.00236515 0
0.789334 0 0
0.826963 0 0
0.861769 0 0
0.896574 0 0
0.927443 0.00106813 0
0.958328 0.0184482 0
0.988403 0.043183 0
1 0.0750286 0
1 0.103044 0
1 0.137743 0
0 0.111894 0.0666667
0 0.111894 0.0666667
0 0.11519 0.0633555
0 0.115816 0.0627451
0.00808728 0.11931 0.0598459
0.0440833 0.126955 0.0589151
0.0820935 0.134188 0.0561379
0.11313 0.135424 0.0555123
0.143877 0.135424 0.0550546
0.177569 0.135424 0.054902
0.216175 0.135424 0.0511788
0.257969 0.135424 0.0505837
0.300755 0.133349 0.0466773
0.349264 0.131746 0.042771
0.396933 0.12784 0.0363928
0.445624 0.123934 0.0290074
0.493812 0.117769 0.0232242
0.540444 0.109758 0.0132296
0.58677 0.0999924 0.00550851
0.631495 0.0898299 0
0.674022 0.0775921 0
0.712627 0.069276 0
0.751232 0.0603494 0
0.789822 0.0522011 0
0.827451 0.0487678 0
0.862257 0.0489052 0
0.897063 0.0540475 0
0.927947 0.0657816 0
0.958831 0.0790417 0
0.989334 0.0954604 0
1 0.115312 0
1 0.139208 0
1 0.170092 0
0 0.138964 0.0666667
0 0.142153 0.0659495
0 0.142153 0.0627451
0 0.142153 0.0627451
0 0.145678 0.0588235
0.0193637 0.153307 0.055024
0.0709697 0.161028 0.0517128
0.122988 0.16817 0.0477913
0.1617 0.168872 0.0446021
0.196414 0.166583 0.046891
0.231617 0.162768 0.0477913
0.270222 0.161761 0.0473182
0.313207 0.157839 0.0470588
0.358328 0.15465 0.0444343
0.404654 0.152132 0.0427253
0.45098 0.148302 0.0363928
0.497673 0.144121 0.0306401
0.544366 0.1364 0.0245365
0.589944 0.132601 0.0132296
0.632792 0.12488 0.00550851
0.674022 0.120348 0
0.715816 0.112627 0
0.754406 0.108095 0
0.792111 0.10518 0
0.828428 0.104662 0
0.863111 0.106096 0
0.897063 0.110048 0
0.927947 0.117769 0
0.958831 0.129412 0
0.989334 0.141115 0
1 0.153719 0
1 0.173892 0
1 0.197055 0
0 0.172183 0.0697337
0 0.176013 0.0697337
0 0.176104 0.066865
0 0.176104 0.0658122
0 0.179644 0.0619974
0.000717174 0.184192 0.055375
0.0409705 0.191913 0.0477913
0.108095 0.202701 0.0370031
0.165896 0.209766 0.0301518
0.214817 0.210544 0.0297856
0.254047 0.203922 0.0321355
0.292653 0.197055 0.0359503
0.331243 0.191791 0.0400702
0.370718 0.186053 0.0431373
0.415442 0.182223 0.0431373
0.458701 0.178393 0.0426795
0.505028 0.173037 0.03682
0.548287 0.169116 0.0325933
0.592416 0.164828 0.0231632
0.635416 0.160922 0.0132296
0.677409 0.156497 0.00436408
0.716548 0.152575 0
0.755154 0.15172 0
0.793515 0.15172 0
0.828428 0.15172 0
0.863111 0.152575 0
0.897063 0.156374 0
0.927947 0.164096 0
0.958831 0.171923 0
0.986557 0.180758 0
1 0.192279 0
1 0.208667 0
1 0.231861 0
0 0.222553 0.0803998
0 0.223499 0.0775464
0 0.223529 0.076524
0 0.223529 0.0738079
0 0.224506 0.0699779
0 0.228275 0.0623789
0.0039826 0.235538 0.0512856
0.0772717 0.243259 0.0337377
0.152453 0.254902 0.0171511
0.223957 0.261921 0.00796521
0.278004 0.259068 0.00662242
0.321691 0.249424 0.0113985
0.360296 0.240681 0.0210727
0.398901 0.23061 0.0287938
0.437507 0.223285 0.0355383
0.477089 0.217639 0.038819
0.518624 0.211765 0.0377508
0.561028 0.206409 0.0348363
0.602152 0.202518 0.0286717
0.644633 0.198627 0.0209506
0.683818 0.196933 0.0117647
0.722423 0.194125 0.0019379
0.758083 0.193194 0
0.79559 0.192004 0
0.83064 0.194125 0
0.865202 0.195743 0
0.896819 0.198779 0
0.930877 0.2065 0
0.957839 0.213352 0
0.988357 0.221942 0
1 0.232654 0
1 0.24535 0
1 0.263722 0
0 0.263966 0.0890974
0 0.271687 0.0890974
0 0.275669 0.0880598
0 0.275731 0.0851759
0 0.275731 0.0816052
0 0.275731 0.0740215
0 0.279133 0.0629129
0.0288243 0.28751 0.0443732
0.1205 0.29546 0.0214389
0.201221 0.306004 0.00109865
0.275807 0.311025 0
0.336782 0.307347 0
0.38436 0.296773 0.000686656
0.424018 0.285206 0.00396735
0.459937 0.274769 0.0121309
0.497307 0.264698 0.0210727
0.536461 0.258091 0.0282444
0.575616 0.25037 0.0291447
0.614221 0.243122 0.0280766
0.651667 0.239292 0.0252079
0.688609 0.237201 0.0170291
0.726238 0.233707 0.00796521
0.762646 0.233707 0
0.797665 0.233707 0
0.832349 0.234409 0
0.866178 0.238239 0
0.897795 0.242283 0
0.931426 0.248463 0
0.958831 0.253803 0
0.986786 0.261524 0
1 0.273167 0
1 0.284932 0
1 0.300374 0
0 0.310292 0.0995041
0 0.321935 0.0995041
0 0.32459 0.0969863
0 0.324758 0.0957046
0 0.322393 0.0918135
0 0.322057 0.0856641
0 0.32575 0.0769513
0 0.329046 0.0589456
0.0742657 0.337682 0.0328374
0.168475 0.347646 0.0037232
0.250248 0.35613 0
0.330571 0.363043 0
0.395315 0.358511 0
0.446082 0.347921 0
0.485786 0.334798 0
0.521737 0.321447 0.000656138
0.557107 0.311025 0.00428779
0.592493 0.300816 0.0100862
0.627253 0.29221 0.0166171
0.663249 0.285176 0.0176394
0.698009 0.281376 0.0164492
0.733577 0.277989 0.0104219
0.766522 0.275837 0.00184634
0.801251 0.276219 0
0.835294 0.276905 0
0.866773 0.279194 0
0.900984 0.28307 0
0.931243 0.288411 0
0.958831 0.292409 0
0.985779 0.30013 0
1 0.308095 0
1 0.3196 0
1 0.335042 0
0 0.36054 0.108461
0 0.37084 0.108461
0 0.374884 0.108461
0 0.374884 0.10724
0 0.374884 0.103349
0 0.372702 0.0970932
0 0.374395 0.0884871
0 0.376226 0.0738231
0.0208591 0.383093 0.0522011
0.132616 0.390814 0.0171511
0.222858 0.402457 0
0.307332 0.410178 0
0.388495 0.416205 0
0.457038 0.410971 0
0.505241 0.401938 0
0.546181 0.387625 0
0.58027 0.372854 0
0.615076 0.358724 0
0.64596 0.348287 0
0.678187 0.337987 0.00189212
0.709072 0.330266 0.00270085
0.741299 0.324788 0.00270085
0.773404 0.321324 0.0009308
0.806989 0.321324 0
0.838209 0.321324 0
0.8701 0.321614 0
0.900984 0.32549 0
0.931243 0.329381 0
0.958328 0.334432 0
0.985412 0.33872 0
1 0.346441 0
1 0.358083 0
1 0.371084 0
0 0.425483 0.122545
0 0.429862 0.122545
0 0.431281 0.122545
0 0.431373 0.118761
0 0.430091 0.11519
0 0.427451 0.111009
0 0.427451 0.10367
0 0.431373 0.0908827
0 0.434684 0.0724193
0.0977646 0.439582 0.0392615
0.196536 0.450462 0.00352483
0.283192 0.458946 0
0.367712 0.466667 0
0.448875 0.470588 0
0.514855 0.466911 0
0.56434 0.455634 0
0.603433 0.440192 0
0.636759 0.425437 0
0.667643 0.410788 0
0.697536 0.399863 0
0.726955 0.388296 0
0.754879 0.379049 0
0.784039 0.372793 0
0.81323 0.368994 0
0.844114 0.366171 0
0.872557 0.366491 0
0.903426 0.367651 0
0.930388 0.370321 0
0.957351 0.375494 0
0.984085 0.379782 0
1 0.387503 0
1 0.395224 0
1 0.406867 0
0 0.471199 0.134066
0 0.484382 0.137911
0 0.48838 0.137987
0 0.488487 0.134066
0 0.486885 0.130343
0 0.484916 0.12488
0 0.482963 0.119112
0 0.482963 0.107988
0 0.484565 0.0916915
0.0623026 0.488029 0.0663005
0.17438 0.495094 0.0218204
0.260533 0.502815 0
0.343008 0.512139 0
0.425086 0.518914 0
0.503059 0.522179 0
0.567178 0.518502 0
0.617212 0.508827 0
0.655146 0.493385 0
0.688365 0.477943 0
0.716915 0.462501 0
0.743877 0.45098 0
0.770031 0.437934 0
0.79707 0.42916 0
0.822431 0.423041 0
0.850584 0.416297 0
0.879759 0.413977 0
0.906798 0.413977 0
0.933822 0.414221 0
0.958831 0.418097 0
0.985412 0.421958 0
1 0.427573 0
1 0.435294 0
1 0.444602 0
0 0.523033 0.149508
0 0.534676 0.153384
0 0.53872 0.153429
0 0.53872 0.149722
0 0.537224 0.146075
0 0.534798 0.142016
0 0.533089 0.134554
0 0.531365 0.125505
0 0.53254 0.114458
0.0447395 0.534798 0.0922866
0.159564 0.53991 0.0608377
0.244266 0.546349 0.0108034
0.323125 0.55465 0
0.403189 0.564584 0
0.482109 0.570092 0
0.55552 0.573114 0
0.617395 0.568627 0
0.665125 0.559075 0
0.70222 0.543633 0
0.732357 0.528191 0
0.75848 0.512749 0
0.784924 0.497887 0
0.808621 0.48632 0
0.833585 0.477089 0
0.860044 0.469368 0
0.884062 0.465568 0
0.910613 0.462089 0
0.935515 0.460288 0
0.962249 0.460502 0
0.985412 0.462211 0
1 0.466178 0
1 0.473899 0
1 0.481621 0
0 0.573281 0.167041
0 0.584802 0.170886
0 0.588724 0.170962
0 0.587304 0.16907
0 0.585046 0.165209
0 0.583505 0.159808
0 0.581521 0.153918
0 0.581125 0.148287
0 0.581125 0.136645
0.0452735 0.58262 0.120867
0.158495 0.585046 0.0970169
0.239429 0.591546 0.056672
0.313405 0.597955 0.0062562
0.387747 0.604898 0
0.461036 0.612619 0
0.534066 0.618265 0
0.60264 0.62034 0
0.662745 0.614588 0
0.706615 0.604227 0
0.741787 0.589944 0
0.771984 0.574517 0
0.79707 0.559075 0
0.821439 0.54612 0
0.845197 0.534539 0
0.869856 0.52549 0
0.89134 0.5196 0
0.915938 0.51223 0
0.939086 0.50837 0
0.962249 0.506615 0
0.985412 0.506615 0
1 0.508583 0
1 0.512505 0
1 0.520226 0
0 0.621561 0.188235
0 0.62739 0.192096
0 0.631251 0.192157
0 0.631373 0.188602
0 0.629419 0.186526
0 0.629419 0.182666
0 0.629419 0.176837
0 0.627451 0.17145
0 0.627451 0.162249
0.062562 0.627451 0.151232
0.168872 0.629419 0.131121
0.242771 0.633326 0.104112
0.309071 0.639704 0.0620127
0.376654 0.643503 0.00717174
0.44535 0.651225 0
0.513787 0.657908 0
0.582345 0.661768 0
0.646082 0.66183 0
0.702449 0.659068 0
0.744427 0.647791 0
0.778439 0.636271 0
0.807965 0.620829 0
0.832349 0.605386 0
0.857664 0.592462 0
0.877455 0.582345 0
0.900618 0.571694 0
0.921813 0.56434 0
0.943008 0.558511 0
0.964218 0.554894 0
0.987198 0.550988 0
1 0.552941 0
1 0.553063 0
1 0.560784 0.00196841
0 0.664088 0.213352
0 0.671809 0.218997
0 0.671931 0.21912
0 0.671931 0.21912
0 0.671931 0.215198
0 0.671931 0.20972
0 0.66836 0.204166
0 0.668009 0.200366
0 0.668009 0.192645
0.103044 0.668009 0.181003
0.188647 0.668009 0.167926
0.253712 0.671305 0.147768
0.312337 0.673243 0.120027
0.37232 0.679026 0.0777905
0.435416 0.684062 0.0162051
0.498283 0.691783 0
0.562066 0.695583 0
0.624872 0.700359 0
0.684932 0.700557 0
0.739208 0.695705 0
0.781201 0.687984 0
0.81323 0.676844 0
0.840803 0.664057 0
0.863966 0.649882 0
0.887129 0.638361 0
0.909438 0.627298 0
0.929183 0.618143 0
0.948775 0.610422 0
0.969833 0.604791 0
0.988968 0.599268 0.000167849
1 0.599268 0.0119936
1 0.599268 0.0251164
1 0.601343 0.0384833
0 0.702693 0.242161
0 0.708705 0.249882
0 0.710536 0.250004
0 0.710536 0.246448
0 0.708827 0.246082
0 0.706615 0.238849
0 0.706615 0.23505
0 0.704906 0.230762
0.0634775 0.704906 0.223529
0.154406 0.702693 0.215808
0.218387 0.704219 0.204364
0.274144 0.706035 0.190219
0.326467 0.708003 0.170184
0.378805 0.711849 0.142565
0.431128 0.71667 0.103899
0.487373 0.722667 0.0431983
0.546441 0.726467 0.00257877
0.606546 0.732357 0
0.664439 0.734066 0
0.719738 0.735378 0
0.770092 0.730144 0
0.808942 0.724117 0
0.841718 0.713726 0
0.869978 0.702693 0
0.893141 0.689036 0
0.91371 0.677821 0
0.935119 0.668376 0
0.954162 0.660655 0
0.971603 0.652949 0
0.989334 0.645594 0.0012665
1 0.643732 0.0300145
1 0.641672 0.0564279
1 0.641672 0.0735332
0 0.73579 0.274632
0 0.741253 0.280812
0 0.743633 0.282475
0 0.743633 0.281025
0 0.741588 0.277165
0 0.739956 0.274998
0.0197147 0.739712 0.27071
0.082536 0.739712 0.265538
0.155734 0.739712 0.259922
0.209476 0.739712 0.253346
0.257115 0.739712 0.244984
0.304173 0.739712 0.23444
0.345571 0.742153 0.218891
0.390356 0.743633 0.198215
0.437339 0.747555 0.171847
0.485924 0.751476 0.136019
0.538415 0.756558 0.0850538
0.591669 0.760403 0.0197147
0.648035 0.763241 0
0.702083 0.766217 0
0.753658 0.766278 0
0.799634 0.762432 0
0.838605 0.755764 0
0.868833 0.748043 0
0.893538 0.737987 0
0.916304 0.726345 0
0.93872 0.717891 0
0.95613 0.706981 0
0.973724 0.69926 0
0.992889 0.691539 0.00198367
1 0.686244 0.0458076
1 0.684016 0.0780652
1 0.682475 0.0988937
0 0.770596 0.313237
0 0.772961 0.315679
0.0041352 0.773037 0.318135
0.024033 0.773037 0.315679
0.0509804 0.773037 0.312261
0.106203 0.773037 0.311757
0.15024 0.771054 0.309316
0.191745 0.770596 0.305394
0.228305 0.770596 0.299992
0.265492 0.770596 0.295781
0.302663 0.770596 0.288487
0.339345 0.771557 0.279149
0.376471 0.772061 0.268132
0.413596 0.774502 0.25124
0.452201 0.777356 0.230152
0.49456 0.779217 0.205676
0.538964 0.783093 0.175738
0.586526 0.786969 0.131823
0.636362 0.790845 0.0703441
0.687984 0.79472 0.0228428
0.738231 0.79559 0
0.784558 0.79559 0
0.828641 0.791669 0
0.863645 0.78706 0
0.893507 0.780392 0
0.917769 0.771817 0
0.9402 0.761028 0
0.959564 0.752926 0
0.977447 0.741665 0
0.994232 0.734173 0.0138552
1 0.730144 0.0634775
1 0.724926 0.0980392
1 0.722545 0.125002
0.128923 0.800122 0.353185
0.155917 0.801465 0.357061
0.174014 0.803876 0.357107
0.186892 0.801709 0.357107
0.203281 0.801465 0.355764
0.221042 0.801465 0.352056
0.242893 0.801465 0.349752
0.268376 0.800412 0.345907
0.294118 0.800122 0.342061
0.321706 0.800122 0.338216
0.348287 0.800122 0.332647
0.378286 0.800122 0.325734
0.411276 0.800122 0.315435
0.442161 0.803006 0.303792
0.475608 0.804044 0.287373
0.511147 0.80676 0.269856
0.549081 0.809934 0.245411
0.591424 0.813733 0.216541
0.633829 0.816938 0.181964
0.680644 0.81973 0.140505
0.727703 0.822812 0.085008
0.774014 0.823651 0.0241398
0.816419 0.823651 0
0.856992 0.820706 0
0.888853 0.816175 0
0.916869 0.808454 0
0.939467 0.80209 0
0.960876 0.794156 0
0.977615 0.78497 0.00132753
0.996445 0.775235 0.0432593
1 0.76994 0.0900282
1 0.763561 0.122179
1 0.759686 0.15172
0.250004 0.827207 0.39559
0.264256 0.827207 0.399466
0.27483 0.827207 0.399512
0.282475 0.827207 0.398398
0.290196 0.827207 0.395926
0.300191 0.827207 0.394369
0.315435 0.827207 0.390677
0.332982 0.827207 0.388342
0.351049 0.827207 0.384497
0.373022 0.827207 0.380667
0.395834 0.827207 0.376822
0.418997 0.827207 0.369482
0.444846 0.827207 0.362997
0.473045 0.827207 0.352941
0.500008 0.827207 0.341421
0.529656 0.830549 0.325978
0.563241 0.831128 0.305882
0.598657 0.834394 0.282719
0.636027 0.838285 0.25687
0.675731 0.84007 0.225498
0.717403 0.842893 0.190448
0.75938 0.845594 0.149447
0.801816 0.846815 0.103456
0.842283 0.846815 0.0438697
0.879896 0.842893 0.0174563
0.911147 0.839338 0.00410468
0.935546 0.834546 0.000228885
0.958511 0.827817 0.00585946
0.977447 0.820096 0.0337682
0.995331 0.812375 0.0784314
1 0.804654 0.114458
1 0.798245 0.14403
1 0.794369 0.172305
0.336522 0.85037 0.440803
0.346975 0.85037 0.441917
0.350927 0.85037 0.441917
0.355032 0.85037 0.441917
0.362371 0.85037 0.438346
0.370092 0.85037 0.437995
0.381537 0.85037 0.434272
0.395346 0.8495 0.434073
0.409674 0.849271 0.430152
0.425116 0.849271 0.426535
0.444144 0.849271 0.422644
0.464591 0.849271 0.418769
0.483864 0.849271 0.412009
0.506615 0.849271 0.40473
0.529152 0.849882 0.393744
0.55465 0.85037 0.380026
0.581735 0.853193 0.365133
0.609552 0.853697 0.346319
0.641672 0.857114 0.322423
0.675731 0.859358 0.298116
0.713237 0.861448 0.271122
0.751461 0.864958 0.240925
0.790219 0.865293 0.207233
0.829969 0.866056 0.173526
0.86627 0.866056 0.139834
0.899504 0.865202 0.110048
0.93051 0.861601 0.0890059
0.953674 0.857603 0.0870832
0.976486 0.85098 0.0977493
0.992889 0.843259 0.120348
1 0.835721 0.142397
1 0.831739 0.168414
1 0.826841 0.195468
0.413733 0.869612 0.485298
0.416663 0.869612 0.488228
0.420584 0.869612 0.488228
0.424414 0.869612 0.488228
0.431006 0.869612 0.485298
0.43566 0.869612 0.484306
0.445777 0.869612 0.481376
0.45481 0.869612 0.481376
0.466423 0.869612 0.478431
0.48014 0.869612 0.475334
0.495583 0.869612 0.471809
0.511025 0.869612 0.468009
0.528313 0.869612 0.46421
0.544854 0.869612 0.457481
0.565866 0.869612 0.44976
0.58468 0.869612 0.439094
0.607355 0.872053 0.425986
0.63003 0.873533 0.411032
0.657847 0.875242 0.392218
0.68481 0.877455 0.371695
0.717647 0.87892 0.345586
0.749538 0.881376 0.320439
0.78529 0.884627 0.294118
0.820096 0.885298 0.263233
0.85417 0.885298 0.234073
0.888731 0.885298 0.207019
0.9196 0.884749 0.183093
0.946105 0.880919 0.167865
0.970092 0.877089 0.160174
0.989334 0.870497 0.166323
1 0.866423 0.181064
1 0.858824 0.202213
1 0.854902 0.221561
0.480522 0.891905 0.534554
0.484337 0.891905 0.534554
0.488304 0.891905 0.534752
0.488365 0.891905 0.533776
0.492287 0.889235 0.5337
0.498787 0.888853 0.530632
0.503304 0.888853 0.529946
0.511025 0.888853 0.527382
0.521813 0.887984 0.52607
0.531731 0.887984 0.523659
0.543282 0.887984 0.52221
0.554833 0.887984 0.518303
0.56997 0.887984 0.514412
0.584558 0.887984 0.510521
0.601724 0.887984 0.504906
0.618967 0.890074 0.497185
0.637873 0.891905 0.487922
0.658213 0.891905 0.476387
0.677928 0.893248 0.461402
0.701854 0.895827 0.442542
0.727993 0.896986 0.422065
0.754971 0.899748 0.399756
0.785031 0.90071 0.375372
0.81532 0.90367 0.348653
0.846204 0.90367 0.32166
0.877089 0.90367 0.295338
0.907973 0.90367 0.269123
0.937514 0.903197 0.249638
0.964462 0.900511 0.234577
0.984558 0.89633 0.226764
1 0.892531 0.232792
1 0.888731 0.239918
1 0.88101 0.258335
0.533822 0.907347 0.576226
0.537652 0.907347 0.576226
0.537743 0.907347 0.576226
0.541299 0.907347 0.576226
0.541665 0.907347 0.572396
0.545586 0.907347 0.572305
0.552697 0.907347 0.572305
0.557198 0.907347 0.569116
0.564218 0.906798 0.568383
0.575128 0.904326 0.566094
0.582849 0.903426 0.564462
0.594491 0.903426 0.561273
0.605859 0.903426 0.558541
0.619364 0.903426 0.554726
0.630884 0.903426 0.550896
0.646326 0.905119 0.543511
0.661036 0.907347 0.53579
0.677958 0.907347 0.526574
0.695415 0.907347 0.513237
0.715755 0.908644 0.499992
0.735302 0.911269 0.48336
0.758816 0.912367 0.464836
0.784298 0.91519 0.44535
0.811154 0.916091 0.422919
0.839033 0.918563 0.396567
0.8692 0.919112 0.372549
0.89633 0.919112 0.346319
0.925978 0.919112 0.323659
0.952941 0.919112 0.30367
0.976837 0.915862 0.288533
0.998627 0.911971 0.280339
1 0.908064 0.282963
1 0.904173 0.293873
0.580148 0.922179 0.614832
0.583352 0.922179 0.614832
0.584024 0.922179 0.614832
0.58706 0.922179 0.614267
0.587915 0.91928 0.611322
0.590784 0.918868 0.61091
0.594598 0.918868 0.61091
0.599619 0.918868 0.61091
0.606012 0.918868 0.606989
