YOYO-Client/Yoyo/Assets.xcassets/Joshua.dataset/Portra-400.cube
TITLE "Portra 800"
LUT_3D_SIZE 9
0.00392157 0.0627451 0.0666667
0.015198 0.0666667 0.0666667
0.120592 0.0823529 0.0588235
0.269612 0.0941176 0.0406806
0.472557 0.0607919 0.00981155
0.662257 0 0
0.820584 0 0
0.958831 0 0
1 0.054902 0
0 0.0887312 0.0666667
0.0220645 0.100008 0.0632334
0.132235 0.112627 0.0588235
0.295583 0.116854 0.0446021
0.488975 0.0950942 0.0176394
0.673045 0.0338293 0
0.826963 0 0
0.958328 0.0184482 0
1 0.137743 0
0 0.222553 0.0803998
0 0.224506 0.0699779
0.152453 0.254902 0.0171511
0.360296 0.240681 0.0210727
0.518624 0.211765 0.0377508
0.683818 0.196933 0.0117647
0.83064 0.194125 0
0.957839 0.213352 0
1 0.263722 0
0 0.425483 0.122545
0 0.430091 0.11519
0 0.434684 0.0724193
0.367712 0.466667 0
0.603433 0.440192 0
0.726955 0.388296 0
0.844114 0.366171 0
0.957351 0.375494 0
1 0.406867 0
0 0.621561 0.188235
0 0.629419 0.186526
0 0.627451 0.162249
0.309071 0.639704 0.0620127
0.582345 0.661768 0
0.778439 0.636271 0
0.877455 0.582345 0
0.964218 0.554894 0
1 0.560784 0.00196841
0 0.770596 0.313237
0.0509804 0.773037 0.312261
0.228305 0.770596 0.299992
0.376471 0.772061 0.268132
0.538964 0.783093 0.175738
0.738231 0.79559 0
0.893507 0.780392 0
0.977447 0.741665 0
1 0.722545 0.125002
0.413733 0.869612 0.485298
0.431006 0.869612 0.485298
0.466423 0.869612 0.478431
0.528313 0.869612 0.46421
0.607355 0.872053 0.425986
0.717647 0.87892 0.345586
0.85417 0.885298 0.234073
0.970092 0.877089 0.160174
1 0.854902 0.221561
0.623529 0.93431 0.650492
0.630884 0.93431 0.650004
0.645594 0.93431 0.646571
0.672053 0.93431 0.638727
0.710292 0.93431 0.624994
0.761273 0.93579 0.590997
0.834684 0.942153 0.531868
0.9299 0.946075 0.447486
1 0.942153 0.38529
0.756863 0.976471 0.768627
0.760784 0.976471 0.768627
0.767651 0.976471 0.768627
0.780392 0.976471 0.764706
0.798032 0.976471 0.758816
0.823529 0.976471 0.747555
0.85687 0.980392 0.724514
0.906859 0.988235 0.689219
0.972549 0.992157 0.639216
0.00392157 0.0627451 0.0892195
0.0186313 0.0627451 0.0887922
0.12549 0.0553902 0.0966964
0.296574 0.0259861 0.0810712
0.482353 0 0.0652018
0.662257 0 0.039704
0.816663 0 0
0.954894 0 0
1 0 0
0 0.0926528 0.100435
0.0182498 0.100374 0.104036
0.150652 0.104463 0.10045
0.31516 0.10576 0.0923476
0.498558 0.0745708 0.076936
0.67274 0.00241093 0.0479744
0.823896 0 0.00257877
0.957839 0 0
1 0.108888 0
0 0.226474 0.14461
0 0.228305 0.141665
0.158389 0.247089 0.112902
0.349874 0.229908 0.112261
0.517098 0.208759 0.107591
0.683452 0.194736 0.0823529
0.830396 0.190188 0.0353552
0.957839 0.209308 0
1 0.256245 0
0 0.425483 0.190188
0 0.427451 0.187747
0.0649119 0.427054 0.16199
0.372366 0.455283 0.0781262
0.594278 0.428428 0.0614939
0.717021 0.38204 0.094316
0.840192 0.366171 0.0857862
0.956863 0.375631 0.0333562
1 0.405386 0
0 0.623529 0.253437
0 0.629419 0.251713
0.0746929 0.624445 0.232837
0.333425 0.631678 0.174853
0.584314 0.655024 0.0111543
0.774502 0.626719 0
0.873533 0.575494 0.0628672
0.96051 0.552697 0.103899
1 0.558816 0.0963302
0.107851 0.769909 0.362249
0.197345 0.774502 0.365682
0.288853 0.772061 0.352377
0.404791 0.771572 0.324132
0.549416 0.779904 0.25156
0.739147 0.791775 0.119554
0.891524 0.776471 0.0321355
0.973877 0.741665 0.128618
1 0.722545 0.19411
0.445594 0.869612 0.519738
0.465476 0.869657 0.522545
0.496483 0.869612 0.513756
0.548531 0.869612 0.499413
0.619364 0.8701 0.46569
0.722103 0.877455 0.397177
0.855543 0.885298 0.300496
0.96875 0.877089 0.241672
1 0.854902 0.279408
0.638727 0.93431 0.669612
0.645701 0.93431 0.669184
0.658061 0.93431 0.665217
0.682902 0.93431 0.65774
0.718105 0.93431 0.644114
0.765469 0.93431 0.613733
0.837385 0.942153 0.561059
0.926467 0.946075 0.484855
1 0.942153 0.426963
0.764218 0.976471 0.776471
0.767712 0.976471 0.776471
0.772549 0.976471 0.776104
0.784314 0.976471 0.772549
0.801968 0.976471 0.768139
0.824994 0.976471 0.75668
0.8598 0.980392 0.73579
0.906859 0.984802 0.700984
0.972549 0.988235 0.654902
0 0.054902 0.184314
0.035172 0.0558785 0.184314
0.129412 0.0627451 0.187503
0.2804 0.0637217 0.198901
0.489219 0 0.192157
0.673045 0 0.158328
0.820584 0 0.129168
0.954894 0 0.0925307
1 0 0.0205844
0 0.0926528 0.202579
0.00814832 0.100069 0.203067
0.147051 0.116182 0.203708
0.302358 0.125246 0.211139
0.509071 0.0266575 0.18909
0.677333 0 0.159243
0.826871 0 0.13579
0.957839 0 0.0995041
1 0.060914 0.022797
0 0.220584 0.22916
0 0.22475 0.232563
0.170336 0.230518 0.233524
0.354284 0.223377 0.218479
0.532357 0.209934 0.19939
0.692409 0.195682 0.17821
0.83505 0.189212 0.150988
0.960418 0.20441 0.114702
1 0.250248 0.0421607
0 0.41912 0.291661
0.0276951 0.423575 0.294072
0.19353 0.417151 0.28394
0.382223 0.435355 0.242161
0.574014 0.402701 0.230396
0.705684 0.374395 0.2215
0.837751 0.371298 0.2
0.957 0.379721 0.164584
1 0.409308 0.113237
0.0191196 0.619608 0.358816
0.125063 0.624201 0.360784
0.244114 0.617395 0.347921
0.380697 0.61648 0.315999
0.590204 0.638727 0.249027
0.763546 0.610056 0.224262
0.861769 0.566171 0.236271
0.956191 0.550988 0.232837
1 0.560784 0.2103
0.291539 0.766293 0.452949
0.327459 0.770596 0.457847
0.379782 0.766766 0.44773
0.457359 0.764218 0.426215
0.57084 0.770596 0.378302
0.742153 0.784436 0.301183
0.885939 0.769085 0.266667
0.966186 0.735378 0.282353
1 0.718624 0.303929
0.504906 0.867399 0.583337
0.520562 0.869612 0.584344
0.545098 0.86685 0.579416
0.584436 0.865934 0.566796
0.644114 0.865934 0.544121
0.732967 0.873533 0.491417
0.854902 0.881376 0.418387
0.962905 0.873167 0.371145
1 0.851225 0.389212
0.665202 0.93431 0.703426
0.672068 0.93431 0.703426
0.682963 0.93431 0.70016
0.702327 0.930877 0.695048
0.7337 0.930388 0.683635
0.776913 0.93431 0.659312
0.84065 0.939086 0.618112
0.926467 0.946075 0.556863
1 0.942153 0.510292
0.775494 0.976471 0.795102
0.779416 0.976471 0.795102
0.78407 0.976471 0.792157
0.795712 0.976471 0.789334
0.811276 0.976471 0.783825
0.832837 0.976471 0.775494
0.863722 0.980392 0.758816
0.906859 0.984314 0.727947
0.968627 0.988235 0.692164
0 0.0470588 0.311772
0.00128176 0.0509804 0.314214
0.154772 0.0696117 0.318135
0.30251 0.0675822 0.328984
0.479652 0.0269627 0.333822
0.663722 0.0183871 0.339284
0.832349 0 0.306004
0.965194 0 0.25687
1 0 0.218631
0 0.0926528 0.3299
0 0.100923 0.332845
0.166659 0.119234 0.33431
0.319615 0.127825 0.339773
0.493141 0.118624 0.34255
0.675502 0.108141 0.342641
0.838819 0 0.301472
0.964401 0 0.256397
1 0 0.215503
0 0.196201 0.354406
0 0.201099 0.357794
0.177447 0.218021 0.360784
0.352941 0.241138 0.360784
0.520531 0.253437 0.364157
0.698726 0.205447 0.336843
0.842771 0.142885 0.291905
0.961715 0.151141 0.255528
1 0.21323 0.218753
0 0.396078 0.391241
0.0016022 0.401465 0.392844
0.21738 0.400549 0.392096
0.388022 0.399817 0.390051
0.561303 0.385321 0.365408
0.710842 0.37644 0.339071
0.843 0.373098 0.312383
0.960784 0.377142 0.280888
1 0.398474 0.243687
0.189456 0.606622 0.462257
0.259892 0.610636 0.468132
0.357595 0.606622 0.469368
0.446815 0.598596 0.457145
0.590204 0.611276 0.414221
0.737987 0.580392 0.393866
0.843381 0.552087 0.378866
0.947463 0.547158 0.351232
1 0.559564 0.318379
0.409369 0.760845 0.557351
0.439216 0.762753 0.562249
0.479774 0.760296 0.558328
0.529 0.754833 0.546777
0.602457 0.754833 0.517433
0.742153 0.771481 0.464271
0.872557 0.755337 0.43566
0.949325 0.724636 0.428794
1 0.714702 0.421073
0.572549 0.86569 0.65687
0.584939 0.86569 0.6598
0.60206 0.864302 0.65687
0.632837 0.862745 0.648554
0.677455 0.861769 0.632532
0.746075 0.866239 0.599451
0.853925 0.876997 0.550988
0.954101 0.867628 0.512566
1 0.847425 0.511757
0.699016 0.930571 0.747738
0.706218 0.930388 0.74789
0.71458 0.930388 0.74612
0.732418 0.930388 0.741665
0.755398 0.930388 0.733333
0.791867 0.930388 0.719112
0.845594 0.937865 0.688365
0.922972 0.942153 0.644343
1 0.938231 0.605875
0.794614 0.976471 0.818143
0.796078 0.976471 0.818143
0.802457 0.976471 0.818143
0.811215 0.976471 0.814221
0.82475 0.976471 0.8103
0.844602 0.976471 0.804898
0.871565 0.977447 0.790326
0.91078 0.984314 0.766659
0.968627 0.988235 0.73579
0 0.0470588 0.45687
0 0.0526894 0.460777
0.165194 0.0661784 0.462745
0.331121 0.0784314 0.463966
0.497063 0.0509804 0.475486
0.666178 0 0.484321
0.823529 0.118624 0.492653
0.952941 0.163241 0.487739
1 0.0392157 0.441184
0 0.0965744 0.469123
0 0.10071 0.471565
0.173526 0.112627 0.471565
0.344518 0.131212 0.471809
0.508949 0.129656 0.482841
0.673533 0.121721 0.489952
0.823468 0.200977 0.499687
0.952453 0.20441 0.486793
1 0.0811322 0.434318
0 0.187259 0.487251
0 0.192157 0.489219
0.185779 0.2065 0.492164
0.370901 0.231373 0.489281
0.531624 0.252949 0.498772
0.688731 0.269673 0.504906
0.826841 0.322545 0.512261
0.957168 0.272618 0.47628
1 0.187259 0.412741
0 0.340444 0.504662
0 0.343389 0.508339
0.155154 0.34963 0.510781
0.387778 0.372061 0.514702
0.556619 0.407843 0.521935
0.699077 0.432593 0.527947
0.83946 0.413046 0.504417
0.962997 0.353185 0.442161
1 0.346807 0.390692
0.0382391 0.575494 0.560784
0.150118 0.579538 0.564706
0.30515 0.578439 0.561028
0.449638 0.574502 0.559197
0.581369 0.571572 0.552941
0.718013 0.556497 0.525368
0.839948 0.54461 0.492897
0.950484 0.537255 0.457237
1 0.542153 0.419608
0.438483 0.750729 0.635538
0.469917 0.752453 0.641184
0.518135 0.749996 0.641733
0.583124 0.746075 0.642649
0.63946 0.74081 0.631128
0.737957 0.751507 0.600214
0.850004 0.728923 0.573831
0.931533 0.707256 0.548623
1 0.702937 0.519112
0.615198 0.862745 0.722545
0.627695 0.862745 0.72549
0.650004 0.862745 0.72549
0.680079 0.858824 0.723095
0.712505 0.857847 0.714458
0.759808 0.857847 0.694606
0.850858 0.869612 0.660777
0.942214 0.858579 0.631556
1 0.839704 0.617639
0.737255 0.930388 0.793378
0.741176 0.930388 0.793378
0.751965 0.930388 0.793622
0.765774 0.930388 0.791669
0.785779 0.930388 0.785779
0.812253 0.930388 0.776318
0.853437 0.93431 0.756069
0.922972 0.9402 0.724758
0.999512 0.934798 0.697551
0.817639 0.976471 0.849012
0.819364 0.976471 0.849012
0.824994 0.976471 0.846082
0.832593 0.976471 0.845106
0.844114 0.976471 0.844114
0.860288 0.976471 0.837263
0.88333 0.976471 0.828916
0.918135 0.980392 0.809552
0.968627 0.988235 0.786282
0 0.0392157 0.603433
0 0.0416724 0.603433
0.179904 0.0495155 0.603433
0.354894 0.0607156 0.603433
0.517159 0.0784314 0.605875
0.677943 0.0726177 0.625498
0.823529 0.100008 0.638727
0.942641 0.238056 0.641367
1 0.396567 0.662257
0 0.0890364 0.608331
0 0.092958 0.609003
0.1897 0.100404 0.609003
0.366064 0.11722 0.609003
0.528435 0.141665 0.611093
0.682841 0.156435 0.630396
0.823896 0.185824 0.641749
0.938293 0.292668 0.64506
1 0.423346 0.665202
0 0.178302 0.618631
0 0.182849 0.619974
0.202213 0.193988 0.619974
0.384512 0.214221 0.620584
0.545159 0.250248 0.622126
0.693568 0.281926 0.640192
0.826474 0.317037 0.649149
0.933455 0.398489 0.655879
1 0.471199 0.6663
0 0.308278 0.628916
0 0.313664 0.631861
0.179187 0.324147 0.634318
0.393393 0.346563 0.636744
0.56321 0.387533 0.639704
0.703685 0.429404 0.654475
0.82536 0.46595 0.662135
0.92285 0.525979 0.671077
1 0.511757 0.652506
0 0.498283 0.649516
0 0.500252 0.651469
0.173831 0.500252 0.650248
0.374762 0.505364 0.652979
0.566918 0.533089 0.66128
0.711299 0.579446 0.673045
0.820584 0.609125 0.68162
0.928618 0.596262 0.663081
1 0.538231 0.599512
0.328923 0.724025 0.707774
0.369192 0.725551 0.709316
0.43978 0.722545 0.706859
0.530877 0.722545 0.70631
0.628702 0.720165 0.705119
0.725002 0.717494 0.700694
0.830396 0.701885 0.672419
0.926955 0.689403 0.639521
1 0.685786 0.604898
0.619608 0.854902 0.771572
0.633906 0.857847 0.774502
0.6598 0.854902 0.774502
0.697551 0.854902 0.776959
0.74461 0.853925 0.778058
0.781369 0.850614 0.770352
0.847242 0.856901 0.749996
0.925978 0.842161 0.72459
0.992157 0.826352 0.704295
0.755398 0.930388 0.830396
0.760433 0.930388 0.830396
0.773892 0.930388 0.833829
0.793744 0.930388 0.834012
0.816419 0.930388 0.835111
0.835294 0.930388 0.829099
0.864805 0.930388 0.816052
0.922972 0.938231 0.79559
0.992157 0.930877 0.773037
0.836759 0.976471 0.875975
0.839216 0.976471 0.878431
0.846448 0.976471 0.879896
0.855817 0.976471 0.879896
0.867399 0.976471 0.879896
0.879896 0.976471 0.875975
0.898405 0.976471 0.868132
0.923842 0.980392 0.856062
0.972549 0.984314 0.836759
0 0.00686656 0.741176
0.0129854 0.00686656 0.741176
0.236271 0.00587472 0.741176
0.401343 0.0126192 0.741176
0.556863 0.0622568 0.741176
0.697063 0.133333 0.746197
0.828183 0.181369 0.760052
0.93872 0.250492 0.768627
1 0.388235 0.772549
0 0.0720531 0.744244
0.0295872 0.0720531 0.744732
0.243107 0.0759747 0.742153
0.408515 0.0901961 0.742153
0.563302 0.13138 0.74461
0.700496 0.190433 0.748531
0.830152 0.237247 0.763241
0.935119 0.29987 0.768627
1 0.424628 0.775006
0 0.167651 0.748043
0.0459907 0.16936 0.74902
0.251957 0.176837 0.74902
0.418143 0.19617 0.74902
0.571572 0.23566 0.74902
0.707851 0.292165 0.751965
0.830396 0.342153 0.766674
0.930877 0.397177 0.772305
1 0.498039 0.778439
0 0.290318 0.751476
0 0.293996 0.752941
0.23505 0.302663 0.752941
0.416464 0.322057 0.755886
0.577874 0.362066 0.756497
0.711269 0.418143 0.758328
0.829007 0.470954 0.770092
0.923033 0.519478 0.777935
0.996078 0.590188 0.785168
0 0.444114 0.75491
0 0.449516 0.756863
0.164828 0.453071 0.759808
0.377691 0.466178 0.760784
0.56495 0.495583 0.763973
0.713726 0.54902 0.765682
0.824994 0.600855 0.777081
0.911696 0.639887 0.78529
0.984314 0.690196 0.793133
0.0187533 0.650126 0.774136
0.0804761 0.650858 0.774136
0.247883 0.648646 0.773037
0.393317 0.644724 0.772061
0.541115 0.646387 0.772122
0.705394 0.674968 0.777646
0.823377 0.723629 0.788724
0.903426 0.751431 0.796933
0.987747 0.746441 0.788113
0.527703 0.838239 0.816419
0.545708 0.838972 0.818631
0.580392 0.837507 0.818631
0.635538 0.837507 0.818631
0.700984 0.836393 0.815686
0.768872 0.834318 0.815167
0.832837 0.829664 0.810422
0.910872 0.814557 0.785534
0.995102 0.803922 0.761517
0.755398 0.926467 0.864713
0.762737 0.926467 0.865568
0.777081 0.926467 0.865568
0.8 0.926467 0.868132
0.826963 0.92665 0.869062
0.857359 0.929534 0.872541
0.881346 0.926467 0.867887
0.926467 0.930434 0.852674
0.98468 0.922057 0.834318
0.847059 0.972549 0.902937
0.850492 0.972549 0.902937
0.857847 0.975494 0.905882
0.86949 0.976471 0.906859
0.886275 0.976471 0.91078
0.902327 0.976471 0.91078
0.915679 0.976471 0.910048
0.934798 0.976471 0.89987
0.972549 0.984314 0.884321
0.20882 0 0.86421
0.264775 0 0.86421
0.367285 0 0.861646
0.494118 0 0.860792
0.624994 0.0698558 0.860288
0.744427 0.174014 0.856367
0.851835 0.265812 0.856367
0.946563 0.336706 0.863783
1 0.424994 0.867643
0.215198 0.0406806 0.863783
0.268742 0.0411688 0.86421
0.370871 0.0485237 0.86421
0.496269 0.0753033 0.860792
0.62472 0.136034 0.859861
0.746426 0.217563 0.856641
0.851667 0.301198 0.856367
0.945769 0.373587 0.863783
1 0.454475 0.867216
0.211276 0.160784 0.864576
0.266499 0.162127 0.864698
0.371084 0.169757 0.86421
0.496925 0.191058 0.863355
0.627573 0.235721 0.860471
0.747677 0.302937 0.856733
0.850492 0.379416 0.856367
0.939147 0.446082 0.863722
1 0.518257 0.867643
0.161089 0.28333 0.864515
0.23415 0.288243 0.864698
0.34902 0.29575 0.864515
0.484977 0.313527 0.86421
0.620981 0.350484 0.861677
0.745464 0.41001 0.858946
0.846571 0.482475 0.856367
0.931304 0.542153 0.863767
0.997543 0.6 0.867948
0 0.425483 0.86421
0.0784619 0.427451 0.86424
0.271199 0.432837 0.86421
0.437415 0.443626 0.86421
0.597055 0.471565 0.86421
0.73579 0.524269 0.860288
0.838727 0.587991 0.858091
0.922576 0.6439 0.863996
0.986282 0.69044 0.869856
0 0.592645 0.862074
0 0.592645 0.86421
0.167956 0.592645 0.86421
0.368627 0.594415 0.86421
0.542397 0.607111 0.86421
0.708217 0.639017 0.861769
0.830396 0.693629 0.860288
0.910842 0.74374 0.867826
0.975189 0.776959 0.875486
0.307347 0.789212 0.869001
0.338842 0.789212 0.869322
0.3935 0.785687 0.869001
0.472557 0.781369 0.868635
0.56556 0.773587 0.86508
0.676204 0.767147 0.86421
0.811765 0.789456 0.867765
0.906859 0.834318 0.876356
0.968627 0.85687 0.884321
0.680446 0.918196 0.899016
0.691341 0.918196 0.899016
0.707729 0.918196 0.899016
0.737743 0.918196 0.899016
0.777722 0.918624 0.899504
0.82208 0.91519 0.899504
0.869169 0.91519 0.899504
0.91519 0.91133 0.895262
0.983886 0.902937 0.876402
0.846571 0.972549 0.9299
0.850492 0.972549 0.9299
0.858701 0.972549 0.933822
0.870588 0.972549 0.933822
0.888243 0.972549 0.937499
0.911269 0.976471 0.939025
0.93431 0.976471 0.945586
0.949935 0.976471 0.945586
0.976471 0.980392 0.933822
0.486275 0.0901961 0.968627
0.509316 0.0975509 0.968627
0.566659 0.120592 0.968627
0.646571 0.165682 0.966171
0.739208 0.233341 0.962737
0.830396 0.318135 0.956863
0.907835 0.406867 0.951965
0.969604 0.48333 0.945098
1 0.545098 0.945098
0.485298 0.14313 0.968627
0.508827 0.150546 0.968627
0.565316 0.169604 0.968627
0.646082 0.204898 0.965988
0.739208 0.265446 0.962493
0.827939 0.34461 0.956863
0.903929 0.429419 0.94902
0.965682 0.501961 0.945098
1 0.563241 0.945098
0.477455 0.234318 0.968627
0.501472 0.239216 0.968627
0.558572 0.253925 0.968627
0.641672 0.283696 0.965805
0.735286 0.33431 0.962737
0.825864 0.403922 0.956863
0.899992 0.478431 0.94902
0.961761 0.547066 0.945098
1 0.600977 0.945098
0.45098 0.345586 0.968627
0.477638 0.349203 0.968627
0.538231 0.360296 0.968627
0.626047 0.384253 0.967163
0.723537 0.424262 0.963973
0.81709 0.480888 0.956863
0.89424 0.546563 0.950851
0.953918 0.608331 0.945098
1 0.658335 0.945098
0.374517 0.464714 0.968627
0.407355 0.468635 0.968627
0.481376 0.475975 0.968627
0.584314 0.491417 0.966659
0.696086 0.523522 0.964706
0.800488 0.568872 0.960052
0.882841 0.625498 0.952453
0.94583 0.680888 0.945098
0.996078 0.723537 0.945098
0.243137 0.600977 0.966171
0.291661 0.603433 0.966171
0.383215 0.604898 0.966171
0.502449 0.612192 0.964706
0.638972 0.628916 0.964706
0.767651 0.6598 0.960784
0.865324 0.707713 0.954406
0.93431 0.754406 0.948714
0.988235 0.792645 0.94902
0.236271 0.762753 0.960784
0.272541 0.762753 0.960784
0.346075 0.759075 0.960784
0.449012 0.75491 0.961761
0.572549 0.753918 0.964706
0.705028 0.760784 0.964706
0.834318 0.786023 0.960784
0.922545 0.826108 0.953796
0.980392 0.857847 0.952941
0.550484 0.899992 0.960784
0.558755 0.899992 0.960784
0.58088 0.899626 0.960784
0.617151 0.896086 0.960784
0.66421 0.892149 0.961273
0.723033 0.886946 0.964706
0.796933 0.880385 0.964706
0.906859 0.891661 0.965194
0.976959 0.922545 0.964706
0.796078 0.976471 0.968627
0.799512 0.976471 0.968627
0.807843 0.976471 0.968627
0.825986 0.976471 0.968627
0.849012 0.976471 0.968627
0.875975 0.976471 0.972549
0.91078 0.976471 0.972549
0.945586 0.980392 0.976471
0.980392 0.980392 0.976471
