YOYO-Client/Yoyo/Assets.xcassets/Dali.dataset/Dali.cube
TITLE "Dali"
LUT_3D_SIZE 5
0.0117647 0 0
0.215686 0 0
0.511772 0 0.00392157
0.760784 0.0215763 0.0480354
0.913725 0.192157 0.121569
0 0.180392 0.0568704
0.180392 0.188235 0.0343175
0.520592 0.2 0.0220645
0.763729 0.227451 0.0637217
0.913725 0.322545 0.144121
0 0.435294 0.217639
0.133333 0.435294 0.213733
0.398047 0.443137 0.15491
0.712749 0.477455 0.124514
0.909804 0.547051 0.211765
0.216663 0.670588 0.418631
0.272541 0.666667 0.418631
0.424018 0.666667 0.406867
0.615686 0.666667 0.320592
0.834318 0.696086 0.296086
0.52549 0.847059 0.658824
0.537255 0.847059 0.658824
0.611765 0.847059 0.666667
0.707835 0.848035 0.658824
0.827451 0.858824 0.635294
0 0.00686656 0.172549
0.222553 0.0115206 0.183337
0.494118 0.0647135 0.184314
0.724758 0.144121 0.212009
0.895094 0.237263 0.248035
0.0382391 0.192157 0.192157
0.229099 0.210788 0.207782
0.498039 0.233204 0.210788
0.733883 0.275242 0.228794
0.901961 0.352941 0.278431
0.153918 0.447059 0.317647
0.255512 0.454292 0.318624
0.43946 0.461036 0.276967
0.718013 0.493141 0.267277
0.901961 0.550988 0.336278
0.329412 0.673533 0.487251
0.356863 0.670344 0.479408
0.463722 0.669612 0.468635
0.627207 0.669612 0.388479
0.837995 0.700984 0.375494
0.555886 0.847059 0.681376
0.559808 0.847059 0.678431
0.615198 0.847059 0.681865
0.711772 0.85098 0.678187
0.827451 0.858824 0.653925
0 0.0568704 0.443137
0.164218 0.0568704 0.458824
0.521569 0.0656901 0.47451
0.73431 0.166674 0.45098
0.882353 0.296086 0.464714
0.0333257 0.219608 0.415686
0.215564 0.232837 0.446693
0.521569 0.255879 0.477943
0.726467 0.313603 0.472419
0.882353 0.405875 0.493629
0.165682 0.466667 0.467643
0.306859 0.478431 0.48481
0.52549 0.511757 0.521569
0.724514 0.531624 0.517647
0.882353 0.570596 0.533333
0.362249 0.691173 0.598047
0.439826 0.691173 0.601968
0.555886 0.695094 0.605875
0.678431 0.695094 0.55552
0.857359 0.72549 0.558328
0.570581 0.85098 0.739208
0.599023 0.85098 0.739208
0.652934 0.852934 0.739208
0.728923 0.858824 0.738231
0.835294 0.866667 0.713726
0 0.126467 0.690196
0.102937 0.13138 0.700252
0.513726 0.145098 0.722545
0.768627 0.202213 0.72549
0.899016 0.341176 0.705882
0 0.260044 0.670588
0.172549 0.267643 0.683085
0.515679 0.293629 0.714702
0.760784 0.347311 0.72549
0.894118 0.445106 0.717403
0.173037 0.489219 0.65098
0.297063 0.493019 0.661402
0.517647 0.518624 0.706615
0.748531 0.558831 0.736278
0.878431 0.594614 0.73431
0.343389 0.697063 0.713726
0.416419 0.697063 0.717403
0.566796 0.710414 0.73431
0.739467 0.737011 0.756619
0.870588 0.748775 0.756863
0.541176 0.866667 0.812741
0.575494 0.866667 0.812741
0.664714 0.867643 0.816663
0.763485 0.875486 0.821576
0.851957 0.886275 0.809796
0.117647 0.258824 0.882353
0.305882 0.262745 0.882353
0.576471 0.284321 0.886275
0.806867 0.347051 0.895094
0.909804 0.435294 0.898039
0.156863 0.357839 0.870588
0.32549 0.361028 0.875486
0.572549 0.385779 0.882841
0.799023 0.446082 0.894118
0.902937 0.507851 0.898039
0.292165 0.558831 0.854902
0.360784 0.550988 0.860288
0.551965 0.550988 0.871565
0.777447 0.595102 0.890196
0.898039 0.631373 0.898039
0.371572 0.744121 0.851957
0.421576 0.739467 0.851957
0.547555 0.732357 0.858824
0.7402 0.744854 0.88014
0.890196 0.774502 0.898039
0.572549 0.886275 0.886275
0.599023 0.886275 0.886275
0.666667 0.886275 0.890196
0.774502 0.894118 0.898039
0.882353 0.901961 0.901961
