YOYO-Client/Yoyo/Assets.xcassets/Dali.dataset/Dali.cube
TITLE "Dali"
LUT_3D_SIZE 33
0.0117647 0 0
0.0193637 0 0
0.0348058 0 0
0.0577249 0 0
0.0882277 0 0
0.119112 0 0
0.149996 0 0
0.183948 0 0
0.215686 0 0
0.253315 0 0
0.287984 0 0
0.326589 0 0
0.365194 0 0
0.399878 0 0
0.438483 0 0
0.477089 0 0
0.511772 0 0.00392157
0.548531 0 0.00575265
0.579416 0 0.00955215
0.611887 0 0.0133516
0.643626 0 0.0210727
0.672053 0 0.0287938
0.702937 0 0.0325933
0.733822 0.00613413 0.0403143
0.760784 0.0215763 0.0480354
0.786892 0.0417945 0.0557565
0.810056 0.0649577 0.0634775
0.833204 0.0874952 0.0751202
0.856367 0.107347 0.0828412
0.875608 0.13051 0.0944839
0.894606 0.153674 0.102205
0.906004 0.176715 0.113848
0.913725 0.192157 0.121569
0.00784314 0.0037995 0
0.0192416 0.0037995 0
0.0348058 0.0037995 0
0.0577249 0.0037995 0
0.0882277 0.0037995 0
0.119112 0.0037995 0
0.149996 0.0037995 0
0.183948 0.0037995 0
0.215686 0.0037995 0
0.253315 0.0037995 0
0.287984 0.0037995 0
0.326589 0.0037995 0
0.365194 0.0037995 0
0.399878 0.0037995 0
0.438483 0.0037995 0
0.477089 0.0037995 0
0.511772 0.0037995 0.00392157
0.548531 0.0037995 0.00575265
0.579416 0.0037995 0.00955215
0.611887 0.0037995 0.0133516
0.643626 0.0037995 0.0210727
0.672053 0.0037995 0.0287938
0.702937 0.00894179 0.0364843
0.733822 0.0176394 0.0441138
0.760784 0.0330816 0.0508888
0.786892 0.0495155 0.0565957
0.810056 0.071931 0.067277
0.833204 0.0919051 0.0751202
0.856367 0.115068 0.0828412
0.875608 0.138231 0.0944839
0.894606 0.161151 0.102205
0.906004 0.180514 0.113848
0.913725 0.195956 0.121569
0.00784314 0.015198 0
0.0155642 0.015198 0
0.0345617 0.015198 0
0.0577249 0.015198 0
0.0882277 0.015198 0
0.119112 0.0153964 0
0.149996 0.0191196 0
0.18088 0.0191196 0
0.214771 0.0191196 0
0.253315 0.0191196 0
0.287984 0.0191196 0
0.326589 0.015198 0
0.365194 0.015198 0
0.403647 0.015198 0
0.438483 0.015198 0
0.477089 0.015198 0
0.513603 0.015198 0.00392157
0.548531 0.015198 0.00575265
0.579416 0.015198 0.00955215
0.611887 0.015198 0.0133516
0.643626 0.015198 0.0210727
0.672053 0.0203861 0.0287938
0.702937 0.0279393 0.0365148
0.733822 0.036759 0.0442359
0.760784 0.0522011 0.0509804
0.786892 0.0676432 0.0565652
0.810056 0.084062 0.0673991
0.833204 0.106615 0.0751202
0.856367 0.126467 0.0828412
0.875608 0.149294 0.0944839
0.894606 0.168872 0.105882
0.906004 0.188235 0.113848
0.913725 0.203677 0.121569
0.00784314 0.038117 0
0.0119936 0.0346685 0
0.0306554 0.0345617 0
0.0538033 0.0377813 0
0.0838636 0.0376745 0
0.11519 0.038117 0
0.146075 0.0420386 0
0.180102 0.0420386 0
0.218357 0.0420386 0
0.253315 0.0420386 0
0.291661 0.0417792 0
0.330144 0.038117 0
0.36875 0.038117 0
0.4038 0.038117 0
0.442405 0.038117 0
0.480644 0.038117 0
0.515679 0.038117 0.00392157
0.548531 0.038117 0.00575265
0.579416 0.038117 0.00955215
0.611887 0.038117 0.0133516
0.644953 0.0395819 0.0210727
0.672053 0.0469368 0.0287938
0.702937 0.0546578 0.0365148
0.733822 0.0624857 0.0442359
0.760784 0.0753643 0.051957
0.786892 0.0908064 0.0593881
0.810056 0.106249 0.0673991
0.833204 0.122667 0.0751202
0.856367 0.145022 0.0828412
0.875608 0.164706 0.0944839
0.894606 0.18407 0.106126
0.906004 0.203433 0.113848
0.913725 0.218875 0.121569
0.00392157 0.0612802 0.00343328
0.0116426 0.0612802 0
0.0235294 0.0612802 0
0.0464485 0.0612802 0
0.0769665 0.0612802 0
0.107851 0.0645762 0
0.141512 0.0652018 0
0.180026 0.0678721 0
0.218631 0.0686198 0
0.25687 0.0686198 0
0.295338 0.0686198 0
0.331701 0.0686198 0
0.369116 0.0686198 0
0.407721 0.0686198 0
0.445838 0.0686198 0
0.484443 0.0686198 0
0.519356 0.0686198 0.00392157
0.552453 0.0686198 0.00575265
0.583337 0.0686198 0.00955215
0.614221 0.0686198 0.0170748
0.645106 0.0700999 0.024506
0.675975 0.077821 0.0287938
0.706859 0.0855421 0.0365148
0.736294 0.0932631 0.0442359
0.760784 0.101106 0.051957
0.786892 0.11397 0.059678
0.810056 0.129412 0.0673991
0.833204 0.144854 0.0785534
0.856367 0.164279 0.0862745
0.875608 0.183627 0.0944839
0.894606 0.202945 0.106126
0.906004 0.218875 0.113848
0.913725 0.234318 0.121569
0 0.0877394 0.0111543
0.00451667 0.0877394 0.010544
0.0191501 0.0877394 0.010544
0.0387274 0.0877394 0.010544
0.0692454 0.091249 0.00723278
0.10013 0.0916609 0.00444038
0.137621 0.0949721 0.00331121
0.176104 0.0955825 0
0.21471 0.0986801 0
0.253315 0.0995041 0
0.291905 0.0995041 0
0.33051 0.0995041 0
0.369116 0.0995041 0
0.407721 0.0995041 0
0.446326 0.0995041 0
0.484932 0.0995041 0
0.521569 0.0995041 0.00392157
0.555764 0.0995041 0.00784314
0.587259 0.0995041 0.0132143
0.618143 0.0995041 0.0172732
0.649027 0.103044 0.0249943
0.679896 0.108705 0.032517
0.709133 0.116426 0.039826
0.736645 0.124147 0.0442359
0.763272 0.131868 0.051957
0.786892 0.140444 0.0629892
0.810056 0.155886 0.0707103
0.833204 0.171328 0.0790417
0.856367 0.187381 0.0871748
0.875608 0.206744 0.0978561
0.894606 0.226108 0.109438
0.906004 0.241428 0.117159
0.913725 0.253071 0.12488
0 0.118624 0.0259861
0.000717174 0.118624 0.0252689
0.0122072 0.118624 0.0252842
0.0313115 0.118624 0.0259861
0.0580911 0.122057 0.0220645
0.0919051 0.122545 0.018143
0.126467 0.122545 0.0143587
0.165072 0.126467 0.00796521
0.203677 0.126467 0.0071107
0.245304 0.130388 0.0071107
0.286992 0.130388 0.0071107
0.326589 0.130388 0.0071107
0.367926 0.130388 0.0071107
0.407721 0.133577 0.0071107
0.446326 0.133577 0.0071107
0.484932 0.133577 0.0071107
0.523522 0.133577 0.00747692
0.556374 0.133577 0.00967422
0.587259 0.133577 0.0166629
0.618143 0.133883 0.0209049
0.649027 0.137499 0.0269932
0.679896 0.13959 0.0348058
0.710781 0.147311 0.0404364
0.737545 0.155032 0.0481575
0.763729 0.162753 0.0558785
0.786892 0.171328 0.0643015
0.810056 0.18677 0.0745098
0.833204 0.202213 0.0823529
0.856367 0.217655 0.0910811
0.875608 0.233082 0.101656
0.894606 0.249271 0.110246
0.906004 0.264576 0.120974
0.913725 0.276219 0.129412
0 0.149508 0.0405585
0 0.149508 0.0414282
0.00740063 0.149508 0.0414282
0.0272068 0.149508 0.0414282
0.05037 0.149508 0.0375067
0.080766 0.152956 0.0335851
0.114992 0.153429 0.0296635
0.153429 0.15668 0.0226749
0.192035 0.157351 0.0188754
0.233692 0.160174 0.0156863
0.276127 0.161273 0.0148318
0.318547 0.161273 0.0112001
0.360983 0.163195 0.0142977
0.404303 0.165194 0.0148318
0.444984 0.165194 0.0148318
0.484932 0.165194 0.0133974
0.523522 0.166735 0.0148318
0.559838 0.168261 0.0148318
0.59118 0.168261 0.0173953
0.622065 0.169848 0.0247807
0.652949 0.172183 0.0289158
0.683818 0.172473 0.0366369
0.712886 0.17818 0.044358
0.737743 0.185901 0.052079
0.763729 0.193622 0.0598001
0.786892 0.202213 0.0705882
0.810056 0.216907 0.0783093
0.833204 0.22916 0.0861677
0.856367 0.244602 0.0949874
0.875608 0.259754 0.10547
0.894606 0.272419 0.117082
0.906004 0.287739 0.128679
0.913725 0.299382 0.1364
0 0.180392 0.0568704
0 0.180392 0.0568704
0.00367742 0.180392 0.0568704
0.0194858 0.180392 0.0568704
0.042649 0.180392 0.0560006
0.0730449 0.183703 0.0521096
0.103914 0.184314 0.0482185
0.139498 0.187381 0.041825
0.180392 0.188235 0.0343175
0.219699 0.191058 0.030518
0.262501 0.192157 0.0234684
0.30695 0.19408 0.021912
0.35111 0.195712 0.0225528
0.395346 0.196078 0.0225528
0.438178 0.197726 0.019913
0.48014 0.199023 0.0207065
0.520592 0.2 0.0220645
0.558206 0.202945 0.0225528
0.59118 0.202945 0.0229801
0.622065 0.205112 0.0280613
0.652949 0.207233 0.0328374
0.683818 0.210788 0.0405585
0.714397 0.212985 0.0482795
0.740566 0.21973 0.0552987
0.763729 0.227451 0.0637217
0.786892 0.235386 0.0720836
0.810056 0.247791 0.0821088
0.833204 0.259434 0.0899825
0.856367 0.271565 0.101472
0.879164 0.286732 0.113115
0.894606 0.298344 0.124758
0.906004 0.310903 0.1364
0.913725 0.322545 0.144121
0 0.208453 0.0762188
0 0.211276 0.0751507
0 0.211276 0.0724804
0.0121309 0.211276 0.0722972
0.0349279 0.211276 0.0722972
0.0653239 0.214588 0.0713664
0.0962081 0.215198 0.0674907
0.130144 0.218265 0.0635996
0.165927 0.21912 0.0564889
0.206561 0.221942 0.0487678
0.24976 0.223041 0.0418097
0.292149 0.223041 0.0344396
0.338476 0.22591 0.0313268
0.38088 0.228641 0.0302739
0.427207 0.230396 0.0296483
0.470924 0.23238 0.02916
0.512871 0.234257 0.0302739
0.551476 0.236118 0.0302739
0.589593 0.239963 0.0302739
0.622065 0.24155 0.0318608
0.652949 0.243702 0.0395819
0.683818 0.246815 0.047303
0.714702 0.250614 0.055024
0.740566 0.255512 0.0627451
0.763729 0.262135 0.0704662
0.786892 0.2701 0.0781872
0.810056 0.278676 0.0859083
0.833204 0.290318 0.0942397
0.856367 0.301961 0.10576
0.879164 0.31371 0.120836
0.894606 0.32549 0.132479
0.906004 0.34081 0.144121
0.913725 0.348531 0.151843
0 0.242161 0.0943618
0 0.242161 0.0943618
0 0.242161 0.0943618
0.00721752 0.242161 0.0919203
0.0272068 0.242161 0.0905928
0.0576028 0.245472 0.0904402
0.0884871 0.246082 0.0867475
0.122423 0.249149 0.0834516
0.157107 0.250004 0.0796521
0.192676 0.252811 0.071931
0.234318 0.253925 0.06421
0.276722 0.255695 0.0547189
0.323033 0.257389 0.0460822
0.365942 0.260166 0.0390784
0.411765 0.261769 0.037995
0.454734 0.263844 0.037995
0.49987 0.267033 0.037995
0.542321 0.269612 0.037995
0.582361 0.273533 0.037995
0.619364 0.276722 0.0395819
0.652949 0.278462 0.047303
0.683818 0.282292 0.055024
0.713481 0.286137 0.0615244
0.738628 0.292256 0.0665446
0.763729 0.297734 0.0761578
0.786892 0.30454 0.0859083
0.810056 0.313481 0.0936294
0.833204 0.323903 0.10135
0.856367 0.332845 0.113146
0.879164 0.344488 0.125002
0.894606 0.35613 0.1402
0.906004 0.367773 0.151843
0.913725 0.375494 0.159564
0 0.273045 0.113603
0 0.273045 0.113603
0 0.275456 0.113603
0.00355535 0.275608 0.111269
0.0198062 0.275608 0.111025
0.0498817 0.276753 0.109682
0.080766 0.276967 0.109682
0.112688 0.280018 0.10576
0.149386 0.280888 0.102174
0.18407 0.283696 0.0950942
0.219684 0.28481 0.0873732
0.26128 0.287373 0.0757305
0.30367 0.288731 0.0680095
0.349996 0.291051 0.0602884
0.392996 0.292653 0.0533303
0.438727 0.294728 0.0482795
0.481804 0.298528 0.0482795
0.527443 0.302327 0.0482795
0.568139 0.306127 0.0482795
0.609308 0.309926 0.0488289
0.646448 0.313222 0.0519417
0.680369 0.317067 0.0592813
0.710781 0.320897 0.0665446
0.737743 0.32697 0.0742657
0.763729 0.332845 0.0823224
0.786892 0.340566 0.0936294
0.810056 0.348287 0.10135
0.833204 0.356008 0.109071
0.856367 0.36405 0.121035
0.879164 0.375372 0.132723
0.894606 0.387015 0.147921
0.906004 0.396078 0.159564
0.913725 0.4038 0.167285
0 0.307836 0.132845
0 0.307836 0.132845
0 0.307836 0.132845
0.00355535 0.307836 0.132845
0.0159915 0.307836 0.130694
0.0421607 0.307836 0.130388
0.0730449 0.307836 0.128923
0.106981 0.310903 0.125856
0.141665 0.311772 0.122057
0.176349 0.31458 0.118257
0.211032 0.315694 0.110536
0.24802 0.318257 0.101854
0.289158 0.3196 0.0911727
0.332235 0.321935 0.0834516
0.376959 0.323522 0.0757305
0.419364 0.325612 0.0680095
0.46569 0.329412 0.0610361
0.508873 0.333211 0.0598001
0.552697 0.337011 0.0598001
0.595224 0.34081 0.0598001
0.633829 0.347051 0.0621958
0.670954 0.350973 0.0690013
0.704417 0.35613 0.0742657
0.734874 0.361685 0.0819867
0.761883 0.367285 0.0897078
0.786892 0.373892 0.0974289
0.810056 0.381613 0.107073
0.833204 0.389334 0.116793
0.856367 0.397238 0.128923
0.876722 0.406256 0.142657
0.894606 0.415595 0.155642
0.906004 0.42562 0.167285
0.913725 0.433341 0.175006
0 0.33872 0.156008
0 0.33872 0.15375
0 0.33872 0.153674
0.00355535 0.33872 0.152087
0.0147097 0.33872 0.152087
0.0373846 0.341054 0.152087
0.0676432 0.341054 0.150195
0.101946 0.342306 0.148165
0.136675 0.342641 0.14522
0.169284 0.345464 0.141421
0.203311 0.346563 0.1337
0.237995 0.346563 0.125978
0.2766 0.349615 0.117266
0.316793 0.350484 0.106615
0.359319 0.353399 0.0988937
0.402686 0.355261 0.0872511
0.446326 0.358328 0.0803388
0.48957 0.361013 0.0752422
0.532723 0.364874 0.0735332
0.574472 0.371695 0.0713207
0.616053 0.376486 0.0719158
0.654658 0.380331 0.0781872
0.691661 0.387015 0.0854047
0.725246 0.394736 0.0897078
0.755734 0.398535 0.0974289
0.784558 0.406256 0.10515
0.807721 0.413977 0.11519
0.830884 0.421698 0.124514
0.854047 0.429419 0.136645
0.875242 0.437125 0.15172
0.890684 0.444846 0.163363
0.906004 0.45417 0.175006
0.909804 0.461891 0.182727
0 0.373526 0.17525
0 0.373526 0.173114
0 0.373526 0.173037
0.00355535 0.373526 0.173037
0.0147097 0.373526 0.171328
0.0373846 0.373526 0.171328
0.0676432 0.373526 0.171328
0.101595 0.373526 0.171328
0.133333 0.373526 0.167407
0.167514 0.374762 0.164584
0.199023 0.377447 0.156863
0.231617 0.377447 0.149142
0.26685 0.379904 0.141421
0.305272 0.381369 0.132677
0.343877 0.381369 0.122057
0.384558 0.384253 0.110414
0.427817 0.386145 0.102693
0.470268 0.389212 0.0949721
0.512734 0.391897 0.0879988
0.555184 0.396445 0.0867628
0.596811 0.402701 0.0867628
0.637629 0.407965 0.0873579
0.676219 0.413977 0.0936294
0.713726 0.422919 0.10135
0.746807 0.429419 0.109071
0.777691 0.434928 0.116793
0.804334 0.443061 0.124514
0.829282 0.452567 0.132845
0.852445 0.460288 0.146288
0.875242 0.468009 0.159442
0.890684 0.475731 0.171084
0.906004 0.483452 0.182727
0.909804 0.491173 0.192645
0 0.40441 0.194491
0 0.40441 0.194491
0 0.40441 0.194491
0.00355535 0.40441 0.194491
0.0147097 0.40441 0.194491
0.0373846 0.40441 0.194491
0.0676432 0.40441 0.192401
0.101595 0.40441 0.19057
0.133333 0.40441 0.19057
0.164218 0.405905 0.187747
0.198367 0.408331 0.183948
0.229908 0.408331 0.176226
0.260792 0.408331 0.168505
0.294591 0.411414 0.159686
0.332357 0.412253 0.148104
0.370962 0.412253 0.137499
0.411521 0.415137 0.125856
0.452079 0.417044 0.118135
0.493431 0.418921 0.109499
0.535042 0.421942 0.102205
0.576425 0.426642 0.0982834
0.616175 0.431128 0.0982834
0.655436 0.438849 0.10135
0.69546 0.446571 0.109071
0.731533 0.454292 0.116793
0.763973 0.462013 0.124514
0.794858 0.469734 0.132235
0.823285 0.47953 0.140566
0.846448 0.489097 0.15552
0.869612 0.496818 0.167163
0.890684 0.50454 0.179049
0.902083 0.512261 0.192584
0.909804 0.519982 0.20209
0 0.435294 0.217639
0 0.435294 0.217639
0 0.435294 0.217639
0.00355535 0.435294 0.217639
0.0147097 0.435294 0.217639
0.0373846 0.435294 0.217639
0.0676432 0.435294 0.214466
0.101595 0.435294 0.213733
0.133333 0.435294 0.213733
0.164218 0.435294 0.213733
0.197787 0.438605 0.208453
0.229908 0.439216 0.20264
0.260792 0.439216 0.19559
0.291661 0.439216 0.186709
0.323659 0.441184 0.177081
0.360357 0.442222 0.166537
0.398047 0.443137 0.15491
0.436637 0.444053 0.142336
0.476967 0.44596 0.131868
0.517769 0.447059 0.121935
0.557107 0.450492 0.114946
0.596933 0.454292 0.113725
0.635538 0.462013 0.113725
0.674144 0.469734 0.116793
0.712749 0.477455 0.124514
0.748531 0.485176 0.132235
0.779416 0.493629 0.139956
0.8103 0.50454 0.148287
0.838727 0.512505 0.163485
0.861891 0.523903 0.17525
0.884932 0.531624 0.188724
0.902083 0.539345 0.202152
0.909804 0.547051 0.211765
0 0.466178 0.240803
0 0.466178 0.240803
0.00183108 0.466178 0.240803
0.00743114 0.466178 0.240803
0.0204623 0.466178 0.240803
0.0431373 0.466178 0.240803
0.0734112 0.466178 0.240803
0.107347 0.466178 0.236881
0.139086 0.466178 0.236881
0.16997 0.466178 0.236881
0.200855 0.467613 0.235462
0.230533 0.4701 0.228305
0.260792 0.4701 0.220584
0.291661 0.4701 0.212863
0.322545 0.4701 0.205142
0.353429 0.4701 0.195346
0.388357 0.471138 0.183825
0.425116 0.473045 0.172305
0.463722 0.474022 0.159747
0.502327 0.474022 0.146197
0.540932 0.4748 0.137377
0.579538 0.477455 0.130373
0.618143 0.485176 0.129168
0.656733 0.492897 0.129168
0.695338 0.500618 0.134066
0.731655 0.508339 0.141787
0.764309 0.516793 0.149508
0.796689 0.527703 0.15993
0.827344 0.535912 0.173053
0.85417 0.547051 0.186892
0.877333 0.554772 0.200137
0.896376 0.562493 0.213733
0.905882 0.570214 0.223285
0.00735485 0.497063 0.263966
0.00735485 0.497063 0.263966
0.0128786 0.497063 0.263966
0.0204623 0.497063 0.263966
0.0355383 0.497063 0.263966
0.0564889 0.497063 0.263966
0.0867628 0.497063 0.263966
0.115938 0.497063 0.262242
0.146807 0.497063 0.260044
0.177691 0.497063 0.260044
0.208576 0.497063 0.260044
0.235538 0.500389 0.255268
0.262501 0.500984 0.250828
0.291661 0.500984 0.243748
0.322545 0.500984 0.236027
0.352514 0.500984 0.22623
0.382605 0.500984 0.21471
0.416236 0.500984 0.203189
0.452201 0.500984 0.189456
0.486885 0.500984 0.176226
0.52549 0.501808 0.163638
0.564095 0.503182 0.152819
0.602701 0.505592 0.145785
0.640818 0.512139 0.14461
0.677638 0.51986 0.145159
0.71458 0.528054 0.151598
0.748943 0.53782 0.159319
0.783337 0.549142 0.1691
0.814221 0.558572 0.182818
0.842725 0.568673 0.194614
0.869505 0.577935 0.209918
0.88867 0.585657 0.2215
0.900252 0.593378 0.233082
0.0283055 0.527947 0.287129
0.0299077 0.527947 0.287129
0.0375067 0.527947 0.287129
0.0452277 0.527947 0.287129
0.0587015 0.527947 0.287129
0.0774548 0.527947 0.287129
0.10251 0.527947 0.287129
0.129519 0.527947 0.287129
0.160052 0.527947 0.285389
0.187015 0.527947 0.283207
0.216297 0.527947 0.283207
0.243809 0.529473 0.281682
0.270222 0.530266 0.277836
0.29485 0.530266 0.273991
0.323247 0.530266 0.266911
0.351354 0.530266 0.257115
0.380392 0.530266 0.245594
0.41236 0.530266 0.234073
0.44448 0.530266 0.22034
0.476967 0.530266 0.207111
0.511635 0.530266 0.193133
0.549691 0.530266 0.180941
0.587259 0.53077 0.170581
0.621942 0.535286 0.164462
0.660533 0.543008 0.160052
0.699138 0.550729 0.164477
0.733394 0.55845 0.170962
0.767895 0.566537 0.179294
0.798779 0.577813 0.192203
0.829664 0.588022 0.206256
0.857969 0.597177 0.221546
0.879332 0.607233 0.233143
0.892531 0.614954 0.244724
0.0568551 0.558816 0.310292
0.0607004 0.558816 0.310292
0.0683757 0.558816 0.310292
0.0760967 0.558816 0.310292
0.0872511 0.558816 0.310292
0.102693 0.558816 0.310292
0.124056 0.558816 0.310292
0.149996 0.558816 0.310292
0.17586 0.558816 0.310292
0.202457 0.558816 0.310292
0.226719 0.558816 0.307851
0.2533 0.557855 0.306371
0.278492 0.557351 0.304845
0.302571 0.557351 0.300999
0.328588 0.557351 0.297795
0.354894 0.557351 0.287984
0.381125 0.557351 0.278431
0.411276 0.557351 0.264958
0.442161 0.557351 0.253437
0.473045 0.557351 0.237995
0.504845 0.557351 0.226474
0.538598 0.557351 0.211032
0.573281 0.557351 0.199512
0.60972 0.559518 0.188678
0.646204 0.562249 0.18088
0.683696 0.56997 0.179416
0.718379 0.577691 0.183795
0.752453 0.585412 0.190555
0.784802 0.59559 0.202457
0.815686 0.605005 0.215442
0.846326 0.616419 0.229419
0.869322 0.624094 0.242359
0.880888 0.630396 0.253925
0.093019 0.585779 0.334798
0.0968185 0.585779 0.334798
0.10454 0.585779 0.334798
0.112261 0.585779 0.334798
0.119982 0.585779 0.337057
0.133577 0.585779 0.337377
0.15111 0.585779 0.337377
0.174014 0.585779 0.337377
0.195834 0.585779 0.334798
0.218997 0.585779 0.334798
0.242161 0.585779 0.333455
0.265324 0.584894 0.333455
0.290089 0.584436 0.330877
0.314214 0.584436 0.330877
0.337377 0.584436 0.326955
0.363256 0.584436 0.320958
0.387625 0.584436 0.309316
0.412619 0.584436 0.296468
0.442161 0.584436 0.284901
0.469917 0.584436 0.273335
0.500008 0.584436 0.258701
0.531762 0.584436 0.247181
0.566491 0.584436 0.231739
0.599863 0.584436 0.220218
0.634592 0.584772 0.208331
0.669306 0.589212 0.201175
0.702937 0.59559 0.200122
0.737621 0.603311 0.203311
0.771817 0.612375 0.213779
0.802701 0.622797 0.22562
0.833341 0.634318 0.240894
0.856367 0.642039 0.252491
0.869245 0.645838 0.264088
0.132845 0.615442 0.36054
0.135546 0.615442 0.36054
0.143145 0.615442 0.36054
0.146929 0.615442 0.36054
0.157351 0.615442 0.36054
0.165072 0.615442 0.36054
0.179904 0.615442 0.36054
0.197452 0.615442 0.36054
0.216724 0.615442 0.361456
0.239582 0.615442 0.361761
0.261524 0.613581 0.360922
0.284688 0.612741 0.36054
0.30515 0.612741 0.357839
0.327077 0.612741 0.357839
0.35024 0.612741 0.357839
0.373404 0.612741 0.351843
0.396567 0.612741 0.342763
0.420996 0.611521 0.331212
0.445594 0.611521 0.319661
0.471443 0.611521 0.308827
0.500008 0.611521 0.297307
0.530877 0.611521 0.285786
0.561379 0.611521 0.270344
0.591424 0.611872 0.257939
0.624201 0.612741 0.243381
0.657115 0.613336 0.231495
0.690913 0.616175 0.224277
0.723217 0.622675 0.223285
0.757595 0.631617 0.226474
0.788479 0.639597 0.238117
0.81912 0.64976 0.249928
0.842161 0.657481 0.264088
0.857603 0.662501 0.275731
0.174136 0.643626 0.388724
0.174136 0.643626 0.388724
0.181735 0.643626 0.388724
0.185534 0.643626 0.388724
0.193256 0.643626 0.388724
0.199878 0.643626 0.388724
0.210788 0.642527 0.388724
0.22623 0.642527 0.388724
0.241672 0.642527 0.388724
0.262745 0.642527 0.388724
0.281987 0.642527 0.388724
0.30219 0.640681 0.388724
0.324392 0.639704 0.388724
0.344778 0.639704 0.388724
0.366171 0.639704 0.388724
0.38677 0.639704 0.382727
0.408087 0.639704 0.375006
0.430732 0.639704 0.365957
0.453315 0.639704 0.356252
0.476478 0.639704 0.346777
0.501106 0.639704 0.335912
0.530877 0.639704 0.324392
0.557839 0.639704 0.308949
0.588418 0.639704 0.293507
0.618509 0.639704 0.281987
0.650492 0.639704 0.266545
0.681895 0.640238 0.255558
0.715068 0.643137 0.247379
0.745953 0.650858 0.246799
0.776837 0.658579 0.253559
0.807477 0.6663 0.264164
0.830518 0.673991 0.275731
0.84596 0.680644 0.283452
0.216663 0.670588 0.418631
0.216663 0.670588 0.418631
0.22034 0.669612 0.418631
0.22414 0.669612 0.418631
0.231861 0.669612 0.418631
0.23566 0.669612 0.418631
0.243381 0.667216 0.418631
0.257115 0.666667 0.418631
0.272541 0.666667 0.418631
0.287984 0.666667 0.418631
0.307042 0.666667 0.419608
0.325734 0.666667 0.419608
0.347555 0.666667 0.419608
0.366796 0.666667 0.419608
0.385473 0.666667 0.419608
0.404746 0.666667 0.41413
0.424018 0.666667 0.406867
0.442771 0.666667 0.399145
0.46421 0.666667 0.391424
0.485176 0.666667 0.383703
0.509438 0.666667 0.374517
0.534432 0.666667 0.362997
0.558816 0.666667 0.347555
0.5879 0.666667 0.332113
0.615686 0.666667 0.320592
0.646357 0.666667 0.30515
0.676478 0.666667 0.293629
0.707347 0.667124 0.282567
0.73431 0.6701 0.274388
0.765194 0.677821 0.273533
0.795834 0.685481 0.277699
0.818875 0.692287 0.288365
0.834318 0.696086 0.296086
0.25919 0.696696 0.446571
0.25919 0.696696 0.446571
0.25919 0.693812 0.446571
0.262745 0.693629 0.446571
0.270466 0.693629 0.446571
0.274266 0.693629 0.446571
0.281987 0.693629 0.446571
0.289708 0.693629 0.446571
0.303426 0.693629 0.446571
0.318868 0.693629 0.446571
0.33431 0.693629 0.447166
0.353384 0.693629 0.450492
0.371038 0.693629 0.450492
0.389944 0.693629 0.450492
0.406989 0.693629 0.450492
0.424506 0.693629 0.448402
0.441794 0.693629 0.443076
0.460288 0.693629 0.437751
0.477928 0.693629 0.43003
0.499016 0.693629 0.422309
0.51986 0.693629 0.413108
0.543008 0.693629 0.401587
0.567132 0.693629 0.386419
0.592401 0.693629 0.374868
0.616327 0.693629 0.360052
0.64332 0.693629 0.34786
0.669612 0.693629 0.333089
0.700359 0.693629 0.320851
0.727337 0.694011 0.309682
0.757473 0.697063 0.302251
0.784436 0.704723 0.301656
0.811154 0.708553 0.308461
0.822675 0.711513 0.312383
0.301717 0.71986 0.477455
0.301717 0.71986 0.477455
0.301717 0.71986 0.477455
0.301717 0.71986 0.477455
0.309071 0.71986 0.477455
0.312871 0.71986 0.477455
0.320592 0.71986 0.477455
0.328313 0.71986 0.477455
0.336034 0.71986 0.477455
0.349966 0.71986 0.477455
0.365194 0.71986 0.481376
0.380636 0.71986 0.481376
0.398077 0.71986 0.481376
0.41471 0.71986 0.481376
0.430152 0.71986 0.481376
0.447669 0.71986 0.479683
0.464958 0.71986 0.477821
0.4804 0.71986 0.473915
0.49723 0.71986 0.468635
0.51519 0.71986 0.460914
0.533822 0.71986 0.451987
0.554284 0.71986 0.440452
0.576959 0.71986 0.428901
0.600122 0.71986 0.417899
0.623285 0.71986 0.406378
0.646448 0.71986 0.391791
0.670207 0.71986 0.379416
0.697185 0.71986 0.363973
0.723537 0.719951 0.352453
0.750423 0.720882 0.341299
0.777401 0.72398 0.336965
0.803433 0.727703 0.336278
0.815686 0.727703 0.336278
0.344244 0.743008 0.508949
0.344244 0.743008 0.508949
0.344244 0.743008 0.508949
0.344244 0.743008 0.508949
0.347677 0.743008 0.508949
0.351476 0.743008 0.508949
0.358572 0.743008 0.508949
0.366293 0.743008 0.508949
0.374014 0.743008 0.508949
