YOYO-Client/Yoyo/Assets.xcassets/Dali.dataset/Dali.cube
TITLE "Dali"
LUT_3D_SIZE 9
0.0117647 0 0
0.0882277 0 0
0.215686 0 0
0.365194 0 0
0.511772 0 0.00392157
0.643626 0 0.0210727
0.760784 0.0215763 0.0480354
0.856367 0.107347 0.0828412
0.913725 0.192157 0.121569
0.00392157 0.0612802 0.00343328
0.0769665 0.0612802 0
0.218631 0.0686198 0
0.369116 0.0686198 0
0.519356 0.0686198 0.00392157
0.645106 0.0700999 0.024506
0.760784 0.101106 0.051957
0.856367 0.164279 0.0862745
0.913725 0.234318 0.121569
0 0.180392 0.0568704
0.042649 0.180392 0.0560006
0.180392 0.188235 0.0343175
0.35111 0.195712 0.0225528
0.520592 0.2 0.0220645
0.652949 0.207233 0.0328374
0.763729 0.227451 0.0637217
0.856367 0.271565 0.101472
0.913725 0.322545 0.144121
0 0.307836 0.132845
0.0159915 0.307836 0.130694
0.141665 0.311772 0.122057
0.289158 0.3196 0.0911727
0.46569 0.329412 0.0610361
0.633829 0.347051 0.0621958
0.761883 0.367285 0.0897078
0.856367 0.397238 0.128923
0.913725 0.433341 0.175006
0 0.435294 0.217639
0.0147097 0.435294 0.217639
0.133333 0.435294 0.213733
0.260792 0.439216 0.19559
0.398047 0.443137 0.15491
0.557107 0.450492 0.114946
0.712749 0.477455 0.124514
0.838727 0.512505 0.163485
0.909804 0.547051 0.211765
0.0568551 0.558816 0.310292
0.0872511 0.558816 0.310292
0.17586 0.558816 0.310292
0.278492 0.557351 0.304845
0.381125 0.557351 0.278431
0.504845 0.557351 0.226474
0.646204 0.562249 0.18088
0.784802 0.59559 0.202457
0.880888 0.630396 0.253925
0.216663 0.670588 0.418631
0.231861 0.669612 0.418631
0.272541 0.666667 0.418631
0.347555 0.666667 0.419608
0.424018 0.666667 0.406867
0.509438 0.666667 0.374517
0.615686 0.666667 0.320592
0.73431 0.6701 0.274388
0.834318 0.696086 0.296086
0.382849 0.766171 0.54313
0.38677 0.766171 0.54313
0.409308 0.766171 0.54313
0.45539 0.766171 0.54313
0.511757 0.766171 0.547555
0.573037 0.766674 0.530877
0.643137 0.766674 0.499016
0.727443 0.767102 0.453437
0.80441 0.770581 0.419608
0.52549 0.847059 0.658824
0.529412 0.847059 0.658824
0.537255 0.847059 0.658824
0.567163 0.847059 0.658824
0.611765 0.847059 0.666667
0.656367 0.847059 0.670588
0.707835 0.848035 0.658824
0.769604 0.85539 0.639216
0.827451 0.858824 0.635294
0.0112764 0 0.0451057
0.091722 0 0.049012
0.218265 0.00294499 0.0572366
0.358633 0.021561 0.0652018
0.498283 0.0345617 0.0789197
0.625986 0.0470588 0.0941176
0.748531 0.079408 0.113237
0.841184 0.137255 0.139773
0.909804 0.199512 0.163729
0.0147707 0.0686198 0.0685588
0.091722 0.0686198 0.0685588
0.218265 0.0795148 0.0686198
0.361273 0.0882277 0.0721141
0.502419 0.0960708 0.0808881
0.629908 0.107347 0.0965744
0.748531 0.13579 0.117052
0.841184 0.190753 0.143694
0.909804 0.249516 0.171084
0.0295415 0.184314 0.106859
0.0877394 0.18732 0.106859
0.196567 0.194949 0.102174
0.352407 0.202472 0.0955825
0.511833 0.209995 0.0955825
0.641672 0.220813 0.105516
0.756252 0.243626 0.127947
0.84889 0.279896 0.158816
0.909804 0.3299 0.190204
0.0442969 0.307836 0.172549
0.0838178 0.311269 0.172381
0.17586 0.315557 0.167254
0.303426 0.321752 0.140871
0.468284 0.331121 0.125734
0.631556 0.347051 0.126467
0.756374 0.369253 0.147066
0.849027 0.398535 0.178317
0.909804 0.434806 0.217151
0.0705882 0.435294 0.248035
0.0974899 0.435294 0.246326
0.17641 0.439155 0.244114
0.276722 0.441077 0.229908
0.406378 0.444968 0.19118
0.560296 0.452781 0.159075
0.712749 0.479591 0.174517
0.835721 0.512505 0.205386
0.905882 0.547051 0.251957
0.13579 0.558816 0.336767
0.158816 0.558816 0.336767
0.210788 0.558816 0.333333
0.299809 0.557351 0.327886
0.393805 0.557351 0.301472
0.508461 0.557351 0.254719
0.647807 0.562249 0.214832
0.784802 0.595743 0.236271
0.880888 0.631678 0.28333
0.253925 0.670588 0.433829
0.265202 0.669612 0.433829
0.29482 0.666667 0.433829
0.362127 0.666667 0.433829
0.432837 0.666667 0.424994
0.51519 0.666667 0.39118
0.615686 0.666667 0.339712
0.735164 0.6701 0.293629
0.834318 0.697063 0.318135
0.401526 0.766171 0.553918
0.404959 0.766171 0.553918
0.424018 0.766171 0.550927
0.461723 0.766171 0.55285
0.515648 0.766171 0.554406
0.576959 0.766674 0.542123
0.643137 0.766674 0.507668
0.727443 0.770153 0.461646
0.80441 0.774014 0.430884
0.532845 0.847059 0.658824
0.533333 0.847059 0.658824
0.537255 0.847059 0.658824
0.567163 0.847059 0.658824
0.611765 0.847059 0.670344
0.656367 0.847059 0.670588
0.707835 0.848035 0.661768
0.769604 0.85539 0.643076
0.827451 0.858824 0.639216
0 0.00686656 0.172549
0.0769665 0.00686656 0.179416
0.222553 0.0115206 0.183337
0.365194 0.0338293 0.184314
0.494118 0.0647135 0.184314
0.614343 0.100618 0.194614
0.724758 0.144121 0.212009
0.821073 0.188113 0.231495
0.895094 0.237263 0.248035
0.0112764 0.0838178 0.172549
0.0918898 0.0839246 0.182971
0.225742 0.0924086 0.188022
0.364584 0.106249 0.190707
0.494118 0.126345 0.191974
0.614343 0.155032 0.200092
0.726131 0.186526 0.215656
0.822065 0.232959 0.239002
0.898039 0.28333 0.259678
0.0382391 0.192157 0.192157
0.11519 0.199878 0.199298
0.229099 0.210788 0.207782
0.362371 0.221439 0.210788
0.498039 0.233204 0.210788
0.622309 0.247547 0.217243
0.733883 0.275242 0.228794
0.829908 0.310292 0.254261
0.901961 0.352941 0.278431
0.0758526 0.318135 0.24509
0.145174 0.325139 0.252567
0.234043 0.33431 0.256855
0.342229 0.342153 0.244251
0.48603 0.352453 0.229908
0.627878 0.364538 0.234379
0.744121 0.386282 0.250034
0.837308 0.417151 0.27451
0.905882 0.448402 0.305394
0.153918 0.447059 0.317647
0.196628 0.449821 0.318624
0.255512 0.454292 0.318624
0.334798 0.458152 0.306371
0.43946 0.461036 0.276967
0.580636 0.468009 0.252949
0.718013 0.493141 0.267277
0.833341 0.523095 0.297307
0.901961 0.550988 0.336278
0.237385 0.566659 0.397543
0.258335 0.566659 0.394614
0.289677 0.566384 0.390692
0.351965 0.566293 0.38584
0.425803 0.566293 0.364218
0.533761 0.566293 0.321798
0.661372 0.573648 0.290196
0.78996 0.603037 0.312734
0.880888 0.637629 0.361761
0.329412 0.673533 0.487251
0.336797 0.670863 0.48333
0.356863 0.670344 0.479408
0.401221 0.669612 0.475853
0.463722 0.669612 0.468635
0.536278 0.669612 0.438605
0.627207 0.669612 0.388479
0.742153 0.675944 0.349996
0.837995 0.700984 0.375494
0.443137 0.766171 0.583947
0.446693 0.766171 0.581369
0.457816 0.766171 0.581369
0.486275 0.766171 0.581369
0.53431 0.766171 0.581369
0.588464 0.766674 0.572244
0.650004 0.767529 0.538231
0.73138 0.770581 0.495155
0.807843 0.774014 0.464714
0.555886 0.847059 0.681376
0.555886 0.847059 0.678431
0.559808 0.847059 0.678431
0.581857 0.847059 0.678431
0.615198 0.847059 0.681865
0.661768 0.847059 0.686275
0.711772 0.85098 0.678187
0.773526 0.85539 0.658701
0.827451 0.858824 0.653925
0 0.0259861 0.310292
0.0352941 0.0299077 0.31783
0.207355 0.0299077 0.32929
0.376959 0.0347448 0.330449
0.508339 0.0647135 0.322057
0.624018 0.104906 0.314214
0.720592 0.162737 0.3196
0.81323 0.223041 0.337072
0.882353 0.280888 0.356374
0 0.100496 0.302632
0.0617685 0.100496 0.31133
0.215915 0.104417 0.325368
0.376959 0.112261 0.331182
0.505241 0.133822 0.323781
0.620096 0.164706 0.321752
0.720592 0.211276 0.327077
0.81323 0.269123 0.34725
0.882353 0.323033 0.370275
0.0382391 0.202823 0.292149
0.110658 0.211582 0.307347
0.230671 0.223011 0.326192
0.376959 0.232898 0.340002
0.504417 0.248463 0.341054
0.617655 0.270954 0.342153
0.720592 0.301839 0.347799
0.81323 0.341176 0.365942
0.889586 0.384802 0.385657
0.082414 0.326894 0.326894
0.153368 0.336629 0.337255
0.26128 0.349584 0.353506
0.383886 0.364279 0.368566
0.504417 0.375738 0.367651
0.624018 0.388937 0.367849
0.725567 0.407324 0.371206
0.818631 0.436942 0.387457
0.894118 0.468635 0.408331
0.158816 0.458824 0.390448
0.213825 0.462562 0.396872
0.302205 0.47274 0.407355
0.392187 0.482383 0.410544
0.486641 0.486763 0.397665
0.606378 0.494606 0.383581
0.726955 0.511269 0.390509
0.824994 0.53579 0.412009
0.894118 0.561273 0.432837
0.259312 0.579965 0.463661
0.297734 0.579965 0.465492
0.356374 0.581796 0.469123
0.417243 0.584466 0.469123
0.479408 0.584802 0.454475
0.566751 0.587259 0.420249
0.684016 0.592844 0.398596
0.801755 0.621561 0.422065
0.88333 0.648524 0.45687
0.370459 0.681376 0.544121
0.393133 0.681376 0.541176
0.425025 0.681376 0.541176
0.460288 0.681376 0.537942
0.506615 0.681376 0.532113
0.567163 0.681376 0.507927
0.649638 0.681376 0.463325
0.756069 0.687572 0.432761
0.846082 0.711772 0.458335
0.482353 0.774014 0.631373
0.486702 0.774014 0.629602
0.503563 0.773831 0.626352
0.524819 0.773831 0.623529
0.561608 0.772244 0.620981
0.609369 0.772549 0.613596
0.66569 0.774014 0.584131
0.741085 0.776654 0.541772
0.815198 0.777935 0.517159
0.578927 0.847059 0.708339
0.578927 0.847059 0.708339
0.583947 0.847059 0.708339
0.600977 0.847059 0.708339
0.631861 0.847059 0.708339
0.672053 0.85098 0.708339
0.718135 0.851957 0.707713
0.775982 0.858824 0.688731
0.827451 0.862745 0.680888
0 0.0568704 0.443137
0.00735485 0.0568704 0.450492
0.164218 0.0568704 0.458824
0.365682 0.0607919 0.47451
0.521569 0.0656901 0.47451
0.641672 0.104906 0.459312
0.73431 0.166674 0.45098
0.822797 0.232593 0.454902
0.882353 0.296086 0.464714
0 0.116182 0.431617
0.0235599 0.116426 0.439216
0.183825 0.122057 0.454047
0.365682 0.129168 0.470893
0.521569 0.137743 0.473533
0.637842 0.168627 0.460777
0.732357 0.22034 0.456611
0.819333 0.282353 0.462318
0.882353 0.344121 0.476219
0.0333257 0.219608 0.415686
0.0916609 0.223285 0.426963
0.215564 0.232837 0.446693
0.372 0.243137 0.470588
0.521569 0.255879 0.477943
0.631861 0.281865 0.472053
0.726467 0.313603 0.472419
0.81323 0.36054 0.47776
0.882353 0.405875 0.493629
0.100252 0.341176 0.422065
0.159228 0.345098 0.429664
0.2598 0.356558 0.451408
0.387533 0.374502 0.476967
0.521569 0.390188 0.492653
0.630182 0.402975 0.493385
0.724514 0.424933 0.494118
0.81323 0.454902 0.500496
0.882353 0.483818 0.511025
0.165682 0.466667 0.467643
0.218631 0.467521 0.472297
0.306859 0.478431 0.48481
0.415686 0.496574 0.504784
0.52549 0.511757 0.521569
0.626719 0.520348 0.517647
0.724514 0.531624 0.517647
0.81323 0.549264 0.523522
0.882353 0.570596 0.533333
0.258091 0.586267 0.532357
0.298772 0.586267 0.532357
0.366796 0.592645 0.5402
0.452232 0.600031 0.549722
0.533089 0.606012 0.553918
0.609552 0.610758 0.539193
0.709621 0.618753 0.52604
0.807843 0.637507 0.537743
0.882353 0.656611 0.555642
0.362249 0.691173 0.598047
0.390509 0.691173 0.598047
0.439826 0.691173 0.601968
0.499565 0.693141 0.605875
0.555886 0.695094 0.605875
0.605386 0.695094 0.59118
0.678431 0.695094 0.55552
0.775006 0.704173 0.534188
0.857359 0.72549 0.558328
0.472297 0.781857 0.671809
0.489219 0.781857 0.671809
0.521813 0.781857 0.671809
0.559564 0.781857 0.672557
0.596078 0.781857 0.67071
0.637064 0.781857 0.665293
0.686763 0.781857 0.643626
0.752453 0.784039 0.603464
0.825238 0.787503 0.58407
0.570581 0.85098 0.739208
0.574517 0.85098 0.739208
0.599023 0.85098 0.739208
0.624018 0.852934 0.739208
0.652934 0.852934 0.739208
0.686519 0.854902 0.740444
0.728923 0.858824 0.738231
0.783093 0.862745 0.723537
0.835294 0.866667 0.713726
0 0.0877394 0.566659
0 0.0911727 0.572732
0.120104 0.0916609 0.582361
0.339651 0.0955825 0.598047
0.523522 0.0982834 0.609812
0.65539 0.120592 0.608881
0.749508 0.170581 0.591302
0.834134 0.248219 0.582361
0.894118 0.317647 0.582361
0 0.137743 0.559319
0.00300603 0.141665 0.566232
0.144121 0.147204 0.575006
0.342641 0.15314 0.593637
0.522057 0.162997 0.609812
0.652018 0.185779 0.608881
0.745892 0.229725 0.591302
0.83238 0.294606 0.586267
0.890379 0.361273 0.590204
0.0137179 0.233463 0.543145
0.0493324 0.23566 0.550607
0.191424 0.243412 0.564858
0.356207 0.255818 0.586236
0.522057 0.271321 0.609064
0.647684 0.293141 0.609812
0.741665 0.323339 0.598871
0.826291 0.375799 0.598047
0.886641 0.423041 0.601953
0.106859 0.355459 0.535302
0.160708 0.356374 0.541848
0.25124 0.366049 0.55845
0.37641 0.379355 0.584802
0.522515 0.394858 0.609064
0.645106 0.414282 0.613718
0.737377 0.438788 0.613718
0.817639 0.468132 0.613718
0.878431 0.499931 0.616175
0.172549 0.470588 0.551476
0.222553 0.474205 0.555398
0.302937 0.484382 0.565621
0.406928 0.49926 0.587716
0.528069 0.51667 0.614221
0.643626 0.532113 0.63064
0.733455 0.547051 0.634562
0.813886 0.562005 0.634562
0.878431 0.579171 0.634562
0.259312 0.586267 0.598047
0.292348 0.588724 0.598962
0.360784 0.593881 0.607721
0.448951 0.60441 0.619181
0.546288 0.615412 0.637751
0.643626 0.630335 0.649027
0.728893 0.641184 0.649027
0.809308 0.65185 0.649943
0.87451 0.663233 0.652949
0.354772 0.694118 0.658335
0.381064 0.694118 0.658335
0.430274 0.694118 0.6598
0.500847 0.700069 0.667048
0.575982 0.707103 0.674693
0.645304 0.713848 0.679896
0.710872 0.717769 0.66186
0.793973 0.725307 0.651606
0.86569 0.740688 0.659312
0.456672 0.7897 0.717647
0.47187 0.7897 0.717647
0.506371 0.7897 0.717647
0.55993 0.7897 0.721492
0.616663 0.790997 0.724666
0.667643 0.79411 0.721569
0.713726 0.794919 0.711131
0.771832 0.79884 0.683635
0.840192 0.80116 0.668132
0.545098 0.858824 0.767651
0.552758 0.858824 0.767651
0.583337 0.858824 0.770092
0.619669 0.860288 0.774014
0.664714 0.860288 0.774762
0.707347 0.862745 0.777935
0.747555 0.866667 0.775494
0.79443 0.870588 0.765866
0.843137 0.870588 0.758328
0 0.126467 0.690196
0 0.127443 0.690196
0.102937 0.13138 0.700252
0.324514 0.138231 0.709438
0.513726 0.145098 0.722545
0.66569 0.168139 0.732723
0.768627 0.202213 0.72549
0.84509 0.268635 0.709804
0.899016 0.341176 0.705882
0 0.172549 0.682841
0 0.17351 0.686168
0.126192 0.180392 0.694179
0.331868 0.184924 0.704021
0.513726 0.196567 0.718685
0.662135 0.220706 0.732357
0.764706 0.253681 0.72549
0.84123 0.314702 0.709804
0.898039 0.380758 0.709804
0 0.260044 0.670588
0.019852 0.260777 0.671565
0.172549 0.267643 0.683085
0.350973 0.278309 0.696391
0.515679 0.293629 0.714702
0.658579 0.31899 0.7299
0.760784 0.347311 0.72549
0.837354 0.392126 0.717403
0.894118 0.445106 0.717403
0.0957046 0.375494 0.658824
0.140032 0.375494 0.660288
0.23827 0.378805 0.671412
0.370031 0.386511 0.688762
0.515679 0.405447 0.709316
0.652949 0.430564 0.7299
0.75671 0.454292 0.729412
0.830518 0.486275 0.727321
0.886641 0.519234 0.727321
0.173037 0.489219 0.65098
0.21912 0.489219 0.652445
0.297063 0.493019 0.661402
0.393622 0.501411 0.681682
0.517647 0.518624 0.706615
0.645106 0.539406 0.7299
0.748531 0.558831 0.736278
0.821073 0.577203 0.734798
0.878431 0.594614 0.73431
0.246571 0.592645 0.674998
0.277455 0.592645 0.674998
0.340291 0.596109 0.677943
0.427817 0.605325 0.686397
0.529351 0.618143 0.707103
0.641871 0.633951 0.730587
0.74081 0.651713 0.741665
0.816663 0.664439 0.74522
0.87451 0.671687 0.74522
0.343389 0.697063 0.713726
0.370092 0.697063 0.713726
0.416419 0.697063 0.717403
0.484932 0.700984 0.7234
0.566796 0.710414 0.73431
0.65539 0.721782 0.748043
0.739467 0.737011 0.756619
0.809842 0.745129 0.756863
0.870588 0.748775 0.756863
0.449027 0.793256 0.763729
0.463722 0.793256 0.763729
0.498497 0.793256 0.763729
0.550973 0.793622 0.767529
0.616602 0.797971 0.774075
0.681865 0.803296 0.779293
0.740658 0.810178 0.779202
0.801968 0.814435 0.76846
0.855756 0.820584 0.764218
0.541176 0.866667 0.812741
0.548531 0.866667 0.812741
0.575494 0.866667 0.812741
0.612741 0.866667 0.812741
0.664714 0.867643 0.816663
0.71667 0.871565 0.818753
0.763485 0.875486 0.821576
0.809674 0.882353 0.817639
0.851957 0.886275 0.809796
0.000976577 0.189212 0.805386
0.024445 0.189212 0.805386
0.168139 0.1897 0.805386
0.358633 0.19736 0.809308
0.528191 0.209064 0.817151
0.676966 0.237751 0.826291
0.791669 0.272679 0.828916
0.86421 0.320043 0.825422
0.905882 0.373526 0.821576
0.000976577 0.226963 0.801968
0.0319219 0.227451 0.801968
0.187747 0.231373 0.801968
0.364599 0.239261 0.805386
0.528191 0.255146 0.81323
0.673045 0.283818 0.824994
0.787747 0.314824 0.828916
0.863783 0.361273 0.824994
0.901961 0.40827 0.821576
0.0084535 0.300862 0.79118
0.0623026 0.303426 0.793423
0.218265 0.307836 0.794766
0.37438 0.31783 0.801465
0.527947 0.335042 0.809308
0.669123 0.364218 0.82237
0.783825 0.395102 0.828916
0.857359 0.429587 0.828687
0.901961 0.469123 0.824994
0.0903792 0.404227 0.779904
0.143145 0.404227 0.779904
0.253132 0.405829 0.786191
0.385672 0.412192 0.793622
0.52607 0.429419 0.804074
0.658824 0.456367 0.818448
0.775982 0.483558 0.828916
0.850004 0.513954 0.828916
0.894606 0.53872 0.825483
0.209308 0.520104 0.766674
0.24535 0.51838 0.76817
0.308583 0.518135 0.773587
0.400488 0.518135 0.783337
0.522057 0.525856 0.796445
0.647547 0.548928 0.813886
0.763973 0.57525 0.828489
0.840681 0.598321 0.828916
0.890196 0.612009 0.828916
0.239033 0.616663 0.764035
0.267872 0.616663 0.764035
0.329778 0.616663 0.766674
0.421073 0.616663 0.774014
0.521569 0.622309 0.787655
0.637263 0.637263 0.806683
0.751965 0.660517 0.825483
0.832654 0.679515 0.832578
0.882658 0.687068 0.832837
0.3337 0.70576 0.782849
0.355398 0.70576 0.782849
0.400977 0.70576 0.786557
0.462745 0.709316 0.788373
0.544976 0.713237 0.794308
0.637736 0.724651 0.806378
0.7402 0.740963 0.825483
0.824872 0.760174 0.836286
0.874998 0.764096 0.837629
0.448585 0.794553 0.817151
0.463722 0.794553 0.817151
0.494606 0.794553 0.817151
0.543633 0.798032 0.819455
0.605325 0.803433 0.82475
0.674464 0.810605 0.830213
0.748302 0.82118 0.840192
0.821073 0.832517 0.844602
0.874998 0.837186 0.848524
0.541665 0.870588 0.847547
0.548531 0.870588 0.847547
0.579416 0.870588 0.851469
0.612741 0.871077 0.851774
0.664714 0.874998 0.855634
0.719112 0.882353 0.8598
0.774502 0.886397 0.864576
0.824994 0.894179 0.867643
0.871077 0.898039 0.871565
0.117647 0.258824 0.882353
0.190692 0.258824 0.882353
0.305882 0.262745 0.882353
0.439704 0.270588 0.886275
0.576471 0.284321 0.886275
0.700008 0.311269 0.894118
0.806867 0.347051 0.895094
0.88333 0.396567 0.898039
0.909804 0.435294 0.898039
0.136767 0.289708 0.874998
0.205875 0.289708 0.87892
0.317159 0.296208 0.882353
0.443626 0.304906 0.882353
0.572549 0.318624 0.886275
0.696071 0.349508 0.890379
0.802945 0.384314 0.894118
0.88333 0.427024 0.898039
0.905882 0.466178 0.898039
0.156863 0.357839 0.870588
0.221073 0.357839 0.87451
0.32549 0.361028 0.875486
0.449027 0.370214 0.879042
0.572549 0.385779 0.882841
0.692775 0.414221 0.890196
0.799023 0.446082 0.894118
0.879408 0.480888 0.89424
0.902937 0.507851 0.898039
0.19559 0.442649 0.868132
0.244419 0.446571 0.868132
0.330388 0.450492 0.870588
0.446571 0.454414 0.87451
0.567407 0.466911 0.879164
0.685237 0.491173 0.886275
0.788724 0.521447 0.890196
0.871565 0.550484 0.894118
0.901961 0.565682 0.898039
0.292165 0.558831 0.854902
0.313237 0.55491 0.85687
0.360784 0.550988 0.860288
0.438727 0.547051 0.865934
0.551965 0.550988 0.871565
0.667887 0.568139 0.882353
0.777447 0.595102 0.890196
0.861769 0.620096 0.894118
0.898039 0.631373 0.898039
0.313726 0.65539 0.85098
0.336767 0.65539 0.85098
0.390204 0.651469 0.85098
0.455879 0.645106 0.854902
0.541909 0.643626 0.863966
0.647547 0.646632 0.87451
0.756497 0.667765 0.886275
0.848035 0.691173 0.894118
0.894118 0.702449 0.894118
0.371572 0.744121 0.851957
0.390692 0.7402 0.851957
0.421576 0.739467 0.851957
0.477455 0.736278 0.854902
0.547555 0.732357 0.858824
0.639704 0.732357 0.868132
0.7402 0.744854 0.88014
0.832715 0.764096 0.894118
0.890196 0.774502 0.898039
0.479896 0.824994 0.870588
0.487312 0.824994 0.870588
0.514702 0.824994 0.871077
0.551476 0.824994 0.871077
0.604898 0.824994 0.871077
0.668437 0.824994 0.874998
0.74461 0.824994 0.883696
0.828428 0.837186 0.895033
0.886275 0.848035 0.898528
0.572549 0.886275 0.886275
0.576471 0.886275 0.886275
0.599023 0.886275 0.886275
0.629908 0.886275 0.890196
0.666667 0.886275 0.890196
0.720592 0.890196 0.894118
0.774502 0.894118 0.898039
0.832349 0.898039 0.898528
0.882353 0.901961 0.901961
