YOYO-Client/Yoyo/Assets.xcassets/Dusk.dataset/Dusk.cube
TITLE "Dusk"
LUT_3D_SIZE 33
0.14902 0.14902 0.14902
0.14902 0.14902 0.14902
0.14902 0.14902 0.14902
0.14902 0.14902 0.14902
0.14902 0.14902 0.14902
0.14902 0.14902 0.14902
0.147997 0.148989 0.148928
0.144564 0.149111 0.148501
0.141955 0.148821 0.148013
0.141207 0.148425 0.14757
0.144427 0.147524 0.147066
0.153094 0.145937 0.146899
0.168978 0.143465 0.146761
0.192935 0.139406 0.14699
0.224598 0.133181 0.14757
0.260502 0.124743 0.148592
0.298772 0.113573 0.14992
0.338811 0.098436 0.15082
0.382666 0.0764324 0.147326
0.422721 0.0493629 0.141939
0.456001 0.0324254 0.140368
0.48542 0.0209354 0.138613
0.51284 0.0117189 0.136706
0.540719 0.00250248 0.134798
0.571481 0 0.132403
0.60708 0 0.129488
0.648859 0 0.125841
0.695415 0 0.121355
0.742672 0 0.11606
0.789166 0 0.110567
0.833585 0 0.104677
0.875059 0 0.0990616
0.912779 0 0.0935988
0.14902 0.14902 0.14902
0.14902 0.14902 0.14902
0.14902 0.14902 0.14902
0.14902 0.14902 0.14902
0.14902 0.14902 0.14902
0.14902 0.14902 0.14902
0.147326 0.149081 0.148928
0.144137 0.148989 0.148409
0.14168 0.148852 0.148013
0.141497 0.148272 0.147478
0.145006 0.147326 0.147097
0.15407 0.14583 0.146853
0.17023 0.143236 0.146792
0.194919 0.138979 0.147051
0.226398 0.13283 0.14757
0.262242 0.1243 0.148592
0.300542 0.112993 0.149996
0.344137 0.0962539 0.14844
0.387915 0.0741436 0.143679
0.426017 0.0559548 0.141238
0.458457 0.0427253 0.139651
0.487343 0.0319371 0.137896
0.514549 0.0233463 0.135973
0.542367 0.0133364 0.133913
0.573129 0.00285344 0.131502
0.609033 0 0.128405
0.650889 0 0.124758
0.697337 0 0.119875
0.74435 0 0.114748
0.790661 0 0.108919
0.834913 0 0.102602
0.876112 0 0.0967727
0.913649 0 0.0911421
0.14902 0.14902 0.14902
0.14902 0.14902 0.14902
0.14902 0.14902 0.14902
0.14902 0.14902 0.14902
0.14902 0.14902 0.14902
0.14902 0.14902 0.14902
0.146868 0.14902 0.148791
0.143679 0.148943 0.148302
0.14168 0.148714 0.147875
0.141512 0.148272 0.147478
0.145495 0.147265 0.147051
0.155032 0.145663 0.146853
0.171878 0.142916 0.146853
0.19675 0.138689 0.147036
0.228519 0.132387 0.147677
0.264454 0.123751 0.148562
0.306035 0.111315 0.148287
0.350835 0.0936751 0.144747
0.392721 0.0774548 0.142061
0.429419 0.0645609 0.140459
0.461112 0.0540017 0.138827
0.489555 0.0450294 0.137026
0.516442 0.035874 0.135164
0.544335 0.0278325 0.132952
0.575143 0.0154421 0.130419
0.6112 0.00144961 0.127337
0.653223 0 0.1234
0.699535 0 0.118471
0.746487 0 0.11313
0.792493 0 0.106996
0.836378 0 0.100587
0.877272 0 0.0943923
0.91458 0 0.0884413
0.14902 0.14902 0.14902
0.14902 0.14902 0.14902
0.14902 0.14902 0.14902
0.14902 0.14902 0.14902
0.14902 0.14902 0.14902
0.148806 0.14905 0.14902
0.146059 0.149065 0.148653
0.14313 0.148989 0.148257
0.141421 0.148699 0.147845
0.141863 0.148104 0.147341
0.146502 0.147112 0.147021
0.15668 0.145357 0.146761
0.174105 0.142596 0.146853
0.199435 0.13817 0.147112
0.231678 0.13167 0.147692
0.272236 0.121935 0.146853
0.316152 0.108766 0.144289
0.359091 0.0967575 0.142611
0.398947 0.085832 0.141161
0.434089 0.0756695 0.139483
0.464698 0.0679179 0.137758
0.492531 0.060853 0.135821
0.519051 0.0544594 0.133898
0.54696 0.0469062 0.13167
0.577951 0.0354925 0.12903
0.614328 0.0198825 0.125658
0.656565 0.00195315 0.121508
0.702754 0 0.116472
0.749233 0 0.110552
0.794873 0 0.104128
0.838331 0 0.097734
0.878904 0 0.090898
0.915801 0 0.0850385
0.14902 0.14902 0.14902
0.14902 0.14902 0.14902
0.14902 0.14902 0.14902
0.14902 0.14902 0.14902
0.14902 0.14902 0.14902
0.148013 0.149004 0.148928
0.145129 0.149035 0.148516
0.142596 0.148898 0.148135
0.141222 0.148562 0.147707
0.142351 0.147997 0.147295
0.147753 0.146868 0.146914
0.15903 0.145006 0.146761
0.177462 0.142061 0.146822
0.207095 0.137102 0.146456
0.244541 0.129976 0.145312
0.285664 0.122179 0.144289
0.327581 0.113909 0.14313
0.368704 0.105272 0.141634
0.406592 0.0973068 0.140017
0.439933 0.0903639 0.138216
0.469337 0.0842451 0.136248
0.496315 0.0792859 0.134386
0.52256 0.0746014 0.13228
0.550408 0.0688487 0.129946
0.581735 0.0605325 0.127062
0.618494 0.0476844 0.123552
0.660975 0.0289464 0.119036
0.706859 0.00746166 0.113542
0.752865 0 0.10753
0.798062 0 0.100755
0.841016 0 0.0935378
0.881117 0 0.0862593
0.91751 0 0.0795148
0.14902 0.14902 0.14902
0.14902 0.14902 0.14902
0.14902 0.14902 0.14902
0.14902 0.14902 0.14902
0.14902 0.14902 0.14902
0.147066 0.149004 0.148806
0.143786 0.14905 0.148516
0.141543 0.148959 0.148226
0.141054 0.148562 0.147814
0.143709 0.147951 0.147539
0.151736 0.146731 0.147219
0.166964 0.144976 0.146853
0.190997 0.142184 0.146319
0.223148 0.138521 0.145663
0.260624 0.133822 0.144732
0.300679 0.128603 0.143526
0.340871 0.122835 0.142077
0.379797 0.117021 0.140337
0.415396 0.111528 0.138506
0.446586 0.106752 0.136568
0.474693 0.10277 0.13463
0.500893 0.0990158 0.13254
0.526879 0.0952926 0.130312
0.554726 0.0907607 0.127764
0.58645 0.0842298 0.124697
0.623804 0.076173 0.120821
0.666346 0.0635538 0.115969
0.711986 0.0471199 0.110063
0.757534 0.0260777 0.103304
0.801938 0.00595102 0.096025
0.844251 0 0.0884413
0.883726 0 0.0805829
0.919539 0 0.0730297
0.149462 0.147951 0.14902
0.149554 0.147799 0.14905
0.149371 0.147799 0.148928
0.149493 0.147616 0.148928
0.149096 0.147295 0.148974
0.146334 0.147372 0.14876
0.143114 0.147433 0.148898
0.141405 0.147723 0.148745
0.142687 0.148165 0.148501
0.148363 0.148257 0.14818
0.160327 0.148028 0.147768
0.180011 0.147326 0.147158
0.207721 0.146105 0.146426
0.24152 0.144289 0.145312
0.27892 0.141878 0.143923
0.317601 0.138918 0.142382
0.355734 0.135592 0.140642
0.392126 0.132326 0.138567
0.424857 0.129152 0.136629
0.454063 0.125826 0.134585
0.480766 0.122667 0.132509
0.506172 0.119753 0.130343
0.531868 0.116747 0.128023
0.559838 0.11313 0.125216
0.591974 0.108659 0.121874
0.629694 0.102602 0.117525
0.672358 0.0947127 0.112169
0.717128 0.0847181 0.10576
0.761975 0.0724498 0.0986496
0.805707 0.0579538 0.0906386
0.847486 0.0390173 0.0822614
0.886259 0.01944 0.0734264
0.921553 0.000991836 0.0649729
0.150042 0.145602 0.148745
0.150057 0.145556 0.14876
0.149981 0.145434 0.148669
0.149783 0.145327 0.148745
0.14847 0.145113 0.148943
0.145922 0.145296 0.148699
0.143832 0.145586 0.148257
0.142657 0.146334 0.148608
0.145556 0.147478 0.148241
0.152834 0.148821 0.147799
0.166384 0.150011 0.147189
0.187472 0.151156 0.14638
0.2159 0.152148 0.145235
0.249363 0.15259 0.143816
0.28571 0.152712 0.142153
0.323522 0.152148 0.140246
0.360647 0.151019 0.138125
0.395666 0.149722 0.136004
0.427298 0.147677 0.133822
0.455497 0.145815 0.131716
0.48159 0.143435 0.129625
0.506615 0.141207 0.127352
0.532204 0.138537 0.124956
0.560449 0.135744 0.122072
0.592844 0.132845 0.11841
0.630732 0.12871 0.113848
0.673442 0.12372 0.108064
0.718029 0.118196 0.101137
0.762707 0.110613 0.0935531
0.806256 0.102571 0.0848402
0.84773 0.0925002 0.0757916
0.886488 0.0797131 0.0665446
0.921492 0.0660716 0.0571603
0.150164 0.143923 0.148348
0.149752 0.143969 0.148348
0.149493 0.143954 0.148486
0.148898 0.143984 0.148638
0.147738 0.14406 0.148791
0.145861 0.144289 0.148379
0.144274 0.144503 0.147829
0.14374 0.145296 0.147402
0.148257 0.147875 0.147601
0.15816 0.150958 0.147036
0.173312 0.153964 0.146288
0.195377 0.157351 0.145098
0.223941 0.160357 0.143603
0.256779 0.163134 0.141802
0.292073 0.165377 0.139834
0.328557 0.166903 0.13753
0.364508 0.167727 0.135241
0.398184 0.167651 0.13283
0.428534 0.166918 0.130617
0.456077 0.165499 0.128344
0.481651 0.163973 0.126177
0.506447 0.162066 0.123919
0.532204 0.160021 0.121324
0.560632 0.157961 0.118395
0.593317 0.156146 0.114412
0.631479 0.153796 0.109453
0.67425 0.151186 0.10309
0.718776 0.147707 0.0957046
0.76321 0.143725 0.0872511
0.806607 0.13814 0.0780194
0.847868 0.131975 0.0679179
0.886366 0.124025 0.0574807
0.921324 0.114916 0.0474556
0.148531 0.144656 0.14789
0.148226 0.144732 0.147936
0.148104 0.144839 0.148089
0.147829 0.145037 0.148196
0.147326 0.145312 0.148089
0.146609 0.145556 0.147738
0.146044 0.145892 0.14725
0.146014 0.146197 0.146715
0.149096 0.147875 0.146136
0.162676 0.153872 0.14583
0.18175 0.159777 0.14464
0.205081 0.165286 0.14316
0.232944 0.170825 0.141497
0.264637 0.175692 0.139406
0.298985 0.179644 0.136919
0.334096 0.18291 0.134417
0.368444 0.185229 0.131746
0.400778 0.186236 0.129168
0.429984 0.18613 0.126711
0.456626 0.185489 0.124483
0.481819 0.184222 0.122148
0.506432 0.182635 0.11986
0.53225 0.181003 0.11725
0.560906 0.179629 0.113909
0.593988 0.178622 0.109728
0.632349 0.178088 0.104173
0.675227 0.177188 0.0972152
0.719707 0.175616 0.0889906
0.763943 0.173404 0.0796368
0.806958 0.170474 0.0693675
0.848051 0.166217 0.0577707
0.88629 0.160891 0.0460059
0.921004 0.154208 0.0340887
0.147143 0.148623 0.147143
0.147189 0.148867 0.147082
0.147494 0.148989 0.147234
0.147723 0.149248 0.147311
0.14789 0.149645 0.147036
0.148348 0.149981 0.146639
0.14931 0.150423 0.146227
0.150958 0.150912 0.145678
0.153338 0.151522 0.145037
0.161944 0.154803 0.14406
0.186465 0.165377 0.142748
0.21532 0.175097 0.140612
0.243854 0.182391 0.138521
0.274128 0.18912 0.136095
0.30634 0.19527 0.133562
0.339803 0.200046 0.130678
0.372717 0.203128 0.127764
0.403433 0.204959 0.124987
0.431434 0.205371 0.122377
0.457389 0.204913 0.12015
0.482017 0.203998 0.117769
0.506508 0.202777 0.115267
0.532403 0.201785 0.112474
0.561364 0.201266 0.108751
0.594903 0.20116 0.104112
0.633646 0.201572 0.0978103
0.676646 0.201907 0.090013
0.72076 0.202136 0.0808728
0.764736 0.201511 0.0703136
0.807599 0.199908 0.058381
0.84831 0.197375 0.0450141
0.886336 0.193362 0.0308537
0.920775 0.18819 0.0189059
0.146792 0.156497 0.145708
0.147311 0.156664 0.14583
0.147982 0.156786 0.1458
0.148821 0.157168 0.145739
0.14995 0.157565 0.145418
0.15172 0.158175 0.144976
0.154101 0.158938 0.144442
0.15758 0.159747 0.143923
0.162249 0.160754 0.143191
0.167849 0.161532 0.142428
0.184146 0.16762 0.140887
0.218479 0.182727 0.138125
0.254017 0.195483 0.134981
0.284901 0.203632 0.132113
0.315633 0.210636 0.129152
0.346792 0.216693 0.126192
0.377066 0.221363 0.123156
0.406027 0.223774 0.120226
0.432883 0.224445 0.11754
0.458045 0.224216 0.115099
0.482277 0.223514 0.112718
0.506676 0.22266 0.110002
0.532738 0.22211 0.106874
0.562051 0.222202 0.102846
0.596048 0.22295 0.0974899
0.635157 0.224506 0.090486
0.677913 0.226551 0.0814221
0.722011 0.227756 0.070985
0.765698 0.228443 0.0584878
0.808225 0.228153 0.0440375
0.848722 0.226581 0.0281682
0.886442 0.223651 0.0139773
0.920562 0.219333 0.00262455
0.148058 0.168154 0.143679
0.149004 0.168185 0.143709
0.150072 0.16849 0.143648
0.151583 0.168963 0.143389
0.15378 0.16968 0.142962
0.156939 0.170489 0.142565
0.160922 0.171572 0.14197
0.166217 0.172839 0.141329
0.17293 0.174411 0.140444
0.181155 0.176074 0.139544
0.190341 0.176944 0.138689
0.213993 0.186023 0.136248
0.254841 0.20415 0.13196
0.294026 0.218784 0.12755
0.325368 0.226932 0.123964
0.354833 0.233021 0.120775
0.383139 0.237888 0.117723
0.409537 0.241398 0.114794
0.434485 0.243183 0.112154
0.458839 0.243275 0.10959
0.482521 0.242786 0.106935
0.507042 0.242206 0.10399
0.533318 0.242267 0.100618
0.563043 0.242939 0.0960098
0.597467 0.244739 0.0897688
0.636835 0.247364 0.08159
0.679698 0.250233 0.0710918
0.723369 0.252872 0.0584726
0.766796 0.254566 0.0430915
0.809079 0.254963 0.025864
0.849165 0.254475 0.00929274
0.886458 0.252522 0.00047303
0.920256 0.249058 0
0.151293 0.183093 0.140826
0.152499 0.183505 0.140719
0.154131 0.183825 0.140459
0.156283 0.184588 0.140139
0.159731 0.185397 0.139757
0.163821 0.186542 0.139269
0.169329 0.187915 0.138567
0.176196 0.189517 0.137758
0.184604 0.191394 0.136843
0.194751 0.193622 0.135729
0.206485 0.195834 0.1346
0.219516 0.197162 0.1337
0.248386 0.208225 0.130358
0.291768 0.227436 0.124193
0.332448 0.242725 0.118563
0.36286 0.250126 0.114549
0.389303 0.25452 0.111437
0.414115 0.257633 0.108568
0.437537 0.259724 0.105776
0.460166 0.261189 0.103212
0.483024 0.261692 0.100374
0.507454 0.261616 0.0972
0.534066 0.262013 0.0933547
0.564248 0.263523 0.0879225
0.599191 0.266026 0.0806287
0.638926 0.269932 0.0707561
0.68159 0.273854 0.057969
0.725017 0.277317 0.0421759
0.768063 0.279957 0.0235904
0.809934 0.281346 0.00578317
0.849729 0.281331 0
0.886702 0.280018 0
0.920073 0.277104 0
0.154284 0.201785 0.136385
0.156054 0.202182 0.136172
0.158282 0.202716 0.135943
0.161471 0.203387 0.135637
0.165713 0.204425 0.135164
0.171191 0.205646 0.134539
0.178027 0.207233 0.133837
0.186481 0.209079 0.132906
0.196384 0.211261 0.131884
0.208133 0.213748 0.130755
0.221714 0.216464 0.129427
0.236347 0.218891 0.128298
0.252415 0.220478 0.12752
0.284611 0.232547 0.123171
0.328252 0.251347 0.11519
0.367849 0.265675 0.108248
0.395315 0.271214 0.10428
0.418814 0.273838 0.101396
0.441169 0.275731 0.0987106
0.462974 0.277104 0.0959945
0.485069 0.278462 0.0930953
0.508568 0.280156 0.0894179
0.535073 0.281682 0.0847791
0.565789 0.283894 0.0783093
0.601267 0.287495 0.069398
0.641352 0.29218 0.0571756
0.683833 0.297139 0.0407568
0.726864 0.301366 0.0217136
0.769604 0.304738 0.0037232
0.810941 0.306996 0
0.85037 0.307576 0
0.886885 0.306737 0
0.919799 0.304326 0
0.157504 0.222187 0.130968
0.159976 0.222736 0.130678
0.162631 0.223316 0.130419
0.166293 0.224125 0.130114
0.171466 0.225284 0.129519
0.178058 0.226658 0.128817
0.186084 0.228336 0.128008
0.195789 0.230381 0.127108
0.207233 0.232746 0.125948
0.22034 0.23537 0.124712
0.235325 0.238392 0.123354
0.251942 0.241642 0.121996
0.26836 0.243519 0.12134
0.287358 0.245502 0.120958
0.321614 0.257786 0.115465
0.363134 0.274464 0.105333
0.399252 0.285969 0.0973983
0.424063 0.289708 0.093431
0.445686 0.291112 0.0906386
0.466987 0.292226 0.0878462
0.488884 0.29366 0.0844739
0.512367 0.295781 0.080415
0.538323 0.299016 0.0747234
0.568658 0.303243 0.0669261
0.604227 0.308186 0.0555123
0.644251 0.314076 0.0394751
0.686275 0.320073 0.0194858
0.728939 0.325246 0.00271611
0.771145 0.329274 0
0.812161 0.33193 0
0.851087 0.333104 0
0.887175 0.332647 0
0.919646 0.330434 0
0.161242 0.243046 0.124804
0.164172 0.24358 0.124575
0.167025 0.244266 0.124224
0.171267 0.245106 0.123842
0.17731 0.246281 0.123201
0.18471 0.247837 0.12253
0.193668 0.249561 0.121675
0.204318 0.251682 0.120684
0.216831 0.25417 0.119509
0.230793 0.256962 0.118227
0.246708 0.260105 0.116945
0.26424 0.263493 0.115633
0.28333 0.267231 0.114321
0.300557 0.268101 0.114565
0.321874 0.270405 0.115068
0.355673 0.281605 0.108507
0.39353 0.295079 0.0963149
0.426429 0.304189 0.0867628
0.450019 0.306813 0.0822919
0.471229 0.307805 0.0789807
0.493248 0.309239 0.0750744
0.517052 0.311513 0.0700542
0.543679 0.315145 0.0631418
0.574304 0.320485 0.0528267
0.609125 0.327474 0.0376135
0.648722 0.334707 0.0180667
0.690196 0.341436 0.00207523
0.731929 0.347723 0
0.77322 0.352941 0
0.813519 0.356558 0
0.851926 0.358251 0
0.887526 0.358007 0
0.919417 0.356069 0
0.16553 0.263569 0.118242
0.168521 0.264073 0.117998
0.171908 0.264683 0.117723
0.176577 0.265644 0.117266
0.182971 0.266758 0.116701
0.190799 0.268284 0.115953
0.20061 0.270161 0.115084
0.211856 0.272374 0.113939
0.224796 0.274922 0.112856
0.239612 0.277729 0.111604
0.256123 0.280919 0.11017
0.27396 0.284367 0.108934
0.293538 0.288075 0.107759
0.314382 0.292088 0.107027
0.331701 0.291737 0.108904
0.353857 0.293797 0.110964
0.385748 0.303029 0.103243
0.420264 0.313664 0.0886854
0.451698 0.321416 0.0763104
0.475471 0.323995 0.0702373
0.497795 0.325536 0.0652628
0.522118 0.328115 0.0586404
0.549676 0.332189 0.0492256
0.581033 0.33814 0.035462
0.616434 0.345846 0.0171664
0.654688 0.354513 0.00144961
0.694759 0.362661 0
0.735821 0.369421 0
0.776364 0.375097 0
0.815686 0.379599 0
0.852964 0.382544 0
0.887861 0.38291 0
0.919219 0.381079 0
0.170062 0.283238 0.111391
0.173175 0.283848 0.111162
0.176715 0.284504 0.110796
0.181689 0.285405 0.110307
0.188403 0.286717 0.109697
0.196841 0.288136 0.108965
0.206882 0.289982 0.108064
0.218555 0.292134 0.107027
0.231952 0.294743 0.105852
0.247028 0.297551 0.104601
0.2636 0.30071 0.103288
0.281804 0.304128 0.102144
0.301427 0.307759 0.101335
0.322194 0.31162 0.100893
0.343832 0.315175 0.101381
0.360571 0.313558 0.105776
0.382879 0.315251 0.110048
0.41294 0.32282 0.100618
0.445686 0.331685 0.0824445
0.477119 0.339162 0.0653849
0.502617 0.342611 0.0556191
0.527749 0.345647 0.0464179
0.556115 0.350332 0.0335546
0.588388 0.356847 0.0167697
0.624186 0.364996 0.00151064
0.662272 0.373861 0
0.701122 0.382681 0
0.740246 0.390906 0
0.779751 0.397284 0
0.818387 0.401953 0
0.85478 0.405295 0
0.888426 0.407004 0
0.919005 0.405432 0
0.174731 0.302358 0.104067
0.178149 0.302953 0.103838
0.181659 0.303624 0.103517
0.186954 0.304448 0.102983
0.193713 0.305699 0.102419
0.20238 0.307149 0.101671
0.212696 0.30898 0.100771
0.224369 0.311162 0.0997024
0.238148 0.313603 0.0987106
0.253315 0.316335 0.0975357
0.270008 0.319356 0.0965286
0.288121 0.322606 0.0955673
0.307485 0.326055 0.09514
0.328069 0.329641 0.0951553
0.349676 0.333455 0.0960403
0.371023 0.336278 0.0988022
0.386908 0.333471 0.106661
0.409216 0.335027 0.113268
0.438621 0.341909 0.100954
0.471336 0.350347 0.0775921
0.505028 0.358755 0.0526284
0.533898 0.364172 0.0348211
0.56321 0.369482 0.0187076
0.596277 0.376654 0.00222782
0.63238 0.385122 0
0.6701 0.394034 0
0.708339 0.402762 0
0.746654 0.411017 0
0.784207 0.41854 0
0.821118 0.424384 0
0.856779 0.427832 0
0.889632 0.429419 0
0.918914 0.42916 0
0.179889 0.320363 0.0966812
0.182986 0.320974 0.096376
0.186755 0.321553 0.0960861
0.192004 0.322377 0.0955673
0.198917 0.323583 0.0950637
0.207462 0.324987 0.0943313
0.217639 0.326757 0.0935378
0.229755 0.328786 0.0925765
0.243122 0.331121 0.0916609
0.25835 0.3337 0.0906996
0.274937 0.336538 0.0899062
0.292836 0.33959 0.0893568
0.311849 0.34284 0.0892958
0.332067 0.346288 0.0898909
0.353368 0.349874 0.0915084
0.375525 0.353658 0.0945602
0.396048 0.355627 0.100435
0.411902 0.352468 0.111971
0.434211 0.354314 0.120714
0.464607 0.361532 0.104143
0.499565 0.370962 0.0736553
0.53753 0.381903 0.0349889
0.57116 0.389899 0.00730907
0.604654 0.397421 0
0.640772 0.406134 0
0.677974 0.414939 0
0.715663 0.423529 0
0.753216 0.431571 0
0.790005 0.438849 0
0.825437 0.445121 0
0.859068 0.449897 0
0.890745 0.451835 0
0.919188 0.451408 0
0.184512 0.33698 0.0892195
0.187747 0.337545 0.0889448
0.191577 0.338064 0.0885786
0.196719 0.338857 0.0881666
0.203647 0.340002 0.0876936
0.212222 0.341299 0.0870527
0.222538 0.342962 0.0862745
0.234272 0.344961 0.085481
0.247578 0.347127 0.0846876
0.262516 0.349615 0.0839399
0.278813 0.3523 0.0835889
0.29633 0.35523 0.0833295
0.315221 0.358419 0.0837568
0.33521 0.361761 0.084947
0.356069 0.365332 0.0872663
0.377813 0.369116 0.0912032
0.400351 0.373022 0.0969863
0.419684 0.373754 0.106859
0.436316 0.37142 0.121309
0.459724 0.374289 0.131548
0.49305 0.383261 0.108919
0.53254 0.395392 0.0691081
0.576272 0.409522 0.0140383
0.613962 0.419623 0
0.649104 0.427878 0
0.685969 0.436561 0
0.722927 0.444953 0
0.759793 0.452705 0
0.795773 0.459648 0
0.830289 0.465492 0
0.862745 0.4701 0
0.8925 0.473106 0
0.919432 0.473426 0
0.189425 0.352148 0.0816968
0.192676 0.352667 0.0813916
0.196231 0.353246 0.0811627
0.201282 0.353994 0.0807813
0.20824 0.355047 0.0803235
0.216388 0.356405 0.0798199
0.226429 0.357946 0.0791485
0.238224 0.359808 0.0783551
0.251286 0.361959 0.0778973
0.265782 0.364324 0.0773938
0.28188 0.36701 0.0771954
0.299275 0.36994 0.077409
0.317815 0.373053 0.0783703
0.337407 0.376471 0.0801862
0.358114 0.380072 0.0832685
0.379797 0.383948 0.0879377
0.402197 0.388067 0.0945449
0.42533 0.392554 0.102953
0.443549 0.392386 0.116686
0.461906 0.391577 0.133486
0.487953 0.396658 0.143877
0.526833 0.409125 0.113466
0.572274 0.424735 0.0613565
0.620233 0.441001 0.00325017
0.658976 0.45124 0
0.693858 0.458824 0
0.730251 0.466896 0
0.766293 0.474327 0
0.801404 0.480873 0
0.834974 0.486336 0
0.866453 0.490318 0
0.895201 0.492683 0
0.920607 0.49337 0
0.194064 0.366247 0.0740215
0.197162 0.366751 0.0738079
0.200595 0.367315 0.0735332
0.205615 0.368048 0.0733043
0.212421 0.36907 0.0728008
0.220432 0.370367 0.0722667
0.230243 0.371954 0.0717479
0.241657 0.37377 0.0712139
0.254612 0.375937 0.0707713
0.268956 0.378317 0.0704814
0.284749 0.381018 0.070573
0.301762 0.383948 0.0711986
0.320012 0.387213 0.0725414
0.339529 0.390707 0.0749676
0.360067 0.394522 0.0784619
0.381613 0.398657 0.0839857
0.404074 0.403174 0.091371
0.427543 0.408133 0.100465
0.451347 0.413184 0.111925
0.469459 0.412863 0.128573
0.491402 0.414984 0.146441
0.522393 0.423774 0.154604
0.567636 0.440208 0.116747
0.617136 0.457954 0.0511025
0.665721 0.473869 0
0.703883 0.483055 0
0.737362 0.489418 0
0.772625 0.496468 0
0.806821 0.502556 0
0.839521 0.507424 0
0.869963 0.510811 0
0.897566 0.512596 0
0.921965 0.512673 0
0.198413 0.379644 0.0656901
0.201358 0.380118 0.0654765
0.204776 0.380667 0.0653697
0.209766 0.381399 0.0648814
0.216144 0.382467 0.0645609
0.22417 0.383795 0.06421
0.233753 0.385382 0.0635843
0.245075 0.387198 0.0631418
0.257649 0.389395 0.0628519
0.271763 0.391882 0.0628214
0.287373 0.394659 0.0631571
0.304097 0.397772 0.0639811
0.322362 0.40119 0.0657359
0.341756 0.40499 0.0684977
0.362249 0.40914 0.0728313
0.383948 0.413718 0.0787976
0.40679 0.418738 0.0865644
0.430655 0.424384 0.0962387
0.45565 0.430625 0.107546
0.480766 0.436835 0.121569
0.500267 0.437507 0.140642
0.527581 0.443839 0.159136
0.564538 0.456626 0.16286
0.61413 0.475502 0.117906
0.663676 0.492561 0.0425879
0.710765 0.506737 0
0.747478 0.514321 0
0.778851 0.51899 0
0.812055 0.524468 0
0.843748 0.528832 0
0.87306 0.531655 0
0.89955 0.532723 0
0.922942 0.532326 0
0.202396 0.39266 0.0562142
0.205432 0.393118 0.0559396
0.208942 0.393729 0.0558328
0.213703 0.394461 0.0552529
0.220127 0.395544 0.0548257
0.227848 0.396902 0.0543679
0.237415 0.39852 0.0540627
0.248249 0.400519 0.0534524
0.260822 0.402808 0.0532235
0.27483 0.405447 0.0532235
0.290105 0.408423 0.0534371
0.306966 0.41181 0.0546426
0.324895 0.415534 0.0566262
0.344427 0.41973 0.0598459
0.365148 0.424399 0.0645914
0.387137 0.429633 0.0710918
0.410407 0.435523 0.0792554
0.435065 0.442115 0.0893263
0.461265 0.449561 0.100755
0.488869 0.457984 0.114107
0.516426 0.465919 0.12958
0.538216 0.468055 0.151095
0.57145 0.478645 0.169924
0.612543 0.493828 0.169757
0.66215 0.51194 0.119341
0.710002 0.527153 0.0352331
0.754345 0.538827 0
0.788907 0.544366 0
0.817288 0.546792 0
0.847639 0.550408 0
0.875868 0.552529 0
0.901198 0.553017 0
0.923644 0.552117 0
0.206638 0.405768 0.0439155
0.209766 0.406271 0.0439612
0.213092 0.406851 0.0434272
0.217548 0.407721 0.0429694
0.223804 0.408865 0.0426642
0.231647 0.410315 0.0419013
0.24094 0.412055 0.0411841
0.251865 0.414191 0.0407416
0.264195 0.416693 0.040238
0.278019 0.419562 0.0401312
0.293355 0.422873 0.0402686
0.31017 0.426627 0.0412757
0.328344 0.430884 0.0433814
0.347921 0.435691 0.0467231
0.369116 0.441108 0.0517739
0.391699 0.447211 0.0584268
0.415885 0.4542 0.0671244
0.441718 0.462058 0.0772869
0.469215 0.470939 0.0892348
0.498375 0.480842 0.102739
0.529397 0.491707 0.117678
0.55848 0.500511 0.136294
0.583276 0.504326 0.15996
0.62002 0.517098 0.180285
0.662013 0.532143 0.176486
0.710048 0.548455 0.122011
0.754864 0.560876 0.0309606
0.795605 0.569375 0
0.826871 0.572259 0
0.851484 0.572183 0
0.878202 0.573419 0
0.902434 0.573343 0
0.923964 0.571923 0
0.211139 0.419638 0.0278019
0.214084 0.420249 0.0276036
0.217288 0.42089 0.0269627
0.221912 0.421836 0.0266117
0.228092 0.423026 0.0258335
0.235843 0.424598 0.0248875
0.244877 0.426612 0.0239872
0.255756 0.428992 0.0232395
0.26807 0.431769 0.0221866
