YOYO-Client/Yoyo/Assets.xcassets/Dusk.dataset/Dusk.cube
TITLE "Dusk"
LUT_3D_SIZE 5
0.14902 0.14902 0.14902
0.141955 0.148821 0.148013
0.298772 0.113573 0.14992
0.571481 0 0.132403
0.912779 0 0.0935988
0.150164 0.143923 0.148348
0.148257 0.147875 0.147601
0.364508 0.167727 0.135241
0.593317 0.156146 0.114412
0.921324 0.114916 0.0474556
0.161242 0.243046 0.124804
0.216831 0.25417 0.119509
0.39353 0.295079 0.0963149
0.609125 0.327474 0.0376135
0.919417 0.356069 0
0.198413 0.379644 0.0656901
0.257649 0.389395 0.0628519
0.40679 0.418738 0.0865644
0.663676 0.492561 0.0425879
0.922942 0.532326 0
0.260227 0.571496 0
0.329671 0.596506 0
0.523751 0.664836 0
0.803296 0.738354 0.139406
0.949889 0.684504 0.105714
0.147417 0.148333 0.151705
0.151171 0.146075 0.152804
0.344991 0.106157 0.165896
0.583459 0.054612 0.162936
0.917342 0 0.130388
0.132998 0.156939 0.157641
0.161456 0.161273 0.161181
0.39765 0.156924 0.153658
0.613199 0.148882 0.140337
0.92726 0.123903 0.0973526
0.0953689 0.316716 0.167422
0.196033 0.302968 0.144381
0.40972 0.320516 0.167468
0.635111 0.325704 0.0806744
0.927947 0.347127 0.0114595
0.172457 0.420508 0.133532
0.226429 0.405844 0.1122
0.405386 0.43653 0.168734
0.672068 0.512413 0.18735
0.926345 0.532784 0
0.207584 0.608072 0
0.27248 0.591913 0
0.493874 0.664607 0
0.793667 0.741344 0.187823
0.947265 0.688594 0.171023
0 0.231373 0.415702
0 0.205035 0.41442
0.369574 0.177707 0.402792
0.613687 0.217182 0.351171
0.88368 0.297749 0.442405
0 0.292912 0.416693
0.11548 0.289097 0.415839
0.380713 0.268376 0.403388
0.612711 0.298573 0.382223
0.885023 0.34789 0.457618
0.227695 0.416129 0.419867
0.292058 0.414908 0.417548
0.406744 0.406241 0.405554
0.67277 0.393973 0.390082
0.936416 0.371527 0.363592
0.240238 0.592386 0.447807
0.268009 0.576349 0.417563
0.373587 0.488533 0.326375
0.692607 0.566705 0.370413
0.931899 0.538293 0.241413
0 0.750942 0.267491
0.0225681 0.72932 0.22002
0.330831 0.65095 0
0.750271 0.748684 0.268376
0.93724 0.701854 0.322103
0 0.44126 0.7364
0 0.433692 0.733776
0.32871 0.39617 0.721019
0.638682 0.343175 0.691829
0.906249 0.369833 0.606851
0 0.488487 0.734936
0 0.480156 0.733944
0.344549 0.443412 0.721874
0.644602 0.385733 0.693278
0.902998 0.425727 0.608087
0 0.590814 0.734722
0.16144 0.587564 0.733288
0.42446 0.576608 0.726192
0.664103 0.515785 0.695598
0.874296 0.573617 0.649989
0.427832 0.72784 0.733883
0.472679 0.726986 0.73228
0.578775 0.722164 0.725307
0.693751 0.693507 0.692256
0.869337 0.665705 0.662959
0.700664 0.807752 0.767956
0.694545 0.807157 0.762112
0.649607 0.803861 0.722972
0.527199 0.755123 0.344823
0.878935 0.761501 0.637491
0.506767 0.667201 0.82974
0.558862 0.681315 0.827695
0.663355 0.714397 0.822202
0.723918 0.718441 0.81912
0.792599 0.684382 0.818265
0.536889 0.686046 0.827909
0.582498 0.698222 0.826108
0.675608 0.726574 0.821286
0.734066 0.733028 0.818006
0.794644 0.70103 0.817258
0.56936 0.718593 0.825467
0.607553 0.727123 0.824109
0.693751 0.750271 0.820325
0.755795 0.763897 0.816434
0.800229 0.738918 0.815534
0.692164 0.782437 0.819074
0.701946 0.783352 0.818921
0.728405 0.785718 0.818555
0.773083 0.792157 0.817487
0.809018 0.784131 0.815518
0.780392 0.818357 0.819394
0.783673 0.818555 0.819516
0.793271 0.819242 0.819944
0.808927 0.820706 0.821057
0.823514 0.823514 0.823514
