YOYO-Client/Yoyo/Assets.xcassets/Dusk.dataset/Dusk.cube
TITLE "Dusk"
LUT_3D_SIZE 9
0.14902 0.14902 0.14902
0.14902 0.14902 0.14902
0.141955 0.148821 0.148013
0.168978 0.143465 0.146761
0.298772 0.113573 0.14992
0.456001 0.0324254 0.140368
0.571481 0 0.132403
0.742672 0 0.11606
0.912779 0 0.0935988
0.14902 0.14902 0.14902
0.14902 0.14902 0.14902
0.141222 0.148562 0.147707
0.177462 0.142061 0.146822
0.327581 0.113909 0.14313
0.469337 0.0842451 0.136248
0.581735 0.0605325 0.127062
0.752865 0 0.10753
0.91751 0 0.0795148
0.150164 0.143923 0.148348
0.147738 0.14406 0.148791
0.148257 0.147875 0.147601
0.223941 0.160357 0.143603
0.364508 0.167727 0.135241
0.481651 0.163973 0.126177
0.593317 0.156146 0.114412
0.76321 0.143725 0.0872511
0.921324 0.114916 0.0474556
0.148058 0.168154 0.143679
0.15378 0.16968 0.142962
0.17293 0.174411 0.140444
0.254841 0.20415 0.13196
0.383139 0.237888 0.117723
0.482521 0.242786 0.106935
0.597467 0.244739 0.0897688
0.766796 0.254566 0.0430915
0.920256 0.249058 0
0.161242 0.243046 0.124804
0.17731 0.246281 0.123201
0.216831 0.25417 0.119509
0.28333 0.267231 0.114321
0.39353 0.295079 0.0963149
0.493248 0.309239 0.0750744
0.609125 0.327474 0.0376135
0.77322 0.352941 0
0.919417 0.356069 0
0.179889 0.320363 0.0966812
0.198917 0.323583 0.0950637
0.243122 0.331121 0.0916609
0.311849 0.34284 0.0892958
0.396048 0.355627 0.100435
0.499565 0.370962 0.0736553
0.640772 0.406134 0
0.790005 0.438849 0
0.919188 0.451408 0
0.198413 0.379644 0.0656901
0.216144 0.382467 0.0645609
0.257649 0.389395 0.0628519
0.322362 0.40119 0.0657359
0.40679 0.418738 0.0865644
0.500267 0.437507 0.140642
0.663676 0.492561 0.0425879
0.812055 0.524468 0
0.922942 0.532326 0
0.215991 0.435325 0.00773632
0.232776 0.439139 0.00534066
0.273289 0.44921 0.000671397
0.339574 0.468711 0
0.434424 0.501518 0.00996414
0.558053 0.548043 0.0752422
0.684413 0.585214 0.178668
0.835859 0.621454 0.0372015
0.923995 0.610651 0
0.260227 0.571496 0
0.280705 0.578729 0
0.329671 0.596506 0
0.410513 0.626032 0
0.523751 0.664836 0
0.661601 0.705776 0
0.803296 0.738354 0.139406
0.884703 0.719661 0.290684
0.949889 0.684504 0.105714
0.149096 0.14902 0.148745
0.14905 0.14902 0.148882
0.141344 0.148714 0.147845
0.175875 0.14255 0.146578
0.328588 0.120989 0.142672
0.468742 0.0984817 0.135393
0.580316 0.0784314 0.125917
0.750042 0.00466926 0.106493
0.915022 0 0.0803082
0.149203 0.14902 0.148348
0.14847 0.148516 0.148562
0.141817 0.148318 0.148211
0.203479 0.14638 0.146456
0.351385 0.13962 0.140429
0.477806 0.129305 0.131991
0.588312 0.116152 0.121431
0.75816 0.0789197 0.0987411
0.919341 0 0.0668498
0.146639 0.144808 0.146136
0.146258 0.145388 0.146487
0.152163 0.148836 0.14522
0.23212 0.166857 0.141161
0.368154 0.180499 0.131823
0.4813 0.181216 0.122194
0.59205 0.177951 0.109865
0.760555 0.175494 0.0798962
0.919295 0.151217 0.0361791
0.139406 0.18349 0.13846
0.15021 0.183505 0.138308
0.181353 0.188235 0.136645
0.265187 0.211627 0.129335
0.390646 0.241032 0.114214
0.48719 0.244221 0.104204
0.601801 0.247333 0.0875868
0.768475 0.261006 0.0395056
0.91899 0.263127 0
0.146609 0.2645 0.120119
0.165942 0.261906 0.119921
0.216236 0.269337 0.117998
0.292912 0.28159 0.117998
0.400488 0.301595 0.104891
0.49897 0.31046 0.0775769
0.616953 0.326696 0.0377203
0.7794 0.349706 0
0.920714 0.35729 0
0.166629 0.335805 0.0973983
0.186145 0.333425 0.0970321
0.23711 0.340352 0.0966659
0.311711 0.351186 0.101091
0.400107 0.36405 0.123659
0.503227 0.37705 0.104784
0.646128 0.409323 0
0.794232 0.438849 0
0.921767 0.448707 0
0.186801 0.388769 0.0727245
0.204318 0.387579 0.0720684
0.249912 0.394415 0.0737163
0.318929 0.406165 0.083238
0.40676 0.423987 0.111513
0.504005 0.445136 0.166674
0.666438 0.498116 0.09691
0.81416 0.526818 0
0.924102 0.532204 0
0.203998 0.440421 0.0150454
0.220768 0.441413 0.0138857
0.26363 0.451698 0.0116274
0.333639 0.471565 0.0142977
0.431754 0.504967 0.0418402
0.557626 0.551888 0.105226
0.685313 0.589517 0.199313
0.83563 0.624109 0.0960861
0.923827 0.61207 0
0.242191 0.570779 0
0.263584 0.577401 0
0.315297 0.595529 0
0.399405 0.625498 0
0.515999 0.664942 0
0.656947 0.706447 0
0.800702 0.739239 0.15584
0.883528 0.721019 0.302556
0.949447 0.685481 0.114855
0.147417 0.148333 0.151705
0.147631 0.148363 0.151171
0.151171 0.146075 0.152804
0.215824 0.133654 0.156222
0.344991 0.106157 0.165896
0.470268 0.0728313 0.168627
0.583459 0.054612 0.162936
0.754528 0 0.150088
0.917342 0 0.130388
0.144518 0.148928 0.152499
0.141741 0.14696 0.154101
0.153292 0.143191 0.156115
0.228107 0.134417 0.156847
0.353246 0.122866 0.170916
0.481453 0.0969406 0.163241
0.593301 0.0850843 0.156588
0.76376 0.0260014 0.141482
0.921859 0 0.119173
0.132998 0.156939 0.157641
0.13637 0.158251 0.158785
0.161456 0.161273 0.161181
0.264012 0.160388 0.158984
0.39765 0.156924 0.153658
0.500725 0.153521 0.148089
0.613199 0.148882 0.140337
0.778927 0.137926 0.122362
0.92726 0.123903 0.0973526
0.109239 0.224079 0.176715
0.123033 0.227985 0.172244
0.175982 0.22707 0.155962
0.288334 0.236789 0.161868
0.41059 0.239826 0.127733
0.503777 0.234363 0.128893
0.621714 0.236164 0.123079
0.785138 0.244236 0.101259
0.927764 0.243748 0.0724956
0.0953689 0.316716 0.167422
0.130373 0.312779 0.159503
0.196033 0.302968 0.144381
0.303105 0.312261 0.162325
0.40972 0.320516 0.167468
0.509957 0.316457 0.118166
0.635111 0.325704 0.0806744
0.793408 0.343191 0.0477302
0.927947 0.347127 0.0114595
0.142901 0.374502 0.154971
0.165331 0.370001 0.147005
0.214145 0.360433 0.132815
0.307012 0.369329 0.152377
0.40444 0.382116 0.189456
0.509468 0.394736 0.18584
0.657145 0.419654 0.0926986
0.803769 0.439689 0
0.927306 0.443397 0
0.172457 0.420508 0.133532
0.18822 0.415305 0.125399
0.226429 0.405844 0.1122
0.308553 0.417594 0.132418
0.405386 0.43653 0.168734
0.512825 0.464179 0.223148
0.672068 0.512413 0.18735
0.818189 0.53373 0.0221866
0.926345 0.532784 0
0.185916 0.474968 0.0722972
0.199802 0.46743 0.0638895
0.23566 0.457023 0.0519722
0.316075 0.477821 0.069276
0.422995 0.512779 0.10425
0.555001 0.5608 0.161303
0.68716 0.599771 0.240421
0.834821 0.630625 0.182193
0.923033 0.616068 0.00215152
0.207584 0.608072 0
0.225834 0.599374 0
0.27248 0.591913 0
0.367407 0.623301 0
0.493874 0.664607 0
0.643488 0.707759 0
0.793667 0.741344 0.187823
0.880308 0.724544 0.331701
0.947265 0.688594 0.171023
0.0293736 0.177768 0.274846
0.0407111 0.167758 0.27628
0.125612 0.14345 0.278126
0.253712 0.127657 0.276768
0.392264 0.102831 0.24828
0.485374 0.130449 0.244556
0.567544 0.201007 0.28864
0.727138 0.210224 0.322377
0.900664 0.151827 0.310155
0.00843824 0.189654 0.279011
0.0176242 0.181811 0.281254
0.116579 0.158053 0.282643
0.259159 0.143328 0.280659
0.398886 0.1308 0.246754
0.481926 0.171801 0.257847
0.565194 0.233463 0.303746
0.740673 0.203906 0.311177
0.906462 0.163119 0.30222
0 0.225208 0.286259
0.0113375 0.222721 0.287495
0.13312 0.215305 0.28983
0.272419 0.199649 0.28716
0.39942 0.208789 0.262119
0.469764 0.252537 0.294148
0.585962 0.25359 0.303975
0.766674 0.221973 0.29482
0.919554 0.194186 0.280842
0.0510414 0.290959 0.294652
0.111131 0.291752 0.294926
0.199344 0.292988 0.294881
0.293828 0.293065 0.292409
0.405814 0.289326 0.2869
0.501808 0.285405 0.282338
0.636225 0.27924 0.274266
0.79942 0.269429 0.260945
0.933486 0.257435 0.245136
0.213306 0.365606 0.318654
0.226917 0.365332 0.316838
0.254704 0.363851 0.308904
0.296223 0.353216 0.27422
0.408301 0.358938 0.29482
0.519341 0.339467 0.231754
0.65449 0.346899 0.230243
0.807797 0.355261 0.224445
0.933303 0.352193 0.214618
0.234485 0.424598 0.317739
0.242847 0.422568 0.31194
0.257298 0.413352 0.290043
0.293782 0.395941 0.250477
0.403891 0.408362 0.287465
0.516716 0.428321 0.297139
0.670466 0.442618 0.224964
0.816693 0.445991 0.149691
0.932387 0.443732 0.155612
0.214893 0.482216 0.28397
0.224948 0.475547 0.274739
0.246342 0.459159 0.249973
0.285481 0.435904 0.211215
0.399741 0.457237 0.249027
0.524544 0.494255 0.295064
0.680095 0.53611 0.283955
0.82298 0.547356 0.19913
0.928847 0.535424 0.0953078
0.171893 0.550988 0.212482
0.189105 0.541604 0.201465
0.223133 0.517815 0.173495
0.273182 0.48603 0.135164
0.400076 0.523507 0.173556
0.545113 0.573861 0.227649
0.692363 0.61912 0.289219
0.833814 0.64097 0.263416
0.921233 0.623224 0.179385
0.097612 0.671489 0
0.13872 0.663478 0
0.206699 0.642283 0
0.291325 0.615854 0
0.444175 0.661402 0
0.614115 0.708705 0.0603799
0.778897 0.744579 0.226856
0.873823 0.731289 0.380591
0.94345 0.693736 0.242405
0 0.231373 0.415702
0 0.223407 0.416007
0 0.205035 0.41442
0.219791 0.1935 0.409857
0.369574 0.177707 0.402792
0.494926 0.188434 0.367208
0.613687 0.217182 0.351171
0.753979 0.256458 0.397223
0.88368 0.297749 0.442405
0 0.249744 0.416068
0 0.244984 0.41648
0.00468452 0.233814 0.414801
0.230838 0.222797 0.41001
0.372839 0.207156 0.403067
0.494697 0.218524 0.367956
0.61265 0.246113 0.361227
0.754894 0.275776 0.403891
0.883207 0.315648 0.448646
0 0.292912 0.416693
0 0.292042 0.416449
0.11548 0.289097 0.415839
0.259388 0.282856 0.410224
0.380713 0.268376 0.403388
0.494789 0.277562 0.371237
0.612711 0.298573 0.382223
0.757717 0.31632 0.418952
0.885023 0.34789 0.457618
0.0435035 0.354055 0.417563
0.118975 0.354528 0.416968
0.213001 0.355459 0.415427
0.301427 0.353399 0.412161
0.392798 0.340261 0.404196
0.496605 0.3458 0.384863
0.617945 0.36022 0.410574
0.773022 0.356878 0.427314
0.915663 0.327825 0.41004
0.227695 0.416129 0.419867
0.24889 0.415854 0.419257
0.292058 0.414908 0.417548
0.34757 0.412299 0.413718
0.406744 0.406241 0.405554
0.518837 0.401343 0.398917
0.67277 0.393973 0.390082
0.822599 0.383856 0.37792
0.936416 0.371527 0.363592
0.316518 0.498039 0.453712
0.3252 0.497002 0.451789
0.340459 0.492256 0.443915
0.360555 0.480003 0.422629
0.394324 0.448005 0.374929
0.534188 0.472999 0.393622
0.691447 0.46772 0.332555
0.829877 0.464179 0.322332
0.934966 0.453391 0.318212
0.240238 0.592386 0.447807
0.248692 0.588174 0.439872
0.268009 0.576349 0.417563
0.31162 0.544244 0.374853
0.373587 0.488533 0.326375
0.527947 0.530755 0.361273
0.692607 0.566705 0.370413
0.831052 0.562615 0.306477
0.931899 0.538293 0.241413
0 0.670542 0.374701
0.0573281 0.662806 0.363607
0.176104 0.640696 0.340002
0.272465 0.596765 0.300191
0.34226 0.535332 0.242222
0.515831 0.588968 0.288426
0.694026 0.644831 0.343038
0.83238 0.655329 0.344564
0.9196 0.631601 0.282002
0 0.750942 0.267491
0 0.745159 0.254826
0.0225681 0.72932 0.22002
0.206485 0.69659 0.136492
0.330831 0.65095 0
0.553185 0.707347 0.136675
0.750271 0.748684 0.268376
0.863218 0.742763 0.443442
0.93724 0.701854 0.322103
0 0.322393 0.574716
0 0.319844 0.573999
0 0.313664 0.569558
0.183276 0.303929 0.560128
0.358404 0.292393 0.547234
0.489891 0.273548 0.529625
0.62649 0.27628 0.505333
0.79855 0.265583 0.473594
0.90425 0.318105 0.501137
0 0.344686 0.574212
0 0.342901 0.5738
0 0.337499 0.570275
0.202121 0.325322 0.560967
0.364111 0.3122 0.54815
0.49279 0.292424 0.530587
0.630716 0.292027 0.506691
0.799969 0.282704 0.476127
0.902892 0.336721 0.506661
0 0.388266 0.574487
0 0.386969 0.573846
0.0218662 0.382895 0.57232
0.233173 0.368566 0.564111
0.373358 0.350393 0.550774
0.499474 0.329564 0.53315
0.642206 0.324758 0.509102
0.802411 0.322072 0.484733
0.898039 0.38323 0.522362
0 0.444709 0.576837
0.000717174 0.443549 0.576135
0.151293 0.439506 0.57409
0.264515 0.42742 0.570199
0.380468 0.401541 0.556054
0.510552 0.378714 0.53814
0.663264 0.372702 0.509667
0.802136 0.389349 0.506188
0.885954 0.459449 0.553826
0.0809644 0.509087 0.58175
0.132143 0.507851 0.580896
0.210117 0.504265 0.578698
0.299489 0.49604 0.574044
0.398322 0.477958 0.565042
0.526894 0.445701 0.544381
0.68307 0.448981 0.513909
0.791272 0.489555 0.548989
0.872267 0.537545 0.589349
0.211765 0.581949 0.588174
0.237034 0.581247 0.587198
0.291188 0.579248 0.584543
0.367163 0.575067 0.579141
0.457191 0.566308 0.56849
0.547311 0.5467 0.545266
0.69839 0.535119 0.531518
0.829709 0.51957 0.515129
0.923506 0.499947 0.494621
0.426932 0.684398 0.634302
0.44155 0.684031 0.634241
0.472251 0.682368 0.632822
0.489143 0.673182 0.618051
0.487739 0.649058 0.574441
0.494865 0.584863 0.4607
0.69752 0.618021 0.514229
0.842084 0.577752 0.415457
0.93077 0.548409 0.400809
0.440421 0.752255 0.634638
0.437873 0.750347 0.628794
0.429709 0.744854 0.611688
0.409262 0.731731 0.571115
0.37026 0.696422 0.471473
0.432853 0.611414 0.351934
0.669749 0.669459 0.42829
0.821317 0.682597 0.477104
0.915358 0.643946 0.389761
0.358022 0.802625 0.580087
0.340337 0.801648 0.567117
0.284962 0.798581 0.527993
0.16141 0.7888 0.437263
0.226978 0.757595 0.313466
0.407431 0.698268 0.180987
0.691279 0.753216 0.311818
0.845182 0.759899 0.526452
0.920302 0.720867 0.451621
0 0.44126 0.7364
0 0.439841 0.736049
0 0.433692 0.733776
0.080293 0.417578 0.729198
0.32871 0.39617 0.721019
0.49482 0.375143 0.70901
0.638682 0.343175 0.691829
0.789654 0.333715 0.663645
0.906249 0.369833 0.606851
0 0.457237 0.735729
0 0.45536 0.735393
0 0.448646 0.733822
0.113909 0.432532 0.729397
0.332601 0.409873 0.721279
0.496574 0.388159 0.709285
0.640345 0.355505 0.692302
0.791241 0.347555 0.66302
0.905455 0.386252 0.607156
0 0.488487 0.734936
0 0.486351 0.734722
0 0.480156 0.733944
0.162417 0.466011 0.73022
0.344549 0.443412 0.721874
0.501442 0.420249 0.710201
0.644602 0.385733 0.693278
0.794446 0.38265 0.66128
0.902998 0.425727 0.608087
0 0.532876 0.734722
0 0.53109 0.734447
0 0.526421 0.733577
0.220996 0.517723 0.731502
0.376669 0.502266 0.723369
0.51458 0.477714 0.711269
0.652338 0.439368 0.694713
0.799176 0.444099 0.659312
0.895232 0.48896 0.617258
0 0.590814 0.734722
0.00387579 0.589914 0.734325
0.16144 0.587564 0.733288
0.29456 0.582925 0.731151
0.42446 0.576608 0.726192
0.540536 0.555993 0.712444
0.664103 0.515785 0.695598
0.803311 0.524407 0.657267
0.874296 0.573617 0.649989
0.240955 0.661234 0.733959
0.268666 0.661036 0.733501
0.326192 0.660334 0.732296
0.403174 0.658473 0.729961
0.489632 0.65391 0.725521
0.579553 0.642023 0.716335
0.679347 0.605966 0.695705
0.798672 0.616663 0.664652
0.844739 0.661357 0.693812
0.427832 0.72784 0.733883
0.441382 0.727611 0.73344
0.472679 0.726986 0.73228
0.520668 0.725521 0.729915
0.578775 0.722164 0.725307
0.6392 0.714519 0.71606
0.693751 0.693507 0.692256
0.795468 0.681605 0.679255
0.869337 0.665705 0.662959
0.632334 0.780804 0.753689
0.639261 0.780514 0.753887
0.655604 0.779843 0.754376
0.680354 0.778714 0.755154
0.690211 0.774777 0.748638
0.666026 0.7608 0.715892
0.607126 0.702464 0.569177
0.791806 0.729839 0.655512
0.89015 0.682353 0.564691
0.700664 0.807752 0.767956
0.699107 0.807599 0.766445
0.694545 0.807157 0.762112
0.682536 0.806149 0.751446
0.649607 0.803861 0.722972
0.528817 0.796185 0.607736
0.527199 0.755123 0.344823
0.819699 0.783993 0.619715
0.878935 0.761501 0.637491
0 0.530434 0.81207
0 0.531029 0.811826
0.107378 0.533333 0.810788
0.299763 0.540413 0.808255
0.442603 0.553857 0.803693
0.536004 0.545007 0.799802
0.629648 0.520729 0.795148
0.737697 0.482292 0.788281
0.871656 0.49073 0.775418
0 0.541436 0.811337
0.00827039 0.542214 0.811063
0.159869 0.545129 0.810117
0.32137 0.552804 0.807538
0.454871 0.565744 0.803037
0.544976 0.558312 0.799023
0.633738 0.533776 0.794537
0.738872 0.495048 0.787778
0.869184 0.503349 0.773602
0.0166171 0.565911 0.80975
0.107561 0.567239 0.809415
0.237583 0.571389 0.808469
0.364279 0.580056 0.806043
0.480873 0.591745 0.801678
0.565621 0.588312 0.797269
0.643534 0.563348 0.793042
0.741695 0.524269 0.786603
0.863172 0.532341 0.769116
0.195315 0.602975 0.807401
0.23743 0.60473 0.807019
0.317525 0.609567 0.805966
0.416587 0.61828 0.803983
0.515618 0.628656 0.800076
0.596841 0.63154 0.794888
0.659144 0.606928 0.790967
0.746441 0.568139 0.784817
0.854383 0.576455 0.762646
0.326879 0.65185 0.803983
0.346517 0.652583 0.803769
0.390005 0.6542 0.803204
0.46273 0.659617 0.801678
0.550332 0.669444 0.798795
0.627161 0.675471 0.79353
0.67924 0.657389 0.788891
0.752895 0.6206 0.782742
0.845945 0.63212 0.758511
0.455055 0.70695 0.799634
0.466712 0.707424 0.799435
0.493996 0.708598 0.798962
0.536339 0.710414 0.798093
0.588693 0.712337 0.796735
0.654978 0.71751 0.793484
0.704952 0.710399 0.787152
0.760967 0.678843 0.780285
0.836057 0.69102 0.757473
0.567803 0.756085 0.795834
0.575174 0.756359 0.795682
0.592813 0.757031 0.795331
0.620752 0.758053 0.794629
0.655711 0.75903 0.793545
0.693019 0.758938 0.791775
0.73048 0.755459 0.788037
0.769757 0.734127 0.778286
0.825727 0.743236 0.763531
0.661448 0.790982 0.794186
0.665797 0.791028 0.79411
0.676143 0.791074 0.793912
0.692714 0.791089 0.793545
0.713832 0.790936 0.792859
0.736904 0.790234 0.791547
0.759426 0.787747 0.788388
0.777539 0.777539 0.777081
0.822766 0.774105 0.772473
0.754589 0.812757 0.803006
0.756588 0.812696 0.803098
0.761425 0.81265 0.803388
0.769268 0.812573 0.803922
0.779614 0.812589 0.804822
0.786618 0.812345 0.804471
0.777996 0.809384 0.794385
0.750301 0.794812 0.706188
0.832578 0.805081 0.78117
0.506767 0.667201 0.82974
0.522805 0.671397 0.829175
0.558862 0.681315 0.827695
0.609705 0.696635 0.825254
0.663355 0.714397 0.822202
0.704875 0.72665 0.819501
0.723918 0.718441 0.81912
0.751293 0.705486 0.818723
0.792599 0.684382 0.818265
0.517372 0.673426 0.829145
0.532662 0.677424 0.82855
0.566949 0.686839 0.827192
0.615732 0.701381 0.824826
0.667338 0.718212 0.821897
0.709133 0.731044 0.81912
0.727047 0.722927 0.818753
0.753185 0.710201 0.818357
0.793194 0.689418 0.817975
0.536889 0.686046 0.827909
0.550866 0.689632 0.82739
0.582498 0.698222 0.826108
0.627649 0.711482 0.824002
0.675608 0.726574 0.821286
0.716899 0.73962 0.818509
0.734066 0.733028 0.818006
0.757549 0.720851 0.817639
0.794644 0.70103 0.817258
0.557107 0.702159 0.826535
0.569986 0.705348 0.826062
0.599313 0.712947 0.824872
0.641276 0.724788 0.823026
0.685863 0.738109 0.820661
0.7243 0.749523 0.818143
0.744137 0.747478 0.817105
0.763989 0.7364 0.816754
0.797024 0.71809 0.816358
0.56936 0.718593 0.825467
0.578943 0.720455 0.825162
0.607553 0.727123 0.824109
0.649393 0.737865 0.822354
0.693751 0.750271 0.820325
0.731395 0.760723 0.818112
0.755795 0.763897 0.816434
0.771862 0.754498 0.816037
0.800229 0.738918 0.815534
0.633234 0.752789 0.821881
0.63772 0.753292 0.82179
0.648615 0.754543 0.821561
0.666178 0.756558 0.821164
0.69659 0.762112 0.820203
0.737514 0.772824 0.818357
0.766323 0.779293 0.816495
0.781064 0.773877 0.815702
0.804257 0.761547 0.815076
0.692164 0.782437 0.819074
0.695033 0.782696 0.819028
0.701946 0.783352 0.818921
0.713314 0.78439 0.818769
0.728405 0.785718 0.818555
0.745983 0.787045 0.818341
0.773083 0.792157 0.817487
0.791318 0.792676 0.816236
0.809018 0.784131 0.815518
0.741192 0.804318 0.818021
0.742885 0.80444 0.818021
0.747021 0.80473 0.81799
0.753872 0.805234 0.818021
0.763241 0.80592 0.818051
0.774502 0.806714 0.818128
0.786877 0.807462 0.818265
0.800839 0.808408 0.818387
0.814832 0.806027 0.817746
0.780392 0.818357 0.819394
0.781338 0.818418 0.819425
0.783673 0.818555 0.819516
0.787594 0.81883 0.819684
0.793271 0.819242 0.819944
0.800549 0.819821 0.820371
0.808927 0.820706 0.821057
0.817227 0.821881 0.822065
0.823514 0.823514 0.823514
