YOYO-Client/Yoyo/Assets.xcassets/Texas.dataset/Kodak-Gold-Master.cube
TITLE "Generated by Resolve"
LUT_3D_SIZE 5
0.00784314 0.00784314 0.0117647
0.322545 0.0264744 0.0196078
0.578439 0.0882429 0.0725414
0.759808 0.190188 0.138231
0.905882 0.321569 0.25098
0.027451 0.24509 0.0960708
0.307103 0.307836 0.0686198
0.618143 0.355886 0.101472
0.779416 0.380636 0.149996
0.909804 0.4598 0.258824
0.14902 0.517647 0.223529
0.306371 0.539208 0.222553
0.578424 0.580392 0.164706
0.767163 0.602457 0.209308
0.905882 0.637263 0.307836
0.299992 0.712749 0.363729
0.399756 0.716426 0.359808
0.551965 0.728435 0.327947
0.742397 0.755154 0.293141
0.901961 0.786282 0.349996
0.443137 0.909804 0.560784
0.519615 0.905882 0.556863
0.645106 0.913725 0.566659
0.782345 0.926467 0.556863
0.92549 0.941176 0.545098
0.0127413 0.0352941 0.192157
0.279408 0.03505 0.240436
0.567163 0.0911727 0.242649
0.750988 0.225483 0.292165
0.898039 0.341176 0.367651
0.0313725 0.212497 0.242161
0.262867 0.2804 0.276478
0.6 0.346319 0.251957
0.764096 0.392401 0.304662
0.901228 0.466911 0.381369
0.134798 0.502937 0.342153
0.29987 0.53872 0.371695
0.571084 0.578439 0.317403
0.760174 0.602945 0.353429
0.901961 0.641184 0.426474
0.283574 0.704906 0.454902
0.384863 0.716426 0.469245
0.552697 0.733455 0.452567
0.736828 0.757168 0.411582
0.901961 0.787015 0.466423
0.427451 0.898039 0.630396
0.511757 0.90515 0.640436
0.639704 0.917647 0.650004
0.782345 0.929412 0.645106
0.92549 0.941176 0.637263
0.021561 0.0882429 0.427451
0.193133 0.0725414 0.467643
0.537255 0.0637217 0.500008
0.7402 0.195102 0.488731
0.890196 0.362737 0.547051
0.0509804 0.229419 0.489219
0.170596 0.239216 0.516548
0.567407 0.287007 0.558572
0.759686 0.391791 0.507347
0.905882 0.487739 0.541176
0.0725414 0.473533 0.522545
0.200488 0.494606 0.54461
0.539223 0.577935 0.58529
0.750484 0.601953 0.524758
0.901961 0.638239 0.563729
0.220096 0.681865 0.58529
0.328435 0.698528 0.600977
0.522057 0.727947 0.622553
0.73138 0.759808 0.596201
0.899504 0.787259 0.618143
0.376471 0.886275 0.713726
0.469123 0.894118 0.723537
0.617655 0.912749 0.742153
0.776959 0.933333 0.746563
0.92549 0.945098 0.737255
0.0137331 0.199023 0.689219
0.137499 0.180392 0.698039
0.497063 0.130877 0.703914
0.716426 0.106615 0.724514
0.886275 0.319615 0.763729
0.0541695 0.269856 0.701961
0.173526 0.269795 0.71722
0.513237 0.302449 0.758328
0.743328 0.301717 0.777447
0.898039 0.46569 0.797299
0.165682 0.500496 0.742153
0.284688 0.522667 0.763363
0.481132 0.546563 0.7897
0.735912 0.599634 0.804898
0.886275 0.637751 0.796078
0.150729 0.664698 0.743389
0.243442 0.67274 0.75845
0.462989 0.710781 0.783215
0.711772 0.763729 0.810056
0.897307 0.778439 0.76936
0.273533 0.870588 0.812741
0.360784 0.880644 0.817639
0.535302 0.899504 0.836759
0.750988 0.926223 0.851957
0.920592 0.945098 0.852934
0.231373 0.384314 0.905882
0.311757 0.384314 0.912749
0.460792 0.360784 0.913725
0.703929 0.261769 0.900984
0.87451 0.152941 0.894118
0.239216 0.46569 0.918624
0.328435 0.46569 0.92549
0.479896 0.445594 0.929412
0.71667 0.347051 0.920592
0.893141 0.263722 0.920592
0.247059 0.547051 0.917647
0.337743 0.555398 0.929412
0.4804 0.547051 0.933333
0.71667 0.565682 0.941176
0.905882 0.566674 0.94902
0.281376 0.711772 0.92549
0.377447 0.723537 0.937255
0.534798 0.744121 0.941176
0.698772 0.755886 0.94902
0.901961 0.771572 0.956863
0.223529 0.87451 0.941176
0.308827 0.886275 0.945098
0.454902 0.888243 0.94902
0.705882 0.921569 0.953918
0.909804 0.94902 0.972549
