YOYO-Client/Yoyo/Assets.xcassets/Texas.dataset/Kodak-Gold-Master.cube
TITLE "Generated by Resolve"
LUT_3D_SIZE 33
0.00784314 0.00784314 0.0117647
0.0272068 0.00784314 0.0117647
0.042649 0.00784314 0.0117647
0.0691234 0.0117647 0.0117647
0.100008 0.015198 0.015198
0.151965 0.0156863 0.0156863
0.206622 0.0196078 0.0156863
0.267643 0.0226749 0.0196078
0.322545 0.0264744 0.0196078
0.367041 0.0341955 0.0235294
0.408331 0.0419165 0.0301518
0.441672 0.0496376 0.0378729
0.472541 0.0573587 0.0431373
0.503426 0.0650797 0.0493935
0.530388 0.0705882 0.0571145
0.555276 0.0766003 0.0648356
0.578439 0.0882429 0.0725414
0.605509 0.0977951 0.0802625
0.628672 0.109316 0.0879835
0.651835 0.124758 0.0957046
0.67892 0.136278 0.103426
0.698161 0.15172 0.111147
0.721325 0.163241 0.120104
0.740566 0.178683 0.13051
0.759808 0.190188 0.138231
0.779049 0.201709 0.149874
0.797543 0.217151 0.162249
0.816907 0.232593 0.173159
0.832349 0.244602 0.184802
0.848157 0.263478 0.196811
0.867399 0.279164 0.212253
0.886519 0.302205 0.231617
0.905882 0.321569 0.25098
0.0117647 0.0232853 0.0117647
0.0272068 0.0269627 0.0117647
0.042649 0.0307622 0.0117647
0.0729229 0.0311131 0.0117647
0.10724 0.0349279 0.015198
0.160296 0.0350347 0.0156863
0.221347 0.0381323 0.0156863
0.283085 0.0419318 0.0196078
0.335134 0.0496376 0.0196078
0.378561 0.0546273 0.0235294
0.417273 0.0611887 0.0301518
0.449393 0.0688792 0.0378729
0.484138 0.0766003 0.045594
0.512688 0.0843214 0.0509346
0.538109 0.0920882 0.0571145
0.565011 0.0997482 0.0668498
0.590066 0.109499 0.0763409
0.617029 0.120958 0.084062
0.640269 0.130816 0.091783
0.663355 0.142458 0.0979629
0.686641 0.155596 0.103426
0.705882 0.167163 0.111147
0.727825 0.181369 0.120104
0.747219 0.193042 0.13051
0.766537 0.204685 0.138231
0.78294 0.217151 0.149874
0.801373 0.228779 0.162249
0.816907 0.243519 0.173159
0.836149 0.255756 0.184802
0.848157 0.271199 0.196445
0.867399 0.286885 0.208576
0.886641 0.310048 0.227695
0.905882 0.333089 0.247059
0.0154421 0.042649 0.0154421
0.0308843 0.0463264 0.0154421
0.0465553 0.0500191 0.0154421
0.080293 0.0504616 0.0154421
0.118654 0.0541695 0.0156863
0.175036 0.0544137 0.0156863
0.236759 0.0574044 0.0156863
0.298528 0.0650797 0.0196078
0.350423 0.0728008 0.0223697
0.390326 0.0776989 0.0263523
0.428672 0.0843214 0.0338293
0.461036 0.0920272 0.0402838
0.494209 0.0997482 0.0492714
0.522652 0.107469 0.0569924
0.549615 0.11519 0.0626383
0.574639 0.122911 0.0687572
0.603555 0.132601 0.076463
0.62855 0.144121 0.084184
0.651713 0.153918 0.0935225
0.671199 0.161746 0.0996262
0.694362 0.173373 0.107347
0.716014 0.186435 0.115068
0.735546 0.197955 0.122789
0.754894 0.208453 0.13051
0.770581 0.220096 0.139223
0.7897 0.2318 0.150683
0.805142 0.244114 0.162249
0.820829 0.25507 0.173159
0.836271 0.267155 0.184802
0.851713 0.279271 0.196445
0.870848 0.298054 0.208576
0.890211 0.317769 0.227695
0.909804 0.340932 0.247059
0.0156863 0.065568 0.0192416
0.0311284 0.0693675 0.0192416
0.0465705 0.0698253 0.0192416
0.0772869 0.0769665 0.016022
0.111635 0.0804456 0.0156863
0.168017 0.0881666 0.0196078
0.233707 0.0955367 0.0196078
0.299016 0.106737 0.0196078
0.353643 0.114458 0.0235294
0.39704 0.122179 0.0299992
0.436637 0.1299 0.035172
0.468757 0.137621 0.0417945
0.502083 0.141421 0.0495155
0.53051 0.149142 0.0572366
0.555474 0.153307 0.0649577
0.582361 0.161028 0.0726787
0.60766 0.16875 0.0803845
0.632959 0.176837 0.0881056
0.655756 0.184558 0.0958267
0.677485 0.193729 0.10341
0.698161 0.203922 0.110903
0.716426 0.211643 0.118624
0.73579 0.21973 0.126711
0.755154 0.227558 0.134432
0.771572 0.236515 0.143038
0.789944 0.251591 0.153796
0.805386 0.263416 0.165148
0.820829 0.277943 0.176776
0.836271 0.289586 0.18529
0.851713 0.301595 0.200366
0.871077 0.317052 0.212482
0.89044 0.336416 0.231266
0.906249 0.35613 0.250614
0.0230411 0.0887312 0.0269627
0.03505 0.0925307 0.0269627
0.0500038 0.0963302 0.0269627
0.0738537 0.10045 0.0234073
0.104417 0.107408 0.0200351
0.167117 0.121889 0.0196078
0.232685 0.134066 0.0196078
0.298268 0.148394 0.0222934
0.353918 0.157229 0.0264744
0.40087 0.167544 0.0338445
0.440925 0.176226 0.0414282
0.476478 0.180194 0.0491493
0.509804 0.184314 0.0568704
0.539834 0.189502 0.0625467
0.562997 0.191913 0.0685893
0.590066 0.196201 0.0760967
0.615198 0.205631 0.0838178
0.640314 0.211643 0.0915389
0.663478 0.219364 0.0997482
0.683009 0.227085 0.106981
0.702266 0.230884 0.111269
0.720027 0.238605 0.12018
0.737011 0.242893 0.130144
0.756115 0.250614 0.137865
0.774502 0.258457 0.146075
0.790707 0.270832 0.158083
0.80882 0.285634 0.169604
0.824262 0.297261 0.180591
0.840192 0.309316 0.192218
0.855192 0.321279 0.204166
0.87129 0.336309 0.219608
0.89044 0.355657 0.23505
0.905882 0.375006 0.25098
0.0235294 0.119112 0.0413062
0.03505 0.123018 0.0413062
0.0504921 0.130068 0.0419165
0.0734112 0.137743 0.0413519
0.100084 0.145464 0.0374609
0.159808 0.160418 0.031281
0.219486 0.171939 0.0274662
0.284566 0.187381 0.0268406
0.345861 0.199725 0.03122
0.394171 0.207599 0.038117
0.439902 0.218631 0.0491493
0.475822 0.222644 0.0568704
0.510292 0.226459 0.0606546
0.54229 0.230274 0.0683757
0.567407 0.232227 0.0724498
0.593866 0.237629 0.0781415
0.619303 0.242039 0.0843214
0.644114 0.248203 0.0920272
0.663966 0.253895 0.0997482
0.686885 0.259937 0.107469
0.704906 0.261769 0.111269
0.723659 0.26949 0.122911
0.740734 0.273289 0.130632
0.759075 0.28101 0.138354
0.777966 0.288731 0.146075
0.793866 0.296574 0.158572
0.809308 0.308705 0.170092
0.82475 0.320348 0.181003
0.840192 0.331991 0.192645
0.855634 0.340627 0.204654
0.871321 0.352453 0.220096
0.89044 0.371695 0.235538
0.905882 0.390936 0.25098
0.0267185 0.153918 0.0534371
0.0382544 0.157824 0.0534371
0.0504921 0.164706 0.0571603
0.0694896 0.172427 0.0573587
0.0933852 0.183673 0.0534371
0.148775 0.199023 0.0462043
0.210544 0.211276 0.0390784
0.275364 0.225986 0.0352483
0.334249 0.241428 0.0383001
0.388571 0.250126 0.0452277
0.435782 0.257847 0.0568704
0.473045 0.262989 0.0645762
0.508309 0.26862 0.0698558
0.540749 0.270832 0.0760967
0.569604 0.274434 0.0798962
0.594491 0.278325 0.0836957
0.623163 0.282231 0.0898299
0.64831 0.286519 0.095613
0.671077 0.288655 0.0997482
0.690761 0.29247 0.107469
0.710018 0.2963 0.111269
0.727443 0.300374 0.122911
0.744625 0.307347 0.130632
0.762997 0.311894 0.138354
0.779232 0.318807 0.149447
0.797055 0.324147 0.158572
0.809308 0.331868 0.170092
0.82475 0.339696 0.181003
0.840192 0.351324 0.192645
0.855634 0.362875 0.204654
0.871321 0.371771 0.220096
0.890547 0.390936 0.23566
0.909804 0.409552 0.254902
0.027451 0.201831 0.0758526
0.0389715 0.2065 0.0758526
0.0504921 0.2103 0.0758526
0.0694896 0.218021 0.0758526
0.0926528 0.223056 0.0758526
0.141527 0.234897 0.0686198
0.196414 0.246647 0.0584115
0.260655 0.261524 0.0538491
0.319356 0.276967 0.0529793
0.377691 0.291783 0.0574807
0.4309 0.30248 0.0645762
0.469688 0.30753 0.0702983
0.506371 0.309117 0.0760967
0.53872 0.313008 0.0838178
0.56788 0.313359 0.0876173
0.594491 0.317281 0.0914168
0.620035 0.319677 0.0952163
0.647028 0.321599 0.0990158
0.671809 0.325124 0.103304
0.693385 0.32723 0.1093
0.712749 0.33051 0.11487
0.728191 0.334874 0.122911
0.744854 0.338964 0.130632
0.762997 0.346456 0.138354
0.779416 0.350484 0.149996
0.797787 0.35668 0.158572
0.812497 0.362005 0.170092
0.825238 0.369726 0.181003
0.843259 0.377935 0.193133
0.855634 0.38909 0.204654
0.871321 0.39791 0.220096
0.894362 0.413474 0.238636
0.909804 0.435782 0.257969
0.027451 0.24509 0.0960708
0.0390631 0.249973 0.0960708
0.0534981 0.25275 0.0960708
0.0728008 0.257481 0.0960708
0.0964523 0.265202 0.0950942
0.138323 0.269825 0.0878614
0.185595 0.277699 0.0772106
0.248371 0.292409 0.0694896
0.307103 0.307836 0.0686198
0.368627 0.325399 0.069337
0.425803 0.33872 0.0702831
0.465843 0.346685 0.0760967
0.502449 0.350484 0.0802625
0.534798 0.351965 0.0876173
0.565682 0.351965 0.0953384
0.591089 0.352483 0.0975814
0.618143 0.355886 0.101472
0.644724 0.358236 0.104906
0.668437 0.361517 0.107164
0.691051 0.363729 0.114336
0.710292 0.364706 0.118746
0.728191 0.367987 0.124849
0.744854 0.372549 0.130632
0.762997 0.376471 0.138354
0.779416 0.380636 0.149996
0.797787 0.385931 0.161639
0.81323 0.392889 0.173281
0.828672 0.40061 0.1841
0.844114 0.407965 0.195712
0.859464 0.413108 0.208484
0.871321 0.421073 0.223102
0.894362 0.43949 0.239582
0.909804 0.4598 0.258824
0.0341955 0.281865 0.111513
0.0458381 0.288518 0.111513
0.063798 0.292287 0.115434
0.0830701 0.296452 0.115434
0.106126 0.303792 0.111879
0.141863 0.305226 0.104723
0.184344 0.312505 0.0965744
0.244114 0.323903 0.0888533
0.29984 0.336614 0.0847791
0.357778 0.354162 0.084062
0.416052 0.369955 0.0821241
0.460304 0.378561 0.0812543
0.498527 0.383825 0.0858625
0.531991 0.386648 0.0925307
0.562249 0.387259 0.0975509
0.589242 0.387747 0.103456
0.615686 0.391119 0.107286
0.641321 0.391669 0.112627
0.66508 0.393378 0.117784
0.687785 0.39559 0.122057
0.709239 0.398825 0.128679
0.728191 0.400854 0.133577
0.744854 0.403433 0.139315
0.762997 0.407355 0.145098
0.779416 0.411276 0.153796
0.797787 0.416052 0.165316
0.81323 0.423774 0.176837
0.828672 0.430884 0.187915
0.847547 0.435294 0.199878
0.859556 0.440467 0.21239
0.871321 0.45098 0.224201
0.894362 0.466453 0.243473
0.909804 0.482963 0.262745
0.0419165 0.319356 0.124269
0.0573587 0.323201 0.126955
0.0728008 0.330877 0.130877
0.0946059 0.334676 0.130877
0.117647 0.338628 0.130877
0.151354 0.342885 0.123659
0.188251 0.347814 0.118624
0.241047 0.355032 0.110903
0.29308 0.366659 0.104112
0.350027 0.38201 0.0975662
0.40441 0.399649 0.0937362
0.449393 0.40943 0.0898909
0.493599 0.41471 0.0897383
0.528191 0.418631 0.0952163
0.558373 0.422019 0.100252
0.586648 0.425238 0.107317
0.612375 0.425238 0.114458
0.639384 0.425238 0.122179
0.663966 0.426474 0.125978
0.685542 0.429664 0.132113
0.706371 0.431403 0.137499
0.726421 0.434318 0.144793
0.743633 0.434318 0.14902
0.761059 0.438239 0.156741
0.778439 0.442161 0.164462
0.795682 0.446937 0.172183
0.81323 0.451957 0.183825
0.826398 0.458457 0.193194
0.844114 0.463325 0.204746
0.859556 0.469978 0.218753
0.874998 0.477943 0.23064
0.894362 0.493385 0.247395
0.909804 0.508827 0.266667
0.0561227 0.351476 0.141054
0.0690013 0.357885 0.142397
0.0870069 0.36556 0.146319
0.107347 0.369482 0.149996
0.129335 0.374502 0.148898
0.160906 0.378714 0.142809
0.197803 0.38468 0.138964
0.243626 0.392401 0.131502
0.292149 0.400122 0.122759
0.342275 0.412009 0.115679
0.390997 0.424872 0.110109
0.439902 0.435508 0.10454
0.483223 0.444114 0.101579
0.52047 0.448463 0.100618
0.551354 0.453437 0.101961
0.581521 0.457359 0.107973
0.610483 0.457359 0.115679
0.636881 0.457359 0.1234
0.660044 0.457359 0.131121
0.68217 0.46128 0.138308
0.702449 0.462745 0.14522
0.724269 0.465202 0.152941
0.741863 0.465202 0.160662
0.759075 0.469123 0.167041
0.778439 0.473045 0.175097
0.793866 0.476967 0.183825
0.812497 0.481132 0.191546
0.82536 0.486549 0.199878
0.844114 0.492821 0.211398
0.859556 0.496941 0.226474
0.874998 0.504738 0.238361
0.894362 0.517769 0.253925
0.909804 0.533211 0.273167
0.0715648 0.388724 0.157839
0.0831617 0.395026 0.161715
0.102449 0.404166 0.164065
0.121675 0.40441 0.165682
0.14461 0.408331 0.165682
0.175006 0.415564 0.164446
0.20708 0.423285 0.160296
0.249973 0.431006 0.153307
0.292149 0.436271 0.145586
0.336034 0.440757 0.137865
0.378439 0.449271 0.130144
0.42623 0.460395 0.123903
0.471626 0.471077 0.116182
0.511742 0.477348 0.112383
0.545007 0.483238 0.109407
0.576959 0.487083 0.113039
0.605386 0.488243 0.119615
0.631662 0.488243 0.127321
0.656962 0.488243 0.136126
0.679286 0.492149 0.14522
0.700008 0.493629 0.152941
0.720851 0.496086 0.163622
0.740169 0.496086 0.168383
0.759075 0.500694 0.176791
0.774884 0.503929 0.186267
0.793866 0.507836 0.193988
0.809308 0.511772 0.201999
0.82475 0.515694 0.21091
0.841672 0.520104 0.221256
0.859556 0.525231 0.234195
0.874998 0.531716 0.246082
0.894362 0.544808 0.26157
0.909804 0.560296 0.280888
0.0870069 0.427329 0.177203
0.104784 0.431174 0.177203
0.123903 0.438849 0.181125
0.13959 0.440543 0.18468
0.158007 0.440681 0.185046
0.186526 0.447913 0.181125
0.218692 0.453742 0.177935
0.254185 0.460685 0.174136
0.293141 0.465415 0.16817
0.331746 0.471397 0.158694
0.371435 0.476341 0.153307
0.41648 0.484062 0.145586
0.460426 0.495705 0.136416
0.503426 0.503426 0.127825
0.535912 0.507225 0.124025
0.570718 0.512871 0.122301
0.600793 0.515999 0.124697
0.626719 0.516793 0.129656
0.649882 0.517815 0.138079
0.673045 0.519768 0.148287
0.696208 0.523033 0.158328
0.718013 0.524636 0.168383
0.736278 0.525353 0.176104
0.755596 0.527413 0.184924
0.772763 0.532479 0.195468
0.790814 0.535149 0.203189
0.809308 0.537133 0.21091
0.82475 0.542901 0.219242
0.840192 0.546761 0.230274
0.859556 0.5523 0.241917
0.874998 0.556497 0.253803
0.894362 0.568017 0.269245
0.909804 0.581125 0.288609
0.106371 0.4598 0.192645
0.124025 0.463722 0.194781
0.143252 0.471321 0.196567
0.158831 0.471565 0.198123
0.175769 0.471565 0.200488
0.198657 0.476936 0.199039
0.226719 0.482597 0.196979
0.260655 0.486778 0.191791
0.29369 0.491905 0.185779
0.331746 0.49633 0.178058
0.368826 0.502251 0.172549
0.410071 0.507225 0.165423
0.452537 0.51603 0.155734
0.491783 0.524392 0.147189
0.528191 0.530388 0.139467
0.559075 0.536034 0.135668
0.593866 0.541054 0.133822
0.622003 0.543877 0.135546
0.64828 0.543877 0.141176
0.669245 0.546777 0.149599
0.692409 0.548623 0.161181
0.713848 0.55172 0.170733
0.734264 0.55172 0.1823
0.752941 0.554406 0.191546
0.770581 0.555642 0.201526
0.78822 0.559564 0.21091
0.807111 0.561685 0.218631
0.821103 0.567407 0.226612
0.840192 0.571328 0.237995
0.855802 0.575616 0.247639
0.872938 0.57966 0.259312
0.890501 0.591058 0.276967
0.907591 0.600488 0.294118
0.127825 0.488609 0.208087
0.141176 0.49247 0.208087
0.160296 0.498405 0.212009
0.175982 0.500374 0.212009
0.191424 0.50219 0.215671
0.214099 0.50605 0.21593
0.238743 0.507866 0.214435
0.268833 0.512139 0.208942
0.296208 0.51606 0.204685
0.331746 0.519982 0.197421
0.366415 0.526589 0.1897
0.406226 0.530388 0.181979
0.446769 0.538109 0.17557
0.484062 0.543755 0.167391
0.518746 0.550439 0.158816
0.551354 0.555276 0.15111
0.585107 0.562066 0.14638
0.617029 0.567041 0.144366
0.642283 0.567041 0.147189
0.665446 0.570962 0.152697
0.688609 0.573571 0.162249
0.711131 0.574884 0.171328
0.731868 0.576104 0.182849
0.751232 0.578805 0.194369
0.770581 0.578805 0.205417
0.786892 0.582727 0.215106
0.805386 0.583459 0.226352
0.820829 0.59057 0.234073
0.836759 0.591058 0.245716
0.855634 0.596521 0.253803
0.871321 0.600626 0.265324
0.89044 0.612131 0.280888
0.905882 0.619852 0.30013
0.14902 0.517647 0.223529
0.160601 0.521447 0.223529
0.175982 0.525246 0.227451
0.191424 0.52726 0.227451
0.210788 0.529412 0.230884
0.233463 0.533028 0.231373
0.253071 0.536889 0.231373
0.279774 0.537255 0.227878
0.306371 0.539208 0.222553
0.33817 0.543145 0.214832
0.368261 0.549752 0.209812
0.40502 0.553552 0.203311
0.440925 0.558831 0.19559
0.477943 0.563912 0.187869
0.511894 0.567773 0.180148
0.544671 0.573587 0.172427
0.578424 0.580392 0.164706
0.609308 0.588113 0.158953
0.638483 0.590188 0.156863
0.661646 0.59411 0.160418
0.684062 0.59559 0.167407
0.706004 0.598047 0.173892
0.728557 0.598047 0.182849
0.748409 0.601953 0.195773
0.767163 0.602457 0.209308
0.786465 0.60589 0.22089
0.805386 0.608209 0.232105
0.820829 0.611765 0.240131
0.836271 0.613733 0.251713
0.853864 0.617655 0.263294
0.871077 0.619974 0.273045
0.888548 0.629541 0.292409
0.905882 0.637263 0.307836
0.168383 0.546685 0.238972
0.179965 0.54847 0.238972
0.195346 0.550607 0.240925
0.208896 0.554162 0.242725
0.22623 0.554528 0.246326
0.24889 0.55845 0.246815
0.268879 0.561639 0.246815
0.29482 0.562371 0.246815
0.318379 0.562371 0.242893
0.34696 0.566293 0.236149
0.37464 0.570214 0.228428
0.405661 0.575509 0.220706
0.439704 0.580514 0.215442
0.473289 0.585153 0.209186
0.506065 0.587076 0.202502
0.539834 0.591913 0.194614
0.573587 0.599634 0.186023
0.605509 0.606485 0.178302
0.633509 0.612329 0.173342
0.658595 0.614206 0.172305
0.68101 0.617273 0.17438
0.704173 0.619364 0.179019
0.725246 0.619944 0.1841
0.745983 0.62179 0.198291
0.766674 0.62565 0.209796
0.782971 0.627604 0.221317
0.802213 0.631479 0.236027
0.820829 0.632959 0.245594
0.836271 0.633463 0.257496
0.851713 0.638972 0.269062
0.871077 0.639338 0.280766
0.886519 0.650858 0.296269
0.905882 0.658579 0.313726
0.187747 0.571572 0.258335
0.197177 0.57377 0.254414
0.210788 0.57377 0.254414
0.22623 0.575769 0.257969
0.241672 0.577691 0.261769
0.262898 0.581613 0.262257
0.283574 0.584802 0.262257
0.306737 0.585534 0.262257
0.333394 0.585534 0.259312
0.358572 0.589456 0.251591
0.382361 0.593378 0.245594
0.40943 0.597299 0.237873
0.440345 0.60058 0.232349
0.468132 0.604456 0.226352
0.500267 0.606394 0.221805
0.533013 0.611154 0.214832
0.566918 0.617151 0.206256
0.599512 0.62385 0.19939
0.62771 0.628672 0.19263
0.654047 0.633494 0.188769
0.677852 0.635447 0.186282
0.702083 0.638727 0.186023
0.722835 0.640436 0.19118
0.744488 0.642649 0.199512
0.765377 0.643626 0.209796
0.782589 0.646571 0.22266
0.801877 0.650492 0.236759
0.819379 0.652201 0.249729
0.836271 0.652689 0.261311
0.851713 0.658335 0.275044
0.871077 0.658686 0.286763
0.886519 0.670222 0.303914
0.905882 0.677943 0.319356
0.207111 0.596933 0.273777
0.216373 0.596933 0.269902
0.22797 0.600717 0.269856
0.24181 0.600855 0.273548
0.257115 0.602258 0.275166
0.276478 0.60441 0.277699
0.295537 0.606668 0.277699
0.320073 0.608698 0.277699
0.344945 0.608698 0.277699
0.368505 0.612619 0.270954
0.393271 0.61532 0.264332
0.417151 0.618875 0.257115
0.441779 0.621927 0.250843
0.468788 0.624384 0.243992
0.497429 0.627619 0.240192
0.528313 0.631479 0.233326
0.561944 0.635355 0.226352
0.593256 0.640314 0.219715
0.620951 0.644114 0.214832
0.646326 0.650248 0.208698
0.673411 0.654765 0.203311
0.696574 0.656565 0.199268
0.719005 0.659678 0.199985
0.738964 0.662013 0.205509
0.761547 0.662409 0.212741
0.780865 0.665934 0.225238
0.801465 0.667964 0.236759
0.817517 0.6701 0.251591
0.836271 0.673976 0.263722
0.851713 0.679286 0.276844
0.871077 0.67953 0.292287
0.886519 0.689586 0.30779
0.905882 0.694972 0.327077
0.227939 0.621576 0.290684
0.23566 0.621576 0.286839
0.247303 0.624018 0.286763
0.261173 0.624018 0.289219
0.276478 0.627634 0.292653
0.291905 0.627939 0.293141
0.307347 0.627939 0.293141
0.333165 0.627939 0.294606
0.355764 0.631861 0.293507
0.378561 0.634684 0.290684
0.401709 0.635782 0.284062
0.421805 0.639704 0.279759
0.447486 0.643076 0.272557
0.469734 0.643626 0.264836
0.495094 0.646906 0.257115
0.523354 0.650782 0.252613
0.555398 0.654658 0.246815
0.584436 0.656535 0.241794
0.611521 0.66038 0.237156
0.638605 0.666285 0.230869
0.66569 0.671077 0.226474
0.692271 0.675837 0.218753
0.71516 0.677913 0.215717
0.736233 0.681376 0.216861
0.757717 0.682841 0.219608
0.778729 0.685618 0.227863
0.800275 0.687221 0.240223
0.817288 0.690684 0.25182
0.836271 0.693324 0.263722
0.851713 0.6972 0.279301
0.871077 0.698772 0.296086
0.886519 0.708949 0.314015
0.905882 0.714214 0.333333
0.247181 0.647181 0.308583
0.257481 0.647181 0.304784
0.268879 0.650858 0.304662
0.280385 0.651102 0.304662
0.291905 0.651102 0.308583
0.307347 0.651102 0.308583
0.322789 0.651102 0.308583
0.348852 0.651102 0.312505
0.369024 0.655024 0.312505
0.390188 0.65687 0.308583
0.40943 0.658518 0.305882
0.43003 0.662409 0.301198
0.451835 0.664469 0.294362
0.474205 0.665446 0.285115
0.495689 0.666789 0.279683
0.522057 0.670085 0.273915
0.54902 0.673961 0.268757
0.57734 0.674632 0.262867
0.6038 0.67892 0.258946
0.630884 0.682719 0.254475
0.655512 0.689479 0.249638
0.685054 0.692897 0.241917
0.708217 0.696818 0.237186
0.73138 0.698878 0.235035
0.754528 0.701076 0.234073
0.775128 0.704952 0.23856
0.797543 0.708583 0.245228
0.816907 0.709926 0.255726
0.834928 0.712505 0.267643
0.848157 0.714092 0.283085
0.871077 0.716747 0.298619
0.886519 0.725734 0.315435
0.905882 0.733455 0.338598
0.266423 0.670344 0.325246
0.276753 0.670344 0.324025
0.284566 0.670344 0.324025
0.295827 0.670344 0.321324
0.3075 0.674113 0.324025
0.322789 0.674266 0.324025
0.338231 0.674266 0.325246
0.360662 0.674266 0.327352
0.382605 0.67628 0.327947
0.399893 0.676966 0.326009
0.417533 0.678187 0.324025
0.437751 0.681682 0.320516
0.459556 0.683787 0.314946
0.478065 0.685527 0.306004
0.497353 0.68603 0.299504
0.522637 0.689372 0.294484
0.54902 0.692653 0.289342
0.574136 0.693874 0.283543
0.599023 0.695048 0.279698
0.624384 0.700984 0.275868
0.651469 0.705882 0.268879
0.677745 0.709682 0.262501
0.701717 0.712642 0.258579
0.727581 0.716518 0.254307
0.750729 0.720409 0.250431
0.773312 0.72192 0.253437
0.794369 0.727947 0.25417
0.813413 0.729168 0.261692
0.832349 0.729503 0.268879
0.848157 0.733089 0.284321
0.871077 0.736034 0.299916
0.886519 0.743755 0.321859
0.905882 0.751476 0.342397
0.284566 0.693507 0.344488
0.292287 0.693507 0.340658
0.299992 0.693507 0.339529
0.311269 0.692409 0.339467
0.32314 0.692409 0.339467
0.338231 0.692409 0.339467
0.352575 0.693507 0.343389
0.372183 0.693507 0.343389
0.391302 0.69633 0.343389
0.410666 0.697429 0.343389
0.426108 0.699367 0.341451
0.445472 0.700252 0.339467
0.465522 0.70135 0.333089
0.484184 0.703029 0.326467
0.501839 0.706371 0.318746
0.523903 0.708095 0.313848
0.549569 0.712016 0.308644
0.574136 0.713115 0.302846
0.599023 0.714351 0.299016
0.624384 0.718181 0.295186
0.6486 0.722011 0.289586
0.674632 0.725124 0.284306
0.697795 0.731624 0.280522
0.721752 0.733516 0.276722
0.746929 0.739467 0.272084
0.770092 0.741176 0.269734
0.792737 0.743587 0.269398
0.812055 0.747311 0.273228
0.828916 0.74876 0.280018
0.848157 0.751324 0.288106
0.871077 0.755398 0.306447
0.886519 0.763119 0.323033
0.905882 0.768017 0.346197
0.299992 0.712749 0.363729
0.307713 0.712749 0.359899
0.315435 0.712749 0.358831
0.326711 0.711864 0.355001
0.337377 0.711772 0.354894
0.349752 0.711772 0.358358
0.364218 0.712749 0.359625
0.38294 0.712749 0.359808
0.399756 0.716426 0.359808
0.418387 0.71667 0.359808
0.433829 0.718685 0.359136
0.453193 0.7196 0.355245
0.474998 0.720592 0.353063
0.491905 0.720592 0.345708
0.50956 0.724086 0.341909
0.528801 0.72607 0.334188
0.551965 0.728435 0.327947
0.574136 0.731838 0.322667
0.599023 0.735286 0.318318
0.624384 0.737469 0.315068
0.647547 0.7402 0.308827
0.67071 0.743481 0.306828
0.693874 0.747372 0.300984
0.717037 0.751263 0.299168
0.742397 0.755154 0.293141
0.763363 0.759045 0.289219
0.786526 0.762936 0.285847
0.809522 0.764187 0.288243
0.828794 0.766674 0.288731
0.848157 0.770581 0.299382
0.8701 0.771817 0.31133
0.886519 0.779507 0.330724
0.901961 0.786282 0.349996
0.315435 0.735912 0.382971
0.323156 0.735912 0.379141
0.330083 0.735912 0.37818
0.341375 0.731991 0.375128
0.35024 0.731991 0.375128
0.361746 0.731991 0.377707
0.376715 0.735164 0.378882
0.394553 0.735912 0.379049
0.410666 0.735912 0.379049
0.426719 0.735912 0.379049
0.444511 0.739834 0.379049
0.463478 0.739834 0.375128
0.48304 0.742275 0.373205
0.500496 0.743755 0.368872
0.51899 0.743755 0.363729
0.536522 0.747677 0.357351
0.555764 0.749203 0.350484
0.578515 0.751598 0.34583
0.599496 0.75552 0.340307
0.624384 0.756756 0.336416
0.647547 0.759441 0.331991
0.67071 0.762798 0.328634
0.689952 0.766415 0.324727
0.71397 0.768383 0.320836
0.739345 0.774472 0.316945
0.762493 0.775982 0.313054
0.785092 0.782269 0.308461
0.805753 0.782971 0.307973
0.82768 0.783352 0.304921
0.847013 0.786892 0.311894
0.866346 0.790188 0.320043
0.882689 0.797909 0.339315
0.901106 0.802579 0.357717
0.330877 0.759075 0.405386
0.338598 0.758358 0.398413
0.342397 0.755154 0.397589
0.353979 0.755154 0.397543
0.365682 0.755154 0.398199
0.376593 0.755154 0.398291
0.388235 0.755154 0.398291
0.406165 0.755154 0.398291
0.422309 0.758892 0.400671
0.437751 0.759075 0.401465
0.453925 0.761257 0.399283
0.472557 0.762997 0.398291
0.494362 0.764981 0.397818
0.511269 0.766918 0.392477
0.528923 0.766918 0.388647
0.546075 0.768597 0.38294
0.563485 0.77084 0.377447
0.584802 0.772671 0.372915
0.604166 0.778256 0.36733
0.624826 0.778683 0.3617
0.647547 0.779873 0.35787
0.67071 0.782605 0.354528
0.689952 0.786007 0.351736
0.713115 0.787411 0.348043
0.736278 0.793622 0.344121
0.759441 0.795056 0.340032
0.782467 0.801465 0.336141
0.804532 0.805386 0.332357
