YOYO-Client/Yoyo/Assets.xcassets/Texas.dataset/Kodak-Gold-Master.cube
TITLE "Generated by Resolve"
LUT_3D_SIZE 9
0.00784314 0.00784314 0.0117647
0.100008 0.015198 0.015198
0.322545 0.0264744 0.0196078
0.472541 0.0573587 0.0431373
0.578439 0.0882429 0.0725414
0.67892 0.136278 0.103426
0.759808 0.190188 0.138231
0.832349 0.244602 0.184802
0.905882 0.321569 0.25098
0.0230411 0.0887312 0.0269627
0.104417 0.107408 0.0200351
0.353918 0.157229 0.0264744
0.509804 0.184314 0.0568704
0.615198 0.205631 0.0838178
0.702266 0.230884 0.111269
0.774502 0.258457 0.146075
0.840192 0.309316 0.192218
0.905882 0.375006 0.25098
0.027451 0.24509 0.0960708
0.0964523 0.265202 0.0950942
0.307103 0.307836 0.0686198
0.502449 0.350484 0.0802625
0.618143 0.355886 0.101472
0.710292 0.364706 0.118746
0.779416 0.380636 0.149996
0.844114 0.407965 0.195712
0.909804 0.4598 0.258824
0.0715648 0.388724 0.157839
0.14461 0.408331 0.165682
0.292149 0.436271 0.145586
0.471626 0.471077 0.116182
0.605386 0.488243 0.119615
0.700008 0.493629 0.152941
0.774884 0.503929 0.186267
0.841672 0.520104 0.221256
0.909804 0.560296 0.280888
0.14902 0.517647 0.223529
0.210788 0.529412 0.230884
0.306371 0.539208 0.222553
0.440925 0.558831 0.19559
0.578424 0.580392 0.164706
0.684062 0.59559 0.167407
0.767163 0.602457 0.209308
0.836271 0.613733 0.251713
0.905882 0.637263 0.307836
0.227939 0.621576 0.290684
0.276478 0.627634 0.292653
0.355764 0.631861 0.293507
0.447486 0.643076 0.272557
0.555398 0.654658 0.246815
0.66569 0.671077 0.226474
0.757717 0.682841 0.219608
0.836271 0.693324 0.263722
0.905882 0.714214 0.333333
0.299992 0.712749 0.363729
0.337377 0.711772 0.354894
0.399756 0.716426 0.359808
0.474998 0.720592 0.353063
0.551965 0.728435 0.327947
0.647547 0.7402 0.308827
0.742397 0.755154 0.293141
0.828794 0.766674 0.288731
0.901961 0.786282 0.349996
0.362249 0.805386 0.452445
0.392157 0.797543 0.440681
0.448646 0.801465 0.440681
0.511269 0.805386 0.440681
0.582849 0.812985 0.431128
0.651957 0.820768 0.417639
0.732723 0.829786 0.404898
0.824506 0.844175 0.393622
0.898039 0.855879 0.405386
0.443137 0.909804 0.560784
0.473533 0.901961 0.552941
0.519615 0.905882 0.556863
0.581369 0.908339 0.560784
0.645106 0.913725 0.566659
0.712749 0.921569 0.560784
0.782345 0.926467 0.556863
0.856367 0.933333 0.545098
0.92549 0.941176 0.545098
0.0156863 0.015198 0.0774548
0.0843824 0.015198 0.103487
0.309926 0.0225528 0.0852979
0.464698 0.0576638 0.126467
0.573037 0.107591 0.153429
0.674998 0.161761 0.176776
0.752331 0.205753 0.203922
0.828428 0.262806 0.246571
0.905882 0.333333 0.308827
0.0348058 0.0848096 0.100008
0.0891585 0.100496 0.118746
0.330877 0.13463 0.0922255
0.494499 0.180392 0.129839
0.600244 0.215198 0.167376
0.693034 0.242908 0.18851
0.766674 0.275319 0.215625
0.836271 0.320211 0.254414
0.905882 0.382849 0.308827
0.039704 0.226841 0.146075
0.0840467 0.25272 0.173465
0.301045 0.299443 0.149844
0.500847 0.341039 0.160784
0.612009 0.355886 0.174945
0.702449 0.370092 0.194217
0.774609 0.38912 0.22153
0.836759 0.41323 0.258335
0.906249 0.467521 0.317037
0.079408 0.38529 0.207843
0.135485 0.407874 0.234379
0.284932 0.43595 0.220005
0.466346 0.467155 0.188739
0.600732 0.484565 0.190295
0.693919 0.493629 0.223346
0.770581 0.507836 0.24892
0.840192 0.525139 0.280385
0.906065 0.562432 0.334798
0.159319 0.514214 0.273533
0.206897 0.529412 0.293141
0.311833 0.542641 0.289036
0.442405 0.558984 0.257359
0.578424 0.580392 0.230274
0.686763 0.59411 0.229908
0.765194 0.602945 0.267582
0.836271 0.615717 0.311269
0.901961 0.642893 0.361761
0.234501 0.620096 0.335286
0.276493 0.627939 0.350668
0.355581 0.634806 0.350988
0.448035 0.643626 0.332647
0.551659 0.656367 0.306523
0.663233 0.673533 0.281315
0.75552 0.683375 0.277089
0.834806 0.693782 0.317647
0.902144 0.714214 0.381186
0.296086 0.704906 0.393256
0.337377 0.712749 0.406256
0.395102 0.716426 0.410086
0.472557 0.724071 0.405341
0.551965 0.731624 0.383825
0.643626 0.743236 0.36141
0.7402 0.758541 0.346807
0.827573 0.766674 0.339956
0.900984 0.786282 0.4
0.349996 0.7897 0.471565
0.388357 0.797543 0.482414
0.438239 0.797543 0.48333
0.510185 0.805386 0.487221
0.58088 0.81471 0.477455
0.654414 0.82237 0.462165
0.732723 0.829786 0.448402
0.820645 0.841108 0.435843
0.898039 0.855879 0.448463
0.431373 0.898039 0.587747
0.4701 0.901961 0.59559
0.519615 0.905882 0.59559
0.579904 0.908339 0.601968
0.643137 0.917647 0.605142
0.710109 0.921569 0.602945
0.782345 0.929412 0.595102
0.855879 0.933333 0.583825
0.92549 0.941176 0.587259
0.0127413 0.0352941 0.192157
0.0730449 0.0343175 0.219974
0.279408 0.03505 0.240436
0.460288 0.045594 0.235294
0.567163 0.0911727 0.242649
0.667155 0.167651 0.268009
0.750988 0.225483 0.292165
0.824628 0.274144 0.323033
0.898039 0.341176 0.367651
0.0348058 0.093019 0.215564
0.0786297 0.104631 0.246098
0.288518 0.115969 0.252567
0.47924 0.155413 0.244724
0.590188 0.202884 0.266911
0.682841 0.250751 0.280888
0.759808 0.286824 0.306493
0.832349 0.327947 0.327947
0.898894 0.39118 0.373159
0.0313725 0.212497 0.242161
0.0628367 0.230976 0.270466
0.262867 0.2804 0.276478
0.481743 0.320104 0.233265
0.6 0.346319 0.251957
0.69041 0.370092 0.277943
0.764096 0.392401 0.304662
0.83563 0.420127 0.335546
0.901228 0.466911 0.381369
0.0568704 0.369726 0.288243
0.0920272 0.377935 0.309133
0.260288 0.424231 0.324361
0.454612 0.462135 0.292653
0.593378 0.476967 0.293873
0.687129 0.493629 0.313237
0.765377 0.511772 0.333822
0.836271 0.527947 0.355032
0.905882 0.560296 0.401587
0.134798 0.502937 0.342153
0.179294 0.514214 0.360113
0.29987 0.53872 0.371695
0.435782 0.558831 0.348104
0.571084 0.578439 0.317403
0.679225 0.59411 0.318868
0.760174 0.602945 0.353429
0.834379 0.617838 0.383459
0.901961 0.641184 0.426474
0.217151 0.612619 0.4
0.262379 0.623789 0.412741
0.345708 0.632319 0.418051
0.445655 0.646082 0.412131
0.549325 0.658579 0.37966
0.659922 0.673533 0.358297
0.754406 0.685298 0.3561
0.832349 0.694591 0.393881
0.901961 0.714214 0.453437
0.283574 0.704906 0.454902
0.329656 0.711696 0.466575
0.384863 0.716426 0.469245
0.469245 0.724147 0.46952
0.552697 0.733455 0.452567
0.643626 0.743511 0.42916
0.736828 0.757168 0.411582
0.824598 0.766674 0.410239
0.901961 0.787015 0.466423
0.338231 0.7897 0.524636
0.378149 0.796735 0.5299
0.432013 0.797543 0.535424
0.502144 0.804974 0.540276
0.578988 0.81648 0.537194
0.653574 0.822553 0.52372
0.731502 0.832746 0.505882
0.817258 0.844495 0.493629
0.898039 0.856367 0.509316
0.427451 0.898039 0.630396
0.465812 0.899016 0.634318
0.511757 0.90515 0.640436
0.573526 0.909804 0.645106
0.639704 0.917647 0.650004
0.712749 0.92549 0.649638
0.782345 0.929412 0.645106
0.856367 0.933822 0.636881
0.92549 0.941176 0.637263
0.0156863 0.0573587 0.303929
0.0696117 0.0534371 0.323033
0.237125 0.0509804 0.364706
0.435782 0.0479744 0.369116
0.556863 0.0629892 0.353429
0.663233 0.147616 0.35938
0.744121 0.231861 0.380514
0.816663 0.299016 0.407843
0.894118 0.364706 0.448035
0.0451057 0.104906 0.343145
0.0802472 0.110964 0.358755
0.243488 0.120333 0.40032
0.45539 0.106798 0.405219
0.58294 0.153765 0.394797
0.684016 0.236469 0.394003
0.759808 0.304234 0.410254
0.832349 0.35874 0.423362
0.905882 0.421073 0.458518
0.0383612 0.219608 0.370596
0.0697337 0.232975 0.392645
0.206195 0.254414 0.416144
0.454475 0.296071 0.400687
0.592401 0.333333 0.361089
0.686763 0.367422 0.368429
0.759808 0.405875 0.389181
0.832349 0.438987 0.41323
0.905882 0.488228 0.459434
0.0362707 0.353429 0.390188
0.0682536 0.367285 0.409613
0.204532 0.396307 0.425422
0.433341 0.458183 0.439765
0.580941 0.479194 0.40174
0.682261 0.498512 0.398383
0.76022 0.51606 0.414099
0.835477 0.535485 0.435111
0.905882 0.57052 0.477028
0.0882429 0.481132 0.423041
0.12549 0.492744 0.437415
0.260288 0.518135 0.457359
0.421576 0.558267 0.470863
0.561517 0.582971 0.447547
0.671077 0.592432 0.434073
0.755581 0.60589 0.442771
0.832349 0.619852 0.459403
0.901961 0.643137 0.493141
0.19173 0.602884 0.47396
0.233936 0.610727 0.487251
0.32488 0.623407 0.496208
0.432349 0.641581 0.506859
0.54583 0.662501 0.491203
0.653925 0.673533 0.462257
0.744808 0.682841 0.457465
0.828428 0.693919 0.483162
0.901961 0.714214 0.520104
0.262257 0.697063 0.519982
0.303426 0.704021 0.528359
0.368658 0.708675 0.534829
0.452567 0.719142 0.541344
0.546136 0.734554 0.53872
0.639704 0.747814 0.513726
0.732357 0.757992 0.495064
0.822049 0.767559 0.494606
0.898039 0.790188 0.541054
0.320287 0.787259 0.576471
0.358389 0.7897 0.585351
0.416175 0.794598 0.590204
0.487053 0.802167 0.592721
0.571084 0.815686 0.601968
0.648035 0.827741 0.59382
0.729809 0.835386 0.574639
0.816724 0.841108 0.561303
0.894118 0.8598 0.574823
0.41323 0.895582 0.676966
0.451774 0.898039 0.679408
0.500374 0.901961 0.684443
0.563241 0.906798 0.688731
0.630152 0.913725 0.697795
0.705455 0.92549 0.699016
0.779416 0.929412 0.692287
0.856062 0.937255 0.68333
0.92549 0.941176 0.680888
0.021561 0.0882429 0.427451
0.0735332 0.0845655 0.443137
0.193133 0.0725414 0.467643
0.402945 0.0705882 0.497307
0.537255 0.0637217 0.500008
0.643137 0.0867628 0.489464
0.7402 0.195102 0.488731
0.81471 0.281621 0.504417
0.890196 0.362737 0.547051
0.0539254 0.123033 0.454902
0.0852979 0.128466 0.470527
0.198779 0.129961 0.497856
0.417899 0.127443 0.524758
0.556863 0.111513 0.533333
0.669123 0.170748 0.528527
0.756863 0.267155 0.519799
0.828428 0.339208 0.529656
0.901961 0.420584 0.562997
0.0509804 0.229419 0.489219
0.0816205 0.239216 0.507912
0.170596 0.239216 0.516548
0.406561 0.279286 0.554406
0.567407 0.287007 0.558572
0.677516 0.340688 0.53431
0.759686 0.391791 0.507347
0.832349 0.436332 0.507347
0.905882 0.487739 0.541176
0.0568704 0.354162 0.503182
0.0925612 0.373373 0.527642
0.208392 0.392584 0.54081
0.393317 0.431159 0.569604
0.564095 0.468132 0.560418
0.678157 0.49485 0.509102
0.756985 0.512993 0.499565
0.828916 0.536126 0.513298
0.901961 0.56495 0.551476
0.0725414 0.473533 0.522545
0.0990158 0.4804 0.534188
0.200488 0.494606 0.54461
0.38529 0.539345 0.569726
0.539223 0.577935 0.58529
0.658457 0.590188 0.545464
0.750484 0.601953 0.524758
0.829786 0.615076 0.535424
0.901961 0.638239 0.563729
0.131121 0.578927 0.541421
0.157504 0.584314 0.552453
0.265202 0.601831 0.567895
0.398047 0.626474 0.586282
0.522789 0.653681 0.600122
0.645869 0.679652 0.588235
0.742885 0.681559 0.560357
0.824994 0.690684 0.556619
0.901961 0.712749 0.585779
0.220096 0.681865 0.58529
0.259861 0.689036 0.596567
0.328435 0.698528 0.600977
0.421012 0.708644 0.610605
0.522057 0.727947 0.622553
0.633326 0.75024 0.617899
0.73138 0.759808 0.596201
0.817151 0.767834 0.583703
0.899504 0.787259 0.618143
0.285298 0.776226 0.630152
0.324025 0.781857 0.636271
0.381369 0.785779 0.643198
0.459892 0.794705 0.651957
0.552575 0.809186 0.664576
0.63888 0.827359 0.665599
0.728618 0.840192 0.65301
0.81323 0.844816 0.634104
0.894118 0.8598 0.653681
0.376471 0.886275 0.713726
0.420584 0.893874 0.723537
0.469123 0.894118 0.723537
0.542641 0.90515 0.733333
0.617655 0.912749 0.742153
0.697795 0.921569 0.74902
0.776959 0.933333 0.746563
0.855879 0.937255 0.737011
0.92549 0.945098 0.737255
0.0156863 0.132357 0.552453
0.0696117 0.13254 0.570275
0.155764 0.112749 0.569604
0.367163 0.104906 0.601953
0.522057 0.0830854 0.612253
0.628855 0.0793469 0.61857
0.7234 0.13431 0.617655
0.812741 0.25098 0.621576
0.887739 0.345098 0.654414
0.042649 0.167163 0.572061
0.0887312 0.167163 0.584131
0.171405 0.154986 0.592645
0.386709 0.162737 0.625376
0.533822 0.128283 0.637751
0.652873 0.12726 0.649027
0.745724 0.207233 0.652949
0.828428 0.315755 0.654231
0.898039 0.401648 0.677943
0.0470588 0.243503 0.589212
0.0858778 0.25098 0.60882
0.165682 0.247059 0.615045
0.365545 0.279164 0.655528
0.537255 0.27396 0.662989
0.65977 0.289296 0.679408
0.750698 0.355276 0.66746
0.824857 0.423041 0.658335
0.900984 0.48333 0.668635
0.0612802 0.366674 0.616175
0.107469 0.381247 0.638056
0.195956 0.39057 0.648646
0.357031 0.410788 0.668345
0.525216 0.440192 0.69041
0.661021 0.469612 0.694957
0.747814 0.508278 0.672663
0.828428 0.528923 0.636454
0.899504 0.562676 0.648951
0.0911727 0.475242 0.635294
0.137987 0.485603 0.645106
0.243076 0.504417 0.658335
0.37966 0.533822 0.674998
0.510292 0.560662 0.701595
0.644663 0.594125 0.703914
0.7402 0.609812 0.667094
0.824811 0.610056 0.632166
0.898039 0.633341 0.645838
0.104906 0.573037 0.645106
0.146685 0.576959 0.651972
0.224125 0.584802 0.655879
0.356802 0.610788 0.671077
0.496574 0.644572 0.696574
0.628855 0.677089 0.709377
0.728435 0.682841 0.678294
0.822416 0.685481 0.638056
0.898039 0.702449 0.656306
0.150118 0.6663 0.654902
0.187747 0.669474 0.657984
0.258824 0.676249 0.663569
0.377798 0.699138 0.680919
0.49601 0.72047 0.7019
0.613718 0.743511 0.711269
0.724514 0.766918 0.707851
0.817151 0.767651 0.677852
0.901961 0.782971 0.686275
0.225498 0.772549 0.694118
0.264683 0.770397 0.694118
0.325536 0.778164 0.701915
0.421073 0.7897 0.717159
0.51986 0.802548 0.725643
0.61912 0.819974 0.738354
0.716976 0.840192 0.73814
0.81323 0.849821 0.722713
0.898039 0.863722 0.732845
0.33431 0.886275 0.775494
0.372549 0.888426 0.775494
0.426474 0.890196 0.777935
0.503914 0.899565 0.783337
0.588724 0.907835 0.788479
0.681376 0.920653 0.802029
0.770092 0.933333 0.804776
0.855879 0.939025 0.798535
0.92549 0.945098 0.795102
0.0137331 0.199023 0.689219
0.0627451 0.202945 0.701961
0.137499 0.180392 0.698039
0.325734 0.170581 0.721935
0.497063 0.130877 0.703914
0.616663 0.10013 0.71606
0.716426 0.106615 0.724514
0.801465 0.185901 0.728435
0.886275 0.319615 0.763729
0.0318608 0.230396 0.701961
0.0780041 0.23389 0.713741
0.153918 0.215198 0.71017
0.345602 0.217014 0.737255
0.51281 0.184375 0.730632
0.632349 0.145144 0.743511
0.736278 0.156497 0.755795
0.820951 0.251957 0.762417
0.900984 0.373526 0.790188
0.0541695 0.269856 0.701961
0.0941176 0.278218 0.715938
0.173526 0.269795 0.71722
0.342641 0.284688 0.742641
0.513237 0.302449 0.758328
0.632349 0.266972 0.759045
0.743328 0.301717 0.777447
0.824506 0.375006 0.774502
0.898039 0.46569 0.797299
0.0960708 0.387259 0.726955
0.138582 0.404776 0.750484
0.207477 0.400854 0.753429
0.341115 0.410925 0.760403
0.488731 0.430884 0.775311
0.64033 0.444312 0.785779
0.747585 0.467247 0.796567
0.82237 0.51487 0.791135
0.894118 0.563241 0.802945
0.165682 0.500496 0.742153
0.211765 0.512261 0.758083
0.284688 0.522667 0.763363
0.375799 0.536339 0.774578
0.481132 0.546563 0.7897
0.619547 0.569055 0.802884
0.735912 0.599634 0.804898
0.816663 0.621317 0.799084
0.886275 0.637751 0.796078
0.162737 0.584802 0.748043
0.200855 0.591546 0.759808
0.270863 0.59884 0.764462
0.381857 0.621073 0.775494
0.49749 0.648219 0.792401
0.609812 0.668254 0.809949
0.720592 0.687648 0.810788
0.809125 0.700984 0.796063
0.890196 0.705272 0.779904
0.150729 0.664698 0.743389
0.184405 0.666423 0.755154
0.243442 0.67274 0.75845
0.343877 0.686763 0.765988
0.462989 0.710781 0.783215
0.593408 0.740688 0.802335
0.711772 0.763729 0.810056
0.802518 0.767651 0.788388
0.897307 0.778439 0.76936
0.176471 0.750484 0.751476
0.215564 0.761273 0.762737
0.274449 0.762036 0.763241
0.359182 0.770397 0.771923
0.473045 0.79118 0.788663
0.592599 0.812345 0.804273
0.698405 0.832471 0.811154
0.808331 0.848844 0.809598
0.901106 0.860288 0.803433
0.273533 0.870588 0.812741
0.310414 0.87451 0.817517
0.360784 0.880644 0.817639
0.44007 0.888106 0.824506
0.535302 0.899504 0.836759
0.642039 0.909804 0.844114
0.750988 0.926223 0.851957
0.843626 0.940322 0.851591
0.920592 0.945098 0.852934
0.0955825 0.287739 0.801465
0.141726 0.296086 0.817151
0.19559 0.280018 0.81323
0.30312 0.258152 0.809796
0.467887 0.246815 0.817151
0.596567 0.173526 0.800183
0.70454 0.119356 0.810178
0.797055 0.126406 0.816724
0.87451 0.218143 0.821073
0.107347 0.330449 0.817212
0.154345 0.338231 0.832837
0.211597 0.322667 0.832837
0.324605 0.300801 0.828916
0.487739 0.293629 0.840681
0.613718 0.219333 0.823713
0.724041 0.161532 0.836271
0.816236 0.172 0.84332
0.890135 0.275914 0.847547
0.118135 0.353918 0.814588
0.161975 0.362951 0.832837
0.225238 0.350637 0.828916
0.340948 0.337881 0.828916
0.492958 0.338964 0.840681
0.617655 0.297185 0.832792
0.725032 0.249851 0.840192
0.820478 0.28896 0.85098
0.894118 0.390188 0.856245
0.135485 0.413718 0.819791
0.185702 0.427512 0.839216
0.250507 0.420493 0.839216
0.347555 0.418143 0.842649
0.471321 0.42858 0.849515
0.618738 0.4448 0.858335
0.730892 0.414359 0.858335
0.828489 0.449363 0.871565
0.894118 0.518441 0.87187
0.194369 0.517891 0.836759
0.241138 0.531594 0.848493
0.292653 0.527703 0.85214
0.370993 0.533333 0.857359
0.471443 0.5402 0.862867
0.594766 0.554314 0.871412
0.725429 0.572732 0.879408
0.822797 0.591455 0.88336
0.890196 0.624994 0.881621
0.230579 0.609125 0.840681
0.269459 0.615198 0.852445
0.332357 0.622965 0.855161
0.413977 0.634501 0.86244
0.49427 0.646174 0.869703
0.597726 0.659129 0.879408
0.711406 0.670848 0.887251
0.815579 0.694118 0.888731
0.890196 0.714214 0.891356
0.203922 0.678309 0.844602
0.242863 0.685786 0.852445
0.300008 0.689586 0.856367
0.382849 0.700496 0.861906
0.492775 0.725246 0.869856
0.604013 0.748211 0.880888
0.70576 0.762707 0.891173
0.80528 0.774289 0.893812
0.890196 0.79118 0.895094
0.176959 0.755337 0.840681
0.215625 0.762737 0.848524
0.265202 0.762737 0.848524
0.337682 0.770565 0.854856
0.439216 0.785779 0.863722
0.562905 0.806683 0.872053
0.689876 0.830106 0.88333
0.800549 0.848157 0.891554
0.894545 0.856794 0.887739
0.227451 0.862745 0.863722
0.262196 0.870527 0.871565
0.315679 0.873167 0.875486
0.387259 0.87451 0.875486
0.473777 0.887984 0.88333
0.5897 0.903243 0.894789
0.717159 0.925124 0.902937
0.828489 0.933822 0.906859
0.917647 0.945098 0.914214
0.231373 0.384314 0.905882
0.2701 0.388724 0.909804
0.311757 0.384314 0.912749
0.375982 0.374014 0.913725
0.460792 0.360784 0.913725
0.590204 0.351476 0.913725
0.703929 0.261769 0.900984
0.797543 0.145098 0.894118
0.87451 0.152941 0.894118
0.243137 0.427451 0.921569
0.281865 0.438239 0.92549
0.327459 0.430884 0.92549
0.391669 0.420401 0.925978
0.47451 0.407355 0.929412
0.603433 0.401968 0.933333
0.71667 0.312261 0.920592
0.81323 0.19118 0.914214
0.886275 0.195102 0.917647
0.239216 0.46569 0.918624
0.281376 0.469612 0.92549
0.328435 0.46569 0.92549
0.393133 0.45539 0.92549
0.479896 0.445594 0.929412
0.606989 0.436759 0.933333
0.71667 0.347051 0.920592
0.81323 0.230274 0.917647
0.893141 0.263722 0.920592
0.239216 0.502937 0.917647
0.285298 0.508339 0.92549
0.335302 0.503304 0.927947
0.398596 0.493568 0.929412
0.4804 0.487251 0.929412
0.604349 0.480888 0.933333
0.720592 0.426474 0.927321
0.817151 0.348837 0.922057
0.901961 0.412253 0.93579
0.247059 0.547051 0.917647
0.289708 0.553185 0.92549
0.337743 0.555398 0.929412
0.400244 0.549752 0.932601
0.4804 0.547051 0.933333
0.590204 0.552453 0.937255
0.71667 0.565682 0.941176
0.821073 0.51986 0.941176
0.905882 0.566674 0.94902
0.287739 0.642161 0.92549
0.330388 0.648035 0.933028
0.370214 0.645716 0.929412
0.423529 0.645106 0.934249
0.493629 0.645106 0.939208
0.594125 0.653864 0.941726
0.701595 0.660777 0.945098
0.81323 0.659312 0.94902
0.905882 0.67892 0.952941
0.281376 0.711772 0.92549
0.319615 0.7196 0.933333
0.377447 0.723537 0.937255
0.447059 0.73138 0.937255
0.534798 0.744121 0.941176
0.611154 0.751965 0.945098
0.698772 0.755886 0.94902
0.801968 0.755032 0.952941
0.901961 0.771572 0.956863
0.242649 0.785779 0.925978
0.280461 0.789212 0.933333
0.33431 0.7935 0.937255
0.402457 0.797055 0.937255
0.496818 0.80882 0.941176
0.605081 0.82237 0.945098
0.712261 0.840192 0.94902
0.801465 0.848524 0.952941
0.901961 0.86421 0.964706
0.223529 0.87451 0.941176
0.261769 0.882353 0.94902
0.308827 0.886275 0.945098
0.373526 0.886275 0.94902
0.454902 0.888243 0.94902
0.574502 0.905882 0.952941
0.705882 0.921569 0.953918
0.821073 0.933822 0.960784
0.909804 0.94902 0.972549
